; G-Code generated by Simplify3D(R) Version 4.0.0
; Jan 7, 2018 at 4:07:45 PM
; Settings Summary
;   processName,Process1
;   applyToModels,shelf_bracket-1,shelf_bracket-1(2),shelf_bracket-1(3),shelf_bracket-1(4)
;   profileName,Prusa Research Original Prusa i3 MK2 (modified)
;   profileVersion,2017-07-23 22:27:18
;   baseProfile,
;   printMaterial,PLA
;   printQuality,Fast
;   printExtruders,
;   extruderName,Primary Extruder
;   extruderToolheadNumber,0
;   extruderDiameter,0.4
;   extruderAutoWidth,1
;   extruderWidth,0.48
;   extrusionMultiplier,1
;   extruderUseRetract,1
;   extruderRetractionDistance,1.5
;   extruderExtraRestartDistance,0
;   extruderRetractionZLift,0
;   extruderRetractionSpeed,1800
;   extruderUseCoasting,1
;   extruderCoastingDistance,0.2
;   extruderUseWipe,1
;   extruderWipeDistance,2
;   primaryExtruder,0
;   layerHeight,0.35
;   topSolidLayers,4
;   bottomSolidLayers,4
;   perimeterOutlines,4
;   printPerimetersInsideOut,1
;   startPointOption,2
;   startPointOriginX,0
;   startPointOriginY,0
;   sequentialIslands,0
;   spiralVaseMode,0
;   firstLayerHeightPercentage,120
;   firstLayerWidthPercentage,100
;   firstLayerUnderspeed,0.5
;   useRaft,0
;   raftExtruder,0
;   raftTopLayers,3
;   raftBaseLayers,2
;   raftOffset,3
;   raftSeparationDistance,0.14
;   raftTopInfill,100
;   aboveRaftSpeedMultiplier,0.3
;   useSkirt,1
;   skirtExtruder,0
;   skirtLayers,1
;   skirtOutlines,1
;   skirtOffset,4
;   usePrimePillar,0
;   primePillarExtruder,999
;   primePillarWidth,12
;   primePillarLocation,7
;   primePillarSpeedMultiplier,1
;   useOozeShield,0
;   oozeShieldExtruder,999
;   oozeShieldOffset,2
;   oozeShieldOutlines,1
;   oozeShieldSidewallShape,1
;   oozeShieldSidewallAngle,30
;   oozeShieldSpeedMultiplier,1
;   infillExtruder,0
;   internalInfillPattern,Rectilinear
;   externalInfillPattern,Rectilinear
;   infillPercentage,10
;   outlineOverlapPercentage,20
;   infillExtrusionWidthPercentage,100
;   minInfillLength,5
;   infillLayerInterval,1
;   internalInfillAngles,45,-45
;   overlapInternalInfillAngles,0
;   externalInfillAngles,45,-45
;   generateSupport,1
;   supportExtruder,0
;   supportInfillPercentage,25
;   supportExtraInflation,0
;   supportBaseLayers,0
;   denseSupportExtruder,0
;   denseSupportLayers,0
;   denseSupportInfillPercentage,70
;   supportLayerInterval,1
;   supportHorizontalPartOffset,0.3
;   supportUpperSeparationLayers,1
;   supportLowerSeparationLayers,1
;   supportType,0
;   supportGridSpacing,4
;   maxOverhangAngle,45
;   supportAngles,0
;   temperatureName,Primary Extruder,Heated Bed
;   temperatureNumber,0,0
;   temperatureSetpointCount,1,1
;   temperatureSetpointLayers,1,1
;   temperatureSetpointTemperatures,210,60
;   temperatureStabilizeAtStartup,1,1
;   temperatureHeatedBed,0,1
;   temperatureRelayBetweenLayers,0,0
;   temperatureRelayBetweenLoops,0,0
;   fanLayers,1,2
;   fanSpeeds,0,100
;   blipFanToFullPower,0
;   adjustSpeedForCooling,1
;   minSpeedLayerTime,15
;   minCoolingSpeedSlowdown,20
;   increaseFanForCooling,0
;   minFanLayerTime,45
;   maxCoolingFanSpeed,100
;   increaseFanForBridging,0
;   bridgingFanSpeed,100
;   use5D,1
;   relativeEdistances,0
;   allowEaxisZeroing,1
;   independentExtruderAxes,0
;   includeM10123,0
;   stickySupport,1
;   applyToolheadOffsets,0
;   gcodeXoffset,0
;   gcodeYoffset,0
;   gcodeZoffset,0
;   overrideMachineDefinition,1
;   machineTypeOverride,0
;   strokeXoverride,250
;   strokeYoverride,210
;   strokeZoverride,200
;   originOffsetXoverride,0
;   originOffsetYoverride,0
;   originOffsetZoverride,0
;   homeXdirOverride,-1
;   homeYdirOverride,-1
;   homeZdirOverride,-1
;   flipXoverride,1
;   flipYoverride,-1
;   flipZoverride,1
;   toolheadOffsets,0,0|0,0|0,0|0,0|0,0|0,0
;   overrideFirmwareConfiguration,1
;   firmwareTypeOverride,RepRap (Marlin/Repetier/Sprinter)
;   GPXconfigOverride,r2
;   baudRateOverride,250000
;   overridePrinterModels,1
;   printerModelsOverride
;   startingGcode,M115 U3.0.7 ; use the latest firmware version,G28 W ; home all axes without mesh bed leveling,G80 ; run mesh bed leveling routine,G1 Y-3.0 F1000.0 ; prepare to prime,G92 E0 ; reset extrusion distance,G1 X60.0 E9.0  F1000.0 ; priming,G1 X100.0 E12.5  F1000.0 ; priming
;   layerChangeGcode,
;   retractionGcode,
;   toolChangeGcode,
;   endingGcode,M106 S0 ; turn off cooling fan,M104 S0 ; turn off extruder,M140 S0 ; turn off bed,G1 X0 Y200 ; part removal,M84 ; disable motors
;   exportFileFormat,gcode
;   celebration,0
;   celebrationSong,Random Song
;   postProcessing,
;   defaultSpeed,2400
;   outlineUnderspeed,0.8
;   solidInfillUnderspeed,0.8
;   supportUnderspeed,0.8
;   rapidXYspeed,4800
;   rapidZspeed,1002
;   minBridgingArea,50
;   bridgingExtraInflation,0
;   bridgingExtrusionMultiplier,1
;   bridgingSpeedMultiplier,1
;   useFixedBridgingAngle,0
;   fixedBridgingAngle,0
;   applyBridgingToPerimeters,0
;   filamentDiameters,1.75|1.75|1.75|1.75|1.75|1.75
;   filamentPricesPerKg,199|46|46|46|46|46
;   filamentDensities,1.25|1.25|1.25|1.25|1.25|1.25
;   useMinPrintHeight,0
;   minPrintHeight,0
;   useMaxPrintHeight,1
;   maxPrintHeight,235
;   useDiaphragm,0
;   diaphragmLayerInterval,20
;   robustSlicing,1
;   mergeAllIntoSolid,0
;   onlyRetractWhenCrossingOutline,1
;   retractBetweenLayers,1
;   useRetractionMinTravel,0
;   retractionMinTravel,3
;   retractWhileWiping,1
;   onlyWipeOutlines,1
;   avoidCrossingOutline,0
;   maxMovementDetourFactor,3
;   toolChangeRetractionDistance,12
;   toolChangeExtraRestartDistance,-0.5
;   toolChangeRetractionSpeed,600
;   externalThinWallType,0
;   internalThinWallType,2
;   thinWallAllowedOverlapPercentage,25
;   singleExtrusionMinLength,1
;   singleExtrusionMinPrintingWidthPercentage,50
;   singleExtrusionMaxPrintingWidthPercentage,200
;   singleExtrusionEndpointExtension,0.2
;   horizontalSizeCompensation,0
G90
M82
M106 S0
M140 S60
M190 S60
M104 S210 T0
M109 S210 T0
M115 U3.0.7 ; use the latest firmware version
G28 W ; home all axes without mesh bed leveling
G80 ; run mesh bed leveling routine
G1 Y-3.0 F1000.0 ; prepare to prime
G92 E0 ; reset extrusion distance
G1 X60.0 E9.0  F1000.0 ; priming
G1 X100.0 E12.5  F1000.0 ; priming
G92 E0
G1 E-1.5000 F1800
G1 Z0.420 F1002
; process Process1
; layer 1, Z = 0.420
T0
; tool H0.420 W0.480
; skirt
G1 X105.797 Y63.707 F4800
G1 E0.0000 F540
G92 E0
G1 X108.207 Y61.297 E0.2857 F1200
G1 X108.295 Y61.260 E0.2937
G1 X141.390 Y61.260 E3.0675
G1 X141.478 Y61.297 E3.0756
G1 X143.888 Y63.707 E3.3613
G1 X143.925 Y63.795 E3.3693
G1 X143.925 Y83.205 E4.9961
G1 X143.888 Y83.293 E5.0041
G1 X143.181 Y84.000 E5.0879
G1 X143.888 Y84.707 E5.1717
G1 X143.925 Y84.795 E5.1798
G1 X143.925 Y104.205 E6.8065
G1 X143.888 Y104.293 E6.8145
G1 X143.181 Y105.000 E6.8984
G1 X143.888 Y105.707 E6.9822
G1 X143.925 Y105.795 E6.9902
G1 X143.925 Y125.205 E8.6170
G1 X143.888 Y125.293 E8.6250
G1 X143.181 Y126.000 E8.7088
G1 X143.888 Y126.707 E8.7927
G1 X143.925 Y126.795 E8.8007
G1 X143.925 Y146.205 E10.4274
G1 X143.888 Y146.293 E10.4354
G1 X141.478 Y148.703 E10.7212
G1 X141.390 Y148.740 E10.7292
G1 X108.295 Y148.740 E13.5030
G1 X108.207 Y148.703 E13.5110
G1 X105.797 Y146.293 E13.7967
G1 X105.760 Y146.205 E13.8047
G1 X105.760 Y126.795 E15.4315
G1 X105.797 Y126.707 E15.4395
G1 X106.504 Y126.000 E15.5234
G1 X105.797 Y125.293 E15.6072
G1 X105.760 Y125.205 E15.6152
G1 X105.760 Y105.795 E17.2420
G1 X105.797 Y105.707 E17.2500
G1 X106.504 Y105.000 E17.3338
G1 X105.797 Y104.293 E17.4176
G1 X105.760 Y104.205 E17.4256
G1 X105.760 Y84.795 E19.0524
G1 X105.797 Y84.707 E19.0604
G1 X106.504 Y84.000 E19.1443
G1 X105.797 Y83.293 E19.2281
G1 X105.760 Y83.205 E19.2361
G1 X105.760 Y63.900 E20.8541
G1 X105.760 Y63.795 F1200
G1 X105.797 Y63.707 F1200
G92 E0
G1 E-1.5000 F1800
; inner perimeter
G1 X111.680 Y67.180 F4800
G1 E0.0000 F1800
G92 E0
G1 X138.005 Y67.180 E2.2064 F1080
G1 X138.005 Y79.820 E3.2659
G1 X111.680 Y79.820 E5.4723
G1 X111.680 Y67.380 E6.5150
G1 X111.680 Y67.180 F1080
G1 X111.200 Y66.700 F4800
G92 E0
G1 X138.485 Y66.700 E2.2869 F1080
G1 X138.485 Y80.300 E3.4268
G1 X111.200 Y80.300 E5.7137
G1 X111.200 Y66.900 E6.8368
G1 X111.200 Y66.700 F1080
G1 X110.720 Y66.220 F4800
G92 E0
G1 X138.965 Y66.220 E2.3674 F1080
G1 X138.965 Y80.780 E3.5877
G1 X110.720 Y80.780 E5.9551
G1 X110.720 Y66.420 E7.1587
G1 X110.720 Y66.220 F1080
; outer perimeter
G1 X110.240 Y65.740 F4800
G92 E0
G1 X139.445 Y65.740 E2.4478 F960
G1 X139.445 Y81.260 E3.7486
G1 X110.240 Y81.260 E6.1965
G1 X110.240 Y65.940 E7.4805
G1 X110.240 Y65.740 F960
G1 X112.240 Y65.740 F2400
; inner perimeter
G1 X122.006 Y71.325 F4800
G92 E0
G1 X121.480 Y72.356 E0.0970 F1080
G1 X121.299 Y73.500 E0.1941
G1 X121.480 Y74.644 E0.2912
G1 X122.006 Y75.675 E0.3882
G1 X122.825 Y76.494 E0.4852
G1 X123.856 Y77.020 E0.5823
G1 X125.000 Y77.201 E0.6794
G1 X126.144 Y77.020 E0.7764
G1 X127.175 Y76.494 E0.8735
G1 X127.994 Y75.675 E0.9705
G1 X128.520 Y74.644 E1.0675
G1 X128.701 Y73.500 E1.1646
G1 X128.520 Y72.356 E1.2617
G1 X127.994 Y71.325 E1.3587
G1 X127.175 Y70.506 E1.4558
G1 X126.144 Y69.980 E1.5528
G1 X125.000 Y69.799 E1.6499
G1 X123.856 Y69.980 E1.7469
G1 X122.825 Y70.506 E1.8440
G1 X122.147 Y71.183 E1.9242
G1 X122.006 Y71.325 F1080
G1 X122.399 Y71.610 F4800
G92 E0
G1 X121.942 Y72.506 E0.0843 F1080
G1 X121.785 Y73.500 E0.1686
G1 X121.942 Y74.493 E0.2529
G1 X122.399 Y75.390 E0.3372
G1 X123.110 Y76.101 E0.4215
G1 X124.007 Y76.558 E0.5058
G1 X125.000 Y76.715 E0.5901
G1 X125.993 Y76.558 E0.6744
G1 X126.890 Y76.101 E0.7588
G1 X127.601 Y75.390 E0.8431
G1 X128.058 Y74.494 E0.9274
G1 X128.215 Y73.500 E1.0117
G1 X128.058 Y72.506 E1.0960
G1 X127.601 Y71.610 E1.1803
G1 X126.890 Y70.899 E1.2646
G1 X125.993 Y70.442 E1.3489
G1 X125.000 Y70.285 E1.4332
G1 X124.007 Y70.442 E1.5175
G1 X123.110 Y70.899 E1.6018
G1 X122.540 Y71.469 E1.6694
G1 X122.399 Y71.610 F1080
G1 X122.792 Y71.896 F4800
G92 E0
G1 X122.405 Y72.657 E0.0716 F1080
G1 X122.271 Y73.500 E0.1431
G1 X122.405 Y74.343 E0.2147
G1 X122.792 Y75.104 E0.2862
G1 X123.396 Y75.708 E0.3578
G1 X124.157 Y76.095 E0.4294
G1 X125.000 Y76.229 E0.5009
G1 X125.843 Y76.095 E0.5725
G1 X126.604 Y75.708 E0.6441
G1 X127.208 Y75.104 E0.7156
G1 X127.595 Y74.343 E0.7872
G1 X127.729 Y73.500 E0.8587
G1 X127.595 Y72.657 E0.9303
G1 X127.208 Y71.896 E1.0019
G1 X126.604 Y71.292 E1.0734
G1 X125.843 Y70.905 E1.1450
G1 X125.000 Y70.771 E1.2166
G1 X124.157 Y70.905 E1.2881
G1 X123.396 Y71.292 E1.3597
G1 X122.934 Y71.755 E1.4145
G1 X122.792 Y71.896 F1080
; outer perimeter
G1 X123.185 Y72.182 F4800
G92 E0
G1 X122.867 Y72.807 E0.0588 F960
G1 X122.757 Y73.500 E0.1176
G1 X122.867 Y74.193 E0.1765
G1 X123.185 Y74.818 E0.2353
G1 X123.682 Y75.315 E0.2941
G1 X124.307 Y75.633 E0.3529
G1 X125.000 Y75.743 E0.4117
G1 X125.693 Y75.633 E0.4705
G1 X126.318 Y75.315 E0.5294
G1 X126.815 Y74.818 E0.5882
G1 X127.133 Y74.193 E0.6470
G1 X127.243 Y73.500 E0.7058
G1 X127.133 Y72.807 E0.7646
G1 X126.815 Y72.182 E0.8235
G1 X126.318 Y71.685 E0.8823
G1 X125.693 Y71.367 E0.9411
G1 X125.000 Y71.257 E0.9999
G1 X124.307 Y71.367 E1.0587
G1 X123.682 Y71.685 E1.1176
G1 X123.327 Y72.040 E1.1596
G1 X123.185 Y72.182 F960
G1 X122.867 Y72.807 F2400
G1 X122.757 Y73.500 F2400
G1 X122.850 Y74.089 F2400
; solid layer
G1 X122.612 Y76.817 F4800
G92 E0
G1 X125.231 Y79.436 E0.3105 F960
G1 X125.910 Y79.436 E0.3674
G1 X123.888 Y77.414 E0.6071
G1 X124.694 Y77.541 E0.6755
G1 X126.589 Y79.436 E0.9001
G1 X127.268 Y79.436 E0.9570
G1 X125.364 Y77.532 E1.1827
G1 X125.950 Y77.439 E1.2324
G1 X127.947 Y79.436 E1.4691
G1 X128.625 Y79.436 E1.5260
G1 X126.473 Y77.283 E1.7812
G1 X126.922 Y77.054 E1.8235
G1 X129.304 Y79.436 E2.1058
G1 X129.983 Y79.436 E2.1627
G1 X127.372 Y76.825 E2.4722
G1 X127.404 Y76.809 E2.4752
G1 X127.719 Y76.493 E2.5126
G1 X130.662 Y79.436 E2.8614
G1 X131.341 Y79.436 E2.9183
G1 X128.059 Y76.154 E3.3073
G1 X128.309 Y75.904 E3.3370
G1 X128.369 Y75.785 E3.3481
G1 X132.019 Y79.436 E3.7808
G1 X132.698 Y79.436 E3.8377
G1 X128.598 Y75.336 E4.3237
G1 X128.827 Y74.886 E4.3660
G1 X133.377 Y79.436 E4.9053
G1 X134.056 Y79.436 E4.9622
G1 X128.957 Y74.337 E5.5666
G1 X129.050 Y73.751 E5.6163
G1 X134.735 Y79.436 E6.2902
G1 X135.414 Y79.436 E6.3471
G1 X129.158 Y73.181 E7.0886
G1 X129.017 Y73.039 F960
G1 X137.118 Y67.564 F4800
G92 E0
G1 X137.621 Y68.067 E0.0596 F960
G1 X137.621 Y68.746 E0.1165
G1 X136.439 Y67.564 E0.2566
G1 X135.760 Y67.564 E0.3135
G1 X137.621 Y69.425 E0.5340
G1 X137.621 Y70.103 E0.5909
G1 X135.082 Y67.564 E0.8919
G1 X134.403 Y67.564 E0.9488
G1 X137.621 Y70.782 E1.3303
G1 X137.621 Y71.461 E1.3872
G1 X133.724 Y67.564 E1.8491
G1 X133.045 Y67.564 E1.9060
G1 X137.621 Y72.140 E2.4484
G1 X137.621 Y72.819 E2.5053
G1 X132.366 Y67.564 E3.1282
G1 X131.687 Y67.564 E3.1850
G1 X137.621 Y73.498 E3.8884
G1 X137.621 Y74.176 E3.9453
G1 X131.009 Y67.564 E4.7290
G1 X130.330 Y67.564 E4.7859
G1 X137.621 Y74.855 E5.6502
G1 X137.621 Y75.534 E5.7071
G1 X129.651 Y67.564 E6.6518
G1 X128.972 Y67.564 E6.7087
G1 X137.621 Y76.213 E7.7338
G1 X137.621 Y76.892 E7.7907
G1 X128.293 Y67.564 E8.8964
G1 X127.615 Y67.564 E8.9533
G1 X137.621 Y77.570 E10.1394
G1 X137.621 Y78.249 E10.1963
G1 X126.936 Y67.564 E11.4628
G1 X126.257 Y67.564 E11.5197
G1 X137.621 Y78.928 E12.8667
G1 X137.621 Y79.436 E12.9093
G1 X137.450 Y79.436 E12.9236
G1 X125.578 Y67.564 E14.3309
G1 X124.899 Y67.564 E14.3878
G1 X136.771 Y79.436 E15.7950
G1 X136.092 Y79.436 E15.8519
G1 X128.886 Y72.230 E16.7060
G1 X128.309 Y71.096 E16.8127
G1 X127.404 Y70.191 E16.9199
G1 X126.270 Y69.614 E17.0266
G1 X124.220 Y67.564 E17.2695
G1 X123.542 Y67.564 E17.3264
G1 X125.461 Y69.483 E17.5539
G1 X125.000 Y69.410 E17.5930
G1 X124.749 Y69.450 E17.6144
G1 X122.863 Y67.564 E17.8379
G1 X122.184 Y67.564 E17.8948
G1 X124.163 Y69.543 E18.1294
G1 X123.736 Y69.610 E18.1656
G1 X123.614 Y69.673 E18.1771
G1 X121.505 Y67.564 E18.4270
G1 X120.826 Y67.564 E18.4839
G1 X123.164 Y69.902 E18.7611
G1 X122.715 Y70.131 E18.8034
G1 X120.147 Y67.564 E19.1076
G1 X119.469 Y67.564 E19.1645
G1 X122.346 Y70.441 E19.5056
G1 X122.007 Y70.781 E19.5458
G1 X118.790 Y67.564 E19.9271
G1 X118.111 Y67.564 E19.9840
G1 X121.675 Y71.128 E20.4065
G1 X121.446 Y71.578 E20.4488
G1 X117.432 Y67.564 E20.9246
G1 X116.753 Y67.564 E20.9814
G1 X121.217 Y72.027 E21.5105
G1 X121.110 Y72.236 E21.5302
G1 X121.061 Y72.550 E21.5568
G1 X116.075 Y67.564 E22.1478
G1 X115.396 Y67.564 E22.2047
G1 X120.968 Y73.136 E22.8652
G1 X120.910 Y73.500 E22.8961
G1 X120.959 Y73.806 E22.9220
G1 X114.717 Y67.564 E23.6619
G1 X114.038 Y67.564 E23.7188
G1 X121.086 Y74.612 E24.5542
G1 X121.110 Y74.764 E24.5671
G1 X121.683 Y75.888 E24.6729
G1 X113.359 Y67.564 E25.6595
G1 X112.680 Y67.564 E25.7164
G1 X124.552 Y79.436 E27.1237
G1 X123.874 Y79.436 E27.1806
G1 X112.064 Y67.626 E28.5804
G1 X112.064 Y68.305 E28.6373
G1 X123.195 Y79.436 E29.9567
G1 X122.516 Y79.436 E30.0136
G1 X112.064 Y68.984 E31.2525
G1 X112.064 Y69.663 E31.3094
G1 X121.837 Y79.436 E32.4678
G1 X121.158 Y79.436 E32.5247
G1 X112.064 Y70.342 E33.6027
G1 X112.064 Y71.020 E33.6596
G1 X120.480 Y79.436 E34.6571
G1 X119.801 Y79.436 E34.7140
G1 X112.064 Y71.699 E35.6310
G1 X112.064 Y72.378 E35.6879
G1 X119.122 Y79.436 E36.5245
G1 X118.443 Y79.436 E36.5814
G1 X112.064 Y73.057 E37.3375
G1 X112.064 Y73.736 E37.3944
G1 X117.764 Y79.436 E38.0701
G1 X117.085 Y79.436 E38.1270
G1 X112.064 Y74.415 E38.7222
G1 X112.064 Y75.093 E38.7791
G1 X116.407 Y79.436 E39.2938
G1 X115.728 Y79.436 E39.3507
G1 X112.064 Y75.772 E39.7850
G1 X112.064 Y76.451 E39.8419
G1 X115.049 Y79.436 E40.1957
G1 X114.370 Y79.436 E40.2526
G1 X112.064 Y77.130 E40.5260
G1 X112.064 Y77.809 E40.5829
G1 X113.691 Y79.436 E40.7757
G1 X113.012 Y79.436 E40.8326
G1 X112.064 Y78.488 E40.9451
G1 X112.064 Y79.166 E41.0020
G1 X112.192 Y79.295 E41.0172
G1 X112.334 Y79.436 F960
G92 E0
G1 E-1.5000 F1800
; inner perimeter
G1 X111.680 Y88.180 F4800
G1 E0.0000 F1800
G92 E0
G1 X138.005 Y88.180 E2.2064 F1080
G1 X138.005 Y100.820 E3.2659
G1 X111.680 Y100.820 E5.4723
G1 X111.680 Y88.380 E6.5150
G1 X111.680 Y88.180 F1080
G1 X111.200 Y87.700 F4800
G92 E0
G1 X138.485 Y87.700 E2.2869 F1080
G1 X138.485 Y101.300 E3.4268
G1 X111.200 Y101.300 E5.7137
