; G-Code generated by Simplify3D(R) Version 4.0.0
; Aug 9, 2017 at 9:51:04 PM
; Settings Summary
;   processName,Process1
;   applyToModels,prism,prism(2)
;   profileName,Prusa Research Original Prusa i3 MK2 (modified)
;   profileVersion,2017-07-23 22:27:18
;   baseProfile,
;   printMaterial,ABS
;   printQuality,High
;   printExtruders,
;   extruderName,Primary Extruder
;   extruderToolheadNumber,0
;   extruderDiameter,0.4
;   extruderAutoWidth,1
;   extruderWidth,0.48
;   extrusionMultiplier,1
;   extruderUseRetract,1
;   extruderRetractionDistance,1.5
;   extruderExtraRestartDistance,0
;   extruderRetractionZLift,0
;   extruderRetractionSpeed,1800
;   extruderUseCoasting,1
;   extruderCoastingDistance,0.2
;   extruderUseWipe,1
;   extruderWipeDistance,2
;   primaryExtruder,0
;   layerHeight,0.1
;   topSolidLayers,4
;   bottomSolidLayers,4
;   perimeterOutlines,3
;   printPerimetersInsideOut,1
;   startPointOption,2
;   startPointOriginX,0
;   startPointOriginY,0
;   sequentialIslands,0
;   spiralVaseMode,0
;   firstLayerHeightPercentage,120
;   firstLayerWidthPercentage,100
;   firstLayerUnderspeed,0.5
;   useRaft,0
;   raftExtruder,0
;   raftTopLayers,3
;   raftBaseLayers,2
;   raftOffset,3
;   raftSeparationDistance,0.14
;   raftTopInfill,100
;   aboveRaftSpeedMultiplier,0.3
;   useSkirt,1
;   skirtExtruder,0
;   skirtLayers,2
;   skirtOutlines,1
;   skirtOffset,4
;   usePrimePillar,0
;   primePillarExtruder,999
;   primePillarWidth,12
;   primePillarLocation,7
;   primePillarSpeedMultiplier,1
;   useOozeShield,0
;   oozeShieldExtruder,999
;   oozeShieldOffset,2
;   oozeShieldOutlines,1
;   oozeShieldSidewallShape,1
;   oozeShieldSidewallAngle,30
;   oozeShieldSpeedMultiplier,1
;   infillExtruder,0
;   internalInfillPattern,Rectilinear
;   externalInfillPattern,Rectilinear
;   infillPercentage,10
;   outlineOverlapPercentage,20
;   infillExtrusionWidthPercentage,100
;   minInfillLength,5
;   infillLayerInterval,1
;   internalInfillAngles,45,-45
;   overlapInternalInfillAngles,0
;   externalInfillAngles,45,-45
;   generateSupport,0
;   supportExtruder,0
;   supportInfillPercentage,40
;   supportExtraInflation,0
;   supportBaseLayers,0
;   denseSupportExtruder,0
;   denseSupportLayers,0
;   denseSupportInfillPercentage,70
;   supportLayerInterval,1
;   supportHorizontalPartOffset,0.3
;   supportUpperSeparationLayers,1
;   supportLowerSeparationLayers,1
;   supportType,0
;   supportGridSpacing,4
;   maxOverhangAngle,45
;   supportAngles,0
;   temperatureName,Primary Extruder,Heated Bed
;   temperatureNumber,0,0
;   temperatureSetpointCount,1,1
;   temperatureSetpointLayers,1,1
;   temperatureSetpointTemperatures,255,100
;   temperatureStabilizeAtStartup,1,1
;   temperatureHeatedBed,0,1
;   temperatureRelayBetweenLayers,0,0
;   temperatureRelayBetweenLoops,0,0
;   fanLayers,1
;   fanSpeeds,0
;   blipFanToFullPower,0
;   adjustSpeedForCooling,1
;   minSpeedLayerTime,15
;   minCoolingSpeedSlowdown,20
;   increaseFanForCooling,0
;   minFanLayerTime,45
;   maxCoolingFanSpeed,100
;   increaseFanForBridging,0
;   bridgingFanSpeed,100
;   use5D,1
;   relativeEdistances,0
;   allowEaxisZeroing,1
;   independentExtruderAxes,0
;   includeM10123,0
;   stickySupport,1
;   applyToolheadOffsets,0
;   gcodeXoffset,0
;   gcodeYoffset,0
;   gcodeZoffset,0
;   overrideMachineDefinition,1
;   machineTypeOverride,0
;   strokeXoverride,250
;   strokeYoverride,210
;   strokeZoverride,200
;   originOffsetXoverride,0
;   originOffsetYoverride,0
;   originOffsetZoverride,0
;   homeXdirOverride,-1
;   homeYdirOverride,-1
;   homeZdirOverride,-1
;   flipXoverride,1
;   flipYoverride,-1
;   flipZoverride,1
;   toolheadOffsets,0,0|0,0|0,0|0,0|0,0|0,0
;   overrideFirmwareConfiguration,1
;   firmwareTypeOverride,RepRap (Marlin/Repetier/Sprinter)
;   GPXconfigOverride,r2
;   baudRateOverride,250000
;   overridePrinterModels,1
;   printerModelsOverride
;   startingGcode,M115 U3.0.7 ; use the latest firmware version,G28 W ; home all axes without mesh bed leveling,G80 ; run mesh bed leveling routine,G1 Y-3.0 F1000.0 ; prepare to prime,G92 E0 ; reset extrusion distance,G1 X60.0 E9.0  F1000.0 ; priming,G1 X100.0 E12.5  F1000.0 ; priming
;   layerChangeGcode,
;   retractionGcode,
;   toolChangeGcode,
;   endingGcode,M106 S0 ; turn off cooling fan,M104 S0 ; turn off extruder,M140 S0 ; turn off bed,G1 X0 Y200 ; part removal,M84 ; disable motors
;   exportFileFormat,gcode
;   celebration,0
;   celebrationSong,Random Song
;   postProcessing,
;   defaultSpeed,2400
;   outlineUnderspeed,0.8
;   solidInfillUnderspeed,0.8
;   supportUnderspeed,0.8
;   rapidXYspeed,4800
;   rapidZspeed,1000
;   minBridgingArea,50
;   bridgingExtraInflation,0
;   bridgingExtrusionMultiplier,1
;   bridgingSpeedMultiplier,1
;   useFixedBridgingAngle,0
;   fixedBridgingAngle,0
;   applyBridgingToPerimeters,0
;   filamentDiameters,1.75|1.75|1.75|1.75|1.75|1.75
;   filamentPricesPerKg,46|46|46|46|46|46
;   filamentDensities,1.25|1.25|1.25|1.25|1.25|1.25
;   useMinPrintHeight,0
;   minPrintHeight,0
;   useMaxPrintHeight,1
;   maxPrintHeight,235
;   useDiaphragm,0
;   diaphragmLayerInterval,20
;   robustSlicing,1
;   mergeAllIntoSolid,0
;   onlyRetractWhenCrossingOutline,1
;   retractBetweenLayers,1
;   useRetractionMinTravel,0
;   retractionMinTravel,3
;   retractWhileWiping,1
;   onlyWipeOutlines,1
;   avoidCrossingOutline,0
;   maxMovementDetourFactor,3
;   toolChangeRetractionDistance,12
;   toolChangeExtraRestartDistance,-0.5
;   toolChangeRetractionSpeed,600
;   externalThinWallType,0
;   internalThinWallType,2
;   thinWallAllowedOverlapPercentage,25
;   singleExtrusionMinLength,1
;   singleExtrusionMinPrintingWidthPercentage,50
;   singleExtrusionMaxPrintingWidthPercentage,200
;   singleExtrusionEndpointExtension,0.2
;   horizontalSizeCompensation,0
G90
M82
M106 S0
M140 S100
M190 S100
M104 S255 T0
M109 S255 T0
M115 U3.0.7 ; use the latest firmware version
G28 W ; home all axes without mesh bed leveling
G80 ; run mesh bed leveling routine
G1 Y-3.0 F1000.0 ; prepare to prime
G92 E0 ; reset extrusion distance
G1 X60.0 E9.0  F1000.0 ; priming
G1 X100.0 E12.5  F1000.0 ; priming
G92 E0
G1 E-1.5000 F1800
G1 Z0.120 F1000
; process Process1
; layer 1, Z = 0.120
T0
; tool H0.120 W0.480
; skirt
G1 X100.797 Y80.827 F4800
G1 E0.0000 F540
G92 E0
G1 X103.207 Y78.417 E0.0816 F1200
G1 X103.295 Y78.380 E0.0839
G1 X146.705 Y78.380 E1.1235
G1 X146.793 Y78.417 E1.1257
G1 X149.203 Y80.827 E1.2074
G1 X149.240 Y80.915 E1.2097
G1 X149.240 Y104.205 E1.7674
G1 X149.203 Y104.293 E1.7697
G1 X148.436 Y105.060 E1.7957
G1 X149.203 Y105.827 E1.8216
G1 X149.240 Y105.915 E1.8239
G1 X149.240 Y129.205 E2.3816
G1 X149.203 Y129.293 E2.3839
G1 X146.793 Y131.703 E2.4656
G1 X146.705 Y131.740 E2.4679
G1 X103.295 Y131.740 E3.5074
G1 X103.207 Y131.703 E3.5097
G1 X100.797 Y129.293 E3.5913
G1 X100.760 Y129.205 E3.5936
G1 X100.760 Y105.915 E4.1513
G1 X100.797 Y105.827 E4.1536
G1 X101.564 Y105.060 E4.1796
G1 X100.797 Y104.293 E4.2056
G1 X100.760 Y104.205 E4.2078
G1 X100.760 Y81.020 E4.7631
G1 X100.760 Y80.915 F1200
G1 X100.797 Y80.827 F1200
G92 E0
G1 E-1.5000 F1800
; inner perimeter
G1 X106.200 Y83.820 F4800
G1 E0.0000 F1800
G92 E0
G1 X143.800 Y83.820 E0.9004 F1080
G1 X143.800 Y101.300 E1.3190
G1 X106.200 Y101.300 E2.2194
G1 X106.200 Y84.020 E2.6332
G1 X106.200 Y83.820 F1080
G1 X105.720 Y83.340 F4800
G92 E0
G1 X144.280 Y83.340 E0.9234 F1080
G1 X144.280 Y101.780 E1.3650
G1 X105.720 Y101.780 E2.2884
G1 X105.720 Y83.540 E2.7252
G1 X105.720 Y83.340 F1080
; outer perimeter
G1 X105.240 Y82.860 F4800
G92 E0
G1 X144.760 Y82.860 E0.9464 F960
G1 X144.760 Y102.260 E1.4110
G1 X105.240 Y102.260 E2.3574
G1 X105.240 Y83.060 E2.8172
G1 X105.240 Y82.860 F960
G1 X107.240 Y82.860 F2400
; solid layer
G1 X106.661 Y100.916 F4800
G92 E0
G1 X106.584 Y100.839 E0.0026 F960
G1 X106.584 Y100.160 E0.0189
G1 X107.340 Y100.916 E0.0444
G1 X108.018 Y100.916 E0.0607
G1 X106.584 Y99.482 E0.1093
G1 X106.584 Y98.803 E0.1255
G1 X108.697 Y100.916 E0.1971
G1 X109.376 Y100.916 E0.2134
G1 X106.584 Y98.124 E0.3079
G1 X106.584 Y97.445 E0.3242
G1 X110.055 Y100.916 E0.4417
G1 X110.734 Y100.916 E0.4580
G1 X106.584 Y96.766 E0.5985
G1 X106.584 Y96.088 E0.6148
G1 X111.412 Y100.916 E0.7783
G1 X112.091 Y100.916 E0.7945
G1 X106.584 Y95.409 E0.9811
G1 X106.584 Y94.730 E0.9973
G1 X112.770 Y100.916 E1.2068
G1 X113.449 Y100.916 E1.2231
G1 X106.584 Y94.051 E1.4556
G1 X106.584 Y93.372 E1.4718
G1 X114.128 Y100.916 E1.7273
G1 X114.807 Y100.916 E1.7436
G1 X106.584 Y92.693 E2.0220
G1 X106.584 Y92.015 E2.0383
G1 X115.485 Y100.916 E2.3397
G1 X116.164 Y100.916 E2.3560
G1 X106.584 Y91.336 E2.6805
G1 X106.584 Y90.657 E2.6967
G1 X116.843 Y100.916 E3.0441
G1 X117.522 Y100.916 E3.0604
G1 X106.584 Y89.978 E3.4308
G1 X106.584 Y89.299 E3.4471
G1 X118.201 Y100.916 E3.8405
G1 X118.880 Y100.916 E3.8568
G1 X106.584 Y88.620 E4.2732
G1 X106.584 Y87.942 E4.2894
G1 X119.558 Y100.916 E4.7288
G1 X120.237 Y100.916 E4.7451
G1 X106.584 Y87.263 E5.2075
G1 X106.584 Y86.584 E5.2237
G1 X120.916 Y100.916 E5.7091
G1 X121.595 Y100.916 E5.7254
G1 X106.584 Y85.905 E6.2337
G1 X106.584 Y85.226 E6.2500
G1 X122.274 Y100.916 E6.7813
G1 X122.952 Y100.916 E6.7976
G1 X106.584 Y84.548 E7.3519
G1 X106.584 Y84.204 E7.3602
G1 X106.919 Y84.204 E7.3682
G1 X123.631 Y100.916 E7.9342
G1 X124.310 Y100.916 E7.9504
G1 X107.598 Y84.204 E8.5164
G1 X108.277 Y84.204 E8.5327
G1 X124.989 Y100.916 E9.0986
G1 X125.668 Y100.916 E9.1149
G1 X108.956 Y84.204 E9.6809
G1 X109.635 Y84.204 E9.6971
G1 X126.347 Y100.916 E10.2631
G1 X127.025 Y100.916 E10.2794
G1 X110.313 Y84.204 E10.8453
G1 X110.992 Y84.204 E10.8616
G1 X127.704 Y100.916 E11.4276
G1 X128.383 Y100.916 E11.4438
G1 X111.671 Y84.204 E12.0098
G1 X112.350 Y84.204 E12.0261
G1 X129.062 Y100.916 E12.5920
G1 X129.741 Y100.916 E12.6083
G1 X113.029 Y84.204 E13.1743
G1 X113.708 Y84.204 E13.1905
G1 X130.420 Y100.916 E13.7565
G1 X131.098 Y100.916 E13.7728
G1 X114.386 Y84.204 E14.3387
G1 X115.065 Y84.204 E14.3550
G1 X131.777 Y100.916 E14.9210
G1 X132.456 Y100.916 E14.9372
G1 X115.744 Y84.204 E15.5032
G1 X116.423 Y84.204 E15.5195
G1 X133.135 Y100.916 E16.0855
G1 X133.814 Y100.916 E16.1017
G1 X117.102 Y84.204 E16.6677
G1 X117.780 Y84.204 E16.6839
G1 X134.492 Y100.916 E17.2499
G1 X135.171 Y100.916 E17.2662
G1 X118.459 Y84.204 E17.8322
G1 X119.138 Y84.204 E17.8484
G1 X135.850 Y100.916 E18.4144
G1 X136.529 Y100.916 E18.4306
G1 X119.817 Y84.204 E18.9966
G1 X120.496 Y84.204 E19.0129
G1 X137.208 Y100.916 E19.5789
G1 X137.887 Y100.916 E19.5951
G1 X121.175 Y84.204 E20.1611
G1 X121.853 Y84.204 E20.1774
G1 X138.565 Y100.916 E20.7433
G1 X139.244 Y100.916 E20.7596
G1 X122.532 Y84.204 E21.3256
G1 X123.211 Y84.204 E21.3418
G1 X139.923 Y100.916 E21.9078
G1 X140.602 Y100.916 E21.9241
G1 X123.890 Y84.204 E22.4900
G1 X124.569 Y84.204 E22.5063
G1 X141.281 Y100.916 E23.0723
G1 X141.960 Y100.916 E23.0885
G1 X125.248 Y84.204 E23.6545
G1 X125.926 Y84.204 E23.6708
G1 X142.638 Y100.916 E24.2367
G1 X143.317 Y100.916 E24.2530
G1 X126.605 Y84.204 E24.8190
G1 X127.284 Y84.204 E24.8352
G1 X143.416 Y100.336 E25.3816
G1 X143.416 Y99.657 E25.3978
G1 X127.963 Y84.204 E25.9212
G1 X128.642 Y84.204 E25.9374
G1 X143.416 Y98.978 E26.4378
G1 X143.416 Y98.300 E26.4540
G1 X129.320 Y84.204 E26.9314
G1 X129.999 Y84.204 E26.9477
G1 X143.416 Y97.621 E27.4020
G1 X143.416 Y96.942 E27.4183
G1 X130.678 Y84.204 E27.8497
G1 X131.357 Y84.204 E27.8659
G1 X143.416 Y96.263 E28.2743
G1 X143.416 Y95.584 E28.2906
G1 X132.036 Y84.204 E28.6760
G1 X132.715 Y84.204 E28.6923
G1 X143.416 Y94.905 E29.0547
G1 X143.416 Y94.227 E29.0709
G1 X133.393 Y84.204 E29.4104
G1 X134.072 Y84.204 E29.4266
G1 X143.416 Y93.548 E29.7431
G1 X143.416 Y92.869 E29.7593
G1 X134.751 Y84.204 E30.0528
G1 X135.430 Y84.204 E30.0690
G1 X143.416 Y92.190 E30.3395
G1 X143.416 Y91.511 E30.3558
G1 X136.109 Y84.204 E30.6032
G1 X136.787 Y84.204 E30.6195
G1 X143.416 Y90.833 E30.8440
G1 X143.416 Y90.154 E30.8602
G1 X137.466 Y84.204 E31.0617
G1 X138.145 Y84.204 E31.0780
G1 X143.416 Y89.475 E31.2565
G1 X143.416 Y88.796 E31.2727
G1 X138.824 Y84.204 E31.4283
G1 X139.503 Y84.204 E31.4445
G1 X143.416 Y88.117 E31.5770
G1 X143.416 Y87.438 E31.5933
G1 X140.182 Y84.204 E31.7028
G1 X140.860 Y84.204 E31.7191
G1 X143.416 Y86.760 E31.8056
G1 X143.416 Y86.081 E31.8219
G1 X141.539 Y84.204 E31.8855
G1 X142.218 Y84.204 E31.9017
G1 X143.416 Y85.402 E31.9423
G1 X143.416 Y84.723 E31.9585
G1 X143.038 Y84.345 E31.9713
G1 X142.897 Y84.204 F960
G92 E0
G1 E-1.5000 F1800
; inner perimeter
G1 X143.800 Y108.820 F4800
G1 E0.0000 F1800
G92 E0
G1 X143.800 Y126.300 E0.4186 F1080
G1 X106.200 Y126.300 E1.3190
G1 X106.200 Y108.820 E1.7376
G1 X143.600 Y108.820 E2.6332
G1 X143.800 Y108.820 F1080
G1 X144.280 Y108.340 F4800
G92 E0
G1 X144.280 Y126.780 E0.4416 F1080
G1 X105.720 Y126.780 E1.3650
G1 X105.720 Y108.340 E1.8066
G1 X144.080 Y108.340 E2.7252
G1 X144.280 Y108.340 F1080
; outer perimeter
G1 X144.760 Y107.860 F4800
G92 E0
G1 X144.760 Y127.260 E0.4646 F960
G1 X105.240 Y127.260 E1.4110
G1 X105.240 Y107.860 E1.8756
G1 X144.560 Y107.860 E2.8172
G1 X144.760 Y107.860 F960
G1 X144.760 Y109.860 F2400
; solid layer
G1 X142.780 Y109.204 F4800
G92 E0
G1 X143.416 Y109.840 E0.0215 F960
G1 X143.416 Y110.518 E0.0378
G1 X142.102 Y109.204 E0.0823
G1 X141.423 Y109.204 E0.0985
G1 X143.416 Y111.197 E0.1661
G1 X143.416 Y111.876 E0.1823
G1 X140.744 Y109.204 E0.2728
G1 X140.065 Y109.204 E0.2891
G1 X143.416 Y112.555 E0.4025
G1 X143.416 Y113.234 E0.4188
G1 X139.386 Y109.204 E0.5553
G1 X138.708 Y109.204 E0.5715
G1 X143.416 Y113.912 E0.7310
G1 X143.416 Y114.591 E0.7472
G1 X138.029 Y109.204 E0.9297
G1 X137.350 Y109.204 E0.9459
G1 X143.416 Y115.270 E1.1514
G1 X143.416 Y115.949 E1.1676
G1 X136.671 Y109.204 E1.3961
G1 X135.992 Y109.204 E1.4123
G1 X143.416 Y116.628 E1.6637
G1 X143.416 Y117.307 E1.6800
G1 X135.313 Y109.204 E1.9544
G1 X134.635 Y109.204 E1.9707
G1 X143.416 Y117.985 E2.2681
G1 X143.416 Y118.664 E2.2843
G1 X133.956 Y109.204 E2.6047
G1 X133.277 Y109.204 E2.6209
G1 X143.416 Y119.343 E2.9643
G1 X143.416 Y120.022 E2.9806
G1 X132.598 Y109.204 E3.3469
G1 X131.919 Y109.204 E3.3632
G1 X143.416 Y120.701 E3.7526
G1 X143.416 Y121.380 E3.7688
G1 X131.240 Y109.204 E4.1812
G1 X130.562 Y109.204 E4.1974
G1 X143.416 Y122.058 E4.6327
G1 X143.416 Y122.737 E4.6490
G1 X129.883 Y109.204 E5.1073
G1 X129.204 Y109.204 E5.1236
G1 X143.416 Y123.416 E5.6049
G1 X143.416 Y124.095 E5.6211
G1 X128.525 Y109.204 E6.1254
G1 X127.846 Y109.204 E6.1417
G1 X143.416 Y124.774 E6.6690
G1 X143.416 Y125.452 E6.6852
G1 X127.168 Y109.204 E7.2355
G1 X126.489 Y109.204 E7.2518
G1 X143.201 Y125.916 E7.8178
G1 X142.522 Y125.916 E7.8340
G1 X125.810 Y109.204 E8.4000
G1 X125.131 Y109.204 E8.4163
G1 X141.843 Y125.916 E8.9822
G1 X141.164 Y125.916 E8.9985
G1 X124.452 Y109.204 E9.5645
G1 X123.773 Y109.204 E9.5807
G1 X140.485 Y125.916 E10.1467
G1 X139.807 Y125.916 E10.1630
G1 X123.095 Y109.204 E10.7289
G1 X122.416 Y109.204 E10.7452
G1 X139.128 Y125.916 E11.3112
G1 X138.449 Y125.916 E11.3274
G1 X121.737 Y109.204 E11.8934
G1 X121.058 Y109.204 E11.9097
G1 X137.770 Y125.916 E12.4756
G1 X137.091 Y125.916 E12.4919
G1 X120.379 Y109.204 E13.0579
G1 X119.700 Y109.204 E13.0741
G1 X136.412 Y125.916 E13.6401
G1 X135.734 Y125.916 E13.6564
G1 X119.022 Y109.204 E14.2223
G1 X118.343 Y109.204 E14.2386
G1 X135.055 Y125.916 E14.8046
G1 X134.376 Y125.916 E14.8208
G1 X117.664 Y109.204 E15.3868
G1 X116.985 Y109.204 E15.4031
G1 X133.697 Y125.916 E15.9690
G1 X133.018 Y125.916 E15.9853
G1 X116.306 Y109.204 E16.5513
G1 X115.628 Y109.204 E16.5675
G1 X132.340 Y125.916 E17.1335
G1 X131.661 Y125.916 E17.1498
G1 X114.949 Y109.204 E17.7157
G1 X114.270 Y109.204 E17.7320
G1 X130.982 Y125.916 E18.2980
G1 X130.303 Y125.916 E18.3142
G1 X113.591 Y109.204 E18.8802
G1 X112.912 Y109.204 E18.8965
G1 X129.624 Y125.916 E19.4625
G1 X128.945 Y125.916 E19.4787
G1 X112.233 Y109.204 E20.0447
G1 X111.555 Y109.204 E20.0609
G1 X128.267 Y125.916 E20.6269
G1 X127.588 Y125.916 E20.6432
G1 X110.876 Y109.204 E21.2092
G1 X110.197 Y109.204 E21.2254
G1 X126.909 Y125.916 E21.7914
G1 X126.230 Y125.916 E21.8076
G1 X109.518 Y109.204 E22.3736
