; G-Code generated by Simplify3D(R) Version 4.0.0
; Jul 23, 2018 at 9:46:28 AM
; Settings Summary
;   processName,Medium
;   applyToModels,m12-30mm-bolt
;   profileName,Prusa Research Original Prusa i3 MK2 (modified)
;   profileVersion,2017-07-23 22:27:18
;   baseProfile,
;   printMaterial,PLA
;   printQuality,Medium
;   printExtruders,
;   extruderName,Primary Extruder
;   extruderToolheadNumber,0
;   extruderDiameter,0.4
;   extruderAutoWidth,1
;   extruderWidth,0.48
;   extrusionMultiplier,1.1
;   extruderUseRetract,1
;   extruderRetractionDistance,1.5
;   extruderExtraRestartDistance,0
;   extruderRetractionZLift,0
;   extruderRetractionSpeed,1800
;   extruderUseCoasting,1
;   extruderCoastingDistance,0.2
;   extruderUseWipe,1
;   extruderWipeDistance,2
;   primaryExtruder,0
;   layerHeight,0.2
;   topSolidLayers,4
;   bottomSolidLayers,4
;   perimeterOutlines,3
;   printPerimetersInsideOut,1
;   startPointOption,2
;   startPointOriginX,0
;   startPointOriginY,0
;   sequentialIslands,0
;   spiralVaseMode,0
;   firstLayerHeightPercentage,120
;   firstLayerWidthPercentage,100
;   firstLayerUnderspeed,0.5
;   useRaft,0
;   raftExtruder,0
;   raftTopLayers,3
;   raftBaseLayers,2
;   raftOffset,3
;   raftSeparationDistance,0.14
;   raftTopInfill,100
;   aboveRaftSpeedMultiplier,0.3
;   useSkirt,1
;   skirtExtruder,0
;   skirtLayers,1
;   skirtOutlines,1
;   skirtOffset,4
;   usePrimePillar,0
;   primePillarExtruder,999
;   primePillarWidth,12
;   primePillarLocation,7
;   primePillarSpeedMultiplier,1
;   useOozeShield,0
;   oozeShieldExtruder,999
;   oozeShieldOffset,2
;   oozeShieldOutlines,1
;   oozeShieldSidewallShape,1
;   oozeShieldSidewallAngle,30
;   oozeShieldSpeedMultiplier,1
;   infillExtruder,0
;   internalInfillPattern,Rectilinear
;   externalInfillPattern,Rectilinear
;   infillPercentage,15
;   outlineOverlapPercentage,20
;   infillExtrusionWidthPercentage,100
;   minInfillLength,5
;   infillLayerInterval,1
;   internalInfillAngles,45,-45
;   overlapInternalInfillAngles,0
;   externalInfillAngles,45,-45
;   generateSupport,1
;   supportExtruder,0
;   supportInfillPercentage,30
;   supportExtraInflation,0
;   supportBaseLayers,0
;   denseSupportExtruder,0
;   denseSupportLayers,0
;   denseSupportInfillPercentage,70
;   supportLayerInterval,1
;   supportHorizontalPartOffset,0.3
;   supportUpperSeparationLayers,1
;   supportLowerSeparationLayers,1
;   supportType,0
;   supportGridSpacing,4
;   maxOverhangAngle,45
;   supportAngles,0
;   temperatureName,Primary Extruder,Heated Bed
;   temperatureNumber,0,0
;   temperatureSetpointCount,1,1
;   temperatureSetpointLayers,1,1
;   temperatureSetpointTemperatures,210,55
;   temperatureStabilizeAtStartup,1,1
;   temperatureHeatedBed,0,1
;   temperatureRelayBetweenLayers,0,0
;   temperatureRelayBetweenLoops,0,0
;   fanLayers,1,2
;   fanSpeeds,0,100
;   blipFanToFullPower,0
;   adjustSpeedForCooling,1
;   minSpeedLayerTime,15
;   minCoolingSpeedSlowdown,20
;   increaseFanForCooling,0
;   minFanLayerTime,45
;   maxCoolingFanSpeed,100
;   increaseFanForBridging,0
;   bridgingFanSpeed,100
;   use5D,1
;   relativeEdistances,0
;   allowEaxisZeroing,1
;   independentExtruderAxes,0
;   includeM10123,0
;   stickySupport,1
;   applyToolheadOffsets,0
;   gcodeXoffset,0
;   gcodeYoffset,0
;   gcodeZoffset,0
;   overrideMachineDefinition,1
;   machineTypeOverride,0
;   strokeXoverride,250
;   strokeYoverride,210
;   strokeZoverride,200
;   originOffsetXoverride,0
;   originOffsetYoverride,0
;   originOffsetZoverride,0
;   homeXdirOverride,-1
;   homeYdirOverride,-1
;   homeZdirOverride,-1
;   flipXoverride,1
;   flipYoverride,-1
;   flipZoverride,1
;   toolheadOffsets,0,0|0,0|0,0|0,0|0,0|0,0
;   overrideFirmwareConfiguration,1
;   firmwareTypeOverride,RepRap (Marlin/Repetier/Sprinter)
;   GPXconfigOverride,r2
;   baudRateOverride,250000
;   overridePrinterModels,1
;   printerModelsOverride
;   startingGcode,M115 U3.0.7 ; use the latest firmware version,G28 W ; home all axes without mesh bed leveling,G80 ; run mesh bed leveling routine,G1 Y-3.0 F1000.0 ; prepare to prime,G92 E0 ; reset extrusion distance,G1 X60.0 E9.0  F1000.0 ; priming,G1 X100.0 E12.5  F1000.0 ; priming
;   layerChangeGcode,
;   retractionGcode,
;   toolChangeGcode,
;   endingGcode,M106 S0 ; turn off cooling fan,M104 S0 ; turn off extruder,M140 S0 ; turn off bed,G1 X0 Y200 ; part removal,M84 ; disable motors
;   exportFileFormat,gcode
;   celebration,0
;   celebrationSong,Random Song
;   postProcessing,
;   defaultSpeed,2400
;   outlineUnderspeed,0.8
;   solidInfillUnderspeed,0.8
;   supportUnderspeed,0.8
;   rapidXYspeed,4800
;   rapidZspeed,1002
;   minBridgingArea,50
;   bridgingExtraInflation,0
;   bridgingExtrusionMultiplier,1
;   bridgingSpeedMultiplier,1
;   useFixedBridgingAngle,0
;   fixedBridgingAngle,0
;   applyBridgingToPerimeters,0
;   filamentDiameters,1.75|1.75|1.75|1.75|1.75|1.75
;   filamentPricesPerKg,46|46|46|46|46|46
;   filamentDensities,1.25|1.25|1.25|1.25|1.25|1.25
;   useMinPrintHeight,1
;   minPrintHeight,0
;   useMaxPrintHeight,1
;   maxPrintHeight,235
;   useDiaphragm,0
;   diaphragmLayerInterval,20
;   robustSlicing,1
;   mergeAllIntoSolid,0
;   onlyRetractWhenCrossingOutline,1
;   retractBetweenLayers,1
;   useRetractionMinTravel,0
;   retractionMinTravel,3
;   retractWhileWiping,1
;   onlyWipeOutlines,1
;   avoidCrossingOutline,0
;   maxMovementDetourFactor,3
;   toolChangeRetractionDistance,12
;   toolChangeExtraRestartDistance,-0.5
;   toolChangeRetractionSpeed,600
;   externalThinWallType,0
;   internalThinWallType,1
;   thinWallAllowedOverlapPercentage,25
;   singleExtrusionMinLength,1
;   singleExtrusionMinPrintingWidthPercentage,50
;   singleExtrusionMaxPrintingWidthPercentage,200
;   singleExtrusionEndpointExtension,0.2
;   horizontalSizeCompensation,0
G90
M82
M106 S0
M140 S55
M190 S55
M104 S210 T0
M109 S210 T0
M115 U3.0.7 ; use the latest firmware version
G28 W ; home all axes without mesh bed leveling
G80 ; run mesh bed leveling routine
G1 Y-3.0 F1000.0 ; prepare to prime
G92 E0 ; reset extrusion distance
G1 X60.0 E9.0  F1000.0 ; priming
G1 X100.0 E12.5  F1000.0 ; priming
G92 E0
G1 E-1.5000 F1800
G1 Z0.240 F1002
; process Medium
; layer 1, Z = 0.240
T0
; tool H0.240 W0.480
; skirt
G1 X115.476 Y97.123 F4800
G1 E0.0000 F540
G92 E0
G1 X116.278 Y96.244 E0.0627 F1200
G1 X116.282 Y96.240 E0.0630
G1 X116.417 Y96.105 E0.0730
G1 X116.421 Y96.101 E0.0733
G1 X116.907 Y95.658 E0.1080
G1 X116.910 Y95.655 E0.1082
G1 X117.006 Y95.573 E0.1149
G1 X117.009 Y95.570 E0.1151
G1 X117.523 Y95.157 E0.1498
G1 X117.527 Y95.154 E0.1501
G1 X117.681 Y95.041 E0.1601
G1 X117.685 Y95.038 E0.1604
G1 X118.677 Y94.381 E0.2231
G1 X118.682 Y94.378 E0.2234
G1 X118.845 Y94.280 E0.2334
G1 X118.850 Y94.277 E0.2337
G1 X119.459 Y93.951 E0.2701
G1 X119.463 Y93.948 E0.2704
G1 X119.635 Y93.866 E0.2804
G1 X119.640 Y93.864 E0.2807
G1 X120.766 Y93.387 E0.3451
G1 X120.772 Y93.385 E0.3455
G1 X121.012 Y93.300 E0.3589
G1 X121.019 Y93.298 E0.3592
G1 X122.194 Y92.964 E0.4236
G1 X122.199 Y92.962 E0.4239
G1 X122.385 Y92.919 E0.4339
G1 X122.390 Y92.918 E0.4342
G1 X123.069 Y92.791 E0.4706
G1 X123.074 Y92.790 E0.4709
G1 X123.263 Y92.764 E0.4809
G1 X123.268 Y92.763 E0.4812
G1 X124.453 Y92.653 E0.5439
G1 X124.459 Y92.653 E0.5442
G1 X124.649 Y92.644 E0.5542
G1 X124.655 Y92.644 E0.5545
G1 X125.314 Y92.644 E0.5892
G1 X125.317 Y92.644 E0.5894
G1 X125.444 Y92.648 E0.5961
G1 X125.448 Y92.648 E0.5963
G1 X126.105 Y92.689 E0.6310
G1 X126.111 Y92.689 E0.6313
G1 X126.299 Y92.709 E0.6413
G1 X126.305 Y92.710 E0.6416
G1 X127.475 Y92.892 E0.7040
G1 X127.480 Y92.893 E0.7043
G1 X127.666 Y92.930 E0.7143
G1 X127.671 Y92.931 E0.7145
G1 X128.347 Y93.101 E0.7512
G1 X128.352 Y93.102 E0.7515
G1 X128.536 Y93.157 E0.7616
G1 X128.541 Y93.159 E0.7619
G1 X129.664 Y93.555 E0.8246
G1 X129.669 Y93.557 E0.8249
G1 X129.846 Y93.628 E0.8350
G1 X129.851 Y93.631 E0.8353
G1 X130.449 Y93.906 E0.8700
G1 X130.453 Y93.907 E0.8702
G1 X130.566 Y93.964 E0.8768
G1 X130.569 Y93.966 E0.8770
G1 X131.149 Y94.277 E0.9117
G1 X131.154 Y94.280 E0.9120
G1 X131.316 Y94.377 E0.9219
G1 X131.321 Y94.380 E0.9222
G1 X132.291 Y95.021 E0.9835
G1 X132.295 Y95.024 E0.9838
G1 X132.445 Y95.134 E0.9936
G1 X132.450 Y95.137 E0.9939
G1 X133.008 Y95.584 E1.0316
G1 X133.013 Y95.588 E1.0319
G1 X133.160 Y95.718 E1.0422
G1 X133.164 Y95.721 E1.0425
G1 X134.043 Y96.573 E1.1070
G1 X134.048 Y96.579 E1.1074
G1 X134.218 Y96.765 E1.1207
G1 X134.223 Y96.771 E1.1211
G1 X134.973 Y97.701 E1.1840
G1 X134.976 Y97.705 E1.1843
G1 X135.086 Y97.855 E1.1941
G1 X135.089 Y97.860 E1.1944
G1 X135.468 Y98.429 E1.2304
G1 X135.470 Y98.432 E1.2306
G1 X135.541 Y98.545 E1.2376
G1 X135.543 Y98.548 E1.2378
G1 X135.873 Y99.121 E1.2727
G1 X135.876 Y99.126 E1.2730
G1 X135.963 Y99.295 E1.2830
G1 X135.966 Y99.300 E1.2833
G1 X136.477 Y100.410 E1.3477
G1 X136.479 Y100.417 E1.3480
G1 X136.571 Y100.653 E1.3614
G1 X136.574 Y100.660 E1.3618
G1 X136.944 Y101.825 E1.4262
G1 X136.946 Y101.830 E1.4265
G1 X136.995 Y102.014 E1.4365
G1 X136.996 Y102.019 E1.4368
G1 X137.144 Y102.694 E1.4732
G1 X137.145 Y102.699 E1.4735
G1 X137.177 Y102.887 E1.4835
G1 X137.178 Y102.892 E1.4838
G1 X137.328 Y104.105 E1.5482
G1 X137.329 Y104.112 E1.5486
G1 X137.344 Y104.366 E1.5619
G1 X137.345 Y104.373 E1.5623
G1 X137.345 Y105.627 E1.6284
G1 X137.344 Y105.634 E1.6288
G1 X137.329 Y105.888 E1.6421
G1 X137.328 Y105.895 E1.6425
G1 X137.178 Y107.108 E1.7069
G1 X137.177 Y107.113 E1.7072
G1 X137.145 Y107.301 E1.7172
G1 X137.144 Y107.306 E1.7175
G1 X136.996 Y107.981 E1.7539
G1 X136.995 Y107.986 E1.7542
G1 X136.946 Y108.170 E1.7642
G1 X136.944 Y108.175 E1.7645
G1 X136.574 Y109.340 E1.8289
G1 X136.571 Y109.347 E1.8293
G1 X136.479 Y109.583 E1.8426
G1 X136.477 Y109.590 E1.8430
G1 X135.953 Y110.729 E1.9091
G1 X135.949 Y110.736 E1.9095
G1 X135.829 Y110.959 E1.9228
G1 X135.826 Y110.966 E1.9232
G1 X135.182 Y112.005 E1.9876
G1 X135.179 Y112.009 E1.9879
G1 X135.072 Y112.166 E1.9979
G1 X135.068 Y112.171 E1.9982
G1 X134.652 Y112.722 E2.0346
G1 X134.649 Y112.726 E2.0349
G1 X134.527 Y112.873 E2.0449
G1 X134.524 Y112.877 E2.0452
G1 X133.722 Y113.756 E2.1079
G1 X133.718 Y113.760 E2.1082
G1 X133.583 Y113.895 E2.1182
G1 X133.579 Y113.899 E2.1185
G1 X133.093 Y114.342 E2.1532
G1 X133.090 Y114.345 E2.1534
G1 X132.993 Y114.427 E2.1601
G1 X132.991 Y114.430 E2.1603
G1 X132.477 Y114.843 E2.1950
G1 X132.473 Y114.846 E2.1953
G1 X132.319 Y114.959 E2.2053
G1 X132.315 Y114.962 E2.2056
G1 X131.323 Y115.619 E2.2683
G1 X131.318 Y115.622 E2.2686
G1 X131.155 Y115.720 E2.2786
G1 X131.150 Y115.723 E2.2789
G1 X130.541 Y116.049 E2.3153
G1 X130.536 Y116.052 E2.3156
G1 X130.365 Y116.134 E2.3256
G1 X130.360 Y116.136 E2.3259
G1 X129.234 Y116.613 E2.3903
G1 X129.228 Y116.615 E2.3907
G1 X128.988 Y116.700 E2.4041
G1 X128.981 Y116.702 E2.4044
G1 X127.806 Y117.036 E2.4688
G1 X127.801 Y117.038 E2.4691
G1 X127.615 Y117.081 E2.4791
G1 X127.610 Y117.082 E2.4794
G1 X126.931 Y117.209 E2.5158
G1 X126.926 Y117.210 E2.5161
G1 X126.737 Y117.236 E2.5261
G1 X126.732 Y117.237 E2.5264
G1 X125.547 Y117.347 E2.5891
G1 X125.541 Y117.347 E2.5894
G1 X125.351 Y117.356 E2.5994
G1 X125.345 Y117.356 E2.5997
G1 X124.686 Y117.356 E2.6344
G1 X124.683 Y117.356 E2.6346
G1 X124.556 Y117.352 E2.6413
G1 X124.552 Y117.352 E2.6415
G1 X123.895 Y117.311 E2.6762
G1 X123.889 Y117.311 E2.6765
G1 X123.700 Y117.291 E2.6865
G1 X123.695 Y117.290 E2.6868
G1 X122.525 Y117.108 E2.7492
G1 X122.520 Y117.107 E2.7495
G1 X122.334 Y117.070 E2.7595
G1 X122.329 Y117.069 E2.7597
G1 X121.653 Y116.899 E2.7964
G1 X121.648 Y116.898 E2.7967
G1 X121.464 Y116.843 E2.8068
G1 X121.459 Y116.841 E2.8071
G1 X120.336 Y116.445 E2.8698
G1 X120.331 Y116.443 E2.8701
G1 X120.154 Y116.372 E2.8802
G1 X120.149 Y116.369 E2.8805
G1 X119.522 Y116.081 E2.9168
G1 X119.517 Y116.078 E2.9171
G1 X119.348 Y115.991 E2.9272
G1 X119.343 Y115.988 E2.9275
G1 X118.285 Y115.377 E2.9918
G1 X118.279 Y115.373 E2.9922
G1 X118.067 Y115.233 E3.0056
G1 X118.061 Y115.229 E3.0060
G1 X117.061 Y114.473 E3.0720
G1 X117.055 Y114.469 E3.0724
G1 X116.862 Y114.304 E3.0858
G1 X116.856 Y114.299 E3.0862
G1 X115.957 Y113.427 E3.1522
G1 X115.952 Y113.421 E3.1526
G1 X115.782 Y113.235 E3.1659
G1 X115.777 Y113.229 E3.1663
G1 X115.027 Y112.299 E3.2292
G1 X115.024 Y112.295 E3.2295
G1 X114.914 Y112.145 E3.2393
G1 X114.911 Y112.140 E3.2396
G1 X114.514 Y111.545 E3.2773
G1 X114.511 Y111.540 E3.2776
G1 X114.410 Y111.372 E3.2879
G1 X114.407 Y111.367 E3.2882
G1 X113.828 Y110.288 E3.3527
G1 X113.825 Y110.281 E3.3531
G1 X113.719 Y110.051 E3.3665
G1 X113.716 Y110.044 E3.3669
G1 X113.276 Y108.911 E3.4309
G1 X113.274 Y108.906 E3.4312
G1 X113.214 Y108.726 E3.4412
G1 X113.213 Y108.721 E3.4415
G1 X113.022 Y108.051 E3.4781
G1 X113.020 Y108.046 E3.4784
G1 X112.976 Y107.859 E3.4885
G1 X112.975 Y107.854 E3.4888
G1 X112.756 Y106.683 E3.5516
G1 X112.755 Y106.678 E3.5519
G1 X112.729 Y106.489 E3.5619
G1 X112.728 Y106.484 E3.5622
G1 X112.665 Y105.796 E3.5986
G1 X112.664 Y105.791 E3.5988
G1 X112.656 Y105.601 E3.6089
G1 X112.655 Y105.595 E3.6092
G1 X112.655 Y104.373 E3.6735
G1 X112.656 Y104.366 E3.6739
G1 X112.671 Y104.112 E3.6873
G1 X112.672 Y104.105 E3.6877
G1 X112.826 Y102.861 E3.7537
G1 X112.827 Y102.854 E3.7541
G1 X112.874 Y102.604 E3.7675
G1 X112.875 Y102.597 E3.7679
G1 X113.181 Y101.381 E3.8339
G1 X113.183 Y101.374 E3.8343
G1 X113.260 Y101.133 E3.8476
G1 X113.262 Y101.126 E3.8480
G1 X113.699 Y99.998 E3.9118
G1 X113.701 Y99.993 E3.9120
G1 X113.777 Y99.821 E3.9220
G1 X113.779 Y99.816 E3.9223
G1 X114.091 Y99.187 E3.9592
G1 X114.094 Y99.182 E3.9595
G1 X114.188 Y99.013 E3.9697
G1 X114.190 Y99.008 E3.9700
G1 X114.818 Y97.995 E4.0328
G1 X114.821 Y97.991 E4.0331
G1 X114.928 Y97.834 E4.0431
G1 X114.932 Y97.829 E4.0434
G1 X115.348 Y97.278 E4.0798
G1 X115.349 Y97.277 E4.0798
G1 X115.351 Y97.274 F1200
G1 X115.473 Y97.127 F1200
G1 X115.476 Y97.123 F1200
G92 E0
G1 E-1.5000 F1800
; inner perimeter
G1 X119.609 Y100.662 F4800
G1 E0.0000 F1800
G92 E0
G1 X119.883 Y100.342 E0.0222 F1080
G1 X120.183 Y100.032 E0.0449
G1 X120.498 Y99.745 E0.0674
G1 X120.830 Y99.478 E0.0898
G1 X121.178 Y99.232 E0.1123
G1 X121.540 Y99.008 E0.1347
G1 X121.916 Y98.806 E0.1572
G1 X122.277 Y98.640 E0.1781
G1 X122.702 Y98.473 E0.2022
G1 X123.106 Y98.345 E0.2245
G1 X123.520 Y98.241 E0.2470
G1 X123.939 Y98.162 E0.2694
G1 X124.339 Y98.113 E0.2907
G1 X124.789 Y98.084 E0.3144
G1 X125.213 Y98.084 E0.3368
G1 X125.638 Y98.110 E0.3592
G1 X126.061 Y98.162 E0.3817
G1 X126.475 Y98.240 E0.4039
G1 X126.894 Y98.345 E0.4266
G1 X127.300 Y98.474 E0.4490
G1 X127.697 Y98.628 E0.4715
G1 X128.084 Y98.806 E0.4939
G1 X128.460 Y99.008 E0.5164
G1 X128.822 Y99.232 E0.5388
G1 X129.152 Y99.465 E0.5601
G1 X129.503 Y99.746 E0.5838
G1 X129.817 Y100.033 E0.6062
G1 X130.113 Y100.338 E0.6287
G1 X130.391 Y100.662 E0.6511
G1 X130.634 Y100.984 E0.6724
G1 X130.884 Y101.359 E0.6961
G1 X131.096 Y101.727 E0.7185
G1 X131.286 Y102.108 E0.7409
G1 X131.452 Y102.501 E0.7634
G1 X131.592 Y102.898 E0.7855
G1 X131.711 Y103.313 E0.8083
G1 X131.802 Y103.729 E0.8307
G1 X131.867 Y104.150 E0.8532
G1 X131.906 Y104.574 E0.8756
G1 X131.919 Y105.000 E0.8981
G1 X131.906 Y105.426 E0.9205
G1 X131.869 Y105.828 E0.9418
G1 X131.801 Y106.273 E0.9655
G1 X131.710 Y106.688 E0.9879
G1 X131.594 Y107.098 E1.0103
G1 X131.452 Y107.499 E1.0328
G1 X131.290 Y107.883 E1.0547
G1 X131.096 Y108.274 E1.0777
G1 X130.883 Y108.643 E1.1001
G1 X130.648 Y108.998 E1.1226
G1 X130.391 Y109.338 E1.1451
G1 X130.117 Y109.658 E1.1672
G1 X129.817 Y109.968 E1.1900
G1 X129.502 Y110.255 E1.2124
G1 X129.170 Y110.522 E1.2349
G1 X128.822 Y110.768 E1.2573
G1 X128.460 Y110.992 E1.2798
G1 X128.084 Y111.194 E1.3022
G1 X127.723 Y111.360 E1.3231
G1 X127.298 Y111.527 E1.3472
G1 X126.894 Y111.655 E1.3696
G1 X126.480 Y111.759 E1.3920
G1 X126.061 Y111.838 E1.4145
G1 X125.661 Y111.887 E1.4357
G1 X125.211 Y111.916 E1.4595
G1 X124.787 Y111.916 E1.4818
G1 X124.362 Y111.890 E1.5043
G1 X123.939 Y111.838 E1.5267
G1 X123.525 Y111.760 E1.5489
G1 X123.106 Y111.655 E1.5717
G1 X122.700 Y111.526 E1.5941
G1 X122.303 Y111.372 E1.6165
G1 X121.916 Y111.194 E1.6390
G1 X121.540 Y110.992 E1.6614
