; G-Code generated by Simplify3D(R) Version 4.0.0
; Jul 23, 2018 at 5:45:43 PM
; Settings Summary
;   processName,FAST
;   applyToModels,pump-anchor-ng
;   profileName,Prusa Research Original Prusa i3 MK2 (modified)
;   profileVersion,2017-07-23 22:27:18
;   baseProfile,
;   printMaterial,PLA
;   printQuality,Fast
;   printExtruders,
;   extruderName,Primary Extruder
;   extruderToolheadNumber,0
;   extruderDiameter,0.4
;   extruderAutoWidth,1
;   extruderWidth,0.48
;   extrusionMultiplier,1.1
;   extruderUseRetract,1
;   extruderRetractionDistance,1.5
;   extruderExtraRestartDistance,0
;   extruderRetractionZLift,0
;   extruderRetractionSpeed,1800
;   extruderUseCoasting,1
;   extruderCoastingDistance,0.2
;   extruderUseWipe,1
;   extruderWipeDistance,2
;   primaryExtruder,0
;   layerHeight,0.35
;   topSolidLayers,4
;   bottomSolidLayers,4
;   perimeterOutlines,3
;   printPerimetersInsideOut,1
;   startPointOption,2
;   startPointOriginX,0
;   startPointOriginY,0
;   sequentialIslands,0
;   spiralVaseMode,0
;   firstLayerHeightPercentage,120
;   firstLayerWidthPercentage,100
;   firstLayerUnderspeed,0.5
;   useRaft,0
;   raftExtruder,0
;   raftTopLayers,3
;   raftBaseLayers,2
;   raftOffset,3
;   raftSeparationDistance,0.14
;   raftTopInfill,100
;   aboveRaftSpeedMultiplier,0.3
;   useSkirt,1
;   skirtExtruder,0
;   skirtLayers,1
;   skirtOutlines,1
;   skirtOffset,4
;   usePrimePillar,0
;   primePillarExtruder,999
;   primePillarWidth,12
;   primePillarLocation,7
;   primePillarSpeedMultiplier,1
;   useOozeShield,0
;   oozeShieldExtruder,999
;   oozeShieldOffset,2
;   oozeShieldOutlines,1
;   oozeShieldSidewallShape,1
;   oozeShieldSidewallAngle,30
;   oozeShieldSpeedMultiplier,1
;   infillExtruder,0
;   internalInfillPattern,Rectilinear
;   externalInfillPattern,Rectilinear
;   infillPercentage,12
;   outlineOverlapPercentage,20
;   infillExtrusionWidthPercentage,100
;   minInfillLength,5
;   infillLayerInterval,1
;   internalInfillAngles,45,-45
;   overlapInternalInfillAngles,0
;   externalInfillAngles,45,-45
;   generateSupport,1
;   supportExtruder,0
;   supportInfillPercentage,25
;   supportExtraInflation,0
;   supportBaseLayers,0
;   denseSupportExtruder,0
;   denseSupportLayers,0
;   denseSupportInfillPercentage,70
;   supportLayerInterval,1
;   supportHorizontalPartOffset,0.3
;   supportUpperSeparationLayers,1
;   supportLowerSeparationLayers,1
;   supportType,0
;   supportGridSpacing,4
;   maxOverhangAngle,45
;   supportAngles,0
;   temperatureName,Primary Extruder,Heated Bed
;   temperatureNumber,0,0
;   temperatureSetpointCount,1,1
;   temperatureSetpointLayers,1,1
;   temperatureSetpointTemperatures,210,55
;   temperatureStabilizeAtStartup,1,1
;   temperatureHeatedBed,0,1
;   temperatureRelayBetweenLayers,0,0
;   temperatureRelayBetweenLoops,0,0
;   fanLayers,1,2
;   fanSpeeds,0,100
;   blipFanToFullPower,0
;   adjustSpeedForCooling,1
;   minSpeedLayerTime,15
;   minCoolingSpeedSlowdown,20
;   increaseFanForCooling,0
;   minFanLayerTime,45
;   maxCoolingFanSpeed,100
;   increaseFanForBridging,0
;   bridgingFanSpeed,100
;   use5D,1
;   relativeEdistances,0
;   allowEaxisZeroing,1
;   independentExtruderAxes,0
;   includeM10123,0
;   stickySupport,1
;   applyToolheadOffsets,0
;   gcodeXoffset,0
;   gcodeYoffset,0
;   gcodeZoffset,0
;   overrideMachineDefinition,1
;   machineTypeOverride,0
;   strokeXoverride,250
;   strokeYoverride,210
;   strokeZoverride,200
;   originOffsetXoverride,0
;   originOffsetYoverride,0
;   originOffsetZoverride,0
;   homeXdirOverride,-1
;   homeYdirOverride,-1
;   homeZdirOverride,-1
;   flipXoverride,1
;   flipYoverride,-1
;   flipZoverride,1
;   toolheadOffsets,0,0|0,0|0,0|0,0|0,0|0,0
;   overrideFirmwareConfiguration,1
;   firmwareTypeOverride,RepRap (Marlin/Repetier/Sprinter)
;   GPXconfigOverride,r2
;   baudRateOverride,250000
;   overridePrinterModels,1
;   printerModelsOverride
;   startingGcode,M115 U3.0.7 ; use the latest firmware version,G28 W ; home all axes without mesh bed leveling,G80 ; run mesh bed leveling routine,G1 Y-3.0 F1000.0 ; prepare to prime,G92 E0 ; reset extrusion distance,G1 X60.0 E9.0  F1000.0 ; priming,G1 X100.0 E12.5  F1000.0 ; priming
;   layerChangeGcode,
;   retractionGcode,
;   toolChangeGcode,
;   endingGcode,M106 S0 ; turn off cooling fan,M104 S0 ; turn off extruder,M140 S0 ; turn off bed,G1 X0 Y200 ; part removal,M84 ; disable motors
;   exportFileFormat,gcode
;   celebration,0
;   celebrationSong,Random Song
;   postProcessing,
;   defaultSpeed,2400
;   outlineUnderspeed,0.8
;   solidInfillUnderspeed,0.8
;   supportUnderspeed,0.8
;   rapidXYspeed,4800
;   rapidZspeed,1002
;   minBridgingArea,50
;   bridgingExtraInflation,0
;   bridgingExtrusionMultiplier,1
;   bridgingSpeedMultiplier,1
;   useFixedBridgingAngle,0
;   fixedBridgingAngle,0
;   applyBridgingToPerimeters,0
;   filamentDiameters,1.75|1.75|1.75|1.75|1.75|1.75
;   filamentPricesPerKg,46|46|46|46|46|46
;   filamentDensities,1.25|1.25|1.25|1.25|1.25|1.25
;   useMinPrintHeight,1
;   minPrintHeight,0
;   useMaxPrintHeight,1
;   maxPrintHeight,235
;   useDiaphragm,0
;   diaphragmLayerInterval,20
;   robustSlicing,1
;   mergeAllIntoSolid,0
;   onlyRetractWhenCrossingOutline,1
;   retractBetweenLayers,1
;   useRetractionMinTravel,0
;   retractionMinTravel,3
;   retractWhileWiping,1
;   onlyWipeOutlines,1
;   avoidCrossingOutline,0
;   maxMovementDetourFactor,3
;   toolChangeRetractionDistance,12
;   toolChangeExtraRestartDistance,-0.5
;   toolChangeRetractionSpeed,600
;   externalThinWallType,0
;   internalThinWallType,1
;   thinWallAllowedOverlapPercentage,25
;   singleExtrusionMinLength,1
;   singleExtrusionMinPrintingWidthPercentage,50
;   singleExtrusionMaxPrintingWidthPercentage,200
;   singleExtrusionEndpointExtension,0.2
;   horizontalSizeCompensation,0
G90
M82
M106 S0
M140 S55
M190 S55
M104 S210 T0
M109 S210 T0
M115 U3.0.7 ; use the latest firmware version
G28 W ; home all axes without mesh bed leveling
G80 ; run mesh bed leveling routine
G1 Y-3.0 F1000.0 ; prepare to prime
G92 E0 ; reset extrusion distance
G1 X60.0 E9.0  F1000.0 ; priming
G1 X100.0 E12.5  F1000.0 ; priming
G92 E0
G1 E-1.5000 F1800
G1 Z0.420 F1002
; process FAST
; layer 1, Z = 0.420
T0
; tool H0.420 W0.480
; skirt
G1 X80.194 Y53.670 F4800
G1 E0.0000 F540
G92 E0
G1 X80.201 Y53.659 E0.0012 F1200
G1 X80.488 Y53.300 E0.0436
G1 X80.497 Y53.290 E0.0448
G1 X81.290 Y52.497 E0.1482
G1 X81.300 Y52.488 E0.1495
G1 X81.659 Y52.201 E0.1918
G1 X81.670 Y52.194 E0.1931
G1 X82.629 Y51.589 E0.2976
G1 X82.641 Y51.582 E0.2988
G1 X83.058 Y51.381 E0.3416
G1 X83.071 Y51.376 E0.3428
G1 X84.142 Y50.999 E0.4475
G1 X84.155 Y50.995 E0.4488
G1 X84.607 Y50.892 E0.4915
G1 X84.620 Y50.889 E0.4927
G1 X85.634 Y50.774 E0.5868
G1 X85.641 Y50.773 E0.5875
G1 X85.874 Y50.760 E0.6090
G1 X85.881 Y50.760 E0.6096
G1 X164.119 Y50.760 E7.8230
G1 X164.126 Y50.760 E7.8236
G1 X164.359 Y50.773 E7.8451
G1 X164.366 Y50.774 E7.8457
G1 X165.380 Y50.889 E7.9399
G1 X165.393 Y50.892 E7.9411
G1 X165.845 Y50.995 E7.9838
G1 X165.858 Y50.999 E7.9851
G1 X166.929 Y51.376 E8.0898
G1 X166.942 Y51.381 E8.0910
G1 X167.359 Y51.582 E8.1337
G1 X167.371 Y51.589 E8.1350
G1 X168.330 Y52.194 E8.2395
G1 X168.341 Y52.201 E8.2407
G1 X168.700 Y52.488 E8.2831
G1 X168.710 Y52.497 E8.2843
G1 X169.503 Y53.290 E8.3877
G1 X169.512 Y53.300 E8.3890
G1 X169.799 Y53.659 E8.4313
G1 X169.806 Y53.670 E8.4326
G1 X170.411 Y54.629 E8.5371
G1 X170.418 Y54.641 E8.5383
G1 X170.619 Y55.058 E8.5811
G1 X170.624 Y55.071 E8.5823
G1 X171.001 Y56.142 E8.6870
G1 X171.005 Y56.155 E8.6883
G1 X171.108 Y56.607 E8.7310
G1 X171.111 Y56.620 E8.7322
G1 X171.226 Y57.634 E8.8263
G1 X171.227 Y57.641 E8.8270
G1 X171.240 Y57.874 E8.8485
G1 X171.240 Y57.881 E8.8491
G1 X171.240 Y84.804 E11.3313
G1 X171.423 Y84.987 E11.3552
G1 X171.460 Y85.075 E11.3641
G1 X171.460 Y92.925 E12.0877
G1 X171.423 Y93.013 E12.0965
G1 X171.240 Y93.196 E12.1205
G1 X171.240 Y152.119 E17.5530
G1 X171.240 Y152.126 E17.5536
G1 X171.227 Y152.359 E17.5751
G1 X171.226 Y152.366 E17.5757
G1 X171.111 Y153.380 E17.6699
G1 X171.108 Y153.393 E17.6711
G1 X171.005 Y153.845 E17.7138
G1 X171.001 Y153.858 E17.7151
G1 X170.624 Y154.929 E17.8198
G1 X170.619 Y154.942 E17.8210
G1 X170.418 Y155.359 E17.8637
G1 X170.411 Y155.371 E17.8650
G1 X169.805 Y156.331 E17.9697
G1 X169.797 Y156.342 E17.9709
G1 X169.508 Y156.704 E18.0136
G1 X169.499 Y156.714 E18.0149
G1 X168.696 Y157.514 E18.1194
G1 X168.686 Y157.523 E18.1206
G1 X168.327 Y157.809 E18.1629
G1 X168.316 Y157.817 E18.1642
G1 X167.366 Y158.413 E18.2676
G1 X167.355 Y158.420 E18.2688
G1 X166.940 Y158.620 E18.3112
G1 X166.928 Y158.625 E18.3125
G1 X165.858 Y159.001 E18.4171
G1 X165.845 Y159.005 E18.4183
G1 X165.392 Y159.108 E18.4611
G1 X165.379 Y159.111 E18.4623
G1 X164.362 Y159.226 E18.5567
G1 X164.355 Y159.227 E18.5573
G1 X164.123 Y159.240 E18.5788
G1 X164.116 Y159.240 E18.5794
G1 X144.134 Y159.239 E20.4217
G1 X144.127 Y159.239 E20.4224
G1 X143.880 Y159.224 E20.4451
G1 X143.873 Y159.223 E20.4458
G1 X142.802 Y159.094 E20.5452
G1 X142.788 Y159.091 E20.5466
G1 X142.308 Y158.974 E20.5922
G1 X142.294 Y158.970 E20.5935
G1 X141.159 Y158.543 E20.7053
G1 X141.146 Y158.537 E20.7067
G1 X140.707 Y158.308 E20.7523
G1 X140.694 Y158.301 E20.7536
G1 X139.693 Y157.616 E20.8654
G1 X139.681 Y157.607 E20.8668
G1 X139.309 Y157.281 E20.9124
G1 X139.299 Y157.271 E20.9137
G1 X138.489 Y156.368 E21.0255
G1 X138.480 Y156.357 E21.0269
G1 X138.196 Y155.952 E21.0725
G1 X138.189 Y155.940 E21.0738
G1 X137.617 Y154.870 E21.1856
G1 X137.611 Y154.857 E21.1870
G1 X137.431 Y154.396 E21.2326
G1 X137.427 Y154.382 E21.2339
G1 X137.125 Y153.207 E21.3457
G1 X137.123 Y153.193 E21.3471
G1 X137.058 Y152.703 E21.3927
G1 X137.057 Y152.688 E21.3940
G1 X137.043 Y151.475 E21.5059
G1 X137.044 Y151.460 E21.5073
G1 X137.098 Y150.967 E21.5530
G1 X137.100 Y150.953 E21.5543
G1 X137.337 Y149.938 E21.6504
G1 X137.338 Y149.934 E21.6508
G1 X137.375 Y149.798 E21.6638
G1 X137.376 Y149.794 E21.6641
G1 X137.852 Y148.243 E21.8138
G1 X138.113 Y146.930 E21.9372
G1 X138.241 Y145.598 E22.0606
G1 X138.234 Y144.259 E22.1840
G1 X138.092 Y142.929 E22.3073
G1 X137.816 Y141.619 E22.4307
G1 X137.410 Y140.344 E22.5541
G1 X136.877 Y139.116 E22.6775
G1 X136.223 Y137.948 E22.8009
G1 X135.455 Y136.852 E22.9243
G1 X134.580 Y135.840 E23.0477
G1 X133.607 Y134.920 E23.1711
G1 X132.547 Y134.104 E23.2945
G1 X131.409 Y133.398 E23.4179
G1 X130.207 Y132.811 E23.5413
G1 X128.951 Y132.348 E23.6647
G1 X127.655 Y132.014 E23.7880
G1 X126.332 Y131.813 E23.9114
G1 X124.995 Y131.746 E24.0348
G1 X123.659 Y131.814 E24.1582
G1 X122.336 Y132.016 E24.2816
G1 X121.040 Y132.351 E24.4050
G1 X119.784 Y132.815 E24.5284
G1 X118.582 Y133.403 E24.6518
G1 X117.446 Y134.109 E24.7752
G1 X116.386 Y134.927 E24.8986
G1 X115.414 Y135.847 E25.0220
G1 X114.540 Y136.860 E25.1454
G1 X113.772 Y137.956 E25.2687
G1 X113.119 Y139.125 E25.3921
G1 X112.587 Y140.353 E25.5155
G1 X112.182 Y141.628 E25.6389
G1 X111.907 Y142.938 E25.7623
G1 X111.766 Y144.269 E25.8857
G1 X111.760 Y145.607 E26.0091
G1 X111.888 Y146.939 E26.1325
G1 X112.151 Y148.253 E26.2560
G1 X112.629 Y149.810 E26.4061
G1 X112.630 Y149.814 E26.4065
G1 X112.667 Y149.951 E26.4197
G1 X112.668 Y149.955 E26.4200
G1 X112.900 Y150.955 E26.5147
G1 X112.903 Y150.969 E26.5160
G1 X112.956 Y151.461 E26.5616
G1 X112.957 Y151.475 E26.5629
G1 X112.943 Y152.688 E26.6747
G1 X112.942 Y152.703 E26.6761
G1 X112.877 Y153.193 E26.7217
G1 X112.875 Y153.207 E26.7230
G1 X112.573 Y154.382 E26.8349
G1 X112.569 Y154.396 E26.8362
G1 X112.389 Y154.857 E26.8818
G1 X112.383 Y154.870 E26.8831
G1 X111.811 Y155.940 E26.9950
G1 X111.804 Y155.952 E26.9963
G1 X111.520 Y156.357 E27.0419
G1 X111.511 Y156.368 E27.0432
G1 X110.701 Y157.271 E27.1551
G1 X110.691 Y157.281 E27.1564
G1 X110.319 Y157.607 E27.2020
G1 X110.307 Y157.616 E27.2033
G1 X109.306 Y158.301 E27.3152
G1 X109.293 Y158.308 E27.3165
G1 X108.854 Y158.537 E27.3621
G1 X108.841 Y158.543 E27.3634
G1 X107.706 Y158.970 E27.4753
G1 X107.692 Y158.974 E27.4766
G1 X107.212 Y159.092 E27.5222
G1 X107.198 Y159.094 E27.5235
G1 X106.117 Y159.224 E27.6239
G1 X106.110 Y159.225 E27.6246
G1 X105.863 Y159.240 E27.6474
G1 X105.856 Y159.240 E27.6480
G1 X85.881 Y159.240 E29.4897
G1 X85.874 Y159.240 E29.4903
G1 X85.641 Y159.227 E29.5118
G1 X85.634 Y159.226 E29.5124
G1 X84.620 Y159.111 E29.6065
G1 X84.607 Y159.108 E29.6078
G1 X84.155 Y159.005 E29.6505
G1 X84.142 Y159.001 E29.6517
G1 X83.071 Y158.624 E29.7565
G1 X83.058 Y158.619 E29.7577
G1 X82.641 Y158.418 E29.8004
G1 X82.629 Y158.411 E29.8017
G1 X81.670 Y157.806 E29.9062
G1 X81.659 Y157.799 E29.9074
G1 X81.300 Y157.512 E29.9498
G1 X81.290 Y157.503 E29.9510
G1 X80.497 Y156.710 E30.0544
G1 X80.488 Y156.700 E30.0557
G1 X80.201 Y156.341 E30.0980
G1 X80.194 Y156.330 E30.0993
G1 X79.589 Y155.371 E30.2038
G1 X79.582 Y155.359 E30.2050
G1 X79.381 Y154.942 E30.2478
G1 X79.376 Y154.929 E30.2490
G1 X78.999 Y153.858 E30.3537
G1 X78.995 Y153.845 E30.3550
G1 X78.892 Y153.393 E30.3977
G1 X78.889 Y153.380 E30.3989
G1 X78.774 Y152.366 E30.4930
G1 X78.773 Y152.359 E30.4937
G1 X78.760 Y152.126 E30.5152
G1 X78.760 Y152.119 E30.5158
G1 X78.760 Y93.196 E35.9483
G1 X78.577 Y93.013 E35.9722
G1 X78.540 Y92.925 E35.9811
G1 X78.540 Y85.075 E36.7047
G1 X78.577 Y84.987 E36.7135
G1 X78.760 Y84.804 E36.7374
G1 X78.760 Y57.884 E39.2194
G1 X78.760 Y57.877 E39.2200
G1 X78.773 Y57.645 E39.2415
G1 X78.774 Y57.638 E39.2421
G1 X78.889 Y56.621 E39.3365
G1 X78.891 Y56.608 E39.3377
G1 X78.995 Y56.155 E39.3805
G1 X78.999 Y56.142 E39.3817
G1 X79.376 Y55.071 E39.4865
G1 X79.381 Y55.058 E39.4877
G1 X79.582 Y54.641 E39.5304
G1 X79.589 Y54.629 E39.5317
G1 X80.087 Y53.839 E39.6178
G1 X80.194 Y53.670 F1200
G92 E0
G1 E-1.5000 F1800
; inner perimeter
G1 X84.601 Y56.880 F4800
G1 E0.0000 F1800
G92 E0
G1 X84.880 Y56.601 E0.0363 F1080
G1 X85.220 Y56.386 E0.0734
G1 X85.599 Y56.253 E0.1105
G1 X86.065 Y56.200 E0.1537
G1 X163.935 Y56.200 E7.3330
G1 X164.401 Y56.253 E7.3763
G1 X164.780 Y56.386 E7.4133
G1 X165.120 Y56.601 E7.4505
G1 X165.399 Y56.880 E7.4868
G1 X165.614 Y57.220 E7.5239
G1 X165.747 Y57.599 E7.5610
G1 X165.800 Y58.065 E7.6042
G1 X165.800 Y84.822 E10.0711
G1 X159.770 Y84.821 E10.6270
G1 X159.509 Y84.795 E10.6512
G1 X159.234 Y84.821 E10.6767
G1 X90.766 Y84.821 E16.9892
G1 X90.491 Y84.795 E17.0147
G1 X90.230 Y84.821 E17.0388
G1 X84.200 Y84.822 E17.5948
G1 X84.200 Y58.068 E20.0615
G1 X84.253 Y57.599 E20.1049
G1 X84.386 Y57.220 E20.1420
G1 X84.494 Y57.049 E20.1607
G1 X84.601 Y56.880 F1080
G1 X84.224 Y56.578 F4800
G92 E0
G1 X84.578 Y56.224 E0.0462 F1080
G1 X85.010 Y55.951 E0.0933
G1 X85.491 Y55.782 E0.1403
G1 X86.038 Y55.720 E0.1911
G1 X163.962 Y55.720 E7.3754
G1 X164.509 Y55.782 E7.4261
G1 X164.990 Y55.951 E7.4732
G1 X165.422 Y56.224 E7.5202
G1 X165.776 Y56.578 E7.5664
G1 X166.049 Y57.010 E7.6135
G1 X166.218 Y57.491 E7.6606
G1 X166.280 Y58.038 E7.7113
G1 X166.280 Y85.302 E10.2249
G1 X159.746 Y85.301 E10.8274
G1 X159.508 Y85.277 E10.8494
G1 X159.256 Y85.301 E10.8727
G1 X90.744 Y85.301 E17.1894
G1 X90.492 Y85.277 E17.2127
G1 X90.254 Y85.301 E17.2347
G1 X83.720 Y85.302 E17.8372
G1 X83.720 Y58.041 E20.3506
G1 X83.782 Y57.491 E20.4016
G1 X83.951 Y57.010 E20.4486
G1 X84.117 Y56.747 E20.4772
G1 X84.224 Y56.578 F1080
; outer perimeter
G1 X83.846 Y56.277 F4800
G92 E0
G1 X84.277 Y55.846 E0.0561 F960
G1 X84.800 Y55.516 E0.1131
G1 X85.383 Y55.311 E0.1701
G1 X86.011 Y55.240 E0.2284
G1 X163.989 Y55.240 E7.4177
G1 X164.617 Y55.311 E7.4760
G1 X165.200 Y55.516 E7.5330
G1 X165.723 Y55.846 E7.5900
G1 X166.154 Y56.277 E7.6461
G1 X166.484 Y56.800 E7.7031
G1 X166.689 Y57.383 E7.7602
G1 X166.760 Y58.011 E7.8184
G1 X166.760 Y85.782 E10.3788
G1 X159.722 Y85.781 E11.0277
G1 X159.507 Y85.759 E11.0477
G1 X159.279 Y85.781 E11.0688
G1 X90.721 Y85.781 E17.3896
G1 X90.493 Y85.759 E17.4107
G1 X90.278 Y85.781 E17.4306
G1 X83.240 Y85.782 E18.0795
G1 X83.240 Y58.014 E20.6397
G1 X83.311 Y57.383 E20.6982
G1 X83.516 Y56.800 E20.7552
G1 X83.740 Y56.446 E20.7938
G1 X83.846 Y56.277 F960
G1 X84.277 Y55.846 F2400
G1 X84.800 Y55.516 F2400
G1 X85.383 Y55.311 F2400
G1 X85.537 Y55.294 F2400
; solid layer
