; G-Code generated by Simplify3D(R) Version 4.0.0
; Jul 1, 2018 at 9:25:13 PM
; Settings Summary
;   processName,Process1
;   applyToModels,customizable-door-latch-right-side
;   profileName,Prusa Research Original Prusa i3 MK2 (modified)
;   profileVersion,2017-07-23 22:27:18
;   baseProfile,
;   printMaterial,PLA
;   printQuality,Fast
;   printExtruders,
;   extruderName,Primary Extruder
;   extruderToolheadNumber,0
;   extruderDiameter,0.4
;   extruderAutoWidth,1
;   extruderWidth,0.48
;   extrusionMultiplier,1.1
;   extruderUseRetract,1
;   extruderRetractionDistance,1.5
;   extruderExtraRestartDistance,0
;   extruderRetractionZLift,0
;   extruderRetractionSpeed,1800
;   extruderUseCoasting,1
;   extruderCoastingDistance,0.2
;   extruderUseWipe,1
;   extruderWipeDistance,2
;   primaryExtruder,0
;   layerHeight,0.35
;   topSolidLayers,5
;   bottomSolidLayers,5
;   perimeterOutlines,4
;   printPerimetersInsideOut,1
;   startPointOption,2
;   startPointOriginX,0
;   startPointOriginY,0
;   sequentialIslands,0
;   spiralVaseMode,0
;   firstLayerHeightPercentage,120
;   firstLayerWidthPercentage,100
;   firstLayerUnderspeed,0.5
;   useRaft,0
;   raftExtruder,0
;   raftTopLayers,3
;   raftBaseLayers,2
;   raftOffset,3
;   raftSeparationDistance,0.14
;   raftTopInfill,100
;   aboveRaftSpeedMultiplier,0.3
;   useSkirt,1
;   skirtExtruder,0
;   skirtLayers,1
;   skirtOutlines,1
;   skirtOffset,4
;   usePrimePillar,0
;   primePillarExtruder,999
;   primePillarWidth,12
;   primePillarLocation,7
;   primePillarSpeedMultiplier,1
;   useOozeShield,0
;   oozeShieldExtruder,999
;   oozeShieldOffset,2
;   oozeShieldOutlines,1
;   oozeShieldSidewallShape,1
;   oozeShieldSidewallAngle,30
;   oozeShieldSpeedMultiplier,1
;   infillExtruder,0
;   internalInfillPattern,Full Honeycomb
;   externalInfillPattern,Rectilinear
;   infillPercentage,25
;   outlineOverlapPercentage,20
;   infillExtrusionWidthPercentage,100
;   minInfillLength,5
;   infillLayerInterval,1
;   internalInfillAngles,0,120,-120
;   overlapInternalInfillAngles,0
;   externalInfillAngles,45,-45
;   generateSupport,0
;   supportExtruder,0
;   supportInfillPercentage,25
;   supportExtraInflation,0
;   supportBaseLayers,0
;   denseSupportExtruder,0
;   denseSupportLayers,0
;   denseSupportInfillPercentage,70
;   supportLayerInterval,1
;   supportHorizontalPartOffset,0.3
;   supportUpperSeparationLayers,1
;   supportLowerSeparationLayers,1
;   supportType,0
;   supportGridSpacing,4
;   maxOverhangAngle,45
;   supportAngles,0
;   temperatureName,Primary Extruder,Heated Bed
;   temperatureNumber,0,0
;   temperatureSetpointCount,1,1
;   temperatureSetpointLayers,1,1
;   temperatureSetpointTemperatures,210,60
;   temperatureStabilizeAtStartup,1,1
;   temperatureHeatedBed,0,1
;   temperatureRelayBetweenLayers,0,0
;   temperatureRelayBetweenLoops,0,0
;   fanLayers,1,2
;   fanSpeeds,0,100
;   blipFanToFullPower,0
;   adjustSpeedForCooling,1
;   minSpeedLayerTime,15
;   minCoolingSpeedSlowdown,20
;   increaseFanForCooling,0
;   minFanLayerTime,45
;   maxCoolingFanSpeed,100
;   increaseFanForBridging,0
;   bridgingFanSpeed,100
;   use5D,1
;   relativeEdistances,0
;   allowEaxisZeroing,1
;   independentExtruderAxes,0
;   includeM10123,0
;   stickySupport,1
;   applyToolheadOffsets,0
;   gcodeXoffset,0
;   gcodeYoffset,0
;   gcodeZoffset,0
;   overrideMachineDefinition,1
;   machineTypeOverride,0
;   strokeXoverride,250
;   strokeYoverride,210
;   strokeZoverride,200
;   originOffsetXoverride,0
;   originOffsetYoverride,0
;   originOffsetZoverride,0
;   homeXdirOverride,-1
;   homeYdirOverride,-1
;   homeZdirOverride,-1
;   flipXoverride,1
;   flipYoverride,-1
;   flipZoverride,1
;   toolheadOffsets,0,0|0,0|0,0|0,0|0,0|0,0
;   overrideFirmwareConfiguration,1
;   firmwareTypeOverride,RepRap (Marlin/Repetier/Sprinter)
;   GPXconfigOverride,r2
;   baudRateOverride,250000
;   overridePrinterModels,1
;   printerModelsOverride
;   startingGcode,M115 U3.0.7 ; use the latest firmware version,G28 W ; home all axes without mesh bed leveling,G80 ; run mesh bed leveling routine,G1 Y-3.0 F1000.0 ; prepare to prime,G92 E0 ; reset extrusion distance,G1 X60.0 E9.0  F1000.0 ; priming,G1 X100.0 E12.5  F1000.0 ; priming
;   layerChangeGcode,
;   retractionGcode,
;   toolChangeGcode,
;   endingGcode,M106 S0 ; turn off cooling fan,M104 S0 ; turn off extruder,M140 S0 ; turn off bed,G1 X0 Y200 ; part removal,M84 ; disable motors
;   exportFileFormat,gcode
;   celebration,0
;   celebrationSong,Random Song
;   postProcessing,
;   defaultSpeed,2400
;   outlineUnderspeed,0.8
;   solidInfillUnderspeed,0.8
;   supportUnderspeed,0.8
;   rapidXYspeed,4800
;   rapidZspeed,1002
;   minBridgingArea,50
;   bridgingExtraInflation,0
;   bridgingExtrusionMultiplier,1
;   bridgingSpeedMultiplier,1
;   useFixedBridgingAngle,0
;   fixedBridgingAngle,0
;   applyBridgingToPerimeters,0
;   filamentDiameters,1.75|1.75|1.75|1.75|1.75|1.75
;   filamentPricesPerKg,199|46|46|46|46|46
;   filamentDensities,1.25|1.25|1.25|1.25|1.25|1.25
;   useMinPrintHeight,0
;   minPrintHeight,0
;   useMaxPrintHeight,1
;   maxPrintHeight,235
;   useDiaphragm,0
;   diaphragmLayerInterval,20
;   robustSlicing,1
;   mergeAllIntoSolid,0
;   onlyRetractWhenCrossingOutline,1
;   retractBetweenLayers,1
;   useRetractionMinTravel,0
;   retractionMinTravel,3
;   retractWhileWiping,1
;   onlyWipeOutlines,1
;   avoidCrossingOutline,0
;   maxMovementDetourFactor,3
;   toolChangeRetractionDistance,12
;   toolChangeExtraRestartDistance,-0.5
;   toolChangeRetractionSpeed,600
;   externalThinWallType,0
;   internalThinWallType,2
;   thinWallAllowedOverlapPercentage,25
;   singleExtrusionMinLength,1
;   singleExtrusionMinPrintingWidthPercentage,50
;   singleExtrusionMaxPrintingWidthPercentage,200
;   singleExtrusionEndpointExtension,0.2
;   horizontalSizeCompensation,0
G90
M82
M106 S0
M140 S60
M190 S60
M104 S210 T0
M109 S210 T0
M115 U3.0.7 ; use the latest firmware version
G28 W ; home all axes without mesh bed leveling
G80 ; run mesh bed leveling routine
G1 Y-3.0 F1000.0 ; prepare to prime
G92 E0 ; reset extrusion distance
G1 X60.0 E9.0  F1000.0 ; priming
G1 X100.0 E12.5  F1000.0 ; priming
G92 E0
G1 E-1.5000 F1800
G1 Z0.420 F1002
; process Process1
; layer 1, Z = 0.420
T0
; tool H0.420 W0.480
; skirt
G1 X78.217 Y78.607 F4800
G1 E0.0000 F540
G92 E0
G1 X78.360 Y78.464 E0.0187 F1200
G1 X78.364 Y78.460 E0.0192
G1 X80.696 Y76.347 E0.3093
G1 X80.700 Y76.343 E0.3098
G1 X80.857 Y76.215 E0.3285
G1 X80.861 Y76.211 E0.3290
G1 X83.388 Y74.337 E0.6191
G1 X83.393 Y74.334 E0.6196
G1 X83.561 Y74.221 E0.6383
G1 X83.566 Y74.218 E0.6388
G1 X86.625 Y72.384 E0.9676
G1 X86.755 Y72.383 E0.9796
G1 X90.925 Y74.745 E1.4214
G1 X90.990 Y74.857 E1.4334
G1 X90.990 Y87.352 E2.5854
G1 X91.722 Y86.809 E2.6694
G1 X91.727 Y86.806 E2.6699
G1 X91.895 Y86.693 E2.6886
G1 X91.900 Y86.690 E2.6891
G1 X93.336 Y85.829 E2.8435
G1 X93.341 Y85.826 E2.8440
G1 X93.519 Y85.731 E2.8627
G1 X93.525 Y85.728 E2.8632
G1 X95.038 Y85.013 E3.0176
G1 X95.044 Y85.010 E3.0181
G1 X95.231 Y84.933 E3.0368
G1 X95.236 Y84.931 E3.0373
G1 X96.813 Y84.367 E3.1917
G1 X96.818 Y84.365 E3.1922
G1 X97.012 Y84.306 E3.2109
G1 X97.017 Y84.304 E3.2114
G1 X98.641 Y83.898 E3.3658
G1 X98.647 Y83.896 E3.3663
G1 X98.846 Y83.857 E3.3850
G1 X98.851 Y83.856 E3.3855
G1 X100.508 Y83.610 E3.5399
G1 X100.513 Y83.609 E3.5404
G1 X100.715 Y83.590 E3.5591
G1 X100.721 Y83.589 E3.5596
G1 X102.343 Y83.510 E3.7093
G1 X102.345 Y83.509 E3.7096
G1 X102.446 Y83.507 E3.7189
G1 X102.449 Y83.507 E3.7192
G1 X162.551 Y83.507 E9.2604
G1 X162.554 Y83.507 E9.2606
G1 X162.655 Y83.509 E9.2699
G1 X162.657 Y83.510 E9.2702
G1 X164.279 Y83.589 E9.4199
G1 X164.285 Y83.590 E9.4205
G1 X164.487 Y83.609 E9.4391
G1 X164.492 Y83.610 E9.4397
G1 X166.149 Y83.856 E9.5940
G1 X166.154 Y83.857 E9.5946
G1 X166.353 Y83.896 E9.6132
G1 X166.359 Y83.898 E9.6138
G1 X167.983 Y84.304 E9.7681
G1 X167.988 Y84.306 E9.7687
G1 X168.182 Y84.365 E9.7873
G1 X168.188 Y84.367 E9.7879
G1 X169.764 Y84.931 E9.9422
G1 X169.769 Y84.933 E9.9428
G1 X169.956 Y85.010 E9.9614
G1 X169.962 Y85.013 E9.9620
G1 X171.475 Y85.728 E10.1163
G1 X171.481 Y85.731 E10.1169
G1 X171.659 Y85.826 E10.1355
G1 X171.664 Y85.829 E10.1361
G1 X173.100 Y86.690 E10.2904
G1 X173.105 Y86.693 E10.2910
G1 X173.273 Y86.806 E10.3096
G1 X173.278 Y86.809 E10.3102
G1 X174.623 Y87.806 E10.4645
G1 X174.627 Y87.810 E10.4651
G1 X174.784 Y87.938 E10.4837
G1 X174.788 Y87.942 E10.4843
G1 X176.029 Y89.067 E10.6386
G1 X176.033 Y89.071 E10.6392
G1 X176.176 Y89.214 E10.6578
G1 X176.180 Y89.218 E10.6584
G1 X177.305 Y90.459 E10.8127
G1 X177.309 Y90.463 E10.8133
G1 X177.437 Y90.619 E10.8320
G1 X177.441 Y90.624 E10.8325
G1 X178.438 Y91.969 E10.9869
G1 X178.441 Y91.974 E10.9874
G1 X178.554 Y92.142 E11.0060
G1 X178.557 Y92.147 E11.0066
G1 X179.418 Y93.583 E11.1609
G1 X179.420 Y93.588 E11.1615
G1 X179.516 Y93.766 E11.1801
G1 X179.518 Y93.772 E11.1807
G1 X180.234 Y95.285 E11.3351
G1 X180.237 Y95.291 E11.3356
G1 X180.314 Y95.478 E11.3542
G1 X180.316 Y95.483 E11.3548
G1 X180.880 Y97.059 E11.5092
G1 X180.882 Y97.065 E11.5097
G1 X180.941 Y97.259 E11.5283
G1 X180.942 Y97.264 E11.5289
G1 X181.348 Y98.883 E11.6827
G1 X181.349 Y98.888 E11.6832
G1 X181.388 Y99.086 E11.7018
G1 X181.389 Y99.092 E11.7024
G1 X181.637 Y100.753 E11.8572
G1 X181.637 Y100.759 E11.8578
G1 X181.657 Y100.961 E11.8765
G1 X181.658 Y100.967 E11.8771
G1 X181.740 Y102.640 E12.0315
G1 X181.740 Y102.646 E12.0320
G1 X181.740 Y102.848 E12.0507
G1 X181.740 Y102.854 E12.0512
G1 X181.658 Y104.526 E12.2056
G1 X181.657 Y104.532 E12.2061
G1 X181.637 Y104.733 E12.2248
G1 X181.637 Y104.739 E12.2253
G1 X181.391 Y106.395 E12.3797
G1 X181.390 Y106.401 E12.3802
G1 X181.351 Y106.600 E12.3989
G1 X181.349 Y106.605 E12.3994
G1 X180.942 Y108.230 E12.5538
G1 X180.941 Y108.235 E12.5543
G1 X180.882 Y108.429 E12.5730
G1 X180.880 Y108.434 E12.5735
G1 X180.316 Y110.011 E12.7279
G1 X180.314 Y110.016 E12.7284
G1 X180.237 Y110.203 E12.7471
G1 X180.234 Y110.209 E12.7476
G1 X179.518 Y111.722 E12.9020
G1 X179.516 Y111.727 E12.9025
G1 X179.420 Y111.906 E12.9212
G1 X179.418 Y111.911 E12.9217
G1 X178.557 Y113.347 E13.0761
G1 X178.554 Y113.352 E13.0766
G1 X178.441 Y113.520 E13.0953
G1 X178.438 Y113.525 E13.0958
G1 X177.441 Y114.870 E13.2502
G1 X177.437 Y114.874 E13.2507
G1 X177.309 Y115.031 E13.2694
G1 X177.305 Y115.035 E13.2699
G1 X176.180 Y116.276 E13.4243
G1 X176.176 Y116.280 E13.4248
G1 X176.033 Y116.423 E13.4435
G1 X176.029 Y116.427 E13.4440
G1 X174.788 Y117.552 E13.5984
G1 X174.784 Y117.555 E13.5989
G1 X174.627 Y117.684 E13.6176
G1 X174.623 Y117.687 E13.6181
G1 X173.278 Y118.685 E13.7725
G1 X173.273 Y118.688 E13.7730
G1 X173.105 Y118.801 E13.7917
G1 X173.100 Y118.804 E13.7922
G1 X171.664 Y119.664 E13.9466
G1 X171.659 Y119.667 E13.9471
G1 X171.481 Y119.763 E13.9658
G1 X171.475 Y119.765 E13.9663
G1 X169.962 Y120.481 E14.1207
G1 X169.956 Y120.484 E14.1212
G1 X169.769 Y120.561 E14.1399
G1 X169.764 Y120.563 E14.1404
G1 X168.188 Y121.127 E14.2948
G1 X168.182 Y121.129 E14.2953
G1 X167.988 Y121.188 E14.3140
G1 X167.983 Y121.189 E14.3145
G1 X166.359 Y121.596 E14.4689
G1 X166.353 Y121.597 E14.4694
G1 X166.154 Y121.637 E14.4881
G1 X166.149 Y121.638 E14.4886
G1 X164.492 Y121.884 E14.6430
G1 X164.487 Y121.884 E14.6435
G1 X164.285 Y121.904 E14.6622
G1 X164.279 Y121.905 E14.6627
G1 X162.657 Y121.984 E14.8124
G1 X162.655 Y121.984 E14.8127
G1 X162.553 Y121.987 E14.8220
G1 X162.551 Y121.987 E14.8223
G1 X130.815 Y121.987 E17.7483
G1 X129.036 Y124.386 E18.0236
G1 X129.032 Y124.390 E18.0241
G1 X128.904 Y124.547 E18.0428
G1 X128.900 Y124.551 E18.0433
G1 X126.787 Y126.882 E18.3334
G1 X126.783 Y126.887 E18.3340
G1 X126.640 Y127.030 E18.3526
G1 X126.636 Y127.034 E18.3532
G1 X124.304 Y129.147 E18.6432
G1 X124.300 Y129.151 E18.6438
G1 X124.143 Y129.279 E18.6624
G1 X124.139 Y129.283 E18.6630
G1 X121.612 Y131.157 E18.9531
G1 X121.607 Y131.160 E18.9536
G1 X121.439 Y131.273 E18.9723
G1 X121.434 Y131.276 E18.9728
G1 X118.735 Y132.893 E19.2629
G1 X118.730 Y132.896 E19.2634
G1 X118.551 Y132.992 E19.2821
G1 X118.546 Y132.994 E19.2826
G1 X115.702 Y134.339 E19.5727
G1 X115.697 Y134.342 E19.5732
G1 X115.510 Y134.419 E19.5919
G1 X115.504 Y134.421 E19.5924
G1 X112.542 Y135.481 E19.8825
G1 X112.536 Y135.483 E19.8831
G1 X112.343 Y135.542 E19.9017
G1 X112.337 Y135.543 E19.9022
G1 X109.285 Y136.308 E20.1923
G1 X109.279 Y136.309 E20.1929
G1 X109.081 Y136.349 E20.2115
G1 X109.075 Y136.350 E20.2121
G1 X105.963 Y136.811 E20.5022
G1 X105.957 Y136.812 E20.5027
G1 X105.755 Y136.832 E20.5213
G1 X105.750 Y136.832 E20.5219
G1 X102.607 Y136.987 E20.8120
G1 X102.601 Y136.987 E20.8125
G1 X102.399 Y136.987 E20.8312
G1 X102.393 Y136.987 E20.8317
G1 X99.250 Y136.832 E21.1218
G1 X99.245 Y136.832 E21.1223
G1 X99.043 Y136.812 E21.1410
G1 X99.037 Y136.811 E21.1415
G1 X95.925 Y136.350 E21.4316
G1 X95.919 Y136.349 E21.4321
G1 X95.721 Y136.309 E21.4508
G1 X95.715 Y136.308 E21.4514
G1 X92.663 Y135.543 E21.7414
G1 X92.657 Y135.542 E21.7420
G1 X92.464 Y135.483 E21.7606
G1 X92.458 Y135.481 E21.7612
G1 X89.496 Y134.421 E22.0513
G1 X89.490 Y134.419 E22.0518
G1 X89.303 Y134.342 E22.0704
G1 X89.298 Y134.339 E22.0710
G1 X86.454 Y132.994 E22.3611
G1 X86.449 Y132.992 E22.3616
G1 X86.270 Y132.896 E22.3803
G1 X86.265 Y132.893 E22.3808
G1 X83.566 Y131.276 E22.6709
G1 X83.561 Y131.273 E22.6714
G1 X83.393 Y131.160 E22.6901
G1 X83.388 Y131.157 E22.6906
G1 X80.861 Y129.283 E22.9807
G1 X80.857 Y129.279 E22.9813
G1 X80.700 Y129.151 E22.9999
G1 X80.696 Y129.147 E23.0004
G1 X78.364 Y127.034 E23.2905
G1 X78.360 Y127.030 E23.2911
G1 X78.217 Y126.887 E23.3097
G1 X78.213 Y126.882 E23.3103
G1 X76.100 Y124.551 E23.6003
G1 X76.096 Y124.547 E23.6009
G1 X75.968 Y124.390 E23.6195
G1 X75.964 Y124.386 E23.6201
G1 X74.090 Y121.859 E23.9102
G1 X74.087 Y121.854 E23.9107
G1 X73.974 Y121.685 E23.9294
G1 X73.971 Y121.680 E23.9299
G1 X72.354 Y118.982 E24.2200
G1 X72.351 Y118.977 E24.2205
G1 X72.255 Y118.798 E24.2392
G1 X72.253 Y118.793 E24.2397
G1 X70.907 Y115.949 E24.5298
G1 X70.905 Y115.943 E24.5303
G1 X70.828 Y115.757 E24.5490
G1 X70.826 Y115.751 E24.5495
G1 X69.766 Y112.789 E24.8396
G1 X69.764 Y112.783 E24.8402
G1 X69.705 Y112.589 E24.8588
G1 X69.703 Y112.584 E24.8594
G1 X68.939 Y109.532 E25.1494
G1 X68.938 Y109.526 E25.1500
G1 X68.898 Y109.328 E25.1686
G1 X68.897 Y109.322 E25.1692
G1 X68.436 Y106.209 E25.4593
G1 X68.435 Y106.204 E25.4598
G1 X68.415 Y106.002 E25.4785
G1 X68.415 Y105.996 E25.4790
G1 X68.260 Y102.854 E25.7691
G1 X68.260 Y102.848 E25.7696
G1 X68.260 Y102.646 E25.7883
G1 X68.260 Y102.640 E25.7888
G1 X68.415 Y99.497 E26.0789
G1 X68.415 Y99.491 E26.0794
G1 X68.435 Y99.290 E26.0981
G1 X68.436 Y99.284 E26.0986
G1 X68.897 Y96.172 E26.3887
G1 X68.898 Y96.166 E26.3893
G1 X68.938 Y95.968 E26.4079
G1 X68.939 Y95.962 E26.4085
G1 X69.703 Y92.910 E26.6985
G1 X69.705 Y92.904 E26.6991
G1 X69.764 Y92.711 E26.7177
G1 X69.766 Y92.705 E26.7183
G1 X70.826 Y89.743 E27.0084
G1 X70.828 Y89.737 E27.0089
G1 X70.905 Y89.550 E27.0276
G1 X70.907 Y89.545 E27.0281
G1 X72.253 Y86.701 E27.3182
G1 X72.255 Y86.695 E27.3187
G1 X72.351 Y86.517 E27.3374
G1 X72.354 Y86.512 E27.3379
G1 X73.971 Y83.813 E27.6280
G1 X73.974 Y83.808 E27.6285
G1 X74.087 Y83.640 E27.6472
G1 X74.090 Y83.635 E27.6477
G1 X75.964 Y81.108 E27.9378
G1 X75.968 Y81.103 E27.9384
G1 X76.096 Y80.947 E27.9570
G1 X76.100 Y80.943 E27.9576
G1 X78.083 Y78.755 E28.2297
G1 X78.213 Y78.611 F1200
G1 X78.217 Y78.607 F1200
G92 E0
G1 E-1.5000 F1800
; inner perimeter
G1 X82.476 Y82.723 F4800
G1 E0.0000 F1800
G92 E0
G1 X84.535 Y80.857 E0.2562 F1080
G1 X84.872 Y80.607 E0.2949
G1 X85.070 Y80.707 E0.3153
G1 X85.070 Y105.177 E2.5714
G1 X85.259 Y105.177 E2.5888
G1 X85.403 Y106.148 E2.6793
G1 X85.819 Y107.807 E2.8370
G1 X86.395 Y109.418 E2.9947
G1 X87.126 Y110.964 E3.1524
G1 X88.006 Y112.432 E3.3102
G1 X89.025 Y113.806 E3.4679
G1 X90.174 Y115.073 E3.6256
G1 X91.441 Y116.222 E3.7833
G1 X92.815 Y117.241 E3.9410
G1 X94.283 Y118.121 E4.0988
G1 X95.829 Y118.852 E4.2565
G1 X97.440 Y119.428 E4.4142
G1 X99.099 Y119.844 E4.5719
G1 X100.070 Y119.988 E4.6624
G1 X100.070 Y120.177 E4.6798
