; G-Code generated by Simplify3D(R) Version 4.0.0
; Jul 1, 2018 at 9:24:59 PM
; Settings Summary
;   processName,Process1
;   applyToModels,customizable-door-latch-left-side
;   profileName,Prusa Research Original Prusa i3 MK2 (modified)
;   profileVersion,2017-07-23 22:27:18
;   baseProfile,
;   printMaterial,PLA
;   printQuality,Fast
;   printExtruders,
;   extruderName,Primary Extruder
;   extruderToolheadNumber,0
;   extruderDiameter,0.4
;   extruderAutoWidth,1
;   extruderWidth,0.48
;   extrusionMultiplier,1.1
;   extruderUseRetract,1
;   extruderRetractionDistance,1.5
;   extruderExtraRestartDistance,0
;   extruderRetractionZLift,0
;   extruderRetractionSpeed,1800
;   extruderUseCoasting,1
;   extruderCoastingDistance,0.2
;   extruderUseWipe,1
;   extruderWipeDistance,2
;   primaryExtruder,0
;   layerHeight,0.35
;   topSolidLayers,5
;   bottomSolidLayers,5
;   perimeterOutlines,4
;   printPerimetersInsideOut,1
;   startPointOption,2
;   startPointOriginX,0
;   startPointOriginY,0
;   sequentialIslands,0
;   spiralVaseMode,0
;   firstLayerHeightPercentage,120
;   firstLayerWidthPercentage,100
;   firstLayerUnderspeed,0.5
;   useRaft,0
;   raftExtruder,0
;   raftTopLayers,3
;   raftBaseLayers,2
;   raftOffset,3
;   raftSeparationDistance,0.14
;   raftTopInfill,100
;   aboveRaftSpeedMultiplier,0.3
;   useSkirt,1
;   skirtExtruder,0
;   skirtLayers,1
;   skirtOutlines,1
;   skirtOffset,4
;   usePrimePillar,0
;   primePillarExtruder,999
;   primePillarWidth,12
;   primePillarLocation,7
;   primePillarSpeedMultiplier,1
;   useOozeShield,0
;   oozeShieldExtruder,999
;   oozeShieldOffset,2
;   oozeShieldOutlines,1
;   oozeShieldSidewallShape,1
;   oozeShieldSidewallAngle,30
;   oozeShieldSpeedMultiplier,1
;   infillExtruder,0
;   internalInfillPattern,Full Honeycomb
;   externalInfillPattern,Rectilinear
;   infillPercentage,25
;   outlineOverlapPercentage,20
;   infillExtrusionWidthPercentage,100
;   minInfillLength,5
;   infillLayerInterval,1
;   internalInfillAngles,0,120,-120
;   overlapInternalInfillAngles,0
;   externalInfillAngles,45,-45
;   generateSupport,0
;   supportExtruder,0
;   supportInfillPercentage,25
;   supportExtraInflation,0
;   supportBaseLayers,0
;   denseSupportExtruder,0
;   denseSupportLayers,0
;   denseSupportInfillPercentage,70
;   supportLayerInterval,1
;   supportHorizontalPartOffset,0.3
;   supportUpperSeparationLayers,1
;   supportLowerSeparationLayers,1
;   supportType,0
;   supportGridSpacing,4
;   maxOverhangAngle,45
;   supportAngles,0
;   temperatureName,Primary Extruder,Heated Bed
;   temperatureNumber,0,0
;   temperatureSetpointCount,1,1
;   temperatureSetpointLayers,1,1
;   temperatureSetpointTemperatures,210,60
;   temperatureStabilizeAtStartup,1,1
;   temperatureHeatedBed,0,1
;   temperatureRelayBetweenLayers,0,0
;   temperatureRelayBetweenLoops,0,0
;   fanLayers,1,2
;   fanSpeeds,0,100
;   blipFanToFullPower,0
;   adjustSpeedForCooling,1
;   minSpeedLayerTime,15
;   minCoolingSpeedSlowdown,20
;   increaseFanForCooling,0
;   minFanLayerTime,45
;   maxCoolingFanSpeed,100
;   increaseFanForBridging,0
;   bridgingFanSpeed,100
;   use5D,1
;   relativeEdistances,0
;   allowEaxisZeroing,1
;   independentExtruderAxes,0
;   includeM10123,0
;   stickySupport,1
;   applyToolheadOffsets,0
;   gcodeXoffset,0
;   gcodeYoffset,0
;   gcodeZoffset,0
;   overrideMachineDefinition,1
;   machineTypeOverride,0
;   strokeXoverride,250
;   strokeYoverride,210
;   strokeZoverride,200
;   originOffsetXoverride,0
;   originOffsetYoverride,0
;   originOffsetZoverride,0
;   homeXdirOverride,-1
;   homeYdirOverride,-1
;   homeZdirOverride,-1
;   flipXoverride,1
;   flipYoverride,-1
;   flipZoverride,1
;   toolheadOffsets,0,0|0,0|0,0|0,0|0,0|0,0
;   overrideFirmwareConfiguration,1
;   firmwareTypeOverride,RepRap (Marlin/Repetier/Sprinter)
;   GPXconfigOverride,r2
;   baudRateOverride,250000
;   overridePrinterModels,1
;   printerModelsOverride
;   startingGcode,M115 U3.0.7 ; use the latest firmware version,G28 W ; home all axes without mesh bed leveling,G80 ; run mesh bed leveling routine,G1 Y-3.0 F1000.0 ; prepare to prime,G92 E0 ; reset extrusion distance,G1 X60.0 E9.0  F1000.0 ; priming,G1 X100.0 E12.5  F1000.0 ; priming
;   layerChangeGcode,
;   retractionGcode,
;   toolChangeGcode,
;   endingGcode,M106 S0 ; turn off cooling fan,M104 S0 ; turn off extruder,M140 S0 ; turn off bed,G1 X0 Y200 ; part removal,M84 ; disable motors
;   exportFileFormat,gcode
;   celebration,0
;   celebrationSong,Random Song
;   postProcessing,
;   defaultSpeed,2400
;   outlineUnderspeed,0.8
;   solidInfillUnderspeed,0.8
;   supportUnderspeed,0.8
;   rapidXYspeed,4800
;   rapidZspeed,1002
;   minBridgingArea,50
;   bridgingExtraInflation,0
;   bridgingExtrusionMultiplier,1
;   bridgingSpeedMultiplier,1
;   useFixedBridgingAngle,0
;   fixedBridgingAngle,0
;   applyBridgingToPerimeters,0
;   filamentDiameters,1.75|1.75|1.75|1.75|1.75|1.75
;   filamentPricesPerKg,199|46|46|46|46|46
;   filamentDensities,1.25|1.25|1.25|1.25|1.25|1.25
;   useMinPrintHeight,0
;   minPrintHeight,0
;   useMaxPrintHeight,1
;   maxPrintHeight,235
;   useDiaphragm,0
;   diaphragmLayerInterval,20
;   robustSlicing,1
;   mergeAllIntoSolid,0
;   onlyRetractWhenCrossingOutline,1
;   retractBetweenLayers,1
;   useRetractionMinTravel,0
;   retractionMinTravel,3
;   retractWhileWiping,1
;   onlyWipeOutlines,1
;   avoidCrossingOutline,0
;   maxMovementDetourFactor,3
;   toolChangeRetractionDistance,12
;   toolChangeExtraRestartDistance,-0.5
;   toolChangeRetractionSpeed,600
;   externalThinWallType,0
;   internalThinWallType,2
;   thinWallAllowedOverlapPercentage,25
;   singleExtrusionMinLength,1
;   singleExtrusionMinPrintingWidthPercentage,50
;   singleExtrusionMaxPrintingWidthPercentage,200
;   singleExtrusionEndpointExtension,0.2
;   horizontalSizeCompensation,0
G90
M82
M106 S0
M140 S60
M190 S60
M104 S210 T0
M109 S210 T0
M115 U3.0.7 ; use the latest firmware version
G28 W ; home all axes without mesh bed leveling
G80 ; run mesh bed leveling routine
G1 Y-3.0 F1000.0 ; prepare to prime
G92 E0 ; reset extrusion distance
G1 X60.0 E9.0  F1000.0 ; priming
G1 X100.0 E12.5  F1000.0 ; priming
G92 E0
G1 E-1.5000 F1800
G1 Z0.420 F1002
; process Process1
; layer 1, Z = 0.420
T0
; tool H0.420 W0.480
; skirt
G1 X75.212 Y87.942 F4800
G1 E0.0000 F540
G92 E0
G1 X75.216 Y87.938 E0.0005 F1200
G1 X75.372 Y87.810 E0.0192
G1 X75.377 Y87.806 E0.0197
G1 X76.722 Y86.809 E0.1741
G1 X76.727 Y86.806 E0.1746
G1 X76.895 Y86.693 E0.1933
G1 X76.900 Y86.690 E0.1938
G1 X78.336 Y85.829 E0.3482
G1 X78.341 Y85.826 E0.3487
G1 X78.519 Y85.731 E0.3674
G1 X78.525 Y85.728 E0.3679
G1 X80.038 Y85.013 E0.5223
G1 X80.044 Y85.010 E0.5229
G1 X80.231 Y84.933 E0.5415
G1 X80.236 Y84.931 E0.5420
G1 X81.812 Y84.367 E0.6964
G1 X81.818 Y84.365 E0.6969
G1 X82.012 Y84.306 E0.7156
G1 X82.017 Y84.304 E0.7161
G1 X83.641 Y83.898 E0.8705
G1 X83.647 Y83.896 E0.8710
G1 X83.846 Y83.857 E0.8897
G1 X83.851 Y83.856 E0.8902
G1 X85.508 Y83.610 E1.0446
G1 X85.513 Y83.609 E1.0452
G1 X85.715 Y83.590 E1.0638
G1 X85.721 Y83.589 E1.0644
G1 X87.343 Y83.510 E1.2141
G1 X87.345 Y83.509 E1.2143
G1 X87.446 Y83.507 E1.2237
G1 X87.449 Y83.507 E1.2239
G1 X147.551 Y83.507 E6.7651
G1 X147.554 Y83.507 E6.7653
G1 X147.655 Y83.509 E6.7747
G1 X147.657 Y83.510 E6.7749
G1 X149.279 Y83.589 E6.9246
G1 X149.285 Y83.590 E6.9252
G1 X149.487 Y83.609 E6.9438
G1 X149.492 Y83.610 E6.9444
G1 X151.149 Y83.856 E7.0987
G1 X151.154 Y83.857 E7.0993
G1 X151.353 Y83.896 E7.1179
G1 X151.359 Y83.898 E7.1185
G1 X152.983 Y84.304 E7.2728
G1 X152.988 Y84.306 E7.2734
G1 X153.182 Y84.365 E7.2920
G1 X153.187 Y84.367 E7.2926
G1 X154.764 Y84.931 E7.4469
G1 X154.769 Y84.933 E7.4475
G1 X154.956 Y85.010 E7.4661
G1 X154.962 Y85.013 E7.4667
G1 X156.475 Y85.728 E7.6211
G1 X156.481 Y85.731 E7.6216
G1 X156.659 Y85.826 E7.6403
G1 X156.664 Y85.829 E7.6408
G1 X158.100 Y86.690 E7.7952
G1 X158.105 Y86.693 E7.7957
G1 X158.273 Y86.806 E7.8143
G1 X158.278 Y86.809 E7.8149
G1 X159.010 Y87.352 E7.8989
G1 X159.010 Y74.857 E9.0509
G1 X159.075 Y74.745 E9.0628
G1 X163.245 Y72.383 E9.5047
G1 X163.375 Y72.384 E9.5166
G1 X166.434 Y74.218 E9.8455
G1 X166.439 Y74.221 E9.8460
G1 X166.607 Y74.334 E9.8646
G1 X166.612 Y74.337 E9.8652
G1 X169.139 Y76.211 E10.1553
G1 X169.143 Y76.215 E10.1558
G1 X169.300 Y76.343 E10.1745
G1 X169.304 Y76.347 E10.1750
G1 X171.636 Y78.460 E10.4651
G1 X171.640 Y78.464 E10.4656
G1 X171.783 Y78.607 E10.4843
G1 X171.787 Y78.611 E10.4848
G1 X173.900 Y80.943 E10.7749
G1 X173.904 Y80.947 E10.7754
G1 X174.032 Y81.103 E10.7941
G1 X174.036 Y81.108 E10.7946
G1 X175.910 Y83.635 E11.0847
G1 X175.913 Y83.640 E11.0853
G1 X176.026 Y83.808 E11.1039
G1 X176.029 Y83.813 E11.1045
G1 X177.646 Y86.512 E11.3945
G1 X177.649 Y86.517 E11.3951
G1 X177.745 Y86.695 E11.4137
G1 X177.747 Y86.701 E11.4143
G1 X179.093 Y89.545 E11.7044
G1 X179.095 Y89.550 E11.7049
G1 X179.172 Y89.737 E11.7236
G1 X179.174 Y89.743 E11.7241
G1 X180.234 Y92.705 E12.0142
G1 X180.236 Y92.711 E12.0147
G1 X180.295 Y92.904 E12.0334
G1 X180.297 Y92.910 E12.0339
G1 X181.061 Y95.962 E12.3240
G1 X181.062 Y95.968 E12.3245
G1 X181.102 Y96.166 E12.3432
G1 X181.103 Y96.172 E12.3437
G1 X181.564 Y99.284 E12.6338
G1 X181.565 Y99.290 E12.6344
G1 X181.585 Y99.491 E12.6530
G1 X181.585 Y99.497 E12.6536
G1 X181.740 Y102.640 E12.9436
G1 X181.740 Y102.646 E12.9442
G1 X181.740 Y102.848 E12.9628
G1 X181.740 Y102.854 E12.9634
G1 X181.585 Y105.996 E13.2535
G1 X181.585 Y106.002 E13.2540
G1 X181.565 Y106.204 E13.2726
G1 X181.564 Y106.209 E13.2732
G1 X181.103 Y109.322 E13.5633
G1 X181.102 Y109.328 E13.5638
G1 X181.062 Y109.526 E13.5825
G1 X181.061 Y109.532 E13.5830
G1 X180.297 Y112.584 E13.8731
G1 X180.295 Y112.589 E13.8736
G1 X180.236 Y112.783 E13.8923
G1 X180.234 Y112.789 E13.8928
G1 X179.174 Y115.751 E14.1829
G1 X179.172 Y115.757 E14.1835
G1 X179.095 Y115.943 E14.2021
G1 X179.093 Y115.949 E14.2027
G1 X177.747 Y118.793 E14.4927
G1 X177.745 Y118.798 E14.4933
G1 X177.649 Y118.977 E14.5119
G1 X177.646 Y118.982 E14.5125
G1 X176.029 Y121.680 E14.8026
G1 X176.026 Y121.685 E14.8031
G1 X175.913 Y121.854 E14.8217
G1 X175.910 Y121.859 E14.8223
G1 X174.036 Y124.386 E15.1124
G1 X174.032 Y124.390 E15.1129
G1 X173.904 Y124.547 E15.1316
G1 X173.900 Y124.551 E15.1321
G1 X171.787 Y126.882 E15.4222
G1 X171.783 Y126.887 E15.4227
G1 X171.640 Y127.030 E15.4414
G1 X171.636 Y127.034 E15.4419
G1 X169.304 Y129.147 E15.7320
G1 X169.300 Y129.151 E15.7326
G1 X169.143 Y129.279 E15.7512
G1 X169.139 Y129.283 E15.7517
G1 X166.612 Y131.157 E16.0418
G1 X166.607 Y131.160 E16.0424
G1 X166.439 Y131.273 E16.0610
G1 X166.434 Y131.276 E16.0616
G1 X163.735 Y132.893 E16.3517
G1 X163.730 Y132.896 E16.3522
G1 X163.551 Y132.992 E16.3708
G1 X163.546 Y132.994 E16.3714
G1 X160.702 Y134.339 E16.6615
G1 X160.697 Y134.342 E16.6620
G1 X160.510 Y134.419 E16.6807
G1 X160.504 Y134.421 E16.6812
G1 X157.542 Y135.481 E16.9713
G1 X157.536 Y135.483 E16.9718
G1 X157.343 Y135.542 E16.9905
G1 X157.337 Y135.543 E16.9910
G1 X154.285 Y136.308 E17.2811
G1 X154.279 Y136.309 E17.2817
G1 X154.081 Y136.349 E17.3003
G1 X154.075 Y136.350 E17.3009
G1 X150.962 Y136.811 E17.5909
G1 X150.957 Y136.812 E17.5915
G1 X150.755 Y136.832 E17.6101
G1 X150.750 Y136.832 E17.6107
G1 X147.607 Y136.987 E17.9007
G1 X147.601 Y136.987 E17.9013
G1 X147.399 Y136.987 E17.9199
G1 X147.393 Y136.987 E17.9205
G1 X144.250 Y136.832 E18.2106
G1 X144.245 Y136.832 E18.2111
G1 X144.043 Y136.812 E18.2298
G1 X144.037 Y136.811 E18.2303
G1 X140.925 Y136.350 E18.5204
G1 X140.919 Y136.349 E18.5209
G1 X140.721 Y136.309 E18.5396
G1 X140.715 Y136.308 E18.5401
G1 X137.663 Y135.543 E18.8302
G1 X137.657 Y135.542 E18.8308
G1 X137.464 Y135.483 E18.8494
G1 X137.458 Y135.481 E18.8499
G1 X134.496 Y134.421 E19.1400
G1 X134.490 Y134.419 E19.1406
G1 X134.303 Y134.342 E19.1592
G1 X134.298 Y134.339 E19.1598
G1 X131.454 Y132.994 E19.4498
G1 X131.449 Y132.992 E19.4504
G1 X131.270 Y132.896 E19.4690
G1 X131.265 Y132.893 E19.4696
G1 X128.566 Y131.276 E19.7597
G1 X128.561 Y131.273 E19.7602
G1 X128.393 Y131.160 E19.7789
G1 X128.388 Y131.157 E19.7794
G1 X125.861 Y129.283 E20.0695
G1 X125.857 Y129.279 E20.0700
G1 X125.700 Y129.151 E20.0887
G1 X125.696 Y129.147 E20.0892
G1 X123.364 Y127.034 E20.3793
G1 X123.360 Y127.030 E20.3798
G1 X123.217 Y126.887 E20.3985
G1 X123.213 Y126.882 E20.3990
G1 X121.100 Y124.551 E20.6891
G1 X121.096 Y124.547 E20.6897
G1 X120.968 Y124.390 E20.7083
G1 X120.964 Y124.386 E20.7089
G1 X119.185 Y121.987 E20.9842
G1 X87.449 Y121.987 E23.9102
G1 X87.447 Y121.987 E23.9104
G1 X87.345 Y121.984 E23.9197
G1 X87.343 Y121.984 E23.9200
G1 X85.721 Y121.905 E24.0697
G1 X85.715 Y121.904 E24.0703
G1 X85.513 Y121.884 E24.0889
G1 X85.508 Y121.884 E24.0895
G1 X83.851 Y121.638 E24.2438
G1 X83.846 Y121.637 E24.2444
G1 X83.647 Y121.597 E24.2630
G1 X83.641 Y121.596 E24.2636
G1 X82.017 Y121.189 E24.4179
G1 X82.012 Y121.188 E24.4185
G1 X81.818 Y121.129 E24.4371
G1 X81.812 Y121.127 E24.4377
G1 X80.236 Y120.563 E24.5920
G1 X80.231 Y120.561 E24.5926
G1 X80.044 Y120.484 E24.6112
G1 X80.038 Y120.481 E24.6118
G1 X78.525 Y119.765 E24.7661
G1 X78.519 Y119.763 E24.7667
G1 X78.341 Y119.667 E24.7853
G1 X78.336 Y119.664 E24.7859
G1 X76.900 Y118.804 E24.9402
G1 X76.895 Y118.801 E24.9408
G1 X76.727 Y118.688 E24.9594
G1 X76.722 Y118.685 E24.9600
G1 X75.377 Y117.687 E25.1143
G1 X75.372 Y117.684 E25.1149
G1 X75.216 Y117.555 E25.1335
G1 X75.212 Y117.552 E25.1341
G1 X73.971 Y116.427 E25.2884
G1 X73.967 Y116.423 E25.2890
G1 X73.824 Y116.280 E25.3076
G1 X73.820 Y116.276 E25.3082
G1 X72.695 Y115.035 E25.4625
G1 X72.691 Y115.031 E25.4631
G1 X72.563 Y114.874 E25.4818
G1 X72.559 Y114.870 E25.4823
G1 X71.562 Y113.525 E25.6367
G1 X71.559 Y113.520 E25.6372
G1 X71.446 Y113.352 E25.6558
G1 X71.443 Y113.347 E25.6564
G1 X70.582 Y111.911 E25.8107
G1 X70.580 Y111.906 E25.8113
G1 X70.484 Y111.727 E25.8299
G1 X70.482 Y111.722 E25.8305
G1 X69.766 Y110.209 E25.9848
G1 X69.763 Y110.203 E25.9854
G1 X69.686 Y110.016 E26.0040
G1 X69.684 Y110.011 E26.0046
G1 X69.120 Y108.434 E26.1590
G1 X69.118 Y108.429 E26.1595
G1 X69.059 Y108.235 E26.1781
G1 X69.058 Y108.230 E26.1787
G1 X68.652 Y106.611 E26.3325
G1 X68.651 Y106.606 E26.3330
G1 X68.612 Y106.408 E26.3516
G1 X68.611 Y106.402 E26.3522
G1 X68.363 Y104.740 E26.5071
G1 X68.363 Y104.735 E26.5076
G1 X68.343 Y104.532 E26.5263
G1 X68.342 Y104.527 E26.5269
G1 X68.260 Y102.854 E26.6813
G1 X68.260 Y102.848 E26.6818
G1 X68.260 Y102.646 E26.7004
G1 X68.260 Y102.640 E26.7010
G1 X68.342 Y100.968 E26.8554
G1 X68.343 Y100.962 E26.8559
G1 X68.363 Y100.760 E26.8746
G1 X68.363 Y100.755 E26.8751
G1 X68.609 Y99.098 E27.0295
G1 X68.610 Y99.093 E27.0300
G1 X68.649 Y98.894 E27.0487
G1 X68.651 Y98.888 E27.0492
G1 X69.058 Y97.264 E27.2036
G1 X69.059 Y97.259 E27.2041
G1 X69.118 Y97.065 E27.2228
G1 X69.120 Y97.059 E27.2233
G1 X69.684 Y95.483 E27.3777
G1 X69.686 Y95.477 E27.3782
G1 X69.763 Y95.291 E27.3969
G1 X69.766 Y95.285 E27.3974
G1 X70.482 Y93.772 E27.5518
G1 X70.484 Y93.766 E27.5523
G1 X70.580 Y93.588 E27.5710
G1 X70.582 Y93.583 E27.5715
G1 X71.443 Y92.147 E27.7259
G1 X71.446 Y92.142 E27.7264
G1 X71.559 Y91.974 E27.7451
G1 X71.562 Y91.969 E27.7456
G1 X72.559 Y90.624 E27.9000
G1 X72.563 Y90.619 E27.9005
G1 X72.691 Y90.463 E27.9192
G1 X72.695 Y90.458 E27.9197
G1 X73.820 Y89.218 E28.0741
G1 X73.824 Y89.214 E28.0746
G1 X73.967 Y89.071 E28.0933
G1 X73.971 Y89.067 E28.0938
G1 X75.063 Y88.076 E28.2297
G1 X75.212 Y87.942 F1200
G92 E0
G1 E-1.5000 F1800
; inner perimeter
G1 X79.051 Y92.452 F4800
G1 E0.0000 F1800
G92 E0
G1 X80.101 Y91.673 E0.1205 F1080
G1 X81.222 Y91.002 E0.2410
G1 X82.403 Y90.443 E0.3615
G1 X83.634 Y90.002 E0.4820
G1 X84.902 Y89.685 E0.6025
G1 X86.195 Y89.493 E0.7230
G1 X87.541 Y89.427 E0.8473
G1 X147.459 Y89.427 E6.3715
G1 X148.805 Y89.493 E6.4958
G1 X150.098 Y89.685 E6.6163
G1 X151.366 Y90.002 E6.7368
G1 X152.597 Y90.443 E6.8573
G1 X153.778 Y91.001 E6.9778
G1 X154.899 Y91.673 E7.0983
G1 X155.949 Y92.452 E7.2188
G1 X156.917 Y93.330 E7.3393
G1 X157.795 Y94.298 E7.4598
G1 X158.573 Y95.348 E7.5803
G1 X159.245 Y96.469 E7.7008
G1 X159.804 Y97.650 E7.8213
G1 X160.244 Y98.881 E7.9418
