; G-Code generated by Simplify3D(R) Version 4.0.0
; Jul 1, 2018 at 2:31:56 PM
; Settings Summary
;   processName,Process1
;   applyToModels,customizable-door-latch
;   profileName,Prusa Research Original Prusa i3 MK2 (modified)
;   profileVersion,2017-07-23 22:27:18
;   baseProfile,
;   printMaterial,PLA
;   printQuality,Fast
;   printExtruders,
;   extruderName,Primary Extruder
;   extruderToolheadNumber,0
;   extruderDiameter,0.4
;   extruderAutoWidth,1
;   extruderWidth,0.48
;   extrusionMultiplier,1.1
;   extruderUseRetract,1
;   extruderRetractionDistance,1.5
;   extruderExtraRestartDistance,0
;   extruderRetractionZLift,0
;   extruderRetractionSpeed,1800
;   extruderUseCoasting,1
;   extruderCoastingDistance,0.2
;   extruderUseWipe,1
;   extruderWipeDistance,2
;   primaryExtruder,0
;   layerHeight,0.35
;   topSolidLayers,5
;   bottomSolidLayers,5
;   perimeterOutlines,4
;   printPerimetersInsideOut,1
;   startPointOption,2
;   startPointOriginX,0
;   startPointOriginY,0
;   sequentialIslands,0
;   spiralVaseMode,0
;   firstLayerHeightPercentage,120
;   firstLayerWidthPercentage,100
;   firstLayerUnderspeed,0.5
;   useRaft,0
;   raftExtruder,0
;   raftTopLayers,3
;   raftBaseLayers,2
;   raftOffset,3
;   raftSeparationDistance,0.14
;   raftTopInfill,100
;   aboveRaftSpeedMultiplier,0.3
;   useSkirt,1
;   skirtExtruder,0
;   skirtLayers,1
;   skirtOutlines,1
;   skirtOffset,4
;   usePrimePillar,0
;   primePillarExtruder,999
;   primePillarWidth,12
;   primePillarLocation,7
;   primePillarSpeedMultiplier,1
;   useOozeShield,0
;   oozeShieldExtruder,999
;   oozeShieldOffset,2
;   oozeShieldOutlines,1
;   oozeShieldSidewallShape,1
;   oozeShieldSidewallAngle,30
;   oozeShieldSpeedMultiplier,1
;   infillExtruder,0
;   internalInfillPattern,Full Honeycomb
;   externalInfillPattern,Rectilinear
;   infillPercentage,12
;   outlineOverlapPercentage,20
;   infillExtrusionWidthPercentage,100
;   minInfillLength,5
;   infillLayerInterval,1
;   internalInfillAngles,0,120,-120
;   overlapInternalInfillAngles,0
;   externalInfillAngles,45,-45
;   generateSupport,0
;   supportExtruder,0
;   supportInfillPercentage,25
;   supportExtraInflation,0
;   supportBaseLayers,0
;   denseSupportExtruder,0
;   denseSupportLayers,0
;   denseSupportInfillPercentage,70
;   supportLayerInterval,1
;   supportHorizontalPartOffset,0.3
;   supportUpperSeparationLayers,1
;   supportLowerSeparationLayers,1
;   supportType,0
;   supportGridSpacing,4
;   maxOverhangAngle,45
;   supportAngles,0
;   temperatureName,Primary Extruder,Heated Bed
;   temperatureNumber,0,0
;   temperatureSetpointCount,1,1
;   temperatureSetpointLayers,1,1
;   temperatureSetpointTemperatures,210,60
;   temperatureStabilizeAtStartup,1,1
;   temperatureHeatedBed,0,1
;   temperatureRelayBetweenLayers,0,0
;   temperatureRelayBetweenLoops,0,0
;   fanLayers,1,2
;   fanSpeeds,0,100
;   blipFanToFullPower,0
;   adjustSpeedForCooling,1
;   minSpeedLayerTime,15
;   minCoolingSpeedSlowdown,20
;   increaseFanForCooling,0
;   minFanLayerTime,45
;   maxCoolingFanSpeed,100
;   increaseFanForBridging,0
;   bridgingFanSpeed,100
;   use5D,1
;   relativeEdistances,0
;   allowEaxisZeroing,1
;   independentExtruderAxes,0
;   includeM10123,0
;   stickySupport,1
;   applyToolheadOffsets,0
;   gcodeXoffset,0
;   gcodeYoffset,0
;   gcodeZoffset,0
;   overrideMachineDefinition,1
;   machineTypeOverride,0
;   strokeXoverride,250
;   strokeYoverride,210
;   strokeZoverride,200
;   originOffsetXoverride,0
;   originOffsetYoverride,0
;   originOffsetZoverride,0
;   homeXdirOverride,-1
;   homeYdirOverride,-1
;   homeZdirOverride,-1
;   flipXoverride,1
;   flipYoverride,-1
;   flipZoverride,1
;   toolheadOffsets,0,0|0,0|0,0|0,0|0,0|0,0
;   overrideFirmwareConfiguration,1
;   firmwareTypeOverride,RepRap (Marlin/Repetier/Sprinter)
;   GPXconfigOverride,r2
;   baudRateOverride,250000
;   overridePrinterModels,1
;   printerModelsOverride
;   startingGcode,M115 U3.0.7 ; use the latest firmware version,G28 W ; home all axes without mesh bed leveling,G80 ; run mesh bed leveling routine,G1 Y-3.0 F1000.0 ; prepare to prime,G92 E0 ; reset extrusion distance,G1 X60.0 E9.0  F1000.0 ; priming,G1 X100.0 E12.5  F1000.0 ; priming
;   layerChangeGcode,
;   retractionGcode,
;   toolChangeGcode,
;   endingGcode,M106 S0 ; turn off cooling fan,M104 S0 ; turn off extruder,M140 S0 ; turn off bed,G1 X0 Y200 ; part removal,M84 ; disable motors
;   exportFileFormat,gcode
;   celebration,0
;   celebrationSong,Random Song
;   postProcessing,
;   defaultSpeed,2400
;   outlineUnderspeed,0.8
;   solidInfillUnderspeed,0.8
;   supportUnderspeed,0.8
;   rapidXYspeed,4800
;   rapidZspeed,1002
;   minBridgingArea,50
;   bridgingExtraInflation,0
;   bridgingExtrusionMultiplier,1
;   bridgingSpeedMultiplier,1
;   useFixedBridgingAngle,0
;   fixedBridgingAngle,0
;   applyBridgingToPerimeters,0
;   filamentDiameters,1.75|1.75|1.75|1.75|1.75|1.75
;   filamentPricesPerKg,199|46|46|46|46|46
;   filamentDensities,1.25|1.25|1.25|1.25|1.25|1.25
;   useMinPrintHeight,0
;   minPrintHeight,0
;   useMaxPrintHeight,1
;   maxPrintHeight,235
;   useDiaphragm,0
;   diaphragmLayerInterval,20
;   robustSlicing,1
;   mergeAllIntoSolid,0
;   onlyRetractWhenCrossingOutline,1
;   retractBetweenLayers,1
;   useRetractionMinTravel,0
;   retractionMinTravel,3
;   retractWhileWiping,1
;   onlyWipeOutlines,1
;   avoidCrossingOutline,0
;   maxMovementDetourFactor,3
;   toolChangeRetractionDistance,12
;   toolChangeExtraRestartDistance,-0.5
;   toolChangeRetractionSpeed,600
;   externalThinWallType,0
;   internalThinWallType,2
;   thinWallAllowedOverlapPercentage,25
;   singleExtrusionMinLength,1
;   singleExtrusionMinPrintingWidthPercentage,50
;   singleExtrusionMaxPrintingWidthPercentage,200
;   singleExtrusionEndpointExtension,0.2
;   horizontalSizeCompensation,0
G90
M82
M106 S0
M140 S60
M190 S60
M104 S210 T0
M109 S210 T0
M115 U3.0.7 ; use the latest firmware version
G28 W ; home all axes without mesh bed leveling
G80 ; run mesh bed leveling routine
G1 Y-3.0 F1000.0 ; prepare to prime
G92 E0 ; reset extrusion distance
G1 X60.0 E9.0  F1000.0 ; priming
G1 X100.0 E12.5  F1000.0 ; priming
G92 E0
G1 E-1.5000 F1800
G1 Z0.420 F1002
; process Process1
; layer 1, Z = 0.420
T0
; tool H0.420 W0.480
; skirt
G1 X73.432 Y78.363 F4800
G1 E0.0000 F540
G92 E0
G1 X73.441 Y78.355 E0.0011 F1200
G1 X78.300 Y74.367 E0.5806
G1 X78.309 Y74.360 E0.5817
G1 X78.646 Y74.135 E0.6190
G1 X78.656 Y74.129 E0.6201
G1 X81.806 Y72.446 E0.9494
G1 X81.932 Y72.449 E0.9611
G1 X85.928 Y74.844 E1.3906
G1 X85.990 Y74.954 E1.4022
G1 X85.990 Y87.367 E2.5467
G1 X86.633 Y86.839 E2.6234
G1 X86.643 Y86.832 E2.6245
G1 X86.979 Y86.607 E2.6618
G1 X86.989 Y86.601 E2.6629
G1 X89.939 Y85.024 E2.9713
G1 X89.950 Y85.019 E2.9724
G1 X90.324 Y84.864 E3.0097
G1 X90.335 Y84.860 E3.0108
G1 X93.537 Y83.889 E3.3192
G1 X93.548 Y83.886 E3.3203
G1 X93.945 Y83.807 E3.3576
G1 X93.957 Y83.806 E3.3587
G1 X97.185 Y83.488 E3.6578
G1 X97.191 Y83.487 E3.6584
G1 X97.393 Y83.477 E3.6770
G1 X97.399 Y83.477 E3.6776
G1 X167.601 Y83.477 E10.1500
G1 X167.607 Y83.477 E10.1505
G1 X167.809 Y83.487 E10.1692
G1 X167.815 Y83.488 E10.1697
G1 X171.043 Y83.806 E10.4688
G1 X171.055 Y83.807 E10.4699
G1 X171.452 Y83.886 E10.5072
G1 X171.464 Y83.889 E10.5083
G1 X174.665 Y84.860 E10.8168
G1 X174.676 Y84.864 E10.8178
G1 X175.050 Y85.019 E10.8552
G1 X175.060 Y85.024 E10.8562
G1 X178.011 Y86.601 E11.1647
G1 X178.021 Y86.607 E11.1658
G1 X178.358 Y86.832 E11.2031
G1 X178.367 Y86.839 E11.2042
G1 X180.953 Y88.961 E11.5126
G1 X180.962 Y88.969 E11.5137
G1 X181.248 Y89.256 E11.5510
G1 X181.256 Y89.264 E11.5521
G1 X183.378 Y91.850 E11.8605
G1 X183.385 Y91.860 E11.8616
G1 X183.610 Y92.196 E11.8989
G1 X183.616 Y92.206 E11.9000
G1 X185.193 Y95.157 E12.2084
G1 X185.198 Y95.167 E12.2095
G1 X185.353 Y95.541 E12.2469
G1 X185.357 Y95.552 E12.2479
G1 X186.328 Y98.754 E12.5564
G1 X186.331 Y98.765 E12.5575
G1 X186.410 Y99.162 E12.5948
G1 X186.412 Y99.174 E12.5959
G1 X186.739 Y102.503 E12.9043
G1 X186.740 Y102.515 E12.9054
G1 X186.740 Y102.920 E12.9427
G1 X186.739 Y102.931 E12.9438
G1 X186.412 Y106.261 E13.2522
G1 X186.410 Y106.272 E13.2533
G1 X186.331 Y106.669 E13.2906
G1 X186.328 Y106.681 E13.2917
G1 X185.357 Y109.882 E13.6001
G1 X185.353 Y109.893 E13.6012
G1 X185.198 Y110.267 E13.6385
G1 X185.193 Y110.278 E13.6396
G1 X183.616 Y113.228 E13.9481
G1 X183.610 Y113.238 E13.9491
G1 X183.385 Y113.575 E13.9865
G1 X183.378 Y113.584 E13.9876
G1 X181.256 Y116.170 E14.2960
G1 X181.248 Y116.179 E14.2971
G1 X180.962 Y116.465 E14.3344
G1 X180.953 Y116.473 E14.3355
G1 X178.367 Y118.595 E14.6439
G1 X178.358 Y118.602 E14.6450
G1 X178.021 Y118.827 E14.6823
G1 X178.011 Y118.833 E14.6834
G1 X175.060 Y120.410 E14.9918
G1 X175.050 Y120.415 E14.9929
G1 X174.676 Y120.570 E15.0302
G1 X174.665 Y120.574 E15.0313
G1 X171.464 Y121.545 E15.3397
G1 X171.452 Y121.548 E15.3408
G1 X171.055 Y121.627 E15.3781
G1 X171.043 Y121.629 E15.3792
G1 X167.815 Y121.947 E15.6783
G1 X167.809 Y121.947 E15.6789
G1 X167.607 Y121.957 E15.6975
G1 X167.601 Y121.957 E15.6981
G1 X125.818 Y121.957 E19.5504
G1 X121.862 Y126.777 E20.1252
G1 X121.854 Y126.785 E20.1263
G1 X121.568 Y127.072 E20.1636
G1 X121.559 Y127.079 E20.1647
G1 X116.700 Y131.067 E20.7442
G1 X116.691 Y131.074 E20.7453
G1 X116.354 Y131.299 E20.7826
G1 X116.344 Y131.305 E20.7837
G1 X110.801 Y134.268 E21.3633
G1 X110.790 Y134.273 E21.3644
G1 X110.416 Y134.428 E21.4017
G1 X110.405 Y134.432 E21.4028
G1 X104.390 Y136.257 E21.9823
G1 X104.378 Y136.260 E21.9834
G1 X103.981 Y136.339 E22.0207
G1 X103.970 Y136.340 E22.0218
G1 X97.714 Y136.957 E22.6013
G1 X97.702 Y136.957 E22.6024
G1 X97.298 Y136.957 E22.6397
G1 X97.286 Y136.957 E22.6408
G1 X91.030 Y136.340 E23.2204
G1 X91.019 Y136.339 E23.2214
G1 X90.622 Y136.260 E23.2588
G1 X90.610 Y136.257 E23.2598
G1 X84.595 Y134.432 E23.8394
G1 X84.584 Y134.428 E23.8405
G1 X84.210 Y134.273 E23.8778
G1 X84.199 Y134.268 E23.8789
G1 X78.656 Y131.305 E24.4584
G1 X78.646 Y131.299 E24.4595
G1 X78.309 Y131.074 E24.4968
G1 X78.300 Y131.067 E24.4979
G1 X73.441 Y127.079 E25.0774
G1 X73.432 Y127.072 E25.0785
G1 X73.146 Y126.785 E25.1158
G1 X73.138 Y126.777 E25.1169
G1 X69.150 Y121.918 E25.6965
G1 X69.143 Y121.908 E25.6976
G1 X68.918 Y121.572 E25.7349
G1 X68.912 Y121.561 E25.7360
G1 X65.949 Y116.018 E26.3155
G1 X65.944 Y116.007 E26.3166
G1 X65.789 Y115.633 E26.3539
G1 X65.785 Y115.622 E26.3550
G1 X63.960 Y109.607 E26.9345
G1 X63.957 Y109.596 E26.9356
G1 X63.878 Y109.198 E26.9729
G1 X63.877 Y109.187 E26.9740
G1 X63.261 Y102.931 E27.5536
G1 X63.260 Y102.920 E27.5546
G1 X63.260 Y102.515 E27.5920
G1 X63.261 Y102.503 E27.5930
G1 X63.877 Y96.247 E28.1726
G1 X63.878 Y96.236 E28.1737
G1 X63.957 Y95.839 E28.2110
G1 X63.960 Y95.827 E28.2121
G1 X65.785 Y89.812 E28.7916
G1 X65.789 Y89.801 E28.7927
G1 X65.944 Y89.427 E28.8300
G1 X65.949 Y89.416 E28.8311
G1 X68.912 Y83.873 E29.4106
G1 X68.918 Y83.863 E29.4117
G1 X69.143 Y83.526 E29.4491
G1 X69.150 Y83.517 E29.4501
G1 X73.138 Y78.658 E30.0297
G1 X73.146 Y78.649 E30.0308
G1 X73.290 Y78.504 E30.0496
G1 X73.432 Y78.363 F1200
G92 E0
G1 E-1.5000 F1800
; inner perimeter
G1 X77.480 Y82.698 F4800
G1 E0.0000 F1800
G92 E0
G1 X79.864 Y80.742 E0.2843 F1080
G1 X80.070 Y80.839 E0.3053
G1 X80.070 Y105.147 E2.5464
G1 X80.301 Y105.147 E2.5677
G1 X80.397 Y106.119 E2.6578
G1 X81.389 Y109.390 E2.9730
G1 X83.001 Y112.405 E3.2881
G1 X85.169 Y115.048 E3.6033
G1 X87.812 Y117.216 E3.9185
G1 X90.827 Y118.828 E4.2337
G1 X94.098 Y119.820 E4.5488
G1 X95.070 Y119.916 E4.6389
G1 X95.070 Y120.147 E4.6602
G1 X119.378 Y120.147 E6.9013
G1 X119.476 Y120.353 E6.9223
G1 X117.520 Y122.737 E7.2066
G1 X113.229 Y126.258 E7.7183
G1 X108.335 Y128.874 E8.2300
G1 X103.023 Y130.485 E8.7417
G1 X97.500 Y131.029 E9.2534
G1 X91.977 Y130.485 E9.7651
G1 X86.665 Y128.874 E10.2768
G1 X81.771 Y126.258 E10.7885
G1 X77.480 Y122.737 E11.3002
G1 X73.959 Y118.446 E11.8120
G1 X71.343 Y113.552 E12.3237
G1 X69.732 Y108.240 E12.8354
G1 X69.188 Y102.717 E13.3471
G1 X69.732 Y97.194 E13.8588
G1 X71.343 Y91.883 E14.3705
G1 X73.960 Y86.988 E14.8822
G1 X77.354 Y82.852 E15.3754
G1 X77.480 Y82.698 F1080
G1 X77.139 Y82.357 F4800
G92 E0
G1 X80.344 Y79.727 E0.3822 F1080
G1 X80.550 Y79.824 E0.4032
G1 X80.550 Y104.667 E2.6937
G1 X80.736 Y104.667 E2.7108
G1 X80.870 Y106.025 E2.8366
G1 X81.835 Y109.206 E3.1431
G1 X83.402 Y112.137 E3.4496
G1 X85.510 Y114.707 E3.7560
G1 X88.080 Y116.815 E4.0625
G1 X91.011 Y118.382 E4.3689
G1 X94.192 Y119.347 E4.6754
G1 X95.550 Y119.481 E4.8012
G1 X95.550 Y119.667 E4.8183
G1 X120.393 Y119.667 E7.1088
G1 X120.490 Y119.873 E7.1298
G1 X117.861 Y123.078 E7.5120
G1 X113.497 Y126.659 E8.0324
G1 X108.519 Y129.320 E8.5529
G1 X103.117 Y130.958 E9.0733
G1 X97.500 Y131.511 E9.5937
G1 X91.883 Y130.958 E10.1141
G1 X86.481 Y129.320 E10.6345
G1 X81.503 Y126.659 E11.1550
G1 X77.139 Y123.078 E11.6754
G1 X73.558 Y118.714 E12.1958
G1 X70.898 Y113.736 E12.7162
G1 X69.259 Y108.335 E13.2366
G1 X68.706 Y102.717 E13.7571
G1 X69.259 Y97.100 E14.2775
G1 X70.898 Y91.698 E14.7979
G1 X73.558 Y86.720 E15.3183
G1 X77.013 Y82.511 E15.8203
G1 X77.139 Y82.357 F1080
G1 X76.798 Y82.016 F4800
G92 E0
G1 X80.824 Y78.712 E0.4801 F1080
G1 X81.030 Y78.809 E0.5011
G1 X81.030 Y104.187 E2.8409
G1 X81.171 Y104.187 E2.8539
G1 X81.343 Y105.931 E3.0155
G1 X82.280 Y109.021 E3.3132
G1 X83.803 Y111.869 E3.6110
G1 X85.852 Y114.366 E3.9087
G1 X88.348 Y116.414 E4.2064
G1 X91.196 Y117.937 E4.5042
G1 X94.286 Y118.874 E4.8019
G1 X96.030 Y119.046 E4.9635
G1 X96.030 Y119.187 E4.9765
G1 X121.408 Y119.187 E7.3163
G1 X121.505 Y119.393 E7.3373
G1 X118.202 Y123.419 E7.8174
G1 X113.765 Y127.060 E8.3465
G1 X108.704 Y129.765 E8.8757
G1 X103.212 Y131.431 E9.4048
G1 X97.500 Y131.994 E9.9340
G1 X91.788 Y131.431 E10.4631
G1 X86.296 Y129.765 E10.9922
G1 X81.235 Y127.060 E11.5214
G1 X76.798 Y123.419 E12.0505
G1 X73.157 Y118.982 E12.5796
G1 X70.452 Y113.921 E13.1088
G1 X68.786 Y108.429 E13.6379
G1 X68.223 Y102.717 E14.1671
G1 X68.786 Y97.006 E14.6962
G1 X70.452 Y91.513 E15.2253
G1 X73.157 Y86.452 E15.7545
G1 X76.672 Y82.170 E16.2652
G1 X76.798 Y82.016 F1080
; outer perimeter
G1 X76.457 Y81.674 F4800
G92 E0
G1 X80.967 Y77.974 E0.5379 F960
G1 X81.510 Y77.683 E0.5946
G1 X81.510 Y103.707 E2.9940
G1 X81.606 Y103.707 E3.0028
G1 X81.816 Y105.837 E3.2001
G1 X82.726 Y108.837 E3.4892
G1 X84.204 Y111.601 E3.7782
G1 X86.193 Y114.025 E4.0672
G1 X88.616 Y116.013 E4.3562
G1 X91.380 Y117.491 E4.6453
G1 X94.380 Y118.401 E4.9343
G1 X96.510 Y118.611 E5.1316
G1 X96.510 Y118.707 E5.1405
G1 X122.534 Y118.707 E7.5398
G1 X122.244 Y119.250 E7.5966
G1 X118.543 Y123.760 E8.1344
G1 X114.033 Y127.461 E8.6723
G1 X108.888 Y130.211 E9.2101
G1 X103.306 Y131.904 E9.7480
G1 X97.500 Y132.476 E10.2858
G1 X91.694 Y131.904 E10.8237
G1 X86.112 Y130.211 E11.3616
G1 X80.967 Y127.461 E11.8994
G1 X76.457 Y123.760 E12.4373
G1 X72.756 Y119.250 E12.9751
G1 X70.006 Y114.105 E13.5130
G1 X68.313 Y108.523 E14.0508
G1 X67.741 Y102.717 E14.5887
G1 X68.313 Y96.912 E15.1265
G1 X70.006 Y91.329 E15.6644
G1 X72.756 Y86.184 E16.2023
G1 X76.330 Y81.829 E16.7217
G1 X76.457 Y81.674 F960
G92 E0
G1 X78.003 Y80.406 E-1.5000 F2400
; inner perimeter
G1 X96.175 Y122.018 F4800
G1 E0.0000 F1800
G92 E0
G1 X95.051 Y122.769 E0.1246 F1080
G1 X94.301 Y123.892 E0.2491
G1 X94.037 Y125.217 E0.3737
G1 X94.301 Y126.542 E0.4983
G1 X95.051 Y127.666 E0.6229
G1 X96.175 Y128.416 E0.7474
G1 X97.500 Y128.680 E0.8720
G1 X98.825 Y128.416 E0.9966
G1 X99.949 Y127.666 E1.1212
G1 X100.699 Y126.542 E1.2457
G1 X100.963 Y125.217 E1.3703
G1 X100.699 Y123.892 E1.4949
G1 X99.949 Y122.769 E1.6194
G1 X98.825 Y122.018 E1.7440
G1 X97.500 Y121.754 E1.8686
G1 X96.371 Y121.979 E1.9747
G1 X96.175 Y122.018 F1080
G1 X96.362 Y122.470 F4800
G92 E0
G1 X95.397 Y123.115 E0.1070 F1080
G1 X94.753 Y124.079 E0.2139
G1 X94.526 Y125.217 E0.3209
G1 X94.753 Y126.355 E0.4279
G1 X95.397 Y127.320 E0.5348
G1 X96.362 Y127.964 E0.6418
G1 X97.500 Y128.191 E0.7488
G1 X98.638 Y127.964 E0.8557
G1 X99.603 Y127.320 E0.9627
G1 X100.247 Y126.355 E1.0697
G1 X100.474 Y125.217 E1.1766
G1 X100.247 Y124.079 E1.2836
G1 X99.603 Y123.115 E1.3906
