; generated by Slic3r Prusa Edition 1.40.0+ on 2018-12-26 at 13:51:04

; 

; external perimeters extrusion width = 0.60mm
; perimeters extrusion width = 0.43mm
; infill extrusion width = 0.45mm
; solid infill extrusion width = 0.70mm
; top infill extrusion width = 0.43mm
; support material extrusion width = 0.35mm
; first layer extrusion width = 0.42mm

M107
M115 U3.1.0 ; tell printer latest fw version
M201 X9000 Y9000 Z500 E10000 ; sets maximum accelerations, mm/sec^2
M203 X500 Y500 Z12 E120 ; sets maximum feedrates, mm/sec
M204 S1500 T1500 ; sets acceleration (S) and retract acceleration (T)
M205 X10 Y10 Z0.2 E2.5 ; sets the jerk limits, mm/sec
M205 S0 T0 ; sets the minimum extruding and travel feed rate, mm/sec
M83  ; extruder relative mode
M104 S215 ; set extruder temp
M140 S60 ; set bed temp
M190 S60 ; wait for bed temp
M109 S215 ; wait for extruder temp
G28 W ; home all without mesh bed level
G80 ; mesh bed leveling
G1 Y-3.0 F1000.0 ; go outside print area
G92 E0.0
G1 X60.0 E9.0  F1000.0 ; intro line
G1 X100.0 E12.5  F1000.0 ; intro line
G92 E0.0
M900 K30; Filament gcode
G21 ; set units to millimeters
G90 ; use absolute coordinates
M83 ; use relative distances for extrusion
;BEFORE_LAYER_CHANGE
G92 E0.0
;0.2


G1 E-0.80000 F2100.00000
G1 Z0.600 F10800.000
;AFTER_LAYER_CHANGE
;0.2
G1 X146.187 Y31.398
G1 Z0.200
G1 E0.80000 F2100.00000
M204 S1000
G1 F1800
G1 X147.054 Y31.217 E0.02777
G1 X221.064 Y31.217 E2.32052
G1 X221.887 Y31.379 E0.02631
G1 X222.589 Y31.839 E0.02631
G1 X223.066 Y32.529 E0.02631
G1 X223.248 Y33.348 E0.02631
G1 X223.247 Y63.497 E0.94528
G1 X223.137 Y64.095 E0.01908
G1 X222.865 Y64.643 E0.01919
G1 X222.454 Y65.092 E0.01908
G1 X221.933 Y65.412 E0.01919
G1 X221.066 Y65.594 E0.02777
G1 X147.027 Y65.594 E2.32143
G1 X146.412 Y65.496 E0.01953
G1 X145.846 Y65.226 E0.01964
G1 X145.382 Y64.811 E0.01953
G1 X145.053 Y64.278 E0.01964
G1 X144.871 Y63.418 E0.02754
G1 X144.873 Y33.329 E0.94345
G1 X144.980 Y32.726 E0.01919
G1 X145.251 Y32.173 E0.01930
G1 X145.663 Y31.721 E0.01919
G1 X146.136 Y31.430 E0.01742
G1 F8640
G1 X147.054 Y31.217 E-0.21758
G1 X149.403 Y31.217 E-0.54242
G1 E-0.04000 F2100.00000
G1 Z0.800 F10800.000
G1 X147.647 Y33.992
G1 Z0.200
G1 E0.80000 F2100.00000
G1 F1800
G1 X220.473 Y33.992 E2.28340
G1 X220.473 Y62.818 E0.90381
G1 X147.647 Y62.818 E2.28340
G1 X147.647 Y34.052 E0.90193
G1 X147.270 Y33.615 F10800.000
G1 F1800
G1 X220.850 Y33.615 E2.30705
G1 X220.850 Y63.195 E0.92746
G1 X147.270 Y63.195 E2.30705
G1 X147.270 Y33.675 E0.92558
G1 X147.667 Y33.666 F10800.000
G1 F8640
G1 X150.561 Y33.673 E-0.76000
G1 E-0.04000 F2100.00000
G1 Z0.800 F10800.000
G1 X147.760 Y61.939
G1 Z0.200
G1 E0.80000 F2100.00000
G1 F1800
G1 X148.357 Y62.535 E0.02658
G1 X148.892 Y62.535 E0.01688
G1 X147.930 Y61.573 E0.04289
G1 X147.930 Y61.037 E0.01688
G1 X149.428 Y62.535 E0.06676
G1 X149.964 Y62.535 E0.01688
G1 X147.930 Y60.501 E0.09064
G1 X147.930 Y59.965 E0.01688
G1 X150.500 Y62.535 E0.11451
G1 X151.036 Y62.535 E0.01688
G1 X147.930 Y59.429 E0.13839
G1 X147.930 Y58.894 E0.01688
G1 X151.572 Y62.535 E0.16226
G1 X152.108 Y62.535 E0.01688
G1 X147.930 Y58.358 E0.18614
G1 X147.930 Y57.822 E0.01688
G1 X152.643 Y62.535 E0.21001
G1 X153.179 Y62.535 E0.01688
G1 X147.930 Y57.286 E0.23389
G1 X147.930 Y56.750 E0.01688
G1 X153.715 Y62.535 E0.25776
G1 X154.251 Y62.535 E0.01688
G1 X147.930 Y56.214 E0.28164
G1 X147.930 Y55.679 E0.01688
G1 X154.787 Y62.535 E0.30551
G1 X155.323 Y62.535 E0.01688
G1 X147.930 Y55.143 E0.32939
G1 X147.930 Y54.607 E0.01688
G1 X155.858 Y62.535 E0.35326
G1 X156.394 Y62.535 E0.01688
G1 X147.930 Y54.071 E0.37714
G1 X147.930 Y53.535 E0.01688
G1 X156.930 Y62.535 E0.40101
G1 X157.466 Y62.535 E0.01688
G1 X147.930 Y52.999 E0.42489
G1 X147.930 Y52.463 E0.01688
G1 X158.002 Y62.535 E0.44876
G1 X158.538 Y62.535 E0.01688
G1 X147.930 Y51.928 E0.47264
G1 X147.930 Y51.392 E0.01688
G1 X159.073 Y62.535 E0.49651
G1 X159.609 Y62.535 E0.01688
G1 X147.930 Y50.856 E0.52039
G1 X147.930 Y50.320 E0.01688
G1 X160.145 Y62.535 E0.54426
G1 X160.681 Y62.535 E0.01688
G1 X147.930 Y49.784 E0.56814
G1 X147.930 Y49.248 E0.01688
G1 X161.217 Y62.535 E0.59201
G1 X161.753 Y62.535 E0.01688
G1 X147.930 Y48.713 E0.61589
G1 X147.930 Y48.177 E0.01688
G1 X162.289 Y62.535 E0.63976
G1 X162.824 Y62.535 E0.01688
G1 X147.930 Y47.641 E0.66364
G1 X147.930 Y47.105 E0.01688
G1 X163.360 Y62.535 E0.68751
G1 X163.896 Y62.535 E0.01688
G1 X147.930 Y46.569 E0.71139
G1 X147.930 Y46.033 E0.01688
G1 X164.432 Y62.535 E0.73526
G1 X164.968 Y62.535 E0.01688
G1 X147.930 Y45.497 E0.75914
G1 X147.930 Y44.962 E0.01688
G1 X165.504 Y62.535 E0.78301
G1 X166.039 Y62.535 E0.01688
G1 X147.930 Y44.426 E0.80689
G1 X147.930 Y43.890 E0.01688
G1 X166.575 Y62.535 E0.83076
G1 X167.111 Y62.535 E0.01688
G1 X147.930 Y43.354 E0.85464
G1 X147.930 Y42.818 E0.01688
G1 X167.647 Y62.535 E0.87851
G1 X168.183 Y62.535 E0.01688
G1 X147.930 Y42.282 E0.90239
G1 X147.930 Y41.747 E0.01688
G1 X168.719 Y62.535 E0.92626
G1 X169.255 Y62.535 E0.01688
G1 X147.930 Y41.211 E0.95013
G1 X147.930 Y40.675 E0.01688
G1 X169.790 Y62.535 E0.97401
G1 X170.326 Y62.535 E0.01688
G1 X147.930 Y40.139 E0.99788
G1 X147.930 Y39.603 E0.01688
G1 X170.862 Y62.535 E1.02176
G1 X171.398 Y62.535 E0.01688
G1 X147.930 Y39.067 E1.04563
G1 X147.930 Y38.532 E0.01688
G1 X171.934 Y62.535 E1.06951
G1 X172.470 Y62.535 E0.01688
G1 X147.930 Y37.996 E1.09338
G1 X147.930 Y37.460 E0.01688
G1 X173.005 Y62.535 E1.11726
G1 X173.541 Y62.535 E0.01688
G1 X147.930 Y36.924 E1.14113
G1 X147.930 Y36.388 E0.01688
G1 X174.077 Y62.535 E1.16501
G1 X174.613 Y62.535 E0.01688
G1 X147.930 Y35.852 E1.18888
G1 X147.930 Y35.316 E0.01688
G1 X175.149 Y62.535 E1.21276
G1 X175.685 Y62.535 E0.01688
G1 X147.930 Y34.781 E1.23663
G1 X147.930 Y34.275 E0.01592
G1 X147.960 Y34.275 E0.00096
G1 X176.221 Y62.535 E1.25915
G1 X176.756 Y62.535 E0.01688
G1 X148.496 Y34.275 E1.25915
G1 X149.032 Y34.275 E0.01688
G1 X177.292 Y62.535 E1.25915
G1 X177.828 Y62.535 E0.01688
G1 X149.568 Y34.275 E1.25915
G1 X150.104 Y34.275 E0.01688
G1 X178.364 Y62.535 E1.25915
G1 X178.900 Y62.535 E0.01688
G1 X150.639 Y34.275 E1.25915
G1 X151.175 Y34.275 E0.01688
G1 X179.436 Y62.535 E1.25915
G1 X179.971 Y62.535 E0.01688
G1 X151.711 Y34.275 E1.25915
G1 X152.247 Y34.275 E0.01688
G1 X180.507 Y62.535 E1.25915
G1 X181.043 Y62.535 E0.01688
G1 X152.783 Y34.275 E1.25915
G1 X153.319 Y34.275 E0.01688
G1 X181.579 Y62.535 E1.25915
G1 X182.115 Y62.535 E0.01688
G1 X153.855 Y34.275 E1.25915
G1 X154.390 Y34.275 E0.01688
G1 X182.651 Y62.535 E1.25915
G1 X183.186 Y62.535 E0.01688
G1 X154.926 Y34.275 E1.25915
G1 X155.462 Y34.275 E0.01688
G1 X183.722 Y62.535 E1.25915
G1 X184.258 Y62.535 E0.01688
G1 X155.998 Y34.275 E1.25915
G1 X156.534 Y34.275 E0.01688
G1 X184.794 Y62.535 E1.25915
G1 X185.330 Y62.535 E0.01688
G1 X157.070 Y34.275 E1.25915
G1 X157.605 Y34.275 E0.01688
G1 X185.866 Y62.535 E1.25915
G1 X186.402 Y62.535 E0.01688
G1 X158.141 Y34.275 E1.25915
G1 X158.677 Y34.275 E0.01688
G1 X186.937 Y62.535 E1.25915
G1 X187.473 Y62.535 E0.01688
G1 X159.213 Y34.275 E1.25915
G1 X159.749 Y34.275 E0.01688
G1 X188.009 Y62.535 E1.25915
G1 X188.545 Y62.535 E0.01688
G1 X160.285 Y34.275 E1.25915
G1 X160.820 Y34.275 E0.01688
G1 X189.081 Y62.535 E1.25915
G1 X189.617 Y62.535 E0.01688
G1 X161.356 Y34.275 E1.25915
G1 X161.892 Y34.275 E0.01688
G1 X190.152 Y62.535 E1.25915
G1 X190.688 Y62.535 E0.01688
G1 X162.428 Y34.275 E1.25915
G1 X162.964 Y34.275 E0.01688
G1 X191.224 Y62.535 E1.25915
G1 X191.760 Y62.535 E0.01688
G1 X163.500 Y34.275 E1.25915
G1 X164.036 Y34.275 E0.01688
G1 X192.296 Y62.535 E1.25915
G1 X192.832 Y62.535 E0.01688
G1 X164.571 Y34.275 E1.25915
G1 X165.107 Y34.275 E0.01688
G1 X193.368 Y62.535 E1.25915
G1 X193.903 Y62.535 E0.01688
G1 X165.643 Y34.275 E1.25915
G1 X166.179 Y34.275 E0.01688
G1 X194.439 Y62.535 E1.25915
G1 X194.975 Y62.535 E0.01688
G1 X166.715 Y34.275 E1.25915
G1 X167.251 Y34.275 E0.01688
G1 X195.511 Y62.535 E1.25915
G1 X196.047 Y62.535 E0.01688
G1 X167.786 Y34.275 E1.25915
G1 X168.322 Y34.275 E0.01688
G1 X196.583 Y62.535 E1.25915
G1 X197.118 Y62.535 E0.01688
G1 X168.858 Y34.275 E1.25915
G1 X169.394 Y34.275 E0.01688
G1 X197.654 Y62.535 E1.25915
G1 X198.190 Y62.535 E0.01688
G1 X169.930 Y34.275 E1.25915
G1 X170.466 Y34.275 E0.01688
G1 X198.726 Y62.535 E1.25915
G1 X199.262 Y62.535 E0.01688
G1 X171.002 Y34.275 E1.25915
G1 X171.537 Y34.275 E0.01688
G1 X199.798 Y62.535 E1.25915
G1 X200.333 Y62.535 E0.01688
G1 X172.073 Y34.275 E1.25915
G1 X172.609 Y34.275 E0.01688
G1 X200.869 Y62.535 E1.25915
G1 X201.405 Y62.535 E0.01688
G1 X173.145 Y34.275 E1.25915
G1 X173.681 Y34.275 E0.01688
G1 X201.941 Y62.535 E1.25915
G1 X202.477 Y62.535 E0.01688
G1 X174.217 Y34.275 E1.25915
G1 X174.752 Y34.275 E0.01688
G1 X203.013 Y62.535 E1.25915
G1 X203.549 Y62.535 E0.01688
G1 X175.288 Y34.275 E1.25915
G1 X175.824 Y34.275 E0.01688
G1 X204.084 Y62.535 E1.25915
G1 X204.620 Y62.535 E0.01688
G1 X176.360 Y34.275 E1.25915
G1 X176.896 Y34.275 E0.01688
G1 X205.156 Y62.535 E1.25915
G1 X205.692 Y62.535 E0.01688
G1 X177.432 Y34.275 E1.25915
G1 X177.968 Y34.275 E0.01688
G1 X206.228 Y62.535 E1.25915
G1 X206.764 Y62.535 E0.01688
G1 X178.503 Y34.275 E1.25915
G1 X179.039 Y34.275 E0.01688
G1 X207.299 Y62.535 E1.25915
G1 X207.835 Y62.535 E0.01688
G1 X179.575 Y34.275 E1.25915
G1 X180.111 Y34.275 E0.01688
G1 X208.371 Y62.535 E1.25915
G1 X208.907 Y62.535 E0.01688
G1 X180.647 Y34.275 E1.25915
G1 X181.183 Y34.275 E0.01688
G1 X209.443 Y62.535 E1.25915
G1 X209.979 Y62.535 E0.01688
G1 X181.718 Y34.275 E1.25915
G1 X182.254 Y34.275 E0.01688
G1 X210.515 Y62.535 E1.25915
G1 X211.050 Y62.535 E0.01688
G1 X182.790 Y34.275 E1.25915
G1 X183.326 Y34.275 E0.01688
G1 X211.586 Y62.535 E1.25915
G1 X212.122 Y62.535 E0.01688
G1 X183.862 Y34.275 E1.25915
G1 X184.398 Y34.275 E0.01688
G1 X212.658 Y62.535 E1.25915
G1 X213.194 Y62.535 E0.01688
G1 X184.933 Y34.275 E1.25915
G1 X185.469 Y34.275 E0.01688
G1 X213.730 Y62.535 E1.25915
G1 X214.265 Y62.535 E0.01688
G1 X186.005 Y34.275 E1.25915
G1 X186.541 Y34.275 E0.01688
G1 X214.801 Y62.535 E1.25915
G1 X215.337 Y62.535 E0.01688
G1 X187.077 Y34.275 E1.25915
G1 X187.613 Y34.275 E0.01688
G1 X215.873 Y62.535 E1.25915
G1 X216.409 Y62.535 E0.01688
G1 X188.149 Y34.275 E1.25915
G1 X188.684 Y34.275 E0.01688
G1 X216.945 Y62.535 E1.25915
G1 X217.481 Y62.535 E0.01688
G1 X189.220 Y34.275 E1.25915
G1 X189.756 Y34.275 E0.01688
G1 X218.016 Y62.535 E1.25915
G1 X218.552 Y62.535 E0.01688
G1 X190.292 Y34.275 E1.25915
G1 X190.828 Y34.275 E0.01688
G1 X219.088 Y62.535 E1.25915
G1 X219.624 Y62.535 E0.01688
G1 X191.364 Y34.275 E1.25915
G1 X191.899 Y34.275 E0.01688
G1 X220.160 Y62.535 E1.25915
G1 X220.190 Y62.535 E0.00096
G1 X220.190 Y62.030 E0.01592
G1 X192.435 Y34.275 E1.23663
G1 X192.971 Y34.275 E0.01688
G1 X220.190 Y61.494 E1.21276
G1 X220.190 Y60.958 E0.01688
G1 X193.507 Y34.275 E1.18888
G1 X194.043 Y34.275 E0.01688
G1 X220.190 Y60.422 E1.16501
G1 X220.190 Y59.887 E0.01688
G1 X194.579 Y34.275 E1.14113
G1 X195.115 Y34.275 E0.01688
G1 X220.190 Y59.351 E1.11726
G1 X220.190 Y58.815 E0.01688
G1 X195.650 Y34.275 E1.09338
G1 X196.186 Y34.275 E0.01688
G1 X220.190 Y58.279 E1.06951
G1 X220.190 Y57.743 E0.01688
G1 X196.722 Y34.275 E1.04563
G1 X197.258 Y34.275 E0.01688
G1 X220.190 Y57.207 E1.02176
G1 X220.190 Y56.672 E0.01688
G1 X197.794 Y34.275 E0.99788
G1 X198.330 Y34.275 E0.01688
G1 X220.190 Y56.136 E0.97401
G1 X220.190 Y55.600 E0.01688
G1 X198.865 Y34.275 E0.95013
G1 X199.401 Y34.275 E0.01688
G1 X220.190 Y55.064 E0.92626
G1 X220.190 Y54.528 E0.01688
G1 X199.937 Y34.275 E0.90238
G1 X200.473 Y34.275 E0.01688
G1 X220.190 Y53.992 E0.87851
G1 X220.190 Y53.456 E0.01688
G1 X201.009 Y34.275 E0.85463
G1 X201.545 Y34.275 E0.01688
G1 X220.190 Y52.921 E0.83076
G1 X220.190 Y52.385 E0.01688
G1 X202.080 Y34.275 E0.80689
G1 X202.616 Y34.275 E0.01688
G1 X220.190 Y51.849 E0.78301
G1 X220.190 Y51.313 E0.01688
G1 X203.152 Y34.275 E0.75914
G1 X203.688 Y34.275 E0.01688
G1 X220.190 Y50.777 E0.73526
G1 X220.190 Y50.241 E0.01688
G1 X204.224 Y34.275 E0.71139
G1 X204.760 Y34.275 E0.01688
G1 X220.190 Y49.706 E0.68751
G1 X220.190 Y49.170 E0.01688
G1 X205.296 Y34.275 E0.66364
G1 X205.831 Y34.275 E0.01688
G1 X220.190 Y48.634 E0.63976
G1 X220.190 Y48.098 E0.01688
G1 X206.367 Y34.275 E0.61589
G1 X206.903 Y34.275 E0.01688
G1 X220.190 Y47.562 E0.59201
G1 X220.190 Y47.026 E0.01688
G1 X207.439 Y34.275 E0.56814
G1 X207.975 Y34.275 E0.01688
G1 X220.190 Y46.490 E0.54426
G1 X220.190 Y45.955 E0.01688
G1 X208.511 Y34.275 E0.52039
G1 X209.046 Y34.275 E0.01688
G1 X220.190 Y45.419 E0.49651
G1 X220.190 Y44.883 E0.01688
G1 X209.582 Y34.275 E0.47264
G1 X210.118 Y34.275 E0.01688
G1 X220.190 Y44.347 E0.44876
G1 X220.190 Y43.811 E0.01688
G1 X210.654 Y34.275 E0.42489
G1 X211.190 Y34.275 E0.01688
G1 X220.190 Y43.275 E0.40101
G1 X220.190 Y42.740 E0.01688
G1 X211.726 Y34.275 E0.37714
G1 X212.262 Y34.275 E0.01688
G1 X220.190 Y42.204 E0.35326
G1 X220.190 Y41.668 E0.01688
G1 X212.797 Y34.275 E0.32939
G1 X213.333 Y34.275 E0.01688
G1 X220.190 Y41.132 E0.30551
G1 X220.190 Y40.596 E0.01688
G1 X213.869 Y34.275 E0.28164
G1 X214.405 Y34.275 E0.01688
G1 X220.190 Y40.060 E0.25776
G1 X220.190 Y39.525 E0.01688
G1 X214.941 Y34.275 E0.23389
G1 X215.477 Y34.275 E0.01688
G1 X220.190 Y38.989 E0.21001
G1 X220.190 Y38.453 E0.01688
G1 X216.012 Y34.275 E0.18614
G1 X216.548 Y34.275 E0.01688
G1 X220.190 Y37.917 E0.16226
G1 X220.190 Y37.381 E0.01688
G1 X217.084 Y34.275 E0.13839
G1 X217.620 Y34.275 E0.01688
G1 X220.190 Y36.845 E0.11451
G1 X220.190 Y36.309 E0.01688
G1 X218.156 Y34.275 E0.09064
G1 X218.692 Y34.275 E0.01688
G1 X220.190 Y35.774 E0.06676
G1 X220.190 Y35.238 E0.01688
G1 X219.228 Y34.275 E0.04289
G1 X219.763 Y34.275 E0.01688
G1 X220.360 Y34.872 E0.02658
M106 S255
;BEFORE_LAYER_CHANGE
G92 E0.0
;0.55


G1 F8640
G1 X219.763 Y34.275 E-0.19477
G1 X219.228 Y34.275 E-0.12373
G1 X220.190 Y35.238 E-0.31433
G1 X220.190 Y35.774 E-0.12373
G1 X220.180 Y35.763 E-0.00344
G1 E-0.04000 F2100.00000
G1 Z0.800 F10800.000
;AFTER_LAYER_CHANGE
;0.55
M104 S210 ; set temperature
G1 X220.320 Y34.145
G1 Z0.550
G1 E0.80000 F2100.00000
M204 S800
G1 F3000
G1 X220.320 Y62.665 E1.47281
G1 X147.800 Y62.665 E3.74502
G1 X147.800 Y34.145 E1.47281
G1 X220.260 Y34.145 E3.74192
M204 S1000
G1 X220.760 Y33.705 F10800.000
M204 S800
G1 F2400
G1 X220.760 Y63.105 E2.24552
G1 X147.360 Y63.105 E5.60617
G1 X147.360 Y33.705 E2.24552
G1 X220.700 Y33.705 E5.60158
M204 S1000
G1 X220.605 Y34.074 F10800.000
G1 F8640
G1 X220.707 Y36.997 E-0.76000
G1 E-0.04000 F2100.00000
G1 Z1.150 F10800.000
G1 X218.970 Y62.579
G1 Z0.550
G1 E0.80000 F2100.00000
M204 S2000
G1 F3600
G1 X219.953 Y61.596 E0.12650
G1 X219.953 Y60.712 E0.08048
G1 X218.367 Y62.298 E0.20412
G1 X217.482 Y62.298 E0.08048
G1 X219.953 Y59.827 E0.31794
G1 X219.953 Y58.943 E0.08048
G1 X216.598 Y62.298 E0.43175
G1 X215.713 Y62.298 E0.08048
G1 X219.953 Y58.059 E0.54556
G1 X219.953 Y57.174 E0.08048
G1 X214.829 Y62.298 E0.65937
G1 X213.945 Y62.298 E0.08048
G1 X219.953 Y56.290 E0.77318
G1 X219.953 Y55.405 E0.08048
G1 X213.060 Y62.298 E0.88700
G1 X212.176 Y62.298 E0.08048
G1 X219.953 Y54.521 E1.00081
G1 X219.953 Y53.637 E0.08048
G1 X211.291 Y62.298 E1.11462
G1 X210.407 Y62.298 E0.08048
G1 X219.953 Y52.752 E1.22843
G1 X219.953 Y51.868 E0.08048
G1 X209.523 Y62.298 E1.34225
G1 X208.638 Y62.298 E0.08048
G1 X219.953 Y50.984 E1.45606
G1 X219.953 Y50.099 E0.08048
G1 X207.754 Y62.298 E1.56987
G1 X206.869 Y62.298 E0.08048
G1 X219.953 Y49.215 E1.68368
G1 X219.953 Y48.330 E0.08048
G1 X205.985 Y62.298 E1.79750
G1 X205.101 Y62.298 E0.08048
G1 X219.953 Y47.446 E1.91131
G1 X219.953 Y46.562 E0.08048
G1 X204.216 Y62.298 E2.02512
G1 X203.332 Y62.298 E0.08048
G1 X219.953 Y45.677 E2.13893
G1 X219.953 Y44.793 E0.08048
G1 X202.448 Y62.298 E2.25275
G1 X201.563 Y62.298 E0.08048
G1 X219.953 Y43.908 E2.36656
G1 X219.953 Y43.024 E0.08048
G1 X200.679 Y62.298 E2.48037
G1 X199.794 Y62.298 E0.08048
G1 X219.953 Y42.140 E2.59418
G1 X219.953 Y41.255 E0.08048
G1 X198.910 Y62.298 E2.70799
G1 X198.026 Y62.298 E0.08048
G1 X219.953 Y40.371 E2.82181
G1 X219.953 Y39.486 E0.08048
G1 X197.141 Y62.298 E2.93562
G1 X196.257 Y62.298 E0.08048
G1 X219.953 Y38.602 E3.04943
G1 X219.953 Y37.718 E0.08048
