; G-Code generated by Simplify3D(R) Version 4.0.0
; May 29, 2018 at 9:23:54 PM
; Settings Summary
;   processName,Process1
;   applyToModels,40mm-pc-fan-weather-shroud
;   profileName,Prusa Research Original Prusa i3 MK2 (modified)
;   profileVersion,2017-07-23 22:27:18
;   baseProfile,
;   printMaterial,PLA
;   printQuality,Fast
;   printExtruders,
;   extruderName,Primary Extruder
;   extruderToolheadNumber,0
;   extruderDiameter,0.4
;   extruderAutoWidth,1
;   extruderWidth,0.48
;   extrusionMultiplier,1
;   extruderUseRetract,1
;   extruderRetractionDistance,1.5
;   extruderExtraRestartDistance,0
;   extruderRetractionZLift,0
;   extruderRetractionSpeed,1800
;   extruderUseCoasting,1
;   extruderCoastingDistance,0.2
;   extruderUseWipe,1
;   extruderWipeDistance,2
;   primaryExtruder,0
;   layerHeight,0.35
;   topSolidLayers,3
;   bottomSolidLayers,3
;   perimeterOutlines,3
;   printPerimetersInsideOut,1
;   startPointOption,2
;   startPointOriginX,0
;   startPointOriginY,0
;   sequentialIslands,0
;   spiralVaseMode,0
;   firstLayerHeightPercentage,120
;   firstLayerWidthPercentage,100
;   firstLayerUnderspeed,0.5
;   useRaft,0
;   raftExtruder,0
;   raftTopLayers,3
;   raftBaseLayers,2
;   raftOffset,3
;   raftSeparationDistance,0.14
;   raftTopInfill,100
;   aboveRaftSpeedMultiplier,0.3
;   useSkirt,1
;   skirtExtruder,0
;   skirtLayers,1
;   skirtOutlines,1
;   skirtOffset,4
;   usePrimePillar,0
;   primePillarExtruder,999
;   primePillarWidth,12
;   primePillarLocation,7
;   primePillarSpeedMultiplier,1
;   useOozeShield,0
;   oozeShieldExtruder,999
;   oozeShieldOffset,2
;   oozeShieldOutlines,1
;   oozeShieldSidewallShape,1
;   oozeShieldSidewallAngle,30
;   oozeShieldSpeedMultiplier,1
;   infillExtruder,0
;   internalInfillPattern,Rectilinear
;   externalInfillPattern,Rectilinear
;   infillPercentage,10
;   outlineOverlapPercentage,20
;   infillExtrusionWidthPercentage,100
;   minInfillLength,5
;   infillLayerInterval,1
;   internalInfillAngles,45,-45
;   overlapInternalInfillAngles,0
;   externalInfillAngles,45,-45
;   generateSupport,1
;   supportExtruder,0
;   supportInfillPercentage,25
;   supportExtraInflation,0
;   supportBaseLayers,0
;   denseSupportExtruder,0
;   denseSupportLayers,0
;   denseSupportInfillPercentage,70
;   supportLayerInterval,1
;   supportHorizontalPartOffset,0.3
;   supportUpperSeparationLayers,1
;   supportLowerSeparationLayers,1
;   supportType,0
;   supportGridSpacing,4
;   maxOverhangAngle,45
;   supportAngles,0
;   temperatureName,Primary Extruder,Heated Bed
;   temperatureNumber,0,0
;   temperatureSetpointCount,1,1
;   temperatureSetpointLayers,1,1
;   temperatureSetpointTemperatures,210,55
;   temperatureStabilizeAtStartup,1,1
;   temperatureHeatedBed,0,1
;   temperatureRelayBetweenLayers,0,0
;   temperatureRelayBetweenLoops,0,0
;   fanLayers,1,2
;   fanSpeeds,0,100
;   blipFanToFullPower,0
;   adjustSpeedForCooling,1
;   minSpeedLayerTime,15
;   minCoolingSpeedSlowdown,20
;   increaseFanForCooling,0
;   minFanLayerTime,45
;   maxCoolingFanSpeed,100
;   increaseFanForBridging,0
;   bridgingFanSpeed,100
;   use5D,1
;   relativeEdistances,0
;   allowEaxisZeroing,1
;   independentExtruderAxes,0
;   includeM10123,0
;   stickySupport,1
;   applyToolheadOffsets,0
;   gcodeXoffset,0
;   gcodeYoffset,0
;   gcodeZoffset,0
;   overrideMachineDefinition,1
;   machineTypeOverride,0
;   strokeXoverride,250
;   strokeYoverride,210
;   strokeZoverride,200
;   originOffsetXoverride,0
;   originOffsetYoverride,0
;   originOffsetZoverride,0
;   homeXdirOverride,-1
;   homeYdirOverride,-1
;   homeZdirOverride,-1
;   flipXoverride,1
;   flipYoverride,-1
;   flipZoverride,1
;   toolheadOffsets,0,0|0,0|0,0|0,0|0,0|0,0
;   overrideFirmwareConfiguration,1
;   firmwareTypeOverride,RepRap (Marlin/Repetier/Sprinter)
;   GPXconfigOverride,r2
;   baudRateOverride,250000
;   overridePrinterModels,1
;   printerModelsOverride
;   startingGcode,M115 U3.0.7 ; use the latest firmware version,G28 W ; home all axes without mesh bed leveling,G80 ; run mesh bed leveling routine,G1 Y-3.0 F1000.0 ; prepare to prime,G92 E0 ; reset extrusion distance,G1 X60.0 E9.0  F1000.0 ; priming,G1 X100.0 E12.5  F1000.0 ; priming
;   layerChangeGcode,
;   retractionGcode,
;   toolChangeGcode,
;   endingGcode,M106 S0 ; turn off cooling fan,M104 S0 ; turn off extruder,M140 S0 ; turn off bed,G1 X0 Y200 ; part removal,M84 ; disable motors
;   exportFileFormat,gcode
;   celebration,0
;   celebrationSong,Random Song
;   postProcessing,
;   defaultSpeed,2400
;   outlineUnderspeed,0.8
;   solidInfillUnderspeed,0.8
;   supportUnderspeed,0.8
;   rapidXYspeed,4800
;   rapidZspeed,1002
;   minBridgingArea,50
;   bridgingExtraInflation,0
;   bridgingExtrusionMultiplier,1
;   bridgingSpeedMultiplier,1
;   useFixedBridgingAngle,0
;   fixedBridgingAngle,0
;   applyBridgingToPerimeters,0
;   filamentDiameters,1.75|1.75|1.75|1.75|1.75|1.75
;   filamentPricesPerKg,199|46|46|46|46|46
;   filamentDensities,1.25|1.25|1.25|1.25|1.25|1.25
;   useMinPrintHeight,0
;   minPrintHeight,0
;   useMaxPrintHeight,1
;   maxPrintHeight,235
;   useDiaphragm,0
;   diaphragmLayerInterval,20
;   robustSlicing,1
;   mergeAllIntoSolid,0
;   onlyRetractWhenCrossingOutline,1
;   retractBetweenLayers,1
;   useRetractionMinTravel,0
;   retractionMinTravel,3
;   retractWhileWiping,1
;   onlyWipeOutlines,1
;   avoidCrossingOutline,0
;   maxMovementDetourFactor,3
;   toolChangeRetractionDistance,12
;   toolChangeExtraRestartDistance,-0.5
;   toolChangeRetractionSpeed,600
;   externalThinWallType,0
;   internalThinWallType,2
;   thinWallAllowedOverlapPercentage,25
;   singleExtrusionMinLength,1
;   singleExtrusionMinPrintingWidthPercentage,50
;   singleExtrusionMaxPrintingWidthPercentage,200
;   singleExtrusionEndpointExtension,0.2
;   horizontalSizeCompensation,0
G90
M82
M106 S0
M140 S55
M190 S55
M104 S210 T0
M109 S210 T0
M115 U3.0.7 ; use the latest firmware version
G28 W ; home all axes without mesh bed leveling
G80 ; run mesh bed leveling routine
G1 Y-3.0 F1000.0 ; prepare to prime
G92 E0 ; reset extrusion distance
G1 X60.0 E9.0  F1000.0 ; priming
G1 X100.0 E12.5  F1000.0 ; priming
G92 E0
G1 E-1.5000 F1800
G1 Z0.420 F1002
; process Process1
; layer 1, Z = 0.420
T0
; tool H0.420 W0.480
; skirt
G1 X100.042 Y81.411 F4800
G1 E0.0000 F540
G92 E0
G1 X100.864 Y80.536 E0.1006 F1200
G1 X100.869 Y80.531 E0.1013
G1 X101.058 Y80.353 E0.1230
G1 X101.064 Y80.348 E0.1236
G1 X101.964 Y79.604 E0.2216
G1 X101.968 Y79.600 E0.2220
G1 X102.123 Y79.484 E0.2383
G1 X102.128 Y79.480 E0.2387
G1 X102.678 Y79.106 E0.2945
G1 X102.683 Y79.103 E0.2950
G1 X102.849 Y79.002 E0.3113
G1 X102.854 Y78.999 E0.3118
G1 X103.878 Y78.436 E0.4097
G1 X103.884 Y78.432 E0.4104
G1 X104.119 Y78.322 E0.4320
G1 X104.126 Y78.319 E0.4327
G1 X105.242 Y77.877 E0.5333
G1 X105.249 Y77.875 E0.5339
G1 X105.495 Y77.795 E0.5556
G1 X105.502 Y77.793 E0.5563
G1 X106.634 Y77.502 E0.6542
G1 X106.639 Y77.501 E0.6547
G1 X106.830 Y77.461 E0.6710
G1 X106.835 Y77.460 E0.6714
G1 X107.493 Y77.356 E0.7272
G1 X107.498 Y77.355 E0.7277
G1 X107.691 Y77.334 E0.7440
G1 X107.697 Y77.334 E0.7444
G1 X108.863 Y77.260 E0.8424
G1 X108.871 Y77.260 E0.8430
G1 X109.129 Y77.260 E0.8647
G1 X109.137 Y77.260 E0.8653
G1 X110.303 Y77.334 E0.9632
G1 X110.309 Y77.334 E0.9637
G1 X110.502 Y77.355 E0.9800
G1 X110.507 Y77.356 E0.9805
G1 X111.165 Y77.460 E1.0363
G1 X111.170 Y77.461 E1.0367
G1 X111.361 Y77.501 E1.0530
G1 X111.366 Y77.502 E1.0535
G1 X112.498 Y77.793 E1.1514
G1 X112.505 Y77.795 E1.1521
G1 X112.751 Y77.875 E1.1737
G1 X112.758 Y77.877 E1.1744
G1 X113.874 Y78.319 E1.2750
G1 X113.881 Y78.322 E1.2756
G1 X114.116 Y78.432 E1.2973
G1 X114.122 Y78.436 E1.2980
G1 X115.175 Y79.014 E1.3986
G1 X115.181 Y79.018 E1.3993
G1 X115.400 Y79.157 E1.4210
G1 X115.406 Y79.161 E1.4216
G1 X115.927 Y79.539 E1.4755
G1 X116.579 Y79.305 E1.5336
G1 X116.583 Y79.303 E1.5340
G1 X116.706 Y79.263 E1.5448
G1 X116.709 Y79.262 E1.5451
G1 X118.209 Y78.827 E1.6760
G1 X118.213 Y78.826 E1.6763
G1 X118.338 Y78.793 E1.6872
G1 X118.342 Y78.792 E1.6875
G1 X119.866 Y78.452 E1.8184
G1 X119.870 Y78.451 E1.8187
G1 X119.997 Y78.427 E1.8296
G1 X120.000 Y78.426 E1.8299
G1 X121.543 Y78.182 E1.9608
G1 X121.547 Y78.181 E1.9611
G1 X121.675 Y78.165 E1.9720
G1 X121.679 Y78.165 E1.9723
G1 X123.234 Y78.018 E2.1032
G1 X123.238 Y78.017 E2.1035
G1 X123.367 Y78.009 E2.1143
G1 X123.370 Y78.009 E2.1147
G1 X124.931 Y77.960 E2.2456
G1 X124.935 Y77.960 E2.2459
G1 X125.065 Y77.960 E2.2567
G1 X125.069 Y77.960 E2.2570
G1 X126.630 Y78.009 E2.3879
G1 X126.633 Y78.009 E2.3883
G1 X126.762 Y78.017 E2.3991
G1 X126.766 Y78.018 E2.3994
G1 X128.321 Y78.165 E2.5303
G1 X128.325 Y78.165 E2.5306
G1 X128.453 Y78.181 E2.5415
G1 X128.457 Y78.182 E2.5418
G1 X130.000 Y78.426 E2.6727
G1 X130.003 Y78.427 E2.6730
G1 X130.130 Y78.451 E2.6839
G1 X130.134 Y78.452 E2.6842
G1 X131.658 Y78.792 E2.8151
G1 X131.662 Y78.793 E2.8154
G1 X131.787 Y78.826 E2.8262
G1 X131.791 Y78.827 E2.8266
G1 X133.291 Y79.262 E2.9575
G1 X133.294 Y79.263 E2.9578
G1 X133.417 Y79.303 E2.9686
G1 X133.421 Y79.305 E2.9690
G1 X134.073 Y79.539 E3.0271
G1 X134.594 Y79.161 E3.0810
G1 X134.600 Y79.157 E3.0816
G1 X134.819 Y79.018 E3.1033
G1 X134.825 Y79.014 E3.1040
G1 X135.878 Y78.436 E3.2046
G1 X135.884 Y78.432 E3.2053
G1 X136.119 Y78.322 E3.2270
G1 X136.126 Y78.319 E3.2276
G1 X137.242 Y77.877 E3.3282
G1 X137.249 Y77.875 E3.3289
G1 X137.495 Y77.795 E3.3505
G1 X137.502 Y77.793 E3.3512
G1 X138.634 Y77.502 E3.4491
G1 X138.639 Y77.501 E3.4496
G1 X138.830 Y77.461 E3.4659
G1 X138.835 Y77.460 E3.4663
G1 X139.493 Y77.356 E3.5221
G1 X139.498 Y77.355 E3.5226
G1 X139.691 Y77.334 E3.5389
G1 X139.697 Y77.334 E3.5394
G1 X140.831 Y77.262 E3.6346
G1 X140.836 Y77.262 E3.6350
G1 X141.030 Y77.259 E3.6513
G1 X141.036 Y77.259 E3.6518
G1 X141.669 Y77.279 E3.7048
G1 X141.672 Y77.279 E3.7051
G1 X141.801 Y77.287 E3.7160
G1 X141.805 Y77.287 E3.7163
G1 X142.435 Y77.347 E3.7693
G1 X142.441 Y77.348 E3.7698
G1 X142.633 Y77.375 E3.7861
G1 X142.639 Y77.376 E3.7866
G1 X143.787 Y77.595 E3.8845
G1 X143.794 Y77.597 E3.8852
G1 X144.045 Y77.661 E3.9069
G1 X144.053 Y77.663 E3.9075
G1 X145.164 Y78.024 E4.0054
G1 X145.169 Y78.026 E4.0059
G1 X145.350 Y78.095 E4.0222
G1 X145.356 Y78.097 E4.0226
G1 X145.966 Y78.361 E4.0784
G1 X145.971 Y78.363 E4.0789
G1 X146.146 Y78.449 E4.0951
G1 X146.151 Y78.451 E4.0956
G1 X147.175 Y79.014 E4.1936
G1 X147.181 Y79.018 E4.1942
G1 X147.400 Y79.157 E4.2159
G1 X147.406 Y79.161 E4.2165
G1 X148.352 Y79.848 E4.3145
G1 X148.356 Y79.852 E4.3150
G1 X148.507 Y79.973 E4.3312
G1 X148.512 Y79.976 E4.3317
G1 X148.986 Y80.395 E4.3847
G1 X148.989 Y80.397 E4.3850
G1 X149.084 Y80.486 E4.3959
G1 X149.086 Y80.489 E4.3962
G1 X149.534 Y80.936 E4.4493
G1 X149.538 Y80.940 E4.4498
G1 X149.669 Y81.084 E4.4660
G1 X149.672 Y81.088 E4.4665
G1 X150.417 Y81.989 E4.5644
G1 X150.422 Y81.995 E4.5651
G1 X150.574 Y82.204 E4.5868
G1 X150.578 Y82.210 E4.5874
G1 X151.222 Y83.224 E4.6880
G1 X151.225 Y83.231 E4.6887
G1 X151.350 Y83.458 E4.7104
G1 X151.354 Y83.464 E4.7110
G1 X151.851 Y84.522 E4.8090
G1 X151.853 Y84.527 E4.8094
G1 X151.928 Y84.706 E4.8257
G1 X151.930 Y84.711 E4.8262
G1 X152.144 Y85.307 E4.8792
G1 X152.145 Y85.310 E4.8795
G1 X152.185 Y85.433 E4.8904
G1 X152.186 Y85.437 E4.8907
G1 X152.363 Y86.045 E4.9437
G1 X152.364 Y86.050 E4.9442
G1 X152.410 Y86.239 E4.9605
G1 X152.411 Y86.245 E4.9610
G1 X152.630 Y87.393 E5.0589
G1 X152.631 Y87.400 E5.0596
G1 X152.664 Y87.657 E5.0813
G1 X152.664 Y87.665 E5.0819
G1 X152.740 Y88.863 E5.1825
G1 X152.740 Y88.871 E5.1832
G1 X152.740 Y89.129 E5.2049
G1 X152.740 Y89.137 E5.2055
G1 X152.664 Y90.335 E5.3061
G1 X152.664 Y90.343 E5.3068
G1 X152.631 Y90.600 E5.3285
G1 X152.630 Y90.607 E5.3291
G1 X152.405 Y91.787 E5.4298
G1 X152.403 Y91.794 E5.4304
G1 X152.339 Y92.045 E5.4521
G1 X152.337 Y92.053 E5.4528
G1 X151.966 Y93.194 E5.5534
G1 X151.963 Y93.202 E5.5540
G1 X151.868 Y93.442 E5.5757
G1 X151.865 Y93.449 E5.5763
G1 X151.354 Y94.536 E5.6770
G1 X151.350 Y94.542 E5.6776
G1 X151.225 Y94.769 E5.6993
G1 X151.222 Y94.776 E5.7000
G1 X150.578 Y95.790 E5.8006
G1 X150.574 Y95.796 E5.8013
G1 X150.467 Y95.944 E5.8166
G1 X150.695 Y96.579 E5.8732
G1 X150.697 Y96.583 E5.8735
G1 X150.737 Y96.706 E5.8843
G1 X150.738 Y96.709 E5.8846
G1 X151.173 Y98.209 E6.0155
G1 X151.174 Y98.213 E6.0159
G1 X151.207 Y98.338 E6.0267
G1 X151.207 Y98.342 E6.0270
G1 X151.548 Y99.866 E6.1579
G1 X151.549 Y99.870 E6.1582
G1 X151.573 Y99.997 E6.1691
G1 X151.574 Y100.000 E6.1694
G1 X151.818 Y101.543 E6.3003
G1 X151.819 Y101.547 E6.3006
G1 X151.835 Y101.675 E6.3115
G1 X151.835 Y101.679 E6.3118
G1 X151.982 Y103.234 E6.4427
G1 X151.983 Y103.238 E6.4430
G1 X151.991 Y103.367 E6.4538
G1 X151.991 Y103.370 E6.4542
G1 X152.040 Y104.931 E6.5851
G1 X152.040 Y104.935 E6.5854
G1 X152.040 Y105.065 E6.5962
G1 X152.040 Y105.069 E6.5966
G1 X151.991 Y106.630 E6.7275
G1 X151.991 Y106.633 E6.7278
G1 X151.983 Y106.762 E6.7386
G1 X151.982 Y106.766 E6.7389
G1 X151.835 Y108.321 E6.8698
G1 X151.835 Y108.325 E6.8702
G1 X151.819 Y108.453 E6.8810
G1 X151.818 Y108.457 E6.8813
G1 X151.574 Y110.000 E7.0122
G1 X151.573 Y110.003 E7.0125
G1 X151.549 Y110.130 E7.0234
G1 X151.548 Y110.134 E7.0237
G1 X151.207 Y111.658 E7.1546
G1 X151.207 Y111.662 E7.1549
G1 X151.174 Y111.787 E7.1658
G1 X151.173 Y111.791 E7.1661
G1 X150.738 Y113.291 E7.2970
G1 X150.737 Y113.294 E7.2973
G1 X150.697 Y113.417 E7.3081
G1 X150.695 Y113.421 E7.3085
G1 X150.461 Y114.073 E7.3666
G1 X150.820 Y114.567 E7.4178
G1 X150.823 Y114.572 E7.4183
G1 X150.930 Y114.735 E7.4345
G1 X150.933 Y114.739 E7.4350
G1 X151.271 Y115.312 E7.4908
G1 X151.274 Y115.317 E7.4913
G1 X151.365 Y115.489 E7.5075
G1 X151.368 Y115.494 E7.5080
G1 X151.865 Y116.551 E7.6059
G1 X151.868 Y116.558 E7.6066
G1 X151.963 Y116.798 E7.6283
G1 X151.966 Y116.806 E7.6289
G1 X152.337 Y117.947 E7.7295
G1 X152.339 Y117.955 E7.7302
G1 X152.403 Y118.206 E7.7519
G1 X152.405 Y118.213 E7.7525
G1 X152.624 Y119.361 E7.8505
G1 X152.625 Y119.367 E7.8509
G1 X152.652 Y119.559 E7.8672
G1 X152.653 Y119.565 E7.8677
G1 X152.712 Y120.195 E7.9208
G1 X152.713 Y120.199 E7.9211
G1 X152.721 Y120.327 E7.9319
G1 X152.721 Y120.331 E7.9322
G1 X152.741 Y120.964 E7.9852
G1 X152.741 Y120.969 E7.9857
G1 X152.738 Y121.163 E8.0020
G1 X152.738 Y121.169 E8.0025
G1 X152.664 Y122.335 E8.1004
G1 X152.664 Y122.343 E8.1010
G1 X152.631 Y122.600 E8.1228
G1 X152.630 Y122.607 E8.1234
G1 X152.411 Y123.755 E8.2213
G1 X152.410 Y123.761 E8.2218
G1 X152.364 Y123.950 E8.2381
G1 X152.363 Y123.955 E8.2386
G1 X152.186 Y124.563 E8.2916
G1 X152.185 Y124.567 E8.2920
G1 X152.145 Y124.690 E8.3028
G1 X152.144 Y124.693 E8.3031
G1 X151.930 Y125.288 E8.3561
G1 X151.928 Y125.294 E8.3566
G1 X151.853 Y125.473 E8.3729
G1 X151.851 Y125.478 E8.3733
G1 X151.368 Y126.506 E8.4686
G1 X151.365 Y126.511 E8.4690
G1 X151.274 Y126.683 E8.4853
G1 X151.271 Y126.688 E8.4858
G1 X150.933 Y127.261 E8.5416
G1 X150.930 Y127.265 E8.5420
G1 X150.823 Y127.428 E8.5583
G1 X150.820 Y127.433 E8.5588
G1 X150.133 Y128.378 E8.6567
G1 X150.128 Y128.384 E8.6574
G1 X149.963 Y128.583 E8.6791
G1 X149.958 Y128.589 E8.6797
G1 X149.136 Y129.464 E8.7803
G1 X149.131 Y129.469 E8.7810
G1 X148.942 Y129.647 E8.8027
G1 X148.936 Y129.652 E8.8033
G1 X148.036 Y130.396 E8.9012
G1 X148.032 Y130.400 E8.9017
G1 X147.877 Y130.516 E8.9180
G1 X147.872 Y130.520 E8.9184
G1 X147.322 Y130.894 E8.9742
G1 X147.317 Y130.897 E8.9747
G1 X147.151 Y130.998 E8.9910
G1 X147.146 Y131.001 E8.9915
G1 X146.122 Y131.564 E9.0894
G1 X146.115 Y131.568 E9.0900
G1 X145.881 Y131.678 E9.1117
G1 X145.874 Y131.681 E9.1124
G1 X144.758 Y132.123 E9.2130
G1 X144.751 Y132.125 E9.2136
G1 X144.505 Y132.205 E9.2353
G1 X144.498 Y132.207 E9.2359
G1 X143.366 Y132.498 E9.3339
G1 X143.361 Y132.499 E9.3343
G1 X143.170 Y132.539 E9.3506
G1 X143.165 Y132.540 E9.3511
G1 X142.507 Y132.644 E9.4069
G1 X142.502 Y132.645 E9.4074
G1 X142.309 Y132.666 E9.4237
G1 X142.303 Y132.666 E9.4241
G1 X141.137 Y132.740 E9.5221
G1 X141.129 Y132.740 E9.5227
G1 X140.871 Y132.740 E9.5444
G1 X140.863 Y132.740 E9.5450
G1 X139.697 Y132.666 E9.6429
G1 X139.691 Y132.666 E9.6434
G1 X139.498 Y132.645 E9.6597
