; G-Code generated by Simplify3D(R) Version 4.0.0
; May 30, 2018 at 8:20:46 AM
; Settings Summary
;   processName,Process1
;   applyToModels,solar-controller-box-lid
;   profileName,Prusa Research Original Prusa i3 MK2 (modified)
;   profileVersion,2017-07-23 22:27:18
;   baseProfile,
;   printMaterial,PLA
;   printQuality,Fast
;   printExtruders,
;   extruderName,Primary Extruder
;   extruderToolheadNumber,0
;   extruderDiameter,0.4
;   extruderAutoWidth,1
;   extruderWidth,0.48
;   extrusionMultiplier,1
;   extruderUseRetract,1
;   extruderRetractionDistance,1.5
;   extruderExtraRestartDistance,0
;   extruderRetractionZLift,0
;   extruderRetractionSpeed,1800
;   extruderUseCoasting,1
;   extruderCoastingDistance,0.2
;   extruderUseWipe,1
;   extruderWipeDistance,2
;   primaryExtruder,0
;   layerHeight,0.35
;   topSolidLayers,3
;   bottomSolidLayers,3
;   perimeterOutlines,3
;   printPerimetersInsideOut,1
;   startPointOption,2
;   startPointOriginX,0
;   startPointOriginY,0
;   sequentialIslands,0
;   spiralVaseMode,0
;   firstLayerHeightPercentage,120
;   firstLayerWidthPercentage,100
;   firstLayerUnderspeed,0.5
;   useRaft,0
;   raftExtruder,0
;   raftTopLayers,3
;   raftBaseLayers,2
;   raftOffset,3
;   raftSeparationDistance,0.14
;   raftTopInfill,100
;   aboveRaftSpeedMultiplier,0.3
;   useSkirt,1
;   skirtExtruder,0
;   skirtLayers,1
;   skirtOutlines,1
;   skirtOffset,4
;   usePrimePillar,0
;   primePillarExtruder,999
;   primePillarWidth,12
;   primePillarLocation,7
;   primePillarSpeedMultiplier,1
;   useOozeShield,0
;   oozeShieldExtruder,999
;   oozeShieldOffset,2
;   oozeShieldOutlines,1
;   oozeShieldSidewallShape,1
;   oozeShieldSidewallAngle,30
;   oozeShieldSpeedMultiplier,1
;   infillExtruder,0
;   internalInfillPattern,Rectilinear
;   externalInfillPattern,Rectilinear
;   infillPercentage,10
;   outlineOverlapPercentage,20
;   infillExtrusionWidthPercentage,100
;   minInfillLength,5
;   infillLayerInterval,1
;   internalInfillAngles,45,-45
;   overlapInternalInfillAngles,0
;   externalInfillAngles,45,-45
;   generateSupport,1
;   supportExtruder,0
;   supportInfillPercentage,25
;   supportExtraInflation,0
;   supportBaseLayers,0
;   denseSupportExtruder,0
;   denseSupportLayers,0
;   denseSupportInfillPercentage,70
;   supportLayerInterval,1
;   supportHorizontalPartOffset,0.3
;   supportUpperSeparationLayers,1
;   supportLowerSeparationLayers,1
;   supportType,0
;   supportGridSpacing,4
;   maxOverhangAngle,45
;   supportAngles,0
;   temperatureName,Primary Extruder,Heated Bed
;   temperatureNumber,0,0
;   temperatureSetpointCount,1,1
;   temperatureSetpointLayers,1,1
;   temperatureSetpointTemperatures,210,55
;   temperatureStabilizeAtStartup,1,1
;   temperatureHeatedBed,0,1
;   temperatureRelayBetweenLayers,0,0
;   temperatureRelayBetweenLoops,0,0
;   fanLayers,1,2
;   fanSpeeds,0,100
;   blipFanToFullPower,0
;   adjustSpeedForCooling,1
;   minSpeedLayerTime,15
;   minCoolingSpeedSlowdown,20
;   increaseFanForCooling,0
;   minFanLayerTime,45
;   maxCoolingFanSpeed,100
;   increaseFanForBridging,0
;   bridgingFanSpeed,100
;   use5D,1
;   relativeEdistances,0
;   allowEaxisZeroing,1
;   independentExtruderAxes,0
;   includeM10123,0
;   stickySupport,1
;   applyToolheadOffsets,0
;   gcodeXoffset,0
;   gcodeYoffset,0
;   gcodeZoffset,0
;   overrideMachineDefinition,1
;   machineTypeOverride,0
;   strokeXoverride,250
;   strokeYoverride,210
;   strokeZoverride,200
;   originOffsetXoverride,0
;   originOffsetYoverride,0
;   originOffsetZoverride,0
;   homeXdirOverride,-1
;   homeYdirOverride,-1
;   homeZdirOverride,-1
;   flipXoverride,1
;   flipYoverride,-1
;   flipZoverride,1
;   toolheadOffsets,0,0|0,0|0,0|0,0|0,0|0,0
;   overrideFirmwareConfiguration,1
;   firmwareTypeOverride,RepRap (Marlin/Repetier/Sprinter)
;   GPXconfigOverride,r2
;   baudRateOverride,250000
;   overridePrinterModels,1
;   printerModelsOverride
;   startingGcode,M115 U3.0.7 ; use the latest firmware version,G28 W ; home all axes without mesh bed leveling,G80 ; run mesh bed leveling routine,G1 Y-3.0 F1000.0 ; prepare to prime,G92 E0 ; reset extrusion distance,G1 X60.0 E9.0  F1000.0 ; priming,G1 X100.0 E12.5  F1000.0 ; priming
;   layerChangeGcode,
;   retractionGcode,
;   toolChangeGcode,
;   endingGcode,M106 S0 ; turn off cooling fan,M104 S0 ; turn off extruder,M140 S0 ; turn off bed,G1 X0 Y200 ; part removal,M84 ; disable motors
;   exportFileFormat,gcode
;   celebration,0
;   celebrationSong,Random Song
;   postProcessing,
;   defaultSpeed,2400
;   outlineUnderspeed,0.8
;   solidInfillUnderspeed,0.8
;   supportUnderspeed,0.8
;   rapidXYspeed,4800
;   rapidZspeed,1002
;   minBridgingArea,50
;   bridgingExtraInflation,0
;   bridgingExtrusionMultiplier,1
;   bridgingSpeedMultiplier,1
;   useFixedBridgingAngle,0
;   fixedBridgingAngle,0
;   applyBridgingToPerimeters,0
;   filamentDiameters,1.75|1.75|1.75|1.75|1.75|1.75
;   filamentPricesPerKg,199|46|46|46|46|46
;   filamentDensities,1.25|1.25|1.25|1.25|1.25|1.25
;   useMinPrintHeight,0
;   minPrintHeight,0
;   useMaxPrintHeight,1
;   maxPrintHeight,235
;   useDiaphragm,0
;   diaphragmLayerInterval,20
;   robustSlicing,1
;   mergeAllIntoSolid,0
;   onlyRetractWhenCrossingOutline,1
;   retractBetweenLayers,1
;   useRetractionMinTravel,0
;   retractionMinTravel,3
;   retractWhileWiping,1
;   onlyWipeOutlines,1
;   avoidCrossingOutline,0
;   maxMovementDetourFactor,3
;   toolChangeRetractionDistance,12
;   toolChangeExtraRestartDistance,-0.5
;   toolChangeRetractionSpeed,600
;   externalThinWallType,0
;   internalThinWallType,2
;   thinWallAllowedOverlapPercentage,25
;   singleExtrusionMinLength,1
;   singleExtrusionMinPrintingWidthPercentage,50
;   singleExtrusionMaxPrintingWidthPercentage,200
;   singleExtrusionEndpointExtension,0.2
;   horizontalSizeCompensation,0
G90
M82
M106 S0
M140 S55
M190 S55
M104 S210 T0
M109 S210 T0
M115 U3.0.7 ; use the latest firmware version
G28 W ; home all axes without mesh bed leveling
G80 ; run mesh bed leveling routine
G1 Y-3.0 F1000.0 ; prepare to prime
G92 E0 ; reset extrusion distance
G1 X60.0 E9.0  F1000.0 ; priming
G1 X100.0 E12.5  F1000.0 ; priming
G92 E0
G1 E-1.5000 F1800
G1 Z0.420 F1002
; process Process1
; layer 1, Z = 0.420
T0
; tool H0.420 W0.480
; skirt
G1 X30.287 Y38.777 F4800
G1 E0.0000 F540
G92 E0
G1 X30.375 Y38.740 E0.0080 F1200
G1 X219.625 Y38.740 E15.8700
G1 X219.713 Y38.777 E15.8780
G1 X222.123 Y41.187 E16.1638
G1 X222.160 Y41.275 E16.1718
G1 X222.160 Y168.725 E26.8540
G1 X222.123 Y168.813 E26.8620
G1 X219.713 Y171.223 E27.1477
G1 X219.625 Y171.260 E27.1557
G1 X30.375 Y171.260 E43.0178
G1 X30.287 Y171.223 E43.0258
G1 X27.877 Y168.813 E43.3115
G1 X27.840 Y168.725 E43.3195
G1 X27.840 Y41.275 E54.0017
G1 X27.877 Y41.187 E54.0097
G1 X30.146 Y38.918 E54.2787
G1 X30.287 Y38.777 F1200
G92 E0
G1 E-1.5000 F1800
; inner perimeter
G1 X33.280 Y44.180 F4800
G1 E0.0000 F1800
G92 E0
G1 X216.720 Y44.180 E15.3751 F1080
G1 X216.720 Y165.820 E25.5704
G1 X33.280 Y165.820 E40.9456
G1 X33.280 Y44.380 E51.1241
G1 X33.280 Y44.180 F1080
G1 X32.800 Y43.700 F4800
G92 E0
G1 X217.200 Y43.700 E15.4556 F1080
G1 X217.200 Y166.300 E25.7314
G1 X32.800 Y166.300 E41.1870
G1 X32.800 Y43.900 E51.4460
G1 X32.800 Y43.700 F1080
; outer perimeter
G1 X32.320 Y43.220 F4800
G92 E0
G1 X217.680 Y43.220 E15.5360 F960
G1 X217.680 Y166.780 E25.8923
G1 X32.320 Y166.780 E41.4283
G1 X32.320 Y43.420 E51.7678
G1 X32.320 Y43.220 F960
G1 X34.320 Y43.220 F2400
; solid layer
G1 X34.059 Y165.436 F4800
G92 E0
G1 X33.664 Y165.041 E0.0468 F960
G1 X33.664 Y164.363 E0.1037
G1 X34.737 Y165.436 E0.2309
G1 X35.416 Y165.436 E0.2878
G1 X33.664 Y163.684 E0.4955
G1 X33.664 Y163.005 E0.5524
G1 X36.095 Y165.436 E0.8406
G1 X36.774 Y165.436 E0.8975
G1 X33.664 Y162.326 E1.2661
G1 X33.664 Y161.647 E1.3230
G1 X37.453 Y165.436 E1.7721
G1 X38.132 Y165.436 E1.8290
G1 X33.664 Y160.968 E2.3585
G1 X33.664 Y160.290 E2.4154
G1 X38.810 Y165.436 E3.0254
G1 X39.489 Y165.436 E3.0823
G1 X33.664 Y159.611 E3.7728
G1 X33.664 Y158.932 E3.8297
G1 X40.168 Y165.436 E4.6006
G1 X40.847 Y165.436 E4.6575
G1 X33.664 Y158.253 E5.5089
G1 X33.664 Y157.574 E5.5658
G1 X41.526 Y165.436 E6.4977
G1 X42.204 Y165.436 E6.5546
G1 X33.664 Y156.896 E7.5669
G1 X33.664 Y156.217 E7.6238
G1 X42.883 Y165.436 E8.7166
G1 X43.562 Y165.436 E8.7735
G1 X33.664 Y155.538 E9.9467
G1 X33.664 Y154.859 E10.0036
G1 X44.241 Y165.436 E11.2573
G1 X44.920 Y165.436 E11.3142
G1 X33.664 Y154.180 E12.6484
G1 X33.664 Y153.501 E12.7053
G1 X45.599 Y165.436 E14.1200
G1 X46.277 Y165.436 E14.1769
G1 X33.664 Y152.823 E15.6720
G1 X33.664 Y152.144 E15.7289
G1 X46.956 Y165.436 E17.3044
G1 X47.635 Y165.436 E17.3613
G1 X33.664 Y151.465 E19.0173
G1 X33.664 Y150.786 E19.0742
G1 X48.314 Y165.436 E20.8107
G1 X48.993 Y165.436 E20.8676
G1 X33.664 Y150.107 E22.6846
G1 X33.664 Y149.428 E22.7415
G1 X49.672 Y165.436 E24.6389
G1 X50.350 Y165.436 E24.6958
G1 X33.664 Y148.750 E26.6737
G1 X33.664 Y148.071 E26.7306
G1 X51.029 Y165.436 E28.7889
G1 X51.708 Y165.436 E28.8458
G1 X33.664 Y147.392 E30.9846
G1 X33.664 Y146.713 E31.0415
G1 X52.387 Y165.436 E33.2608
G1 X53.066 Y165.436 E33.3177
G1 X33.664 Y146.034 E35.6174
G1 X33.664 Y145.356 E35.6743
G1 X53.744 Y165.436 E38.0545
G1 X54.423 Y165.436 E38.1114
G1 X33.664 Y144.677 E40.5721
G1 X33.664 Y143.998 E40.6290
G1 X55.102 Y165.436 E43.1701
G1 X55.781 Y165.436 E43.2270
G1 X33.664 Y143.319 E45.8486
G1 X33.664 Y142.640 E45.9055
G1 X56.460 Y165.436 E48.6075
G1 X57.139 Y165.436 E48.6644
G1 X33.664 Y141.961 E51.4469
G1 X33.664 Y141.283 E51.5038
G1 X57.817 Y165.436 E54.3668
G1 X58.496 Y165.436 E54.4237
G1 X33.664 Y140.604 E57.3671
G1 X33.664 Y139.925 E57.4240
G1 X59.175 Y165.436 E60.4479
G1 X59.854 Y165.436 E60.5048
G1 X33.664 Y139.246 E63.6092
G1 X33.664 Y138.567 E63.6661
G1 X60.533 Y165.436 E66.8509
G1 X61.211 Y165.436 E66.9078
G1 X33.664 Y137.889 E70.1731
G1 X33.664 Y137.210 E70.2300
G1 X61.890 Y165.436 E73.5757
G1 X62.569 Y165.436 E73.6326
G1 X33.664 Y136.531 E77.0589
G1 X33.664 Y135.852 E77.1157
G1 X63.248 Y165.436 E80.6224
G1 X63.927 Y165.436 E80.6793
G1 X33.664 Y135.173 E84.2665
G1 X33.664 Y134.494 E84.3234
G1 X64.606 Y165.436 E87.9910
G1 X65.284 Y165.436 E88.0479
G1 X33.664 Y133.816 E91.7959
G1 X33.664 Y133.137 E91.8528
G1 X65.963 Y165.436 E95.6813
G1 X66.642 Y165.436 E95.7382
G1 X33.664 Y132.458 E99.6472
G1 X33.664 Y131.779 E99.7041
G1 X67.321 Y165.436 E103.6936
G1 X68.000 Y165.436 E103.7505
G1 X33.664 Y131.100 E107.8204
G1 X33.664 Y130.421 E107.8773
G1 X68.679 Y165.436 E112.0277
G1 X69.357 Y165.436 E112.0846
G1 X33.664 Y129.743 E116.3154
G1 X33.664 Y129.064 E116.3723
G1 X70.036 Y165.436 E120.6836
G1 X70.715 Y165.436 E120.7405
G1 X33.664 Y128.385 E125.1323
G1 X33.664 Y127.706 E125.1892
G1 X71.394 Y165.436 E129.6614
G1 X72.073 Y165.436 E129.7183
G1 X33.664 Y127.027 E134.2710
G1 X33.664 Y126.349 E134.3279
G1 X72.751 Y165.436 E138.9611
G1 X73.430 Y165.436 E139.0180
G1 X33.664 Y125.670 E143.7316
G1 X33.664 Y124.991 E143.7885
G1 X74.109 Y165.436 E148.5826
G1 X74.788 Y165.436 E148.6395
G1 X33.664 Y124.312 E153.5140
G1 X33.664 Y123.633 E153.5709
G1 X75.467 Y165.436 E158.5259
G1 X76.146 Y165.436 E158.5828
G1 X33.664 Y122.954 E163.6183
G1 X33.664 Y122.276 E163.6752
G1 X76.824 Y165.436 E168.7911
G1 X77.503 Y165.436 E168.8480
G1 X33.664 Y121.597 E174.0444
G1 X33.664 Y120.918 E174.1013
G1 X78.182 Y165.436 E179.3782
G1 X78.861 Y165.436 E179.4351
G1 X33.664 Y120.239 E184.7924
G1 X33.664 Y119.560 E184.8493
G1 X79.540 Y165.436 E190.2871
G1 X80.219 Y165.436 E190.3440
G1 X33.664 Y118.881 E195.8622
G1 X33.664 Y118.203 E195.9191
G1 X80.897 Y165.436 E201.5178
G1 X81.576 Y165.436 E201.5747
G1 X33.664 Y117.524 E207.2539
G1 X33.664 Y116.845 E207.3108
G1 X82.255 Y165.436 E213.0704
G1 X82.934 Y165.436 E213.1273
G1 X33.664 Y116.166 E218.9674
G1 X33.664 Y115.487 E219.0243
G1 X83.613 Y165.436 E224.9449
G1 X84.291 Y165.436 E225.0018
G1 X33.664 Y114.809 E231.0028
G1 X33.664 Y114.130 E231.0597
G1 X84.970 Y165.436 E237.1412
G1 X85.649 Y165.436 E237.1981
G1 X33.664 Y113.451 E243.3601
G1 X33.664 Y112.772 E243.4169
G1 X86.328 Y165.436 E249.6594
G1 X87.007 Y165.436 E249.7163
G1 X33.664 Y112.093 E256.0391
G1 X33.664 Y111.414 E256.0960
G1 X87.686 Y165.436 E262.4994
G1 X88.364 Y165.436 E262.5563
G1 X33.664 Y110.736 E269.0401
G1 X33.664 Y110.057 E269.0970
G1 X89.043 Y165.436 E275.6612
G1 X89.722 Y165.436 E275.7181
G1 X33.664 Y109.378 E282.3629
G1 X33.664 Y108.699 E282.4198
G1 X90.401 Y165.436 E289.1450
G1 X91.080 Y165.436 E289.2019
G1 X33.664 Y108.020 E296.0075
G1 X33.664 Y107.341 E296.0644
G1 X91.759 Y165.436 E302.9505
G1 X92.437 Y165.436 E303.0074
G1 X33.664 Y106.663 E309.9740
G1 X33.664 Y105.984 E310.0309
G1 X93.116 Y165.436 E317.0780
G1 X93.795 Y165.436 E317.1348
G1 X33.664 Y105.305 E324.2624
G1 X33.664 Y104.626 E324.3193
G1 X94.474 Y165.436 E331.5272
G1 X95.153 Y165.436 E331.5841
G1 X33.664 Y103.947 E338.8726
G1 X33.664 Y103.269 E338.9295
G1 X95.831 Y165.436 E346.2984
G1 X96.510 Y165.436 E346.3552
G1 X33.664 Y102.590 E353.8046
G1 X33.664 Y101.911 E353.8615
G1 X97.189 Y165.436 E361.3913
G1 X97.868 Y165.436 E361.4482
G1 X33.664 Y101.232 E369.0585
G1 X33.664 Y100.553 E369.1154
G1 X98.547 Y165.436 E376.8062
G1 X99.226 Y165.436 E376.8631
G1 X33.664 Y99.874 E384.6343
G1 X33.664 Y99.196 E384.6912
G1 X99.904 Y165.436 E392.5428
G1 X100.583 Y165.436 E392.5997
G1 X33.664 Y98.517 E400.5319
G1 X33.664 Y97.838 E400.5888
G1 X101.262 Y165.436 E408.6014
G1 X101.941 Y165.436 E408.6583
G1 X33.664 Y97.159 E416.7513
G1 X33.664 Y96.480 E416.8082
G1 X102.620 Y165.436 E424.9817
G1 X103.298 Y165.436 E425.0386
G1 X33.664 Y95.802 E433.2926
G1 X33.664 Y95.123 E433.3495
G1 X103.977 Y165.436 E441.6840
G1 X104.656 Y165.436 E441.7409
G1 X33.664 Y94.444 E450.1558
G1 X33.664 Y93.765 E450.2127
G1 X105.335 Y165.436 E458.7081
G1 X106.014 Y165.436 E458.7650
G1 X33.664 Y93.086 E467.3408
G1 X33.664 Y92.407 E467.3977
G1 X106.693 Y165.436 E476.0540
G1 X107.371 Y165.436 E476.1109
G1 X33.664 Y91.729 E484.8477
G1 X33.664 Y91.050 E484.9046
G1 X108.050 Y165.436 E493.7218
G1 X108.729 Y165.436 E493.7787
G1 X33.664 Y90.371 E502.6764
G1 X33.664 Y89.692 E502.7333
G1 X109.408 Y165.436 E511.7114
G1 X110.087 Y165.436 E511.7683
G1 X33.664 Y89.013 E520.8270
G1 X33.664 Y88.334 E520.8839
G1 X110.766 Y165.436 E530.0229
G1 X111.444 Y165.436 E530.0798
G1 X33.664 Y87.656 E539.2994
G1 X33.664 Y86.977 E539.3563
G1 X112.123 Y165.436 E548.6563
G1 X112.802 Y165.436 E548.7132
G1 X33.664 Y86.298 E558.0936
G1 X33.664 Y85.619 E558.1505
G1 X113.481 Y165.436 E567.6115
G1 X114.160 Y165.436 E567.6684
G1 X33.664 Y84.940 E577.2098
G1 X33.664 Y84.262 E577.2667
G1 X114.838 Y165.436 E586.8885
G1 X115.517 Y165.436 E586.9454
G1 X33.664 Y83.583 E596.6477
G1 X33.664 Y82.904 E596.7046
G1 X116.196 Y165.436 E606.4874
G1 X116.875 Y165.436 E606.5443
G1 X33.664 Y82.225 E616.4076
G1 X33.664 Y81.546 E616.4645
G1 X117.554 Y165.436 E626.4082
G1 X118.233 Y165.436 E626.4651
G1 X33.664 Y80.867 E636.4892
G1 X33.664 Y80.189 E636.5461
G1 X118.911 Y165.436 E646.6508
G1 X119.590 Y165.436 E646.7077
G1 X33.664 Y79.510 E656.8928
G1 X33.664 Y78.831 E656.9497
G1 X120.269 Y165.436 E667.2152
G1 X120.948 Y165.436 E667.2721
G1 X33.664 Y78.152 E677.6182
G1 X33.664 Y77.473 E677.6750
G1 X121.627 Y165.436 E688.1015
G1 X122.306 Y165.436 E688.1584
G1 X33.664 Y76.794 E698.6654
G1 X33.664 Y76.116 E698.7223
G1 X122.984 Y165.436 E709.3097
G1 X123.663 Y165.436 E709.3666
G1 X33.664 Y75.437 E720.0345
G1 X33.664 Y74.758 E720.0914
G1 X124.342 Y165.436 E730.8397
G1 X125.021 Y165.436 E730.8966
G1 X33.664 Y74.079 E741.7254
G1 X33.664 Y73.400 E741.7823
G1 X125.700 Y165.436 E752.6916
G1 X126.378 Y165.436 E752.7485
G1 X33.664 Y72.722 E763.7382
G1 X33.664 Y72.043 E763.7951
G1 X127.057 Y165.436 E774.8653
G1 X127.736 Y165.436 E774.9222
G1 X33.664 Y71.364 E786.0728
G1 X33.664 Y70.685 E786.1297
G1 X128.415 Y165.436 E797.3608
G1 X129.094 Y165.436 E797.4177
G1 X33.664 Y70.006 E808.7293
G1 X33.664 Y69.327 E808.7862
G1 X129.773 Y165.436 E820.1783
G1 X130.451 Y165.436 E820.2352
G1 X33.664 Y68.649 E831.7077
G1 X33.664 Y67.970 E831.7646
G1 X131.130 Y165.436 E843.3175
G1 X131.809 Y165.436 E843.3744
