; G-Code generated by Simplify3D(R) Version 4.0.0
; Jun 1, 2018 at 8:42:44 PM
; Settings Summary
;   processName,Process1
;   applyToModels,solar-controller-box
;   profileName,Prusa Research Original Prusa i3 MK2 (modified)
;   profileVersion,2017-07-23 22:27:18
;   baseProfile,
;   printMaterial,PLA
;   printQuality,Fast
;   printExtruders,
;   extruderName,Primary Extruder
;   extruderToolheadNumber,0
;   extruderDiameter,0.4
;   extruderAutoWidth,1
;   extruderWidth,0.48
;   extrusionMultiplier,1
;   extruderUseRetract,1
;   extruderRetractionDistance,1.5
;   extruderExtraRestartDistance,0
;   extruderRetractionZLift,0
;   extruderRetractionSpeed,1800
;   extruderUseCoasting,1
;   extruderCoastingDistance,0.2
;   extruderUseWipe,1
;   extruderWipeDistance,2
;   primaryExtruder,0
;   layerHeight,0.35
;   topSolidLayers,3
;   bottomSolidLayers,3
;   perimeterOutlines,3
;   printPerimetersInsideOut,1
;   startPointOption,2
;   startPointOriginX,0
;   startPointOriginY,0
;   sequentialIslands,0
;   spiralVaseMode,0
;   firstLayerHeightPercentage,120
;   firstLayerWidthPercentage,100
;   firstLayerUnderspeed,0.5
;   useRaft,0
;   raftExtruder,0
;   raftTopLayers,3
;   raftBaseLayers,2
;   raftOffset,3
;   raftSeparationDistance,0.14
;   raftTopInfill,100
;   aboveRaftSpeedMultiplier,0.3
;   useSkirt,1
;   skirtExtruder,0
;   skirtLayers,1
;   skirtOutlines,1
;   skirtOffset,4
;   usePrimePillar,0
;   primePillarExtruder,999
;   primePillarWidth,12
;   primePillarLocation,7
;   primePillarSpeedMultiplier,1
;   useOozeShield,0
;   oozeShieldExtruder,999
;   oozeShieldOffset,2
;   oozeShieldOutlines,1
;   oozeShieldSidewallShape,1
;   oozeShieldSidewallAngle,30
;   oozeShieldSpeedMultiplier,1
;   infillExtruder,0
;   internalInfillPattern,Rectilinear
;   externalInfillPattern,Rectilinear
;   infillPercentage,10
;   outlineOverlapPercentage,20
;   infillExtrusionWidthPercentage,100
;   minInfillLength,5
;   infillLayerInterval,1
;   internalInfillAngles,45,-45
;   overlapInternalInfillAngles,0
;   externalInfillAngles,45,-45
;   generateSupport,1
;   supportExtruder,0
;   supportInfillPercentage,25
;   supportExtraInflation,0
;   supportBaseLayers,0
;   denseSupportExtruder,0
;   denseSupportLayers,0
;   denseSupportInfillPercentage,70
;   supportLayerInterval,1
;   supportHorizontalPartOffset,0.3
;   supportUpperSeparationLayers,1
;   supportLowerSeparationLayers,1
;   supportType,0
;   supportGridSpacing,4
;   maxOverhangAngle,45
;   supportAngles,0
;   temperatureName,Primary Extruder,Heated Bed
;   temperatureNumber,0,0
;   temperatureSetpointCount,1,1
;   temperatureSetpointLayers,1,1
;   temperatureSetpointTemperatures,210,55
;   temperatureStabilizeAtStartup,1,1
;   temperatureHeatedBed,0,1
;   temperatureRelayBetweenLayers,0,0
;   temperatureRelayBetweenLoops,0,0
;   fanLayers,1,2
;   fanSpeeds,0,100
;   blipFanToFullPower,0
;   adjustSpeedForCooling,1
;   minSpeedLayerTime,15
;   minCoolingSpeedSlowdown,20
;   increaseFanForCooling,0
;   minFanLayerTime,45
;   maxCoolingFanSpeed,100
;   increaseFanForBridging,0
;   bridgingFanSpeed,100
;   use5D,1
;   relativeEdistances,0
;   allowEaxisZeroing,1
;   independentExtruderAxes,0
;   includeM10123,0
;   stickySupport,1
;   applyToolheadOffsets,0
;   gcodeXoffset,0
;   gcodeYoffset,0
;   gcodeZoffset,0
;   overrideMachineDefinition,1
;   machineTypeOverride,0
;   strokeXoverride,250
;   strokeYoverride,210
;   strokeZoverride,200
;   originOffsetXoverride,0
;   originOffsetYoverride,0
;   originOffsetZoverride,0
;   homeXdirOverride,-1
;   homeYdirOverride,-1
;   homeZdirOverride,-1
;   flipXoverride,1
;   flipYoverride,-1
;   flipZoverride,1
;   toolheadOffsets,0,0|0,0|0,0|0,0|0,0|0,0
;   overrideFirmwareConfiguration,1
;   firmwareTypeOverride,RepRap (Marlin/Repetier/Sprinter)
;   GPXconfigOverride,r2
;   baudRateOverride,250000
;   overridePrinterModels,1
;   printerModelsOverride
;   startingGcode,M115 U3.0.7 ; use the latest firmware version,G28 W ; home all axes without mesh bed leveling,G80 ; run mesh bed leveling routine,G1 Y-3.0 F1000.0 ; prepare to prime,G92 E0 ; reset extrusion distance,G1 X60.0 E9.0  F1000.0 ; priming,G1 X100.0 E12.5  F1000.0 ; priming
;   layerChangeGcode,
;   retractionGcode,
;   toolChangeGcode,
;   endingGcode,M106 S0 ; turn off cooling fan,M104 S0 ; turn off extruder,M140 S0 ; turn off bed,G1 X0 Y200 ; part removal,M84 ; disable motors
;   exportFileFormat,gcode
;   celebration,0
;   celebrationSong,Random Song
;   postProcessing,
;   defaultSpeed,2400
;   outlineUnderspeed,0.8
;   solidInfillUnderspeed,0.8
;   supportUnderspeed,0.8
;   rapidXYspeed,4800
;   rapidZspeed,1002
;   minBridgingArea,50
;   bridgingExtraInflation,0
;   bridgingExtrusionMultiplier,1
;   bridgingSpeedMultiplier,1
;   useFixedBridgingAngle,0
;   fixedBridgingAngle,0
;   applyBridgingToPerimeters,0
;   filamentDiameters,1.75|1.75|1.75|1.75|1.75|1.75
;   filamentPricesPerKg,199|46|46|46|46|46
;   filamentDensities,1.25|1.25|1.25|1.25|1.25|1.25
;   useMinPrintHeight,0
;   minPrintHeight,0
;   useMaxPrintHeight,1
;   maxPrintHeight,235
;   useDiaphragm,0
;   diaphragmLayerInterval,20
;   robustSlicing,1
;   mergeAllIntoSolid,0
;   onlyRetractWhenCrossingOutline,1
;   retractBetweenLayers,1
;   useRetractionMinTravel,0
;   retractionMinTravel,3
;   retractWhileWiping,1
;   onlyWipeOutlines,1
;   avoidCrossingOutline,0
;   maxMovementDetourFactor,3
;   toolChangeRetractionDistance,12
;   toolChangeExtraRestartDistance,-0.5
;   toolChangeRetractionSpeed,600
;   externalThinWallType,0
;   internalThinWallType,2
;   thinWallAllowedOverlapPercentage,25
;   singleExtrusionMinLength,1
;   singleExtrusionMinPrintingWidthPercentage,50
;   singleExtrusionMaxPrintingWidthPercentage,200
;   singleExtrusionEndpointExtension,0.2
;   horizontalSizeCompensation,0
G90
M82
M106 S0
M140 S55
M190 S55
M104 S210 T0
M109 S210 T0
M115 U3.0.7 ; use the latest firmware version
G28 W ; home all axes without mesh bed leveling
G80 ; run mesh bed leveling routine
G1 Y-3.0 F1000.0 ; prepare to prime
G92 E0 ; reset extrusion distance
G1 X60.0 E9.0  F1000.0 ; priming
G1 X100.0 E12.5  F1000.0 ; priming
G92 E0
G1 E-1.5000 F1800
G1 Z0.420 F1002
; process Process1
; layer 1, Z = 0.420
T0
; tool H0.420 W0.480
; skirt
G1 X33.207 Y40.797 F4800
G1 E0.0000 F540
G92 E0
G1 X33.295 Y40.760 E0.0080 F1200
G1 X216.705 Y40.760 E15.3805
G1 X216.793 Y40.797 E15.3885
G1 X219.203 Y43.207 E15.6743
G1 X219.240 Y43.295 E15.6823
G1 X219.240 Y166.705 E26.0259
G1 X219.203 Y166.793 E26.0339
G1 X216.793 Y169.203 E26.3196
G1 X216.705 Y169.240 E26.3276
G1 X33.295 Y169.240 E41.7002
G1 X33.207 Y169.203 E41.7082
G1 X30.797 Y166.793 E41.9939
G1 X30.760 Y166.705 E42.0019
G1 X30.760 Y43.295 E52.3455
G1 X30.797 Y43.207 E52.3535
G1 X33.066 Y40.938 E52.6225
G1 X33.207 Y40.797 F1200
G92 E0
G1 E-1.5000 F1800
; inner perimeter
G1 X36.200 Y46.200 F4800
G1 E0.0000 F1800
G92 E0
G1 X213.800 Y46.200 E14.8856 F1080
G1 X213.800 Y163.800 E24.7423
G1 X36.200 Y163.800 E39.6280
G1 X36.200 Y46.400 E49.4679
G1 X36.200 Y46.200 F1080
G1 X35.720 Y45.720 F4800
G92 E0
G1 X214.280 Y45.720 E14.9661 F1080
G1 X214.280 Y164.280 E24.9033
G1 X35.720 Y164.280 E39.8694
G1 X35.720 Y45.920 E49.7898
G1 X35.720 Y45.720 F1080
; outer perimeter
G1 X35.240 Y45.240 F4800
G92 E0
G1 X214.760 Y45.240 E15.0466 F960
G1 X214.760 Y164.760 E25.0642
G1 X35.240 Y164.760 E40.1108
G1 X35.240 Y45.440 E50.1116
G1 X35.240 Y45.240 F960
G1 X37.240 Y45.240 F2400
; inner perimeter
G1 X72.038 Y58.773 F4800
G92 E0
G1 X71.856 Y59.375 E0.0527 F1080
G1 X71.794 Y60.000 E0.1054
G1 X71.856 Y60.625 E0.1580
G1 X72.038 Y61.227 E0.2107
G1 X72.335 Y61.781 E0.2634
G1 X72.733 Y62.267 E0.3161
G1 X73.219 Y62.665 E0.3687
G1 X73.773 Y62.962 E0.4214
G1 X74.370 Y63.143 E0.4737
G1 X74.997 Y63.206 E0.5265
G1 X75.625 Y63.144 E0.5794
G1 X76.221 Y62.964 E0.6316
G1 X76.780 Y62.666 E0.6846
G1 X77.267 Y62.267 E0.7374
G1 X77.665 Y61.781 E0.7901
G1 X77.962 Y61.227 E0.8428
G1 X78.144 Y60.625 E0.8955
G1 X78.206 Y60.000 E0.9481
G1 X78.144 Y59.375 E1.0008
G1 X77.962 Y58.773 E1.0535
G1 X77.665 Y58.219 E1.1062
G1 X77.267 Y57.733 E1.1588
G1 X76.781 Y57.335 E1.2115
G1 X76.227 Y57.038 E1.2642
G1 X75.625 Y56.856 E1.3169
G1 X75.000 Y56.794 E1.3695
G1 X74.375 Y56.856 E1.4222
G1 X73.773 Y57.038 E1.4749
G1 X73.219 Y57.335 E1.5275
G1 X72.733 Y57.733 E1.5802
G1 X72.335 Y58.219 E1.6329
G1 X72.133 Y58.597 E1.6688
G1 X72.038 Y58.773 F1080
G1 X72.484 Y58.958 F4800
G92 E0
G1 X72.329 Y59.469 E0.0448 F1080
G1 X72.277 Y60.000 E0.0895
G1 X72.329 Y60.531 E0.1343
G1 X72.484 Y61.042 E0.1790
G1 X72.736 Y61.513 E0.2238
G1 X73.074 Y61.926 E0.2685
G1 X73.487 Y62.264 E0.3132
G1 X73.958 Y62.516 E0.3580
G1 X74.465 Y62.670 E0.4024
G1 X74.998 Y62.723 E0.4473
G1 X75.531 Y62.671 E0.4922
G1 X76.037 Y62.518 E0.5365
G1 X76.512 Y62.265 E0.5817
G1 X76.926 Y61.926 E0.6265
G1 X77.264 Y61.513 E0.6712
G1 X77.516 Y61.042 E0.7160
G1 X77.671 Y60.531 E0.7607
G1 X77.723 Y60.000 E0.8055
G1 X77.671 Y59.469 E0.8502
G1 X77.516 Y58.958 E0.8950
G1 X77.264 Y58.487 E0.9397
G1 X76.926 Y58.074 E0.9845
G1 X76.513 Y57.736 E1.0292
G1 X76.042 Y57.484 E1.0740
G1 X75.531 Y57.329 E1.1187
G1 X75.000 Y57.277 E1.1635
G1 X74.469 Y57.329 E1.2082
G1 X73.958 Y57.484 E1.2530
G1 X73.487 Y57.736 E1.2977
G1 X73.074 Y58.074 E1.3425
G1 X72.736 Y58.487 E1.3872
G1 X72.578 Y58.781 E1.4152
G1 X72.484 Y58.958 F1080
; outer perimeter
G1 X72.929 Y59.142 F4800
G92 E0
G1 X72.802 Y59.563 E0.0368 F960
G1 X72.759 Y60.000 E0.0737
G1 X72.802 Y60.437 E0.1105
G1 X72.929 Y60.858 E0.1473
G1 X73.137 Y61.245 E0.1841
G1 X73.415 Y61.585 E0.2209
G1 X73.755 Y61.863 E0.2578
G1 X74.142 Y62.071 E0.2946
G1 X74.559 Y62.197 E0.3311
G1 X74.998 Y62.241 E0.3681
G1 X75.437 Y62.198 E0.4051
G1 X75.853 Y62.072 E0.4415
G1 X76.245 Y61.864 E0.4787
G1 X76.585 Y61.585 E0.5155
G1 X76.863 Y61.245 E0.5523
G1 X77.071 Y60.858 E0.5892
G1 X77.198 Y60.437 E0.6260
G1 X77.241 Y60.000 E0.6628
G1 X77.198 Y59.563 E0.6996
G1 X77.071 Y59.142 E0.7365
G1 X76.863 Y58.755 E0.7733
G1 X76.585 Y58.415 E0.8101
G1 X76.245 Y58.137 E0.8469
G1 X75.858 Y57.929 E0.8838
G1 X75.437 Y57.802 E0.9206
G1 X75.000 Y57.759 E0.9574
G1 X74.563 Y57.802 E0.9942
G1 X74.142 Y57.929 E1.0311
G1 X73.755 Y58.137 E1.0679
G1 X73.415 Y58.415 E1.1047
G1 X73.137 Y58.755 E1.1415
G1 X73.024 Y58.966 E1.1616
G1 X72.929 Y59.142 F960
G1 X72.802 Y59.563 F2400
G1 X72.759 Y60.000 F2400
G1 X72.802 Y60.437 F2400
G1 X72.929 Y60.858 F2400
G1 X73.044 Y61.072 F2400
; inner perimeter
G1 X105.919 Y86.941 F4800
G92 E0
G1 X105.576 Y87.582 E0.0609 F1080
G1 X105.365 Y88.277 E0.1218
G1 X105.294 Y89.000 E0.1827
G1 X105.365 Y89.723 E0.2435
G1 X105.576 Y90.418 E0.3044
G1 X105.919 Y91.059 E0.3653
G1 X106.380 Y91.620 E0.4262
G1 X106.941 Y92.081 E0.4871
G1 X107.582 Y92.424 E0.5480
G1 X108.277 Y92.635 E0.6089
G1 X108.843 Y92.690 E0.6565
G1 X108.925 Y92.890 E0.6746
G1 X108.200 Y93.774 E0.7705
G1 X106.332 Y97.268 E1.1025
G1 X105.182 Y101.058 E1.4345
G1 X104.794 Y105.000 E1.7665
G1 X105.182 Y108.942 E2.0985
G1 X106.332 Y112.732 E2.4305
G1 X108.200 Y116.226 E2.7625
G1 X108.925 Y117.110 E2.8584
G1 X108.843 Y117.310 E2.8765
G1 X108.277 Y117.365 E2.9242
G1 X107.582 Y117.576 E2.9851
G1 X106.941 Y117.919 E3.0459
G1 X106.380 Y118.380 E3.1068
G1 X105.919 Y118.941 E3.1677
G1 X105.576 Y119.582 E3.2286
G1 X105.365 Y120.277 E3.2895
G1 X105.294 Y121.000 E3.3504
G1 X105.365 Y121.723 E3.4113
G1 X105.576 Y122.418 E3.4722
G1 X105.919 Y123.059 E3.5331
G1 X106.380 Y123.620 E3.5940
G1 X106.941 Y124.081 E3.6549
G1 X107.582 Y124.424 E3.7157
G1 X108.277 Y124.635 E3.7766
G1 X109.000 Y124.706 E3.8375
G1 X109.723 Y124.635 E3.8984
G1 X110.418 Y124.424 E3.9593
G1 X111.059 Y124.081 E4.0202
G1 X111.620 Y123.620 E4.0811
G1 X112.081 Y123.059 E4.1420
G1 X112.424 Y122.418 E4.2029
G1 X112.635 Y121.723 E4.2637
G1 X112.690 Y121.157 E4.3114
G1 X112.890 Y121.075 E4.3295
G1 X113.774 Y121.800 E4.4254
G1 X117.268 Y123.668 E4.7574
G1 X121.058 Y124.818 E5.0894
G1 X125.000 Y125.206 E5.4214
G1 X128.942 Y124.818 E5.7534
G1 X132.732 Y123.668 E6.0854
G1 X136.226 Y121.800 E6.4174
G1 X137.110 Y121.075 E6.5133
G1 X137.310 Y121.157 E6.5314
G1 X137.365 Y121.723 E6.5790
G1 X137.576 Y122.418 E6.6399
G1 X137.919 Y123.059 E6.7008
G1 X138.380 Y123.620 E6.7617
G1 X138.941 Y124.081 E6.8226
G1 X139.582 Y124.424 E6.8835
G1 X140.277 Y124.635 E6.9444
G1 X141.000 Y124.706 E7.0053
G1 X141.723 Y124.635 E7.0661
G1 X142.418 Y124.424 E7.1270
G1 X143.059 Y124.081 E7.1879
G1 X143.620 Y123.620 E7.2488
G1 X144.081 Y123.059 E7.3097
G1 X144.424 Y122.418 E7.3706
G1 X144.635 Y121.723 E7.4315
G1 X144.706 Y121.000 E7.4924
G1 X144.635 Y120.277 E7.5533
G1 X144.424 Y119.582 E7.6141
G1 X144.081 Y118.941 E7.6750
G1 X143.620 Y118.380 E7.7359
G1 X143.059 Y117.919 E7.7968
G1 X142.418 Y117.576 E7.8577
G1 X141.723 Y117.365 E7.9186
G1 X141.157 Y117.310 E7.9663
G1 X141.075 Y117.110 E7.9843
G1 X141.800 Y116.226 E8.0803
G1 X143.668 Y112.732 E8.4122
G1 X144.818 Y108.942 E8.7442
G1 X145.206 Y105.000 E9.0762
G1 X144.818 Y101.058 E9.4082
G1 X143.668 Y97.268 E9.7402
G1 X141.800 Y93.774 E10.0722
G1 X141.075 Y92.890 E10.1681
G1 X141.157 Y92.690 E10.1862
G1 X141.723 Y92.635 E10.2339
G1 X142.418 Y92.424 E10.2948
G1 X143.059 Y92.081 E10.3557
G1 X143.620 Y91.620 E10.4166
G1 X144.081 Y91.059 E10.4775
G1 X144.424 Y90.418 E10.5383
G1 X144.635 Y89.723 E10.5992
G1 X144.706 Y89.000 E10.6601
G1 X144.635 Y88.277 E10.7210
G1 X144.424 Y87.582 E10.7819
G1 X144.081 Y86.941 E10.8428
G1 X143.620 Y86.380 E10.9037
G1 X143.059 Y85.919 E10.9646
G1 X142.418 Y85.576 E11.0254
G1 X141.723 Y85.365 E11.0863
G1 X141.000 Y85.294 E11.1472
G1 X140.277 Y85.365 E11.2081
G1 X139.582 Y85.576 E11.2690
G1 X138.941 Y85.919 E11.3299
G1 X138.380 Y86.380 E11.3908
G1 X137.919 Y86.941 E11.4517
G1 X137.576 Y87.582 E11.5126
G1 X137.365 Y88.277 E11.5735
G1 X137.310 Y88.843 E11.6211
G1 X137.110 Y88.925 E11.6392
G1 X136.226 Y88.200 E11.7351
G1 X132.732 Y86.332 E12.0671
G1 X128.942 Y85.182 E12.3991
G1 X125.000 Y84.794 E12.7311
G1 X121.058 Y85.182 E13.0631
G1 X117.268 Y86.332 E13.3951
G1 X113.774 Y88.200 E13.7271
G1 X112.890 Y88.925 E13.8230
G1 X112.690 Y88.843 E13.8411
G1 X112.635 Y88.277 E13.8887
G1 X112.424 Y87.582 E13.9496
G1 X112.081 Y86.941 E14.0105
G1 X111.620 Y86.380 E14.0714
G1 X111.059 Y85.919 E14.1323
G1 X110.418 Y85.576 E14.1932
G1 X109.723 Y85.365 E14.2541
G1 X109.000 Y85.294 E14.3150
G1 X108.277 Y85.365 E14.3758
G1 X107.582 Y85.576 E14.4367
G1 X106.941 Y85.919 E14.4976
G1 X106.380 Y86.380 E14.5585
G1 X106.046 Y86.787 E14.6027
G1 X105.919 Y86.941 F1080
G1 X106.320 Y87.209 F4800
G92 E0
G1 X106.022 Y87.766 E0.0530 F1080
G1 X105.838 Y88.371 E0.1059
G1 X105.777 Y89.000 E0.1589
G1 X105.838 Y89.629 E0.2118
G1 X106.022 Y90.234 E0.2648
G1 X106.320 Y90.791 E0.3178
G1 X106.721 Y91.279 E0.3707
G1 X107.209 Y91.680 E0.4237
G1 X107.766 Y91.978 E0.4767
G1 X108.371 Y92.162 E0.5296
G1 X109.000 Y92.223 E0.5826
G1 X109.629 Y92.162 E0.6356
G1 X109.875 Y92.087 E0.6571
G1 X110.023 Y92.309 E0.6795
G1 X108.601 Y94.042 E0.8674
G1 X106.778 Y97.452 E1.1915
G1 X105.656 Y101.152 E1.5155
G1 X105.277 Y105.000 E1.8396
G1 X105.656 Y108.848 E2.1637
G1 X106.778 Y112.548 E2.4878
G1 X108.601 Y115.958 E2.8118
G1 X110.023 Y117.691 E2.9998
G1 X109.875 Y117.913 E3.0221
G1 X109.629 Y117.838 E3.0437
G1 X109.000 Y117.777 E3.0966
G1 X108.371 Y117.838 E3.1496
G1 X107.766 Y118.022 E3.2026
G1 X107.209 Y118.320 E3.2555
G1 X106.721 Y118.721 E3.3085
G1 X106.320 Y119.209 E3.3615
G1 X106.022 Y119.766 E3.4144
G1 X105.838 Y120.371 E3.4674
G1 X105.777 Y121.000 E3.5203
G1 X105.838 Y121.629 E3.5733
G1 X106.022 Y122.234 E3.6263
G1 X106.320 Y122.791 E3.6792
G1 X106.721 Y123.279 E3.7322
G1 X107.209 Y123.680 E3.7852
G1 X107.766 Y123.978 E3.8381
G1 X108.371 Y124.162 E3.8911
G1 X109.000 Y124.223 E3.9441
G1 X109.629 Y124.162 E3.9970
G1 X110.234 Y123.978 E4.0500
G1 X110.791 Y123.680 E4.1029
G1 X111.279 Y123.279 E4.1559
G1 X111.680 Y122.791 E4.2089
G1 X111.978 Y122.234 E4.2618
G1 X112.162 Y121.629 E4.3148
G1 X112.223 Y121.000 E4.3678
G1 X112.162 Y120.371 E4.4207
G1 X112.087 Y120.125 E4.4423
G1 X112.309 Y119.977 E4.4646
G1 X114.042 Y121.399 E4.6526
G1 X117.452 Y123.222 E4.9766
G1 X121.152 Y124.344 E5.3007
