; G-Code generated by Simplify3D(R) Version 4.0.0
; Nov 3, 2017 at 5:36:45 PM
; Settings Summary
;   processName,Process1
;   applyToModels,hultafors-holder
;   profileName,Prusa Research Original Prusa i3 MK2 (modified)
;   profileVersion,2017-07-23 22:27:18
;   baseProfile,
;   printMaterial,PLA
;   printQuality,Fast
;   printExtruders,
;   extruderName,Primary Extruder
;   extruderToolheadNumber,0
;   extruderDiameter,0.4
;   extruderAutoWidth,1
;   extruderWidth,0.48
;   extrusionMultiplier,1
;   extruderUseRetract,1
;   extruderRetractionDistance,1.5
;   extruderExtraRestartDistance,0
;   extruderRetractionZLift,0
;   extruderRetractionSpeed,1800
;   extruderUseCoasting,1
;   extruderCoastingDistance,0.2
;   extruderUseWipe,1
;   extruderWipeDistance,2
;   primaryExtruder,0
;   layerHeight,0.35
;   topSolidLayers,4
;   bottomSolidLayers,4
;   perimeterOutlines,4
;   printPerimetersInsideOut,1
;   startPointOption,2
;   startPointOriginX,0
;   startPointOriginY,0
;   sequentialIslands,0
;   spiralVaseMode,0
;   firstLayerHeightPercentage,100
;   firstLayerWidthPercentage,100
;   firstLayerUnderspeed,0.5
;   useRaft,0
;   raftExtruder,0
;   raftTopLayers,3
;   raftBaseLayers,2
;   raftOffset,3
;   raftSeparationDistance,0.14
;   raftTopInfill,100
;   aboveRaftSpeedMultiplier,0.3
;   useSkirt,1
;   skirtExtruder,0
;   skirtLayers,1
;   skirtOutlines,1
;   skirtOffset,4
;   usePrimePillar,0
;   primePillarExtruder,999
;   primePillarWidth,12
;   primePillarLocation,7
;   primePillarSpeedMultiplier,1
;   useOozeShield,0
;   oozeShieldExtruder,999
;   oozeShieldOffset,2
;   oozeShieldOutlines,1
;   oozeShieldSidewallShape,1
;   oozeShieldSidewallAngle,30
;   oozeShieldSpeedMultiplier,1
;   infillExtruder,0
;   internalInfillPattern,Rectilinear
;   externalInfillPattern,Rectilinear
;   infillPercentage,12
;   outlineOverlapPercentage,20
;   infillExtrusionWidthPercentage,100
;   minInfillLength,5
;   infillLayerInterval,1
;   internalInfillAngles,45,-45
;   overlapInternalInfillAngles,0
;   externalInfillAngles,45,-45
;   generateSupport,0
;   supportExtruder,0
;   supportInfillPercentage,25
;   supportExtraInflation,0
;   supportBaseLayers,0
;   denseSupportExtruder,0
;   denseSupportLayers,0
;   denseSupportInfillPercentage,70
;   supportLayerInterval,1
;   supportHorizontalPartOffset,0.3
;   supportUpperSeparationLayers,1
;   supportLowerSeparationLayers,1
;   supportType,0
;   supportGridSpacing,4
;   maxOverhangAngle,45
;   supportAngles,0
;   temperatureName,Primary Extruder,Heated Bed
;   temperatureNumber,0,0
;   temperatureSetpointCount,1,1
;   temperatureSetpointLayers,1,1
;   temperatureSetpointTemperatures,210,60
;   temperatureStabilizeAtStartup,1,1
;   temperatureHeatedBed,0,1
;   temperatureRelayBetweenLayers,0,0
;   temperatureRelayBetweenLoops,0,0
;   fanLayers,1,2
;   fanSpeeds,0,100
;   blipFanToFullPower,0
;   adjustSpeedForCooling,1
;   minSpeedLayerTime,15
;   minCoolingSpeedSlowdown,20
;   increaseFanForCooling,0
;   minFanLayerTime,45
;   maxCoolingFanSpeed,100
;   increaseFanForBridging,0
;   bridgingFanSpeed,100
;   use5D,1
;   relativeEdistances,0
;   allowEaxisZeroing,1
;   independentExtruderAxes,0
;   includeM10123,0
;   stickySupport,1
;   applyToolheadOffsets,0
;   gcodeXoffset,0
;   gcodeYoffset,0
;   gcodeZoffset,0
;   overrideMachineDefinition,1
;   machineTypeOverride,0
;   strokeXoverride,250
;   strokeYoverride,210
;   strokeZoverride,200
;   originOffsetXoverride,0
;   originOffsetYoverride,0
;   originOffsetZoverride,0
;   homeXdirOverride,-1
;   homeYdirOverride,-1
;   homeZdirOverride,-1
;   flipXoverride,1
;   flipYoverride,-1
;   flipZoverride,1
;   toolheadOffsets,0,0|0,0|0,0|0,0|0,0|0,0
;   overrideFirmwareConfiguration,1
;   firmwareTypeOverride,RepRap (Marlin/Repetier/Sprinter)
;   GPXconfigOverride,r2
;   baudRateOverride,250000
;   overridePrinterModels,1
;   printerModelsOverride
;   startingGcode,M115 U3.0.7 ; use the latest firmware version,G28 W ; home all axes without mesh bed leveling,G80 ; run mesh bed leveling routine,G1 Y-3.0 F1000.0 ; prepare to prime,G92 E0 ; reset extrusion distance,G1 X60.0 E9.0  F1000.0 ; priming,G1 X100.0 E12.5  F1000.0 ; priming
;   layerChangeGcode,
;   retractionGcode,
;   toolChangeGcode,
;   endingGcode,M106 S0 ; turn off cooling fan,M104 S0 ; turn off extruder,M140 S0 ; turn off bed,G1 X0 Y200 ; part removal,M84 ; disable motors
;   exportFileFormat,gcode
;   celebration,0
;   celebrationSong,Random Song
;   postProcessing,
;   defaultSpeed,2400
;   outlineUnderspeed,0.8
;   solidInfillUnderspeed,0.8
;   supportUnderspeed,0.8
;   rapidXYspeed,4800
;   rapidZspeed,1002
;   minBridgingArea,50
;   bridgingExtraInflation,0
;   bridgingExtrusionMultiplier,1
;   bridgingSpeedMultiplier,1
;   useFixedBridgingAngle,0
;   fixedBridgingAngle,0
;   applyBridgingToPerimeters,0
;   filamentDiameters,1.75|1.75|1.75|1.75|1.75|1.75
;   filamentPricesPerKg,46|46|46|46|46|46
;   filamentDensities,1.25|1.25|1.25|1.25|1.25|1.25
;   useMinPrintHeight,1
;   minPrintHeight,0
;   useMaxPrintHeight,1
;   maxPrintHeight,235
;   useDiaphragm,0
;   diaphragmLayerInterval,20
;   robustSlicing,1
;   mergeAllIntoSolid,0
;   onlyRetractWhenCrossingOutline,1
;   retractBetweenLayers,1
;   useRetractionMinTravel,0
;   retractionMinTravel,3
;   retractWhileWiping,1
;   onlyWipeOutlines,1
;   avoidCrossingOutline,0
;   maxMovementDetourFactor,3
;   toolChangeRetractionDistance,12
;   toolChangeExtraRestartDistance,-0.5
;   toolChangeRetractionSpeed,600
;   externalThinWallType,0
;   internalThinWallType,2
;   thinWallAllowedOverlapPercentage,25
;   singleExtrusionMinLength,1
;   singleExtrusionMinPrintingWidthPercentage,50
;   singleExtrusionMaxPrintingWidthPercentage,200
;   singleExtrusionEndpointExtension,0.2
;   horizontalSizeCompensation,0
G90
M82
M106 S0
M140 S60
M190 S60
M104 S210 T0
M109 S210 T0
M115 U3.0.7 ; use the latest firmware version
G28 W ; home all axes without mesh bed leveling
G80 ; run mesh bed leveling routine
G1 Y-3.0 F1000.0 ; prepare to prime
G92 E0 ; reset extrusion distance
G1 X60.0 E9.0  F1000.0 ; priming
G1 X100.0 E12.5  F1000.0 ; priming
G92 E0
G1 E-1.5000 F1800
G1 Z0.350 F1002
; process Process1
; layer 1, Z = 0.350
T0
; tool H0.350 W0.480
; skirt
G1 X106.598 Y75.789 F4800
G1 E0.0000 F540
G92 E0
G1 X106.605 Y75.780 E0.0008 F1200
G1 X107.237 Y75.012 E0.0703
G1 X107.245 Y75.003 E0.0711
G1 X107.532 Y74.717 E0.0994
G1 X107.541 Y74.709 E0.1002
G1 X108.309 Y74.081 E0.1695
G1 X108.318 Y74.074 E0.1704
G1 X108.652 Y73.851 E0.1984
G1 X108.662 Y73.845 E0.1992
G1 X109.529 Y73.382 E0.2678
G1 X109.539 Y73.377 E0.2686
G1 X109.912 Y73.223 E0.2968
G1 X109.923 Y73.219 E0.2976
G1 X110.873 Y72.930 E0.3670
G1 X110.884 Y72.927 E0.3678
G1 X111.282 Y72.847 E0.3962
G1 X111.294 Y72.846 E0.3970
G1 X112.184 Y72.758 E0.4594
G1 X112.190 Y72.757 E0.4599
G1 X112.393 Y72.747 E0.4740
G1 X112.398 Y72.747 E0.4745
G1 X137.603 Y72.747 E2.2349
G1 X137.609 Y72.747 E2.2353
G1 X137.812 Y72.757 E2.2495
G1 X137.818 Y72.758 E2.2499
G1 X138.707 Y72.846 E2.3123
G1 X138.718 Y72.847 E2.3131
G1 X139.116 Y72.927 E2.3414
G1 X139.127 Y72.930 E2.3423
G1 X140.078 Y73.219 E2.4117
G1 X140.090 Y73.223 E2.4125
G1 X140.464 Y73.378 E2.4409
G1 X140.475 Y73.384 E2.4417
G1 X141.351 Y73.853 E2.5111
G1 X141.361 Y73.859 E2.5120
G1 X141.698 Y74.085 E2.5403
G1 X141.708 Y74.092 E2.5411
G1 X142.475 Y74.724 E2.6105
G1 X142.484 Y74.732 E2.6114
G1 X142.770 Y75.019 E2.6397
G1 X142.778 Y75.028 E2.6405
G1 X143.406 Y75.796 E2.7098
G1 X143.413 Y75.805 E2.7106
G1 X143.636 Y76.139 E2.7387
G1 X143.642 Y76.149 E2.7395
G1 X144.105 Y77.016 E2.8081
G1 X144.110 Y77.026 E2.8089
G1 X144.264 Y77.398 E2.8371
G1 X144.268 Y77.410 E2.8379
G1 X144.557 Y78.360 E2.9073
G1 X144.560 Y78.371 E2.9081
G1 X144.640 Y78.769 E2.9364
G1 X144.641 Y78.781 E2.9372
G1 X144.729 Y79.671 E2.9997
G1 X144.730 Y79.677 E3.0001
G1 X144.740 Y79.879 E3.0143
G1 X144.740 Y79.885 E3.0147
G1 X144.740 Y126.773 E6.2897
G1 X152.644 Y126.774 E6.8417
G1 X152.652 Y126.774 E6.8423
G1 X152.921 Y126.792 E6.8611
G1 X152.928 Y126.793 E6.8616
G1 X153.580 Y126.879 E6.9075
G1 X153.595 Y126.882 E6.9086
G1 X154.117 Y127.021 E6.9464
G1 X154.132 Y127.027 E6.9474
G1 X154.872 Y127.333 E7.0034
G1 X154.886 Y127.340 E7.0045
G1 X155.354 Y127.610 E7.0422
G1 X155.367 Y127.619 E7.0433
G1 X156.002 Y128.107 E7.0993
G1 X156.014 Y128.117 E7.1004
G1 X156.396 Y128.499 E7.1381
G1 X156.407 Y128.511 E7.1392
G1 X156.894 Y129.146 E7.1952
G1 X156.903 Y129.159 E7.1963
G1 X157.173 Y129.627 E7.2340
G1 X157.180 Y129.641 E7.2351
G1 X157.487 Y130.382 E7.2911
G1 X157.492 Y130.397 E7.2922
G1 X157.632 Y130.921 E7.3301
G1 X157.635 Y130.936 E7.3312
G1 X157.722 Y131.599 E7.3778
G1 X157.722 Y131.607 E7.3784
G1 X157.740 Y131.874 E7.3971
G1 X157.740 Y131.881 E7.3976
G1 X157.740 Y134.718 E7.5957
G1 X157.703 Y134.806 E7.6024
G1 X155.293 Y137.217 E7.8405
G1 X155.205 Y137.253 E7.8472
G1 X136.795 Y137.253 E9.1330
G1 X136.707 Y137.217 E9.1397
G1 X134.297 Y134.806 E9.3778
G1 X134.260 Y134.718 E9.3844
G1 X134.259 Y83.227 E12.9809
G1 X115.740 Y83.228 E14.2743
G1 X115.740 Y134.692 E17.8689
G1 X115.703 Y134.780 E17.8756
G1 X113.293 Y137.190 E18.1137
G1 X113.205 Y137.227 E18.1203
G1 X94.794 Y137.227 E19.4062
G1 X94.706 Y137.190 E19.4129
G1 X92.295 Y134.776 E19.6512
G1 X92.258 Y134.688 E19.6579
G1 X92.261 Y131.840 E19.8568
G1 X92.262 Y131.832 E19.8574
G1 X92.279 Y131.565 E19.8761
G1 X92.280 Y131.557 E19.8766
G1 X92.366 Y130.907 E19.9224
G1 X92.369 Y130.891 E19.9235
G1 X92.508 Y130.370 E19.9613
G1 X92.513 Y130.355 E19.9624
G1 X92.820 Y129.615 E20.0183
G1 X92.827 Y129.601 E20.0194
G1 X93.097 Y129.133 E20.0571
G1 X93.106 Y129.120 E20.0582
G1 X93.594 Y128.484 E20.1142
G1 X93.604 Y128.473 E20.1153
G1 X93.986 Y128.091 E20.1530
G1 X93.998 Y128.080 E20.1541
G1 X94.633 Y127.593 E20.2100
G1 X94.646 Y127.584 E20.2111
G1 X95.114 Y127.314 E20.2489
G1 X95.128 Y127.307 E20.2500
G1 X95.868 Y127.000 E20.3059
G1 X95.883 Y126.995 E20.3070
G1 X96.405 Y126.856 E20.3447
G1 X96.420 Y126.853 E20.3458
G1 X97.072 Y126.767 E20.3918
G1 X97.080 Y126.766 E20.3923
G1 X97.348 Y126.748 E20.4111
G1 X97.356 Y126.748 E20.4117
G1 X105.260 Y126.747 E20.9637
G1 X105.260 Y79.884 E24.2369
G1 X105.260 Y79.878 E24.2373
G1 X105.270 Y79.675 E24.2515
G1 X105.271 Y79.669 E24.2519
G1 X105.359 Y78.780 E24.3143
G1 X105.360 Y78.769 E24.3152
G1 X105.440 Y78.371 E24.3435
G1 X105.443 Y78.360 E24.3443
G1 X105.732 Y77.408 E24.4137
G1 X105.736 Y77.397 E24.4146
G1 X105.892 Y77.023 E24.4429
G1 X105.897 Y77.012 E24.4437
G1 X106.366 Y76.136 E24.5132
G1 X106.372 Y76.126 E24.5140
G1 X106.487 Y75.955 E24.5283
G1 X106.598 Y75.789 F1200
G92 E0
G1 E-1.5000 F1800
; inner perimeter
G1 X109.598 Y130.900 F4800
G1 E0.0000 F1800
G92 E0
G1 X109.820 Y130.992 E0.0168 F1080
G1 X109.820 Y131.307 E0.0388
G1 X109.505 Y131.307 E0.0608
G1 X109.413 Y131.085 E0.0776
G1 X109.456 Y131.042 E0.0818
G1 X109.598 Y130.900 F1080
G92 E0
G1 E-1.5000 F1800
G1 X140.180 Y131.018 F4800
G1 E0.0000 F1800
G92 E0
G1 X140.402 Y130.926 E0.0168 F1080
G1 X140.587 Y131.111 E0.0350
G1 X140.495 Y131.333 E0.0518
G1 X140.180 Y131.333 E0.0738
G1 X140.180 Y131.218 E0.0819
G1 X140.180 Y131.018 F1080
G1 X140.516 Y130.362 F4800
G92 E0
G1 X141.159 Y131.003 E0.0634 F1080
G1 X141.957 Y131.561 E0.1314
G1 X141.878 Y131.813 E0.1499
G1 X139.700 Y131.813 E0.3020
G1 X139.700 Y129.637 E0.4540
G1 X139.952 Y129.557 E0.4725
G1 X140.402 Y130.199 E0.5272
G1 X140.516 Y130.362 F1080
G92 E0
G1 E-1.5000 F1800
G1 X110.300 Y129.609 F4800
G1 E0.0000 F1800
G92 E0
G1 X110.300 Y131.787 E0.1521 F1080
G1 X108.124 Y131.787 E0.3041
G1 X108.044 Y131.535 E0.3226
G1 X108.849 Y130.970 E0.3913
G1 X109.490 Y130.328 E0.4547
G1 X110.048 Y129.530 E0.5227
G1 X110.109 Y129.549 E0.5272
G1 X110.300 Y129.609 F1080
G1 X109.593 Y129.343 F4800
G92 E0
G1 X109.940 Y128.596 E0.0575 F1080
G1 X110.152 Y127.801 E0.1150
G1 X110.220 Y127.018 E0.1699
G1 X110.220 Y80.021 E3.4525
G1 X110.268 Y79.541 E3.4861
G1 X110.398 Y79.114 E3.5174
G1 X110.609 Y78.720 E3.5486
G1 X110.893 Y78.375 E3.5798
G1 X111.239 Y78.092 E3.6110
G1 X111.627 Y77.885 E3.6417
G1 X112.054 Y77.754 E3.6730
G1 X112.535 Y77.707 E3.7067
G1 X137.465 Y77.707 E5.4480
G1 X137.945 Y77.754 E5.4817
G1 X138.373 Y77.885 E5.5129
G1 X138.767 Y78.096 E5.5441
G1 X139.112 Y78.380 E5.5753
G1 X139.395 Y78.726 E5.6066
G1 X139.602 Y79.114 E5.6373
G1 X139.732 Y79.541 E5.6685
G1 X139.780 Y80.022 E5.7023
G1 X139.780 Y127.047 E8.9867
G1 X139.850 Y127.836 E9.0421
G1 X140.063 Y128.632 E9.0996
G1 X140.412 Y129.378 E9.1571
G1 X140.885 Y130.052 E9.2147
G1 X141.468 Y130.634 E9.2722
G1 X142.144 Y131.106 E9.3297
G1 X142.891 Y131.453 E9.3873
G1 X143.692 Y131.665 E9.4452
G1 X144.500 Y131.733 E9.5018
G1 X152.461 Y131.734 E10.0579
G1 X152.571 Y131.749 E10.0656
G1 X152.637 Y131.776 E10.0706
G1 X152.694 Y131.819 E10.0756
G1 X152.737 Y131.876 E10.0806
G1 X152.764 Y131.942 E10.0855
G1 X152.780 Y132.062 E10.0940
G1 X152.780 Y132.293 E10.1102
G1 X139.220 Y132.293 E11.0573
G1 X139.219 Y79.931 E14.7145
G1 X139.167 Y79.540 E14.7421
G1 X138.995 Y79.124 E14.7736
G1 X138.721 Y78.766 E14.8050
G1 X138.363 Y78.492 E14.8365
G1 X137.947 Y78.320 E14.8680
G1 X137.547 Y78.267 E14.8961
G1 X112.444 Y78.268 E16.6495
G1 X112.053 Y78.320 E16.6770
G1 X111.637 Y78.492 E16.7085
G1 X111.279 Y78.766 E16.7400
G1 X111.005 Y79.124 E16.7715
G1 X110.833 Y79.540 E16.8029
G1 X110.780 Y79.940 E16.8311
G1 X110.780 Y132.267 E20.4860
G1 X97.221 Y132.267 E21.4330
G1 X97.221 Y132.026 E21.4498
G1 X97.236 Y131.916 E21.4576
G1 X97.263 Y131.850 E21.4626
G1 X97.306 Y131.793 E21.4676
G1 X97.363 Y131.750 E21.4726
G1 X97.429 Y131.722 E21.4776
G1 X97.539 Y131.708 E21.4853
G1 X105.534 Y131.707 E22.0437
G1 X106.323 Y131.637 E22.0990
G1 X107.118 Y131.424 E22.1566
G1 X107.865 Y131.075 E22.2141
G1 X108.539 Y130.602 E22.2716
G1 X109.121 Y130.019 E22.3292
G1 X109.478 Y129.507 E22.3727
G1 X109.593 Y129.343 F1080
; outer perimeter
G1 X109.175 Y129.103 F4800
G92 E0
G1 X109.487 Y128.432 E0.0517 F960
G1 X109.677 Y127.718 E0.1033
G1 X109.740 Y126.997 E0.1538
G1 X109.740 Y79.998 E3.4366
G1 X109.795 Y79.447 E3.4752
G1 X109.952 Y78.929 E3.5130
G1 X110.208 Y78.452 E3.5509
G1 X110.552 Y78.034 E3.5887
G1 X110.971 Y77.691 E3.6265
G1 X111.442 Y77.439 E3.6638
G1 X111.960 Y77.281 E3.7016
G1 X112.512 Y77.227 E3.7403
G1 X137.489 Y77.227 E5.4849
G1 X138.040 Y77.281 E5.5236
G1 X138.558 Y77.439 E5.5614
G1 X139.035 Y77.695 E5.5992
G1 X139.453 Y78.039 E5.6370
G1 X139.796 Y78.458 E5.6749
G1 X140.048 Y78.929 E5.7121
G1 X140.205 Y79.447 E5.7500
G1 X140.260 Y79.999 E5.7887
G1 X140.260 Y127.026 E9.0733
G1 X140.324 Y127.752 E9.1243
G1 X140.516 Y128.466 E9.1759
G1 X140.829 Y129.137 E9.2276
G1 X141.254 Y129.742 E9.2793
G1 X141.778 Y130.265 E9.3309
G1 X142.384 Y130.688 E9.3826
G1 X143.055 Y131.000 E9.4343
G1 X143.774 Y131.191 E9.4863
G1 X144.520 Y131.253 E9.5385
G1 X152.493 Y131.254 E10.0954
G1 X152.696 Y131.281 E10.1097
G1 X152.879 Y131.357 E10.1235
G1 X153.036 Y131.477 E10.1374
G1 X153.156 Y131.634 E10.1512
G1 X153.232 Y131.817 E10.1650
G1 X153.260 Y132.031 E10.1801
G1 X153.260 Y132.773 E10.2319
G1 X138.740 Y132.773 E11.2461
G1 X138.739 Y79.963 E14.9347
G1 X138.700 Y79.665 E14.9556
G1 X138.576 Y79.366 E14.9783
G1 X138.378 Y79.109 E15.0009
G1 X138.121 Y78.911 E15.0236
G1 X137.821 Y78.787 E15.0462
G1 X137.516 Y78.747 E15.0677
G1 X112.476 Y78.748 E16.8167
G1 X112.179 Y78.787 E16.8376
G1 X111.879 Y78.911 E16.8603
G1 X111.622 Y79.109 E16.8829
G1 X111.424 Y79.366 E16.9056
G1 X111.300 Y79.665 E16.9282
G1 X111.260 Y79.971 E16.9498
G1 X111.260 Y132.747 E20.6360
G1 X96.740 Y132.747 E21.6501
G1 X96.741 Y131.994 E21.7027
G1 X96.768 Y131.791 E21.7170
G1 X96.844 Y131.608 E21.7308
G1 X96.964 Y131.451 E21.7447
G1 X97.121 Y131.331 E21.7585
G1 X97.304 Y131.255 E21.7723
G1 X97.507 Y131.228 E21.7866
G1 X105.513 Y131.227 E22.3458
G1 X106.239 Y131.163 E22.3967
G1 X106.953 Y130.971 E22.4484
G1 X107.623 Y130.658 E22.5000
G1 X108.229 Y130.233 E22.5517
G1 X108.751 Y129.709 E22.6034
G1 X109.060 Y129.267 E22.6411
G1 X109.175 Y129.103 F960
G1 X109.487 Y128.432 F2400
G1 X109.677 Y127.718 F2400
G1 X109.722 Y127.199 F2400
; gap fill
G1 X110.221 Y128.914 F4800
