; G-Code generated by Simplify3D(R) Version 4.0.0
; Aug 2, 2018 at 9:26:44 PM
; Settings Summary
;   processName,PETG
;   applyToModels,pokemon-go-plus-bicycle-mount
;   profileName,Prusa Research Original Prusa i3 MK2 (modified)
;   profileVersion,2017-07-23 22:27:18
;   baseProfile,
;   printMaterial,PET
;   printQuality,Fast
;   printExtruders,
;   extruderName,Primary Extruder
;   extruderToolheadNumber,0
;   extruderDiameter,0.4
;   extruderAutoWidth,1
;   extruderWidth,0.48
;   extrusionMultiplier,1.1
;   extruderUseRetract,1
;   extruderRetractionDistance,1.5
;   extruderExtraRestartDistance,0
;   extruderRetractionZLift,0
;   extruderRetractionSpeed,1800
;   extruderUseCoasting,1
;   extruderCoastingDistance,0.2
;   extruderUseWipe,1
;   extruderWipeDistance,2
;   primaryExtruder,0
;   layerHeight,0.35
;   topSolidLayers,3
;   bottomSolidLayers,3
;   perimeterOutlines,4
;   printPerimetersInsideOut,1
;   startPointOption,2
;   startPointOriginX,0
;   startPointOriginY,0
;   sequentialIslands,0
;   spiralVaseMode,0
;   firstLayerHeightPercentage,120
;   firstLayerWidthPercentage,100
;   firstLayerUnderspeed,0.5
;   useRaft,0
;   raftExtruder,0
;   raftTopLayers,3
;   raftBaseLayers,2
;   raftOffset,3
;   raftSeparationDistance,0.14
;   raftTopInfill,100
;   aboveRaftSpeedMultiplier,0.3
;   useSkirt,1
;   skirtExtruder,0
;   skirtLayers,1
;   skirtOutlines,1
;   skirtOffset,4
;   usePrimePillar,0
;   primePillarExtruder,999
;   primePillarWidth,12
;   primePillarLocation,7
;   primePillarSpeedMultiplier,1
;   useOozeShield,0
;   oozeShieldExtruder,999
;   oozeShieldOffset,2
;   oozeShieldOutlines,1
;   oozeShieldSidewallShape,1
;   oozeShieldSidewallAngle,30
;   oozeShieldSpeedMultiplier,1
;   infillExtruder,0
;   internalInfillPattern,Rectilinear
;   externalInfillPattern,Rectilinear
;   infillPercentage,10
;   outlineOverlapPercentage,20
;   infillExtrusionWidthPercentage,100
;   minInfillLength,5
;   infillLayerInterval,1
;   internalInfillAngles,45,-45
;   overlapInternalInfillAngles,0
;   externalInfillAngles,45,-45
;   generateSupport,0
;   supportExtruder,0
;   supportInfillPercentage,25
;   supportExtraInflation,0
;   supportBaseLayers,0
;   denseSupportExtruder,0
;   denseSupportLayers,0
;   denseSupportInfillPercentage,70
;   supportLayerInterval,1
;   supportHorizontalPartOffset,0.3
;   supportUpperSeparationLayers,1
;   supportLowerSeparationLayers,1
;   supportType,0
;   supportGridSpacing,4
;   maxOverhangAngle,45
;   supportAngles,0
;   temperatureName,Primary Extruder,Heated Bed
;   temperatureNumber,0,0
;   temperatureSetpointCount,1,1
;   temperatureSetpointLayers,1,1
;   temperatureSetpointTemperatures,230,70
;   temperatureStabilizeAtStartup,1,1
;   temperatureHeatedBed,0,1
;   temperatureRelayBetweenLayers,0,0
;   temperatureRelayBetweenLoops,0,0
;   fanLayers,1,2
;   fanSpeeds,0,50
;   blipFanToFullPower,0
;   adjustSpeedForCooling,1
;   minSpeedLayerTime,15
;   minCoolingSpeedSlowdown,20
;   increaseFanForCooling,0
;   minFanLayerTime,45
;   maxCoolingFanSpeed,100
;   increaseFanForBridging,0
;   bridgingFanSpeed,100
;   use5D,1
;   relativeEdistances,0
;   allowEaxisZeroing,1
;   independentExtruderAxes,0
;   includeM10123,0
;   stickySupport,1
;   applyToolheadOffsets,0
;   gcodeXoffset,0
;   gcodeYoffset,0
;   gcodeZoffset,0
;   overrideMachineDefinition,1
;   machineTypeOverride,0
;   strokeXoverride,250
;   strokeYoverride,210
;   strokeZoverride,200
;   originOffsetXoverride,0
;   originOffsetYoverride,0
;   originOffsetZoverride,0
;   homeXdirOverride,-1
;   homeYdirOverride,-1
;   homeZdirOverride,-1
;   flipXoverride,1
;   flipYoverride,-1
;   flipZoverride,1
;   toolheadOffsets,0,0|0,0|0,0|0,0|0,0|0,0
;   overrideFirmwareConfiguration,1
;   firmwareTypeOverride,RepRap (Marlin/Repetier/Sprinter)
;   GPXconfigOverride,r2
;   baudRateOverride,250000
;   overridePrinterModels,1
;   printerModelsOverride
;   startingGcode,M115 U3.0.7 ; use the latest firmware version,G28 W ; home all axes without mesh bed leveling,G80 ; run mesh bed leveling routine,G1 Y-3.0 F1000.0 ; prepare to prime,G92 E0 ; reset extrusion distance,G1 X60.0 E9.0  F1000.0 ; priming,G1 X100.0 E12.5  F1000.0 ; priming
;   layerChangeGcode,
;   retractionGcode,
;   toolChangeGcode,
;   endingGcode,M106 S0 ; turn off cooling fan,M104 S0 ; turn off extruder,M140 S0 ; turn off bed,G1 X0 Y200 ; part removal,M84 ; disable motors
;   exportFileFormat,gcode
;   celebration,0
;   celebrationSong,Random Song
;   postProcessing,
;   defaultSpeed,2400
;   outlineUnderspeed,0.8
;   solidInfillUnderspeed,0.8
;   supportUnderspeed,0.8
;   rapidXYspeed,4800
;   rapidZspeed,1002
;   minBridgingArea,50
;   bridgingExtraInflation,0
;   bridgingExtrusionMultiplier,1
;   bridgingSpeedMultiplier,1
;   useFixedBridgingAngle,0
;   fixedBridgingAngle,0
;   applyBridgingToPerimeters,0
;   filamentDiameters,1.75|1.75|1.75|1.75|1.75|1.75
;   filamentPricesPerKg,46|46|46|46|46|46
;   filamentDensities,1.25|1.25|1.25|1.25|1.25|1.25
;   useMinPrintHeight,1
;   minPrintHeight,0
;   useMaxPrintHeight,1
;   maxPrintHeight,235
;   useDiaphragm,0
;   diaphragmLayerInterval,20
;   robustSlicing,1
;   mergeAllIntoSolid,0
;   onlyRetractWhenCrossingOutline,1
;   retractBetweenLayers,1
;   useRetractionMinTravel,0
;   retractionMinTravel,3
;   retractWhileWiping,1
;   onlyWipeOutlines,1
;   avoidCrossingOutline,0
;   maxMovementDetourFactor,3
;   toolChangeRetractionDistance,12
;   toolChangeExtraRestartDistance,-0.5
;   toolChangeRetractionSpeed,600
;   externalThinWallType,0
;   internalThinWallType,1
;   thinWallAllowedOverlapPercentage,25
;   singleExtrusionMinLength,1
;   singleExtrusionMinPrintingWidthPercentage,50
;   singleExtrusionMaxPrintingWidthPercentage,200
;   singleExtrusionEndpointExtension,0.2
;   horizontalSizeCompensation,0
G90
M82
M106 S0
M140 S70
M190 S70
M104 S230 T0
M109 S230 T0
M115 U3.0.7 ; use the latest firmware version
G28 W ; home all axes without mesh bed leveling
G80 ; run mesh bed leveling routine
G1 Y-3.0 F1000.0 ; prepare to prime
G92 E0 ; reset extrusion distance
G1 X60.0 E9.0  F1000.0 ; priming
G1 X100.0 E12.5  F1000.0 ; priming
G92 E0
G1 E-1.5000 F1800
G1 Z0.420 F1002
; process PETG
; layer 1, Z = 0.420
T0
; tool H0.420 W0.480
; skirt
G1 X107.510 Y88.061 F4800
G1 E0.0000 F540
G92 E0
G1 X107.547 Y87.973 E0.0088 F1200
G1 X109.957 Y85.562 E0.3231
G1 X110.045 Y85.525 E0.3319
G1 X143.455 Y85.525 E3.4122
G1 X143.543 Y85.562 E3.4210
G1 X145.953 Y87.973 E3.7353
G1 X145.990 Y88.061 E3.7441
G1 X145.990 Y94.470 E4.3350
G1 X145.953 Y94.558 E4.3438
G1 X143.543 Y96.969 E4.6581
G1 X143.455 Y97.005 E4.6669
G1 X133.604 Y97.005 E5.5751
G1 X134.556 Y97.711 E5.6844
G1 X134.560 Y97.715 E5.6849
G1 X134.717 Y97.843 E5.7036
G1 X134.721 Y97.847 E5.7041
G1 X135.925 Y98.939 E5.8540
G1 X135.930 Y98.943 E5.8545
G1 X136.073 Y99.086 E5.8732
G1 X136.077 Y99.090 E5.8737
G1 X137.168 Y100.294 E6.0235
G1 X137.172 Y100.299 E6.0241
G1 X137.300 Y100.455 E6.0427
G1 X137.304 Y100.460 E6.0433
G1 X138.257 Y101.745 E6.1908
G1 X138.260 Y101.748 E6.1912
G1 X138.345 Y101.873 E6.2052
G1 X138.348 Y101.877 E6.2056
G1 X138.796 Y102.585 E6.2829
G1 X138.798 Y102.588 E6.2831
G1 X138.850 Y102.674 E6.2925
G1 X138.851 Y102.677 E6.2927
G1 X139.264 Y103.406 E6.3700
G1 X139.267 Y103.410 E6.3704
G1 X139.336 Y103.545 E6.3844
G1 X139.338 Y103.549 E6.3848
G1 X140.012 Y104.972 E6.5300
G1 X140.013 Y104.976 E6.5304
G1 X140.073 Y105.116 E6.5444
G1 X140.075 Y105.120 E6.5448
G1 X140.386 Y105.926 E6.6244
G1 X140.387 Y105.930 E6.6248
G1 X140.436 Y106.073 E6.6388
G1 X140.438 Y106.077 E6.6392
G1 X140.902 Y107.608 E6.7867
G1 X140.904 Y107.614 E6.7872
G1 X140.953 Y107.810 E6.8059
G1 X140.954 Y107.816 E6.8064
G1 X141.266 Y109.385 E6.9539
G1 X141.267 Y109.389 E6.9544
G1 X141.291 Y109.539 E6.9683
G1 X141.292 Y109.544 E6.9687
G1 X141.398 Y110.400 E7.0483
G1 X141.398 Y110.405 E7.0488
G1 X141.411 Y110.556 E7.0627
G1 X141.411 Y110.560 E7.0632
G1 X141.490 Y112.158 E7.2107
G1 X141.490 Y112.164 E7.2112
G1 X141.490 Y112.367 E7.2298
G1 X141.490 Y112.372 E7.2304
G1 X141.411 Y113.970 E7.3779
G1 X141.411 Y113.975 E7.3783
G1 X141.398 Y114.126 E7.3923
G1 X141.398 Y114.130 E7.3927
G1 X141.292 Y114.987 E7.4723
G1 X141.291 Y114.992 E7.4727
G1 X141.267 Y115.141 E7.4867
G1 X141.266 Y115.146 E7.4871
G1 X140.959 Y116.690 E7.6323
G1 X140.958 Y116.695 E7.6327
G1 X140.923 Y116.843 E7.6467
G1 X140.922 Y116.847 E7.6471
G1 X140.692 Y117.679 E7.7267
G1 X140.690 Y117.683 E7.7271
G1 X140.645 Y117.827 E7.7411
G1 X140.643 Y117.832 E7.7415
G1 X140.113 Y119.314 E7.8867
G1 X140.111 Y119.318 E7.8871
G1 X140.055 Y119.459 E7.9011
G1 X140.053 Y119.464 E7.9015
G1 X139.713 Y120.230 E7.9788
G1 X139.712 Y120.232 E7.9790
G1 X139.669 Y120.323 E7.9883
G1 X139.668 Y120.326 E7.9886
G1 X139.292 Y121.073 E8.0657
G1 X139.290 Y121.077 E8.0661
G1 X139.219 Y121.206 E8.0797
G1 X139.217 Y121.210 E8.0801
G1 X137.472 Y124.134 E8.3940
G1 X137.379 Y124.194 E8.4042
G1 X133.389 Y124.690 E8.7749
G1 X133.284 Y124.654 E8.7851
G1 X128.363 Y119.732 E9.4269
G1 X128.328 Y119.664 E9.4339
G1 X127.921 Y116.992 E9.6831
G1 X127.934 Y116.917 E9.6901
G1 X128.872 Y115.128 E9.8764
G1 X128.992 Y114.856 E9.9038
G1 X129.093 Y114.595 E9.9296
G1 X129.316 Y113.861 E10.0003
G1 X129.366 Y113.639 E10.0213
G1 X129.472 Y112.932 E10.0872
G1 X129.507 Y112.218 E10.1531
G1 X129.501 Y111.938 E10.1789
G1 X129.480 Y111.659 E10.2047
G1 X129.368 Y110.900 E10.2754
G1 X129.318 Y110.678 E10.2964
G1 X129.111 Y109.994 E10.3623
G1 X128.858 Y109.381 E10.4235
G1 X128.521 Y108.751 E10.4894
G1 X128.372 Y108.514 E10.5152
G1 X128.211 Y108.285 E10.5409
G1 X127.758 Y107.733 E10.6068
G1 X127.285 Y107.260 E10.6685
G1 X126.774 Y106.840 E10.7295
G1 X126.179 Y106.443 E10.7954
G1 X125.981 Y106.330 E10.8164
G1 X125.288 Y106.002 E10.8871
G1 X125.076 Y105.921 E10.9081
G1 X124.342 Y105.698 E10.9788
G1 X124.119 Y105.648 E10.9998
G1 X123.412 Y105.543 E11.0657
G1 X122.750 Y105.511 E11.1269
G1 X122.088 Y105.543 E11.1880
G1 X121.381 Y105.648 E11.2539
G1 X121.158 Y105.698 E11.2749
G1 X120.424 Y105.921 E11.3456
G1 X120.212 Y106.002 E11.3666
G1 X119.519 Y106.330 E11.4373
G1 X119.321 Y106.443 E11.4583
G1 X118.726 Y106.840 E11.5242
G1 X118.173 Y107.293 E11.5901
G1 X118.008 Y107.451 E11.6112
G1 X117.532 Y107.976 E11.6766
G1 X117.105 Y108.551 E11.7426
G1 X116.983 Y108.743 E11.7636
G1 X116.646 Y109.373 E11.8295
G1 X116.392 Y109.986 E11.8906
G1 X116.184 Y110.670 E11.9565
G1 X116.134 Y110.892 E11.9775
G1 X116.021 Y111.651 E12.0482
G1 X116.000 Y111.930 E12.0740
G1 X115.993 Y112.209 E12.0998
G1 X116.027 Y112.923 E12.1657
G1 X116.132 Y113.630 E12.2316
G1 X116.182 Y113.853 E12.2526
G1 X116.404 Y114.587 E12.3233
G1 X116.504 Y114.848 E12.3491
G1 X116.624 Y115.119 E12.3764
G1 X117.567 Y116.919 E12.5638
G1 X117.579 Y116.995 E12.5708
G1 X117.172 Y119.664 E12.8198
G1 X117.137 Y119.733 E12.8269
G1 X112.216 Y124.654 E13.4686
G1 X112.111 Y124.690 E13.4788
G1 X108.121 Y124.194 E13.8495
G1 X108.028 Y124.134 E13.8597
G1 X106.270 Y121.189 E14.1759
G1 X106.268 Y121.183 E14.1764
G1 X106.174 Y121.008 E14.1947
G1 X106.172 Y121.003 E14.1953
G1 X105.488 Y119.559 E14.3426
G1 X105.487 Y119.555 E14.3430
G1 X105.427 Y119.415 E14.3570
G1 X105.425 Y119.411 E14.3574
G1 X105.114 Y118.605 E14.4370
G1 X105.113 Y118.601 E14.4374
G1 X105.064 Y118.458 E14.4514
G1 X105.062 Y118.454 E14.4518
G1 X104.598 Y116.923 E14.5993
G1 X104.596 Y116.917 E14.5998
G1 X104.547 Y116.721 E14.6185
G1 X104.546 Y116.715 E14.6190
G1 X104.234 Y115.146 E14.7666
G1 X104.233 Y115.141 E14.7670
G1 X104.209 Y114.992 E14.7810
G1 X104.208 Y114.987 E14.7814
G1 X104.102 Y114.130 E14.8610
G1 X104.102 Y114.126 E14.8614
G1 X104.089 Y113.975 E14.8754
G1 X104.089 Y113.970 E14.8758
G1 X104.011 Y112.398 E15.0209
G1 X104.011 Y112.393 E15.0214
G1 X104.009 Y112.241 E15.0353
G1 X104.009 Y112.237 E15.0358
G1 X104.031 Y111.374 E15.1154
G1 X104.031 Y111.370 E15.1158
G1 X104.040 Y111.218 E15.1297
G1 X104.040 Y111.214 E15.1301
G1 X104.197 Y109.622 E15.2776
G1 X104.198 Y109.616 E15.2782
G1 X104.228 Y109.416 E15.2968
G1 X104.229 Y109.410 E15.2974
G1 X104.546 Y107.816 E15.4472
G1 X104.547 Y107.810 E15.4478
G1 X104.596 Y107.614 E15.4664
G1 X104.598 Y107.608 E15.4670
G1 X105.062 Y106.077 E15.6145
G1 X105.064 Y106.073 E15.6149
G1 X105.113 Y105.930 E15.6289
G1 X105.114 Y105.926 E15.6293
G1 X105.425 Y105.120 E15.7089
G1 X105.427 Y105.116 E15.7093
G1 X105.487 Y104.976 E15.7233
G1 X105.488 Y104.972 E15.7237
G1 X106.162 Y103.549 E15.8689
G1 X106.164 Y103.545 E15.8693
G1 X106.233 Y103.410 E15.8833
G1 X106.236 Y103.406 E15.8837
G1 X106.661 Y102.655 E15.9633
G1 X106.663 Y102.651 E15.9637
G1 X106.743 Y102.522 E15.9777
G1 X106.745 Y102.518 E15.9781
G1 X107.510 Y101.374 E16.1050
G1 X107.510 Y88.261 E17.3140
G1 X107.510 Y88.061 F1200
G92 E0
G1 E-1.5000 F1800
; inner perimeter
G1 X113.430 Y91.445 F4800
G1 E0.0000 F1800
G92 E0
G1 X116.070 Y91.445 E0.2434 F1080
G1 X116.070 Y100.999 E1.1243
G1 X116.535 Y100.842 E1.1695
G1 X116.669 Y101.141 E1.1997
G1 X116.231 Y101.389 E1.2461
G1 X115.705 Y101.722 E1.3034
G1 X115.196 Y102.080 E1.3608
G1 X114.706 Y102.463 E1.4182
G1 X114.234 Y102.870 E1.4756
G1 X113.784 Y103.299 E1.5330
G1 X113.656 Y103.433 E1.5500
G1 X113.430 Y103.342 E1.5725
G1 X113.430 Y91.645 E2.6509
G1 X113.430 Y91.445 F1080
G1 X112.950 Y90.965 F4800
G92 E0
G1 X119.050 Y90.965 E0.5624 F1080
G1 X119.050 Y91.565 E0.6177
G1 X116.550 Y91.565 E0.8482
G1 X116.550 Y100.330 E1.6563
G1 X118.894 Y99.537 E1.8844
G1 X119.519 Y99.364 E1.9442
G1 X120.155 Y99.221 E2.0044
G1 X120.798 Y99.110 E2.0645
G1 X121.446 Y99.030 E2.1247
G1 X122.097 Y98.982 E2.1849
G1 X122.750 Y98.966 E2.2451
G1 X123.403 Y98.982 E2.3053
G1 X124.054 Y99.030 E2.3655
G1 X124.702 Y99.110 E2.4257
G1 X125.345 Y99.221 E2.4858
G1 X125.981 Y99.364 E2.5460
G1 X126.611 Y99.538 E2.6062
G1 X127.231 Y99.743 E2.6664
G1 X127.840 Y99.978 E2.7266
G1 X128.436 Y100.243 E2.7868
G1 X129.020 Y100.536 E2.8470
G1 X129.587 Y100.858 E2.9071
G1 X130.139 Y101.207 E2.9673
G1 X130.673 Y101.583 E3.0275
G1 X131.187 Y101.985 E3.0877
G1 X131.681 Y102.411 E3.1479
G1 X132.154 Y102.861 E3.2081
G1 X132.604 Y103.334 E3.2683
G1 X133.031 Y103.828 E3.3284
G1 X133.432 Y104.343 E3.3886
G1 X133.808 Y104.877 E3.4488
G1 X134.157 Y105.428 E3.5090
G1 X134.479 Y105.996 E3.5692
G1 X134.773 Y106.579 E3.6294
G1 X135.037 Y107.176 E3.6895
G1 X135.272 Y107.785 E3.7497
G1 X135.477 Y108.405 E3.8099
G1 X135.651 Y109.034 E3.8701
G1 X135.794 Y109.671 E3.9303
G1 X135.906 Y110.314 E3.9905
G1 X135.986 Y110.962 E4.0506
G1 X136.034 Y111.613 E4.1108
G1 X136.050 Y112.265 E4.1710
G1 X136.034 Y112.918 E4.2312
G1 X135.986 Y113.569 E4.2914
G1 X135.906 Y114.217 E4.3516
G1 X135.794 Y114.860 E4.4118
G1 X135.651 Y115.497 E4.4719
G1 X135.477 Y116.126 E4.5321
G1 X135.272 Y116.746 E4.5923
G1 X135.037 Y117.355 E4.6525
G1 X134.773 Y117.952 E4.7127
G1 X134.606 Y118.283 E4.7468
G1 X133.787 Y117.463 E4.8536
G1 X134.018 Y116.942 E4.9063
G1 X134.234 Y116.383 E4.9615
G1 X134.423 Y115.815 E5.0167
G1 X134.583 Y115.237 E5.0719
G1 X134.714 Y114.653 E5.1271
G1 X134.817 Y114.063 E5.1823
G1 X134.891 Y113.469 E5.2375
G1 X134.935 Y112.872 E5.2927
G1 X134.950 Y112.273 E5.3479
G1 X134.936 Y111.675 E5.4032
G1 X134.892 Y111.078 E5.4583
G1 X134.819 Y110.483 E5.5136
G1 X134.717 Y109.893 E5.5688
G1 X134.586 Y109.309 E5.6240
G1 X134.427 Y108.731 E5.6792
G1 X134.240 Y108.163 E5.7344
G1 X134.025 Y107.604 E5.7896
G1 X133.782 Y107.056 E5.8448
G1 X133.513 Y106.521 E5.9000
G1 X133.219 Y106.000 E5.9552
G1 X132.898 Y105.494 E6.0104
G1 X132.554 Y105.004 E6.0657
G1 X132.186 Y104.532 E6.1209
G1 X131.795 Y104.078 E6.1761
G1 X131.382 Y103.644 E6.2313
G1 X130.944 Y103.226 E6.2872
G1 X130.490 Y102.834 E6.3424
G1 X130.018 Y102.466 E6.3976
G1 X129.528 Y102.121 E6.4528
G1 X129.022 Y101.801 E6.5080
G1 X128.501 Y101.506 E6.5633
G1 X127.966 Y101.236 E6.6185
G1 X127.419 Y100.994 E6.6737
G1 X126.860 Y100.778 E6.7289
G1 X126.292 Y100.590 E6.7841
G1 X125.715 Y100.431 E6.8393
G1 X125.130 Y100.300 E6.8945
G1 X124.540 Y100.197 E6.9497
G1 X123.946 Y100.124 E7.0049
G1 X123.349 Y100.080 E7.0601
G1 X122.750 Y100.065 E7.1154
G1 X122.151 Y100.080 E7.1706
G1 X121.554 Y100.124 E7.2258
