; G-Code generated by Simplify3D(R) Version 4.0.0
; Mar 3, 2018 at 2:45:52 PM
; Settings Summary
;   processName,Process1
;   applyToModels,chainguard
;   profileName,Original Prusa i3 MK2 RC4 (modified)
;   profileVersion,2016-08-30 14:21:19
;   baseProfile,Prusa Mendel (modified)
;   printMaterial,PLA
;   printQuality,FAST 0.3mm
;   printExtruders,
;   extruderName,Primary Extruder
;   extruderToolheadNumber,0
;   extruderDiameter,0.4
;   extruderAutoWidth,0
;   extruderWidth,0.45
;   extrusionMultiplier,1
;   extruderUseRetract,1
;   extruderRetractionDistance,0.8
;   extruderExtraRestartDistance,0
;   extruderRetractionZLift,0
;   extruderRetractionSpeed,1800
;   extruderUseCoasting,1
;   extruderCoastingDistance,0.2
;   extruderUseWipe,1
;   extruderWipeDistance,2
;   primaryExtruder,0
;   layerHeight,0.3
;   topSolidLayers,4
;   bottomSolidLayers,4
;   perimeterOutlines,3
;   printPerimetersInsideOut,1
;   startPointOption,2
;   startPointOriginX,0
;   startPointOriginY,0
;   sequentialIslands,0
;   spiralVaseMode,0
;   firstLayerHeightPercentage,66
;   firstLayerWidthPercentage,95
;   firstLayerUnderspeed,0.6
;   useRaft,0
;   raftExtruder,0
;   raftTopLayers,3
;   raftBaseLayers,2
;   raftOffset,3
;   raftSeparationDistance,0.14
;   raftTopInfill,100
;   aboveRaftSpeedMultiplier,0.3
;   useSkirt,1
;   skirtExtruder,0
;   skirtLayers,1
;   skirtOutlines,1
;   skirtOffset,1.8
;   usePrimePillar,0
;   primePillarExtruder,999
;   primePillarWidth,12
;   primePillarLocation,7
;   primePillarSpeedMultiplier,1
;   useOozeShield,0
;   oozeShieldExtruder,999
;   oozeShieldOffset,2
;   oozeShieldOutlines,1
;   oozeShieldSidewallShape,1
;   oozeShieldSidewallAngle,30
;   oozeShieldSpeedMultiplier,1
;   infillExtruder,0
;   internalInfillPattern,Rectilinear
;   externalInfillPattern,Rectilinear
;   infillPercentage,15
;   outlineOverlapPercentage,21
;   infillExtrusionWidthPercentage,100
;   minInfillLength,2
;   infillLayerInterval,1
;   internalInfillAngles,45,-45
;   overlapInternalInfillAngles,0
;   externalInfillAngles,45,-45
;   generateSupport,1
;   supportExtruder,0
;   supportInfillPercentage,30
;   supportExtraInflation,1.4
;   supportBaseLayers,0
;   denseSupportExtruder,0
;   denseSupportLayers,0
;   denseSupportInfillPercentage,70
;   supportLayerInterval,1
;   supportHorizontalPartOffset,0.2
;   supportUpperSeparationLayers,1
;   supportLowerSeparationLayers,1
;   supportType,0
;   supportGridSpacing,4
;   maxOverhangAngle,45
;   supportAngles,0
;   temperatureName,Primary Extruder,Heated Bed
;   temperatureNumber,0,1
;   temperatureSetpointCount,1,1
;   temperatureSetpointLayers,1,1
;   temperatureSetpointTemperatures,215,55
;   temperatureStabilizeAtStartup,1,1
;   temperatureHeatedBed,0,1
;   temperatureRelayBetweenLayers,0,0
;   temperatureRelayBetweenLoops,0,0
;   fanLayers,1,2
;   fanSpeeds,0,100
;   blipFanToFullPower,1
;   adjustSpeedForCooling,1
;   minSpeedLayerTime,15
;   minCoolingSpeedSlowdown,5
;   increaseFanForCooling,0
;   minFanLayerTime,45
;   maxCoolingFanSpeed,100
;   increaseFanForBridging,1
;   bridgingFanSpeed,100
;   use5D,1
;   relativeEdistances,1
;   allowEaxisZeroing,1
;   independentExtruderAxes,0
;   includeM10123,0
;   stickySupport,1
;   applyToolheadOffsets,0
;   gcodeXoffset,0
;   gcodeYoffset,0
;   gcodeZoffset,0
;   overrideMachineDefinition,1
;   machineTypeOverride,0
;   strokeXoverride,250
;   strokeYoverride,210
;   strokeZoverride,200
;   originOffsetXoverride,0
;   originOffsetYoverride,0
;   originOffsetZoverride,0
;   homeXdirOverride,-1
;   homeYdirOverride,-1
;   homeZdirOverride,-1
;   flipXoverride,1
;   flipYoverride,-1
;   flipZoverride,1
;   toolheadOffsets,0,0|0,0|0,0|0,0|0,0|0,0
;   overrideFirmwareConfiguration,0
;   firmwareTypeOverride,RepRap (Marlin/Repetier/Sprinter)
;   GPXconfigOverride,r2
;   baudRateOverride,250000
;   overridePrinterModels,1
;   printerModelsOverride
;   startingGcode,M115 U3.0.7 ; tell the printer latest firmware varsion available,G28 W ; home all without mesh bed level,G80 ; mesh bed leveling,G1 Y-3.0 F1000.0 ; go outside printing area,G1 X60.0 E9.0  F1000.0 ; intro line,G1 X100.0 E12.5  F1000.0 ; intro line
;   layerChangeGcode,
;   retractionGcode,
;   toolChangeGcode,
;   endingGcode,M104 S0 ; turn off temperature,M140 S0 ; turn off heatbed,M107 ; turn off fan,G1 X0 Y200; home X axis,M84 ; disable motors
;   exportFileFormat,gcode
;   celebration,0
;   celebrationSong,Random Song
;   postProcessing,{REPLACE "; outer perimeter\n" "; outer perimeter\nM204 S600\n"},{REPLACE "; inner perimeter\n" "; inner perimeter\nM204 S1200\n"},{REPLACE "; solid layer\n" "; solid layer\nM204 S1500\n"},{REPLACE "; infill\n" "; infill\nM204 S2000\n"}
;   defaultSpeed,2400
;   outlineUnderspeed,1
;   solidInfillUnderspeed,0.8
;   supportUnderspeed,0.8
;   rapidXYspeed,4800
;   rapidZspeed,1002
;   minBridgingArea,50
;   bridgingExtraInflation,1
;   bridgingExtrusionMultiplier,1
;   bridgingSpeedMultiplier,1
;   useFixedBridgingAngle,0
;   fixedBridgingAngle,0
;   applyBridgingToPerimeters,0
;   filamentDiameters,1.75|1.75|1.75|1.75|1.75|1.75
;   filamentPricesPerKg,215|215|215|215|215|215
;   filamentDensities,1.25|1.25|1.25|1.25|1.25|1.25
;   useMinPrintHeight,0
;   minPrintHeight,0
;   useMaxPrintHeight,0
;   maxPrintHeight,0
;   useDiaphragm,0
;   diaphragmLayerInterval,20
;   robustSlicing,1
;   mergeAllIntoSolid,0
;   onlyRetractWhenCrossingOutline,0
;   retractBetweenLayers,1
;   useRetractionMinTravel,1
;   retractionMinTravel,3
;   retractWhileWiping,1
;   onlyWipeOutlines,1
;   avoidCrossingOutline,0
;   maxMovementDetourFactor,3
;   toolChangeRetractionDistance,12
;   toolChangeExtraRestartDistance,-0.5
;   toolChangeRetractionSpeed,600
;   externalThinWallType,0
;   internalThinWallType,2
;   thinWallAllowedOverlapPercentage,25
;   singleExtrusionMinLength,1
;   singleExtrusionMinPrintingWidthPercentage,50
;   singleExtrusionMaxPrintingWidthPercentage,200
;   singleExtrusionEndpointExtension,0.2
;   horizontalSizeCompensation,0
G90
M83
M106 S255
G4 P500
M106 S0
M140 S55
M190 S55
M104 S215 T0
M109 S215 T0
M115 U3.0.7 ; tell the printer latest firmware varsion available
G28 W ; home all without mesh bed level
G80 ; mesh bed leveling
G1 Y-3.0 F1000.0 ; go outside printing area
G1 X60.0 E9.0  F1000.0 ; intro line
G1 X100.0 E12.5  F1000.0 ; intro line
G1 E-0.8000 F1800
G1 Z0.198 F1002
; process Process1
; layer 1, Z = 0.198
T0
; tool H0.300 W0.428
; skirt
G1 X58.735 Y49.485 F4800
G1 E0.8000 F540
G1 X60.614 Y47.317 E0.1530 F1440
G1 X60.615 Y47.316 E0.0001
G1 X60.636 Y47.292 E0.0017
G1 X60.638 Y47.290 E0.0001
G1 X62.588 Y45.187 E0.1530
G1 X62.589 Y45.185 E0.0001
G1 X62.612 Y45.162 E0.0017
G1 X62.613 Y45.161 E0.0001
G1 X64.633 Y43.124 E0.1530
G1 X64.634 Y43.123 E0.0001
G1 X64.657 Y43.100 E0.0017
G1 X64.659 Y43.099 E0.0001
G1 X66.746 Y41.131 E0.1530
G1 X66.747 Y41.130 E0.0001
G1 X66.771 Y41.108 E0.0017
G1 X66.772 Y41.107 E0.0001
G1 X68.924 Y39.210 E0.1530
G1 X68.926 Y39.209 E0.0001
G1 X68.950 Y39.188 E0.0017
G1 X68.952 Y39.187 E0.0001
G1 X71.166 Y37.363 E0.1530
G1 X71.168 Y37.362 E0.0001
G1 X71.193 Y37.342 E0.0017
G1 X71.194 Y37.341 E0.0001
G1 X73.469 Y35.593 E0.1530
G1 X73.471 Y35.592 E0.0001
G1 X73.496 Y35.573 E0.0017
G1 X73.498 Y35.572 E0.0001
G1 X75.830 Y33.901 E0.1530
G1 X75.832 Y33.900 E0.0001
G1 X75.858 Y33.882 E0.0017
G1 X75.860 Y33.881 E0.0001
G1 X78.246 Y32.289 E0.1530
G1 X78.248 Y32.288 E0.0001
G1 X78.275 Y32.271 E0.0017
G1 X78.277 Y32.270 E0.0001
G1 X80.716 Y30.760 E0.1530
G1 X80.717 Y30.759 E0.0001
G1 X80.745 Y30.742 E0.0017
G1 X80.747 Y30.741 E0.0001
G1 X83.235 Y29.314 E0.1530
G1 X83.236 Y29.313 E0.0001
G1 X83.265 Y29.298 E0.0017
G1 X83.266 Y29.297 E0.0001
G1 X85.801 Y27.954 E0.1530
G1 X85.803 Y27.953 E0.0001
G1 X85.832 Y27.938 E0.0017
G1 X85.833 Y27.937 E0.0001
G1 X88.412 Y26.680 E0.1530
G1 X88.414 Y26.680 E0.0001
G1 X88.443 Y26.666 E0.0017
G1 X88.444 Y26.665 E0.0001
G1 X91.064 Y25.495 E0.1530
G1 X91.065 Y25.495 E0.0001
G1 X91.095 Y25.482 E0.0017
G1 X91.097 Y25.481 E0.0001
G1 X93.754 Y24.400 E0.1530
G1 X93.756 Y24.400 E0.0001
G1 X93.786 Y24.388 E0.0017
G1 X93.787 Y24.387 E0.0001
G1 X96.479 Y23.396 E0.1530
G1 X96.481 Y23.396 E0.0001
G1 X96.511 Y23.385 E0.0017
G1 X96.513 Y23.384 E0.0001
G1 X99.237 Y22.484 E0.1530
G1 X99.239 Y22.484 E0.0001
G1 X99.269 Y22.474 E0.0017
G1 X99.271 Y22.473 E0.0001
G1 X102.024 Y21.665 E0.1530
G1 X102.026 Y21.665 E0.0001
G1 X102.057 Y21.656 E0.0017
G1 X102.058 Y21.656 E0.0001
G1 X104.836 Y20.940 E0.1530
G1 X104.838 Y20.940 E0.0001
G1 X104.870 Y20.932 E0.0017
G1 X104.871 Y20.932 E0.0001
G1 X107.672 Y20.310 E0.1530
G1 X107.674 Y20.310 E0.0001
G1 X107.705 Y20.304 E0.0017
G1 X107.707 Y20.303 E0.0001
G1 X110.527 Y19.776 E0.1530
G1 X110.529 Y19.776 E0.0001
G1 X110.560 Y19.770 E0.0017
G1 X110.562 Y19.770 E0.0001
G1 X113.398 Y19.338 E0.1530
G1 X113.400 Y19.338 E0.0001
G1 X113.432 Y19.334 E0.0017
G1 X113.434 Y19.333 E0.0001
G1 X116.283 Y18.997 E0.1530
G1 X116.285 Y18.997 E0.0001
G1 X116.317 Y18.993 E0.0017
G1 X116.318 Y18.993 E0.0001
G1 X119.177 Y18.752 E0.1530
G1 X119.179 Y18.752 E0.0001
G1 X119.211 Y18.750 E0.0017
G1 X119.213 Y18.750 E0.0001
G1 X122.078 Y18.605 E0.1530
G1 X122.080 Y18.605 E0.0001
G1 X122.112 Y18.604 E0.0017
G1 X122.114 Y18.604 E0.0001
G1 X124.982 Y18.556 E0.1530
G1 X124.984 Y18.556 E0.0001
G1 X125.016 Y18.556 E0.0017
G1 X125.018 Y18.556 E0.0001
G1 X127.886 Y18.604 E0.1530
G1 X127.888 Y18.604 E0.0001
G1 X127.920 Y18.605 E0.0017
G1 X127.922 Y18.605 E0.0001
G1 X130.787 Y18.750 E0.1530
G1 X130.789 Y18.750 E0.0001
G1 X130.821 Y18.752 E0.0017
G1 X130.823 Y18.752 E0.0001
G1 X133.682 Y18.993 E0.1530
G1 X133.683 Y18.993 E0.0001
G1 X133.715 Y18.997 E0.0017
G1 X133.717 Y18.997 E0.0001
G1 X136.566 Y19.333 E0.1530
G1 X136.568 Y19.334 E0.0001
G1 X136.600 Y19.338 E0.0017
G1 X136.602 Y19.338 E0.0001
G1 X139.438 Y19.770 E0.1530
G1 X139.439 Y19.770 E0.0001
G1 X139.471 Y19.776 E0.0017
G1 X139.473 Y19.776 E0.0001
G1 X142.293 Y20.303 E0.1530
G1 X142.295 Y20.304 E0.0001
G1 X142.326 Y20.310 E0.0017
G1 X142.328 Y20.310 E0.0001
G1 X145.129 Y20.932 E0.1530
G1 X145.130 Y20.932 E0.0001
G1 X145.162 Y20.940 E0.0017
G1 X145.163 Y20.940 E0.0001
G1 X147.942 Y21.656 E0.1530
G1 X147.943 Y21.656 E0.0001
G1 X147.974 Y21.665 E0.0017
G1 X147.976 Y21.665 E0.0001
G1 X150.729 Y22.473 E0.1530
G1 X150.730 Y22.474 E0.0001
G1 X150.761 Y22.484 E0.0017
G1 X150.763 Y22.484 E0.0001
G1 X153.487 Y23.384 E0.1530
G1 X153.488 Y23.385 E0.0001
G1 X153.519 Y23.396 E0.0017
G1 X153.521 Y23.396 E0.0001
G1 X156.213 Y24.387 E0.1530
G1 X156.214 Y24.388 E0.0001
G1 X156.244 Y24.400 E0.0017
G1 X156.246 Y24.400 E0.0001
G1 X158.903 Y25.481 E0.1530
G1 X158.905 Y25.482 E0.0001
G1 X158.934 Y25.495 E0.0017
G1 X158.936 Y25.495 E0.0001
G1 X161.556 Y26.665 E0.1530
G1 X161.557 Y26.666 E0.0001
G1 X161.586 Y26.680 E0.0017
G1 X161.588 Y26.680 E0.0001
G1 X164.167 Y27.937 E0.1530
G1 X164.168 Y27.938 E0.0001
G1 X164.197 Y27.953 E0.0017
G1 X164.199 Y27.954 E0.0001
G1 X166.734 Y29.297 E0.1530
G1 X166.735 Y29.298 E0.0001
G1 X166.763 Y29.313 E0.0017
G1 X166.765 Y29.314 E0.0001
G1 X169.253 Y30.741 E0.1530
G1 X169.255 Y30.742 E0.0001
G1 X169.283 Y30.759 E0.0017
G1 X169.284 Y30.760 E0.0001
G1 X171.723 Y32.270 E0.1530
G1 X171.725 Y32.271 E0.0001
G1 X171.752 Y32.288 E0.0017
G1 X171.753 Y32.289 E0.0001
G1 X174.140 Y33.881 E0.1530
G1 X174.142 Y33.882 E0.0001
G1 X174.168 Y33.900 E0.0017
G1 X174.170 Y33.901 E0.0001
G1 X176.502 Y35.572 E0.1530
G1 X176.504 Y35.573 E0.0001
G1 X176.529 Y35.592 E0.0017
G1 X176.531 Y35.593 E0.0001
G1 X178.805 Y37.341 E0.1530
G1 X178.807 Y37.342 E0.0001
G1 X178.832 Y37.362 E0.0017
G1 X178.834 Y37.363 E0.0001
G1 X181.048 Y39.187 E0.1530
G1 X181.050 Y39.188 E0.0001
G1 X181.074 Y39.209 E0.0017
G1 X181.076 Y39.210 E0.0001
G1 X183.228 Y41.107 E0.1530
G1 X183.229 Y41.108 E0.0001
G1 X183.253 Y41.130 E0.0017
G1 X183.254 Y41.131 E0.0001
G1 X185.341 Y43.099 E0.1530
G1 X185.343 Y43.100 E0.0001
G1 X185.366 Y43.123 E0.0017
G1 X185.367 Y43.124 E0.0001
G1 X187.387 Y45.161 E0.1530
G1 X187.388 Y45.162 E0.0001
G1 X187.411 Y45.185 E0.0017
G1 X187.412 Y45.187 E0.0001
G1 X189.362 Y47.290 E0.1530
G1 X189.364 Y47.292 E0.0001
G1 X189.385 Y47.316 E0.0017
G1 X189.386 Y47.317 E0.0001
G1 X191.265 Y49.485 E0.1530
G1 X191.266 Y49.487 E0.0001
G1 X191.287 Y49.511 E0.0017
G1 X191.288 Y49.513 E0.0001
G1 X193.093 Y51.743 E0.1530
G1 X193.094 Y51.744 E0.0001
G1 X193.114 Y51.769 E0.0017
G1 X193.115 Y51.771 E0.0001
G1 X194.843 Y54.060 E0.1530
G1 X194.845 Y54.062 E0.0001
G1 X194.863 Y54.088 E0.0017
G1 X194.865 Y54.089 E0.0001
G1 X196.515 Y56.435 E0.1530
G1 X196.517 Y56.437 E0.0001
G1 X196.535 Y56.463 E0.0017
G1 X196.536 Y56.465 E0.0001
G1 X198.107 Y58.865 E0.1530
G1 X198.108 Y58.867 E0.0001
G1 X198.125 Y58.894 E0.0017
G1 X198.126 Y58.895 E0.0001
G1 X199.616 Y61.347 E0.1530
G1 X199.617 Y61.349 E0.0001
G1 X199.633 Y61.376 E0.0017
G1 X199.634 Y61.378 E0.0001
G1 X201.040 Y63.878 E0.1530
G1 X201.041 Y63.880 E0.0001
G1 X201.056 Y63.908 E0.0017
G1 X201.057 Y63.910 E0.0001
G1 X202.379 Y66.456 E0.1530
G1 X202.380 Y66.458 E0.0001
G1 X202.394 Y66.486 E0.0017
G1 X202.395 Y66.488 E0.0001
G1 X203.630 Y69.077 E0.1530
G1 X203.631 Y69.079 E0.0001
G1 X203.644 Y69.108 E0.0017
G1 X203.645 Y69.110 E0.0001
G1 X204.793 Y71.739 E0.1530
G1 X204.794 Y71.741 E0.0001
G1 X204.806 Y71.770 E0.0017
G1 X204.807 Y71.772 E0.0001
G1 X205.865 Y74.438 E0.1530
G1 X205.866 Y74.440 E0.0001
G1 X205.877 Y74.470 E0.0017
G1 X205.878 Y74.472 E0.0001
G1 X206.847 Y77.172 E0.1530
G1 X206.847 Y77.174 E0.0001
G1 X206.858 Y77.204 E0.0017
G1 X206.858 Y77.206 E0.0001
G1 X207.735 Y79.937 E0.1530
G1 X207.736 Y79.939 E0.0001
G1 X207.745 Y79.970 E0.0017
G1 X207.746 Y79.972 E0.0001
G1 X208.531 Y82.731 E0.1530
G1 X208.531 Y82.733 E0.0001
G1 X208.540 Y82.764 E0.0017
G1 X208.540 Y82.765 E0.0001
G1 X209.232 Y85.549 E0.1530
G1 X209.232 Y85.551 E0.0001
G1 X209.240 Y85.583 E0.0017
G1 X209.240 Y85.584 E0.0001
G1 X209.838 Y88.390 E0.1530
G1 X209.839 Y88.392 E0.0001
G1 X209.845 Y88.423 E0.0017
G1 X209.845 Y88.425 E0.0001
G1 X210.348 Y91.249 E0.1530
G1 X210.349 Y91.251 E0.0001
G1 X210.354 Y91.283 E0.0017
G1 X210.354 Y91.285 E0.0001
G1 X210.762 Y94.124 E0.1530
G1 X210.763 Y94.126 E0.0001
G1 X210.767 Y94.158 E0.0017
G1 X210.767 Y94.160 E0.0001
G1 X211.080 Y97.012 E0.1530
G1 X211.080 Y97.013 E0.0001
G1 X211.083 Y97.045 E0.0017
G1 X211.083 Y97.047 E0.0001
G1 X211.300 Y99.908 E0.1530
G1 X211.300 Y99.910 E0.0001
G1 X211.302 Y99.942 E0.0017
G1 X211.302 Y99.944 E0.0001
G1 X211.422 Y102.810 E0.1530
G1 X211.422 Y102.812 E0.0001
G1 X211.423 Y102.844 E0.0017
G1 X211.423 Y102.846 E0.0001
G1 X211.447 Y105.714 E0.1530
G1 X211.447 Y105.716 E0.0001
G1 X211.447 Y105.748 E0.0017
G1 X211.447 Y105.750 E0.0001
G1 X211.374 Y108.618 E0.1530
G1 X211.374 Y108.620 E0.0001
G1 X211.373 Y108.652 E0.0017
G1 X211.373 Y108.654 E0.0001
G1 X211.204 Y111.518 E0.1530
G1 X211.204 Y111.519 E0.0001
G1 X211.202 Y111.551 E0.0017
G1 X211.202 Y111.553 E0.0001
G1 X210.937 Y114.410 E0.1530
G1 X210.937 Y114.412 E0.0001
G1 X210.933 Y114.444 E0.0017
G1 X210.933 Y114.445 E0.0001
G1 X210.573 Y117.291 E0.1530
G1 X210.572 Y117.293 E0.0001
G1 X210.568 Y117.325 E0.0017
G1 X210.567 Y117.327 E0.0001
G1 X210.112 Y120.159 E0.1530
G1 X210.111 Y120.161 E0.0001
G1 X210.106 Y120.193 E0.0017
G1 X210.105 Y120.195 E0.0001
G1 X209.554 Y123.010 E0.1530
G1 X209.554 Y123.012 E0.0001
G1 X209.547 Y123.043 E0.0017
G1 X209.547 Y123.045 E0.0001
G1 X208.902 Y125.840 E0.1530
G1 X208.902 Y125.842 E0.0001
G1 X208.894 Y125.873 E0.0017
G1 X208.893 Y125.875 E0.0001
G1 X208.155 Y128.647 E0.1530
G1 X208.154 Y128.649 E0.0001
G1 X208.145 Y128.680 E0.0017
G1 X208.145 Y128.681 E0.0001
G1 X207.314 Y131.427 E0.1530
G1 X207.313 Y131.429 E0.0001
G1 X207.303 Y131.459 E0.0017
G1 X207.303 Y131.461 E0.0001
G1 X206.380 Y134.177 E0.1530
G1 X206.379 Y134.179 E0.0001
G1 X206.368 Y134.209 E0.0017
G1 X206.367 Y134.211 E0.0001
G1 X205.354 Y136.895 E0.1530
G1 X205.353 Y136.897 E0.0001
G1 X205.341 Y136.926 E0.0017
G1 X205.340 Y136.928 E0.0001
G1 X204.237 Y139.576 E0.1530
G1 X204.236 Y139.578 E0.0001
G1 X204.223 Y139.607 E0.0017
