; G-Code generated by Simplify3D(R) Version 4.0.0
; Apr 9, 2018 at 9:25:43 PM
; Settings Summary
;   processName,Process1
;   applyToModels,car-tire-marker-front-right,car-tire-marker-front-left,car-tire-marker-rear-right,car-tire-marker-rear-left
;   profileName,Original Prusa i3 MK2 RC4 (modified)
;   profileVersion,2016-08-30 14:21:19
;   baseProfile,Prusa Mendel (modified)
;   printMaterial,PLA
;   printQuality,FAST 0.3mm
;   printExtruders,
;   extruderName,Primary Extruder
;   extruderToolheadNumber,0
;   extruderDiameter,0.4
;   extruderAutoWidth,0
;   extruderWidth,0.45
;   extrusionMultiplier,1
;   extruderUseRetract,1
;   extruderRetractionDistance,0.8
;   extruderExtraRestartDistance,0
;   extruderRetractionZLift,0
;   extruderRetractionSpeed,1800
;   extruderUseCoasting,1
;   extruderCoastingDistance,0.2
;   extruderUseWipe,1
;   extruderWipeDistance,2
;   primaryExtruder,0
;   layerHeight,0.35
;   topSolidLayers,5
;   bottomSolidLayers,5
;   perimeterOutlines,2
;   printPerimetersInsideOut,1
;   startPointOption,2
;   startPointOriginX,0
;   startPointOriginY,0
;   sequentialIslands,0
;   spiralVaseMode,0
;   firstLayerHeightPercentage,66
;   firstLayerWidthPercentage,95
;   firstLayerUnderspeed,0.6
;   useRaft,0
;   raftExtruder,0
;   raftTopLayers,3
;   raftBaseLayers,2
;   raftOffset,3
;   raftSeparationDistance,0.14
;   raftTopInfill,100
;   aboveRaftSpeedMultiplier,0.3
;   useSkirt,1
;   skirtExtruder,0
;   skirtLayers,1
;   skirtOutlines,1
;   skirtOffset,1.8
;   usePrimePillar,0
;   primePillarExtruder,999
;   primePillarWidth,12
;   primePillarLocation,7
;   primePillarSpeedMultiplier,1
;   useOozeShield,0
;   oozeShieldExtruder,999
;   oozeShieldOffset,2
;   oozeShieldOutlines,1
;   oozeShieldSidewallShape,1
;   oozeShieldSidewallAngle,30
;   oozeShieldSpeedMultiplier,1
;   infillExtruder,0
;   internalInfillPattern,Rectilinear
;   externalInfillPattern,Rectilinear
;   infillPercentage,16
;   outlineOverlapPercentage,21
;   infillExtrusionWidthPercentage,100
;   minInfillLength,2
;   infillLayerInterval,1
;   internalInfillAngles,45,-45
;   overlapInternalInfillAngles,0
;   externalInfillAngles,45,-45
;   generateSupport,0
;   supportExtruder,0
;   supportInfillPercentage,30
;   supportExtraInflation,1.4
;   supportBaseLayers,0
;   denseSupportExtruder,0
;   denseSupportLayers,0
;   denseSupportInfillPercentage,70
;   supportLayerInterval,1
;   supportHorizontalPartOffset,0.2
;   supportUpperSeparationLayers,1
;   supportLowerSeparationLayers,1
;   supportType,0
;   supportGridSpacing,4
;   maxOverhangAngle,45
;   supportAngles,0
;   temperatureName,Primary Extruder,Heated Bed
;   temperatureNumber,0,1
;   temperatureSetpointCount,1,1
;   temperatureSetpointLayers,1,1
;   temperatureSetpointTemperatures,210,55
;   temperatureStabilizeAtStartup,1,1
;   temperatureHeatedBed,0,1
;   temperatureRelayBetweenLayers,0,0
;   temperatureRelayBetweenLoops,0,0
;   fanLayers,1,2
;   fanSpeeds,0,100
;   blipFanToFullPower,1
;   adjustSpeedForCooling,1
;   minSpeedLayerTime,15
;   minCoolingSpeedSlowdown,5
;   increaseFanForCooling,0
;   minFanLayerTime,45
;   maxCoolingFanSpeed,100
;   increaseFanForBridging,1
;   bridgingFanSpeed,100
;   use5D,1
;   relativeEdistances,1
;   allowEaxisZeroing,1
;   independentExtruderAxes,0
;   includeM10123,0
;   stickySupport,1
;   applyToolheadOffsets,0
;   gcodeXoffset,0
;   gcodeYoffset,0
;   gcodeZoffset,0
;   overrideMachineDefinition,1
;   machineTypeOverride,0
;   strokeXoverride,250
;   strokeYoverride,210
;   strokeZoverride,200
;   originOffsetXoverride,0
;   originOffsetYoverride,0
;   originOffsetZoverride,0
;   homeXdirOverride,-1
;   homeYdirOverride,-1
;   homeZdirOverride,-1
;   flipXoverride,1
;   flipYoverride,-1
;   flipZoverride,1
;   toolheadOffsets,0,0|0,0|0,0|0,0|0,0|0,0
;   overrideFirmwareConfiguration,0
;   firmwareTypeOverride,RepRap (Marlin/Repetier/Sprinter)
;   GPXconfigOverride,r2
;   baudRateOverride,250000
;   overridePrinterModels,1
;   printerModelsOverride
;   startingGcode,M115 U3.0.7 ; tell the printer latest firmware varsion available,G28 W ; home all without mesh bed level,G80 ; mesh bed leveling,G1 Y-3.0 F1000.0 ; go outside printing area,G1 X60.0 E9.0  F1000.0 ; intro line,G1 X100.0 E12.5  F1000.0 ; intro line
;   layerChangeGcode,
;   retractionGcode,
;   toolChangeGcode,
;   endingGcode,M104 S0 ; turn off temperature,M140 S0 ; turn off heatbed,M107 ; turn off fan,G1 X0 Y200; home X axis,M84 ; disable motors
;   exportFileFormat,gcode
;   celebration,0
;   celebrationSong,Random Song
;   postProcessing,|{REPLACE "; outer perimeter\n" "; outer perimeter\nM204 S600\n"}|{REPLACE "; inner perimeter\n" "; inner perimeter\nM204 S1200\n"}|{REPLACE "; solid layer\n" "; solid layer\nM204 S1500\n"}|{REPLACE "; infill\n" "; infill\nM204 S2000\n"}|{REPLACE "\n; layer 5," "\n;PAUSE\nM83\nG1 E-1.000000 F6000\nG91\nG1 Z5.000\nG90\nG1 X10 Y10 F6000\nM84 E0\nM0\nM82\nG92 E0\n;layer 5,"}
;   defaultSpeed,2400
;   outlineUnderspeed,1
;   solidInfillUnderspeed,0.8
;   supportUnderspeed,0.8
;   rapidXYspeed,4800
;   rapidZspeed,1002
;   minBridgingArea,50
;   bridgingExtraInflation,1
;   bridgingExtrusionMultiplier,1
;   bridgingSpeedMultiplier,1
;   useFixedBridgingAngle,0
;   fixedBridgingAngle,0
;   applyBridgingToPerimeters,0
;   filamentDiameters,1.75|1.75|1.75|1.75|1.75|1.75
;   filamentPricesPerKg,215|215|215|215|215|215
;   filamentDensities,1.25|1.25|1.25|1.25|1.25|1.25
;   useMinPrintHeight,0
;   minPrintHeight,0
;   useMaxPrintHeight,0
;   maxPrintHeight,0
;   useDiaphragm,0
;   diaphragmLayerInterval,20
;   robustSlicing,1
;   mergeAllIntoSolid,0
;   onlyRetractWhenCrossingOutline,0
;   retractBetweenLayers,1
;   useRetractionMinTravel,1
;   retractionMinTravel,3
;   retractWhileWiping,1
;   onlyWipeOutlines,1
;   avoidCrossingOutline,0
;   maxMovementDetourFactor,3
;   toolChangeRetractionDistance,12
;   toolChangeExtraRestartDistance,-0.5
;   toolChangeRetractionSpeed,600
;   externalThinWallType,0
;   internalThinWallType,2
;   thinWallAllowedOverlapPercentage,25
;   singleExtrusionMinLength,1
;   singleExtrusionMinPrintingWidthPercentage,50
;   singleExtrusionMaxPrintingWidthPercentage,200
;   singleExtrusionEndpointExtension,0.2
;   horizontalSizeCompensation,0
G90
M83
M106 S255
G4 P500
M106 S0
M140 S55
M190 S55
M104 S210 T0
M109 S210 T0
M115 U3.0.7 ; tell the printer latest firmware varsion available
G28 W ; home all without mesh bed level
G80 ; mesh bed leveling
G1 Y-3.0 F1000.0 ; go outside printing area
G1 X60.0 E9.0  F1000.0 ; intro line
G1 X100.0 E12.5  F1000.0 ; intro line
G1 E-0.8000 F1800
G1 Z0.231 F1002
; process Process1
; layer 1, Z = 0.231
T0
; tool H0.350 W0.428
; skirt
G1 X84.544 Y50.134 F4800
G1 E0.8000 F540
G1 X84.595 Y50.052 E0.0060 F1440
G1 X84.598 Y50.047 E0.0004
G1 X85.414 Y48.876 E0.0888
G1 X85.417 Y48.872 E0.0004
G1 X85.476 Y48.795 E0.0060
G1 X85.480 Y48.791 E0.0004
G1 X86.409 Y47.708 E0.0888
G1 X86.413 Y47.704 E0.0004
G1 X86.480 Y47.633 E0.0060
G1 X86.484 Y47.629 E0.0004
G1 X87.518 Y46.646 E0.0888
G1 X87.523 Y46.642 E0.0004
G1 X87.596 Y46.579 E0.0060
G1 X87.601 Y46.576 E0.0004
G1 X88.729 Y45.702 E0.0888
G1 X88.734 Y45.699 E0.0004
G1 X88.813 Y45.643 E0.0060
G1 X88.818 Y45.640 E0.0004
G1 X90.029 Y44.885 E0.0888
G1 X90.034 Y44.883 E0.0004
G1 X90.119 Y44.835 E0.0060
G1 X90.124 Y44.833 E0.0004
G1 X91.405 Y44.204 E0.0888
G1 X91.410 Y44.202 E0.0004
G1 X91.499 Y44.164 E0.0060
G1 X91.504 Y44.162 E0.0004
G1 X92.842 Y43.666 E0.0888
G1 X92.848 Y43.664 E0.0004
G1 X92.940 Y43.635 E0.0060
G1 X92.946 Y43.634 E0.0004
G1 X94.327 Y43.276 E0.0888
G1 X94.333 Y43.275 E0.0004
G1 X94.428 Y43.255 E0.0060
G1 X94.433 Y43.254 E0.0004
G1 X95.844 Y43.038 E0.0888
G1 X95.850 Y43.037 E0.0004
G1 X95.946 Y43.028 E0.0060
G1 X95.952 Y43.027 E0.0004
G1 X97.353 Y42.956 E0.0873
G1 X97.355 Y42.956 E0.0002
G1 X97.404 Y42.955 E0.0030
G1 X97.407 Y42.955 E0.0002
G1 X161.721 Y42.955 E4.0008
G1 X161.724 Y42.955 E0.0002
G1 X161.768 Y42.956 E0.0027
G1 X161.771 Y42.956 E0.0002
G1 X162.228 Y42.977 E0.0285
G1 X162.236 Y42.978 E0.0005
G1 X162.367 Y42.993 E0.0083
G1 X162.375 Y42.994 E0.0005
G1 X163.253 Y43.158 E0.0555
G1 X163.263 Y43.160 E0.0006
G1 X163.433 Y43.209 E0.0110
G1 X163.443 Y43.212 E0.0006
G1 X164.296 Y43.543 E0.0569
G1 X164.306 Y43.547 E0.0006
G1 X164.464 Y43.626 E0.0110
G1 X164.473 Y43.631 E0.0006
G1 X165.251 Y44.112 E0.0569
G1 X165.259 Y44.118 E0.0006
G1 X165.401 Y44.225 E0.0110
G1 X165.409 Y44.232 E0.0006
G1 X166.085 Y44.848 E0.0569
G1 X166.092 Y44.855 E0.0006
G1 X166.211 Y44.986 E0.0110
G1 X166.218 Y44.994 E0.0006
G1 X166.769 Y45.724 E0.0569
G1 X166.775 Y45.733 E0.0006
G1 X166.868 Y45.883 E0.0110
G1 X166.873 Y45.892 E0.0006
G1 X167.281 Y46.711 E0.0569
G1 X167.285 Y46.721 E0.0006
G1 X167.349 Y46.886 E0.0110
G1 X167.352 Y46.895 E0.0006
G1 X167.603 Y47.776 E0.0569
G1 X167.605 Y47.786 E0.0006
G1 X167.638 Y47.960 E0.0110
G1 X167.639 Y47.970 E0.0006
G1 X167.720 Y48.837 E0.0542
G1 X167.720 Y48.842 E0.0003
G1 X167.724 Y48.930 E0.0055
G1 X167.724 Y48.936 E0.0003
G1 X167.724 Y67.284 E1.1414
G1 X167.724 Y67.289 E0.0003
G1 X167.720 Y67.377 E0.0055
G1 X167.720 Y67.383 E0.0003
G1 X167.639 Y68.250 E0.0542
G1 X167.638 Y68.260 E0.0006
G1 X167.605 Y68.434 E0.0110
G1 X167.603 Y68.444 E0.0006
G1 X167.359 Y69.303 E0.0555
G1 X167.356 Y69.310 E0.0005
G1 X167.311 Y69.435 E0.0082
G1 X167.308 Y69.442 E0.0005
G1 X167.114 Y69.881 E0.0299
G1 X167.112 Y69.886 E0.0003
G1 X167.073 Y69.965 E0.0055
G1 X167.070 Y69.970 E0.0003
G1 X166.837 Y70.389 E0.0299
G1 X166.833 Y70.395 E0.0005
G1 X166.760 Y70.507 E0.0082
G1 X166.756 Y70.513 E0.0005
G1 X166.218 Y71.225 E0.0555
G1 X166.211 Y71.233 E0.0006
G1 X166.092 Y71.364 E0.0110
G1 X166.085 Y71.372 E0.0006
G1 X165.425 Y71.973 E0.0555
G1 X165.419 Y71.978 E0.0005
G1 X165.315 Y72.060 E0.0082
G1 X165.309 Y72.065 E0.0005
G1 X164.895 Y72.349 E0.0312
G1 X164.888 Y72.353 E0.0005
G1 X164.774 Y72.420 E0.0082
G1 X164.767 Y72.424 E0.0005
G1 X163.968 Y72.822 E0.0555
G1 X163.958 Y72.826 E0.0006
G1 X163.793 Y72.890 E0.0110
G1 X163.783 Y72.893 E0.0006
G1 X162.903 Y73.144 E0.0569
G1 X162.893 Y73.146 E0.0006
G1 X162.719 Y73.178 E0.0110
G1 X162.709 Y73.180 E0.0006
G1 X161.842 Y73.260 E0.0542
G1 X161.837 Y73.261 E0.0003
G1 X161.749 Y73.265 E0.0055
G1 X161.743 Y73.265 E0.0003
G1 X97.407 Y73.265 E4.0022
G1 X97.404 Y73.265 E0.0002
G1 X97.355 Y73.264 E0.0030
G1 X97.353 Y73.263 E0.0002
G1 X95.964 Y73.193 E0.0865
G1 X95.959 Y73.193 E0.0003
G1 X95.887 Y73.186 E0.0045
G1 X95.883 Y73.186 E0.0003
G1 X95.151 Y73.093 E0.0459
G1 X95.147 Y73.092 E0.0003
G1 X95.075 Y73.080 E0.0045
G1 X95.071 Y73.079 E0.0003
G1 X93.697 Y72.797 E0.0873
G1 X93.692 Y72.796 E0.0003
G1 X93.622 Y72.779 E0.0045
G1 X93.618 Y72.778 E0.0003
G1 X92.908 Y72.575 E0.0459
G1 X92.904 Y72.573 E0.0003
G1 X92.835 Y72.551 E0.0045
G1 X92.831 Y72.549 E0.0003
G1 X91.516 Y72.062 E0.0873
G1 X91.512 Y72.061 E0.0003
G1 X91.444 Y72.033 E0.0045
G1 X91.441 Y72.031 E0.0003
G1 X90.781 Y71.728 E0.0452
G1 X90.778 Y71.727 E0.0002
G1 X90.735 Y71.705 E0.0030
G1 X90.732 Y71.704 E0.0002
G1 X90.089 Y71.368 E0.0452
G1 X90.085 Y71.366 E0.0003
G1 X90.022 Y71.330 E0.0045
G1 X90.019 Y71.328 E0.0003
G1 X88.828 Y70.586 E0.0873
G1 X88.825 Y70.583 E0.0003
G1 X88.764 Y70.543 E0.0045
G1 X88.761 Y70.540 E0.0003
G1 X88.166 Y70.103 E0.0459
G1 X88.163 Y70.101 E0.0003
G1 X88.106 Y70.056 E0.0045
G1 X88.103 Y70.053 E0.0003
G1 X87.038 Y69.139 E0.0873
G1 X87.035 Y69.136 E0.0003
G1 X86.982 Y69.087 E0.0045
G1 X86.979 Y69.084 E0.0003
G1 X86.457 Y68.562 E0.0459
G1 X86.454 Y68.559 E0.0003
G1 X86.404 Y68.506 E0.0045
G1 X86.402 Y68.503 E0.0003
G1 X85.480 Y67.429 E0.0880
G1 X85.476 Y67.425 E0.0004
G1 X85.417 Y67.348 E0.0060
G1 X85.414 Y67.343 E0.0004
G1 X84.605 Y66.182 E0.0880
G1 X84.603 Y66.179 E0.0003
G1 X84.564 Y66.117 E0.0045
G1 X84.562 Y66.114 E0.0003
G1 X84.193 Y65.488 E0.0451
G1 X84.192 Y65.486 E0.0002
G1 X84.168 Y65.443 E0.0030
G1 X84.167 Y65.441 E0.0002
G1 X83.831 Y64.798 E0.0451
G1 X83.829 Y64.794 E0.0003
G1 X83.798 Y64.728 E0.0045
G1 X83.796 Y64.724 E0.0003
G1 X83.238 Y63.424 E0.0880
G1 X83.236 Y63.419 E0.0004
G1 X83.202 Y63.328 E0.0060
G1 X83.201 Y63.322 E0.0004
G1 X82.777 Y61.972 E0.0880
G1 X82.776 Y61.968 E0.0003
G1 X82.757 Y61.898 E0.0045
G1 X82.756 Y61.894 E0.0003
G1 X82.589 Y61.175 E0.0459
G1 X82.588 Y61.171 E0.0003
G1 X82.574 Y61.100 E0.0045
G1 X82.573 Y61.095 E0.0003
G1 X82.359 Y59.697 E0.0880
G1 X82.359 Y59.691 E0.0004
G1 X82.349 Y59.595 E0.0060
G1 X82.348 Y59.589 E0.0004
G1 X82.276 Y58.164 E0.0888
G1 X82.276 Y58.158 E0.0004
G1 X82.276 Y58.061 E0.0060
G1 X82.276 Y58.056 E0.0004
G1 X82.348 Y56.630 E0.0888
G1 X82.349 Y56.625 E0.0004
G1 X82.359 Y56.528 E0.0060
G1 X82.359 Y56.523 E0.0004
G1 X82.575 Y55.112 E0.0888
G1 X82.576 Y55.107 E0.0004
G1 X82.596 Y55.012 E0.0060
G1 X82.597 Y55.006 E0.0004
G1 X82.955 Y53.625 E0.0888
G1 X82.956 Y53.619 E0.0004
G1 X82.985 Y53.527 E0.0060
G1 X82.987 Y53.521 E0.0004
G1 X83.479 Y52.194 E0.0880
G1 X83.480 Y52.191 E0.0003
G1 X83.508 Y52.123 E0.0045
G1 X83.510 Y52.119 E0.0003
G1 X83.818 Y51.449 E0.0459
G1 X83.820 Y51.445 E0.0003
G1 X83.852 Y51.380 E0.0045
G1 X83.855 Y51.376 E0.0003
G1 X84.447 Y50.309 E0.0759
G1 X84.541 Y50.139 F1440
G1 X84.544 Y50.134 F1440
G1 E-0.8000 F1800
G1 X92.848 Y74.924 F4800
G1 E0.8000 F1800
G1 X92.940 Y74.895 E0.0060 F1440
G1 X92.946 Y74.894 E0.0004
G1 X94.327 Y74.536 E0.0888
G1 X94.333 Y74.535 E0.0004
G1 X94.428 Y74.515 E0.0060
G1 X94.433 Y74.514 E0.0004
G1 X95.844 Y74.298 E0.0888
G1 X95.850 Y74.297 E0.0004
G1 X95.946 Y74.288 E0.0060
G1 X95.952 Y74.287 E0.0004
G1 X97.353 Y74.216 E0.0873
G1 X97.355 Y74.216 E0.0002
G1 X97.404 Y74.215 E0.0030
G1 X97.407 Y74.215 E0.0002
G1 X161.721 Y74.215 E4.0008
G1 X161.724 Y74.215 E0.0002
G1 X161.768 Y74.216 E0.0027
G1 X161.771 Y74.216 E0.0002
G1 X162.228 Y74.237 E0.0285
G1 X162.236 Y74.238 E0.0005
G1 X162.367 Y74.253 E0.0082
G1 X162.375 Y74.254 E0.0005
G1 X163.253 Y74.418 E0.0555
G1 X163.263 Y74.421 E0.0006
G1 X163.433 Y74.469 E0.0110
G1 X163.443 Y74.472 E0.0006
G1 X164.296 Y74.803 E0.0569
G1 X164.306 Y74.807 E0.0006
G1 X164.464 Y74.886 E0.0110
G1 X164.473 Y74.891 E0.0006
G1 X165.251 Y75.373 E0.0569
G1 X165.259 Y75.378 E0.0006
G1 X165.401 Y75.485 E0.0110
G1 X165.409 Y75.492 E0.0006
G1 X166.085 Y76.108 E0.0569
G1 X166.092 Y76.115 E0.0006
G1 X166.211 Y76.246 E0.0110
G1 X166.218 Y76.254 E0.0006
G1 X166.769 Y76.984 E0.0569
G1 X166.775 Y76.993 E0.0006
G1 X166.868 Y77.143 E0.0110
G1 X166.873 Y77.152 E0.0006
G1 X167.281 Y77.971 E0.0569
G1 X167.285 Y77.981 E0.0006
G1 X167.349 Y78.146 E0.0110
G1 X167.352 Y78.156 E0.0006
G1 X167.603 Y79.036 E0.0569
G1 X167.605 Y79.046 E0.0006
G1 X167.638 Y79.220 E0.0110
G1 X167.639 Y79.230 E0.0006
G1 X167.720 Y80.097 E0.0542
G1 X167.720 Y80.102 E0.0003
G1 X167.724 Y80.190 E0.0055
G1 X167.724 Y80.196 E0.0003
G1 X167.724 Y98.544 E1.1414
G1 X167.724 Y98.549 E0.0003
G1 X167.720 Y98.638 E0.0055
G1 X167.720 Y98.643 E0.0003
G1 X167.639 Y99.510 E0.0542
G1 X167.638 Y99.520 E0.0006
G1 X167.605 Y99.694 E0.0110
G1 X167.603 Y99.704 E0.0006
G1 X167.359 Y100.563 E0.0555
G1 X167.356 Y100.570 E0.0005
G1 X167.311 Y100.695 E0.0082
G1 X167.308 Y100.702 E0.0005
G1 X167.114 Y101.141 E0.0299
G1 X167.112 Y101.146 E0.0003
G1 X167.073 Y101.225 E0.0055
G1 X167.070 Y101.230 E0.0003
G1 X166.837 Y101.649 E0.0299
G1 X166.833 Y101.656 E0.0005
G1 X166.760 Y101.767 E0.0082
G1 X166.756 Y101.773 E0.0005
G1 X166.218 Y102.486 E0.0555
G1 X166.211 Y102.494 E0.0006
G1 X166.092 Y102.624 E0.0110
G1 X166.085 Y102.632 E0.0006
G1 X165.425 Y103.233 E0.0555
G1 X165.419 Y103.238 E0.0005
G1 X165.315 Y103.321 E0.0082
G1 X165.309 Y103.325 E0.0005
G1 X164.895 Y103.609 E0.0312
G1 X164.888 Y103.613 E0.0005
G1 X164.774 Y103.680 E0.0082
G1 X164.767 Y103.684 E0.0005
G1 X163.968 Y104.082 E0.0555
G1 X163.958 Y104.086 E0.0006
G1 X163.793 Y104.150 E0.0110
G1 X163.783 Y104.153 E0.0006
G1 X162.903 Y104.404 E0.0569
G1 X162.893 Y104.406 E0.0006
G1 X162.719 Y104.439 E0.0110
G1 X162.709 Y104.440 E0.0006
G1 X161.842 Y104.520 E0.0542
G1 X161.837 Y104.521 E0.0003
G1 X161.748 Y104.525 E0.0055
G1 X161.743 Y104.525 E0.0003
G1 X97.407 Y104.525 E4.0022
G1 X97.404 Y104.525 E0.0002
