; G-Code generated by Simplify3D(R) Version 4.0.0
; Dec 7, 2017 at 8:42:48 PM
; Settings Summary
;   processName,Process1
;   applyToModels,customizable_christmas_tree
;   profileName,Prusa Research Original Prusa i3 MK2 (modified)
;   profileVersion,2017-07-23 22:27:18
;   baseProfile,
;   printMaterial,PLA
;   printQuality,Fast
;   printExtruders,
;   extruderName,Primary Extruder
;   extruderToolheadNumber,0
;   extruderDiameter,0.4
;   extruderAutoWidth,1
;   extruderWidth,0.48
;   extrusionMultiplier,1
;   extruderUseRetract,1
;   extruderRetractionDistance,1.5
;   extruderExtraRestartDistance,0
;   extruderRetractionZLift,0
;   extruderRetractionSpeed,1800
;   extruderUseCoasting,1
;   extruderCoastingDistance,0.2
;   extruderUseWipe,1
;   extruderWipeDistance,2
;   primaryExtruder,0
;   layerHeight,0.35
;   topSolidLayers,2
;   bottomSolidLayers,0
;   perimeterOutlines,2
;   printPerimetersInsideOut,1
;   startPointOption,2
;   startPointOriginX,0
;   startPointOriginY,0
;   sequentialIslands,0
;   spiralVaseMode,0
;   firstLayerHeightPercentage,100
;   firstLayerWidthPercentage,100
;   firstLayerUnderspeed,0.5
;   useRaft,0
;   raftExtruder,0
;   raftTopLayers,3
;   raftBaseLayers,2
;   raftOffset,3
;   raftSeparationDistance,0.14
;   raftTopInfill,100
;   aboveRaftSpeedMultiplier,0.3
;   useSkirt,1
;   skirtExtruder,0
;   skirtLayers,1
;   skirtOutlines,1
;   skirtOffset,4
;   usePrimePillar,0
;   primePillarExtruder,999
;   primePillarWidth,12
;   primePillarLocation,7
;   primePillarSpeedMultiplier,1
;   useOozeShield,0
;   oozeShieldExtruder,999
;   oozeShieldOffset,2
;   oozeShieldOutlines,1
;   oozeShieldSidewallShape,1
;   oozeShieldSidewallAngle,30
;   oozeShieldSpeedMultiplier,1
;   infillExtruder,0
;   internalInfillPattern,Rectilinear
;   externalInfillPattern,Rectilinear
;   infillPercentage,0
;   outlineOverlapPercentage,20
;   infillExtrusionWidthPercentage,100
;   minInfillLength,5
;   infillLayerInterval,1
;   internalInfillAngles,45,-45
;   overlapInternalInfillAngles,0
;   externalInfillAngles,45,-45
;   generateSupport,0
;   supportExtruder,0
;   supportInfillPercentage,25
;   supportExtraInflation,0
;   supportBaseLayers,0
;   denseSupportExtruder,0
;   denseSupportLayers,0
;   denseSupportInfillPercentage,70
;   supportLayerInterval,1
;   supportHorizontalPartOffset,0.3
;   supportUpperSeparationLayers,1
;   supportLowerSeparationLayers,1
;   supportType,0
;   supportGridSpacing,4
;   maxOverhangAngle,45
;   supportAngles,0
;   temperatureName,Primary Extruder,Heated Bed
;   temperatureNumber,0,0
;   temperatureSetpointCount,1,1
;   temperatureSetpointLayers,1,1
;   temperatureSetpointTemperatures,210,60
;   temperatureStabilizeAtStartup,1,1
;   temperatureHeatedBed,0,1
;   temperatureRelayBetweenLayers,0,0
;   temperatureRelayBetweenLoops,0,0
;   fanLayers,1,2
;   fanSpeeds,0,100
;   blipFanToFullPower,0
;   adjustSpeedForCooling,1
;   minSpeedLayerTime,15
;   minCoolingSpeedSlowdown,20
;   increaseFanForCooling,0
;   minFanLayerTime,45
;   maxCoolingFanSpeed,100
;   increaseFanForBridging,0
;   bridgingFanSpeed,100
;   use5D,1
;   relativeEdistances,0
;   allowEaxisZeroing,1
;   independentExtruderAxes,0
;   includeM10123,0
;   stickySupport,1
;   applyToolheadOffsets,0
;   gcodeXoffset,0
;   gcodeYoffset,0
;   gcodeZoffset,0
;   overrideMachineDefinition,1
;   machineTypeOverride,0
;   strokeXoverride,250
;   strokeYoverride,210
;   strokeZoverride,200
;   originOffsetXoverride,0
;   originOffsetYoverride,0
;   originOffsetZoverride,0
;   homeXdirOverride,-1
;   homeYdirOverride,-1
;   homeZdirOverride,-1
;   flipXoverride,1
;   flipYoverride,-1
;   flipZoverride,1
;   toolheadOffsets,0,0|0,0|0,0|0,0|0,0|0,0
;   overrideFirmwareConfiguration,1
;   firmwareTypeOverride,RepRap (Marlin/Repetier/Sprinter)
;   GPXconfigOverride,r2
;   baudRateOverride,250000
;   overridePrinterModels,1
;   printerModelsOverride
;   startingGcode,M115 U3.0.7 ; use the latest firmware version,G28 W ; home all axes without mesh bed leveling,G80 ; run mesh bed leveling routine,G1 Y-3.0 F1000.0 ; prepare to prime,G92 E0 ; reset extrusion distance,G1 X60.0 E9.0  F1000.0 ; priming,G1 X100.0 E12.5  F1000.0 ; priming
;   layerChangeGcode,
;   retractionGcode,
;   toolChangeGcode,
;   endingGcode,M106 S0 ; turn off cooling fan,M104 S0 ; turn off extruder,M140 S0 ; turn off bed,G1 X0 Y200 ; part removal,M84 ; disable motors
;   exportFileFormat,gcode
;   celebration,0
;   celebrationSong,Random Song
;   postProcessing,
;   defaultSpeed,2400
;   outlineUnderspeed,0.8
;   solidInfillUnderspeed,0.8
;   supportUnderspeed,0.8
;   rapidXYspeed,4800
;   rapidZspeed,1002
;   minBridgingArea,50
;   bridgingExtraInflation,0
;   bridgingExtrusionMultiplier,1
;   bridgingSpeedMultiplier,1
;   useFixedBridgingAngle,0
;   fixedBridgingAngle,0
;   applyBridgingToPerimeters,0
;   filamentDiameters,1.75|1.75|1.75|1.75|1.75|1.75
;   filamentPricesPerKg,46|46|46|46|46|46
;   filamentDensities,1.25|1.25|1.25|1.25|1.25|1.25
;   useMinPrintHeight,1
;   minPrintHeight,0
;   useMaxPrintHeight,1
;   maxPrintHeight,200
;   useDiaphragm,0
;   diaphragmLayerInterval,20
;   robustSlicing,1
;   mergeAllIntoSolid,0
;   onlyRetractWhenCrossingOutline,1
;   retractBetweenLayers,1
;   useRetractionMinTravel,0
;   retractionMinTravel,3
;   retractWhileWiping,1
;   onlyWipeOutlines,1
;   avoidCrossingOutline,0
;   maxMovementDetourFactor,3
;   toolChangeRetractionDistance,12
;   toolChangeExtraRestartDistance,-0.5
;   toolChangeRetractionSpeed,600
;   externalThinWallType,0
;   internalThinWallType,2
;   thinWallAllowedOverlapPercentage,25
;   singleExtrusionMinLength,1
;   singleExtrusionMinPrintingWidthPercentage,50
;   singleExtrusionMaxPrintingWidthPercentage,200
;   singleExtrusionEndpointExtension,0.2
;   horizontalSizeCompensation,0
G90
M82
M106 S0
M140 S60
M190 S60
M104 S210 T0
M109 S210 T0
M115 U3.0.7 ; use the latest firmware version
G28 W ; home all axes without mesh bed leveling
G80 ; run mesh bed leveling routine
G1 Y-3.0 F1000.0 ; prepare to prime
G92 E0 ; reset extrusion distance
G1 X60.0 E9.0  F1000.0 ; priming
G1 X100.0 E12.5  F1000.0 ; priming
G92 E0
G1 E-1.5000 F1800
G1 Z0.350 F1002
; process Process1
; layer 1, Z = 0.350
T0
; tool H0.350 W0.480
; skirt
G1 X99.795 Y85.881 F4800
G1 E0.0000 F540
G92 E0
G1 X99.821 Y85.854 E0.0026 F1200
G1 X114.572 Y75.137 E1.2761
G1 X114.606 Y75.120 E1.2787
G1 X115.846 Y74.717 E1.3699
G1 X115.884 Y74.711 E1.3725
G1 X134.116 Y74.711 E2.6460
G1 X134.154 Y74.717 E2.6486
G1 X135.395 Y75.120 E2.7398
G1 X135.428 Y75.137 E2.7424
G1 X150.179 Y85.854 E4.0159
G1 X150.205 Y85.881 E4.0185
G1 X150.972 Y86.937 E4.1096
G1 X150.989 Y86.970 E4.1123
G1 X156.623 Y104.310 E5.3858
G1 X156.629 Y104.348 E5.3884
G1 X156.629 Y105.652 E5.4795
G1 X156.623 Y105.690 E5.4822
G1 X150.989 Y123.030 E6.7556
G1 X150.972 Y123.063 E6.7583
G1 X150.205 Y124.119 E6.8494
G1 X150.179 Y124.146 E6.8521
G1 X135.428 Y134.863 E8.1255
G1 X135.394 Y134.880 E8.1282
G1 X134.154 Y135.283 E8.2193
G1 X134.116 Y135.289 E8.2219
G1 X115.884 Y135.289 E9.4954
G1 X115.846 Y135.283 E9.4980
G1 X114.606 Y134.880 E9.5892
G1 X114.572 Y134.863 E9.5918
G1 X99.821 Y124.146 E10.8653
G1 X99.795 Y124.119 E10.8679
G1 X99.028 Y123.063 E10.9591
G1 X99.011 Y123.030 E10.9617
G1 X93.377 Y105.690 E12.2352
G1 X93.371 Y105.652 E12.2378
G1 X93.371 Y104.348 E12.3289
G1 X93.377 Y104.310 E12.3316
G1 X99.011 Y86.970 E13.6051
G1 X99.028 Y86.937 E13.6077
G1 X99.677 Y86.043 E13.6849
G1 X99.795 Y85.881 F1200
G92 E0
G1 E-1.5000 F1800
; inner perimeter
G1 X103.454 Y89.346 F4800
G1 E0.0000 F1800
G92 E0
G1 X116.770 Y79.671 E1.1496 F1080
G1 X133.230 Y79.671 E2.2993
G1 X146.546 Y89.346 E3.4489
G1 X151.632 Y105.000 E4.5986
G1 X146.546 Y120.654 E5.7482
G1 X133.230 Y130.329 E6.8979
G1 X116.770 Y130.329 E8.0475
G1 X103.454 Y120.654 E9.1972
G1 X98.368 Y105.000 E10.3468
G1 X103.392 Y89.536 E11.4825
G1 X103.454 Y89.346 F1080
; outer perimeter
G1 X103.046 Y89.049 F4800
G92 E0
G1 X116.614 Y79.191 E1.1714 F960
G1 X133.386 Y79.191 E2.3429
G1 X146.954 Y89.049 E3.5143
G1 X152.137 Y105.000 E4.6857
G1 X146.954 Y120.951 E5.8572
G1 X133.386 Y130.809 E7.0286
G1 X116.614 Y130.809 E8.2000
G1 X103.046 Y120.951 E9.3715
G1 X97.863 Y105.000 E10.5429
G1 X102.984 Y89.239 E11.7004
G1 X103.046 Y89.049 F960
G92 E0
G1 X104.664 Y87.874 E-1.5000 F2400
; layer 2, Z = 0.700
M106 S255
; inner perimeter
G1 X103.265 Y89.209 F4800
G1 Z0.700 F1002
G1 E0.0000 F1800
G92 E0
G1 X116.698 Y79.449 E1.1597 F1425
G1 X133.302 Y79.449 E2.3194
G1 X146.735 Y89.209 E3.4792
G1 X151.866 Y105.000 E4.6389
G1 X146.735 Y120.791 E5.7986
G1 X133.302 Y130.551 E6.9583
G1 X116.698 Y130.551 E8.1180
G1 X103.265 Y120.791 E9.2778
G1 X98.134 Y105.000 E10.4375
G1 X103.203 Y89.399 E11.5832
G1 X103.265 Y89.209 F1425
; outer perimeter
G1 X102.857 Y88.912 F4800
G92 E0
G1 X116.542 Y78.969 E1.1815 F1267
G1 X133.458 Y78.969 E2.3630
G1 X147.143 Y88.912 E3.5445
G1 X152.370 Y105.000 E4.7260
G1 X147.143 Y121.088 E5.9075
G1 X133.458 Y131.031 E7.0890
G1 X116.542 Y131.031 E8.2705
G1 X102.857 Y121.088 E9.4521
G1 X97.630 Y105.000 E10.6336
G1 X102.795 Y89.102 E11.8011
G1 X102.857 Y88.912 F1267
G92 E0
G1 X104.475 Y87.737 E-1.5000 F2400
; layer 3, Z = 1.050
; inner perimeter
G1 X103.076 Y89.072 F4800
G1 Z1.050 F1002
G1 E0.0000 F1800
G92 E0
G1 X116.626 Y79.227 E1.1698 F1438
G1 X133.374 Y79.227 E2.3396
G1 X146.924 Y89.072 E3.5094
G1 X152.099 Y105.000 E4.6792
G1 X146.924 Y120.928 E5.8490
G1 X133.374 Y130.773 E7.0188
G1 X116.626 Y130.773 E8.1885
G1 X103.076 Y120.928 E9.3583
G1 X97.901 Y105.000 E10.5281
G1 X103.015 Y89.262 E11.6840
G1 X103.076 Y89.072 F1438
; outer perimeter
G1 X102.668 Y88.775 F4800
G92 E0
G1 X116.470 Y78.747 E1.1916 F1278
G1 X133.530 Y78.747 E2.3832
G1 X147.332 Y88.775 E3.5747
G1 X152.604 Y105.000 E4.7663
G1 X147.332 Y121.225 E5.9579
G1 X133.530 Y131.253 E7.1495
G1 X116.470 Y131.253 E8.3411
G1 X102.668 Y121.225 E9.5326
G1 X97.396 Y105.000 E10.7242
G1 X102.606 Y88.965 E11.9018
G1 X102.668 Y88.775 F1278
G92 E0
G1 X104.286 Y87.599 E-1.5000 F2400
; layer 4, Z = 1.400
; inner perimeter
G1 X102.888 Y88.934 F4800
G1 Z1.400 F1002
G1 E0.0000 F1800
G92 E0
G1 X116.554 Y79.005 E1.1799 F1450
G1 X133.446 Y79.005 E2.3597
G1 X147.112 Y88.934 E3.5396
G1 X152.332 Y105.000 E4.7195
G1 X147.112 Y121.066 E5.8993
G1 X133.446 Y130.995 E7.0792
G1 X116.554 Y130.995 E8.2591
G1 X102.888 Y121.066 E9.4389
G1 X97.668 Y105.000 E10.6188
G1 X102.826 Y89.125 E11.7847
G1 X102.888 Y88.934 F1450
; outer perimeter
G1 X102.479 Y88.638 F4800
G92 E0
G1 X116.398 Y78.525 E1.2017 F1289
G1 X133.602 Y78.525 E2.4033
G1 X147.521 Y88.638 E3.6050
G1 X152.837 Y105.000 E4.8066
G1 X147.521 Y121.362 E6.0083
G1 X133.602 Y131.475 E7.2099
G1 X116.398 Y131.475 E8.4116
G1 X102.479 Y121.362 E9.6132
G1 X97.163 Y105.000 E10.8149
G1 X102.418 Y88.828 E12.0025
G1 X102.479 Y88.638 F1289
G92 E0
G1 X104.097 Y87.462 E-1.5000 F2400
; layer 5, Z = 1.750
; inner perimeter
G1 X102.699 Y88.797 F4800
G1 Z1.750 F1002
G1 E0.0000 F1800
G92 E0
G1 X116.482 Y78.784 E1.1899 F1462
G1 X133.518 Y78.784 E2.3799
G1 X147.301 Y88.797 E3.5698
G1 X152.566 Y105.000 E4.7598
G1 X147.301 Y121.203 E5.9497
G1 X133.518 Y131.216 E7.1396
G1 X116.482 Y131.216 E8.3296
G1 X102.699 Y121.203 E9.5195
G1 X97.434 Y105.000 E10.7094
G1 X102.637 Y88.988 E11.8854
G1 X102.699 Y88.797 F1462
; outer perimeter
G1 X102.291 Y88.501 F4800
G92 E0
G1 X116.326 Y78.303 E1.2117 F1300
G1 X133.674 Y78.303 E2.4234
G1 X147.709 Y88.501 E3.6352
G1 X153.070 Y105.000 E4.8469
G1 X147.709 Y121.499 E6.0586
G1 X133.674 Y131.696 E7.2703
G1 X116.326 Y131.696 E8.4821
G1 X102.291 Y121.499 E9.6938
G1 X96.930 Y105.000 E10.9055
G1 X102.229 Y88.691 E12.1033
G1 X102.291 Y88.501 F1300
G92 E0
G1 X103.909 Y87.325 E-1.5000 F2400
; layer 6, Z = 2.100
; inner perimeter
G1 X102.510 Y88.660 F4800
G1 Z2.100 F1002
G1 E0.0000 F1800
G92 E0
G1 X116.410 Y78.562 E1.2000 F1474
G1 X133.590 Y78.562 E2.4000
G1 X147.490 Y88.660 E3.6000
G1 X152.799 Y105.000 E4.8000
G1 X147.490 Y121.340 E6.0001
G1 X133.590 Y131.438 E7.2001
G1 X116.410 Y131.438 E8.4001
G1 X102.510 Y121.340 E9.6001
G1 X97.201 Y105.000 E10.8001
G1 X102.448 Y88.850 E11.9861
G1 X102.510 Y88.660 F1474
; outer perimeter
G1 X102.102 Y88.363 F4800
G92 E0
G1 X116.254 Y78.082 E1.2218 F1311
G1 X133.746 Y78.082 E2.4436
G1 X147.898 Y88.363 E3.6654
G1 X153.304 Y105.000 E4.8872
G1 X147.898 Y121.637 E6.1090
G1 X133.746 Y131.918 E7.3308
G1 X116.254 Y131.918 E8.5526
G1 X102.102 Y121.637 E9.7744
G1 X96.696 Y105.000 E10.9962
G1 X102.040 Y88.554 E12.2040
G1 X102.102 Y88.363 F1311
G92 E0
G1 X103.720 Y87.188 E-1.5000 F2400
; layer 7, Z = 2.450
; inner perimeter
G1 X102.321 Y88.523 F4800
G1 Z2.450 F1002
G1 E0.0000 F1800
G92 E0
G1 X116.338 Y78.340 E1.2101 F1487
G1 X133.662 Y78.340 E2.4202
G1 X147.679 Y88.523 E3.6302
G1 X153.032 Y105.000 E4.8403
G1 X147.679 Y121.477 E6.0504
G1 X133.662 Y131.660 E7.2605
G1 X116.338 Y131.660 E8.4706
G1 X102.321 Y121.477 E9.6807
G1 X96.968 Y105.000 E10.8907
G1 X102.260 Y88.713 E12.0869
G1 X102.321 Y88.523 F1487
; outer perimeter
G1 X101.913 Y88.226 F4800
G92 E0
G1 X116.182 Y77.860 E1.2319 F1321
G1 X133.818 Y77.860 E2.4637
G1 X148.087 Y88.226 E3.6956
G1 X153.537 Y105.000 E4.9275
G1 X148.087 Y121.774 E6.1593
G1 X133.818 Y132.140 E7.3912
G1 X116.182 Y132.140 E8.6231
G1 X101.913 Y121.774 E9.8550
G1 X96.463 Y105.000 E11.0868
G1 X101.851 Y88.417 E12.3047
G1 X101.913 Y88.226 F1321
G92 E0
G1 X103.531 Y87.051 E-1.5000 F2400
; layer 8, Z = 2.800
; inner perimeter
G1 X102.133 Y88.386 F4800
G1 Z2.800 F1002
G1 E0.0000 F1800
G92 E0
G1 X116.265 Y78.118 E1.2202 F1499
G1 X133.735 Y78.118 E2.4403
G1 X147.867 Y88.386 E3.6605
G1 X153.266 Y105.000 E4.8806
G1 X147.867 Y121.614 E6.1008
G1 X133.735 Y131.882 E7.3209
G1 X116.265 Y131.882 E8.5411
G1 X102.133 Y121.614 E9.7612
G1 X96.734 Y105.000 E10.9814
G1 X102.071 Y88.576 E12.1876
G1 X102.133 Y88.386 F1499
; outer perimeter
G1 X101.724 Y88.089 F4800
G92 E0
G1 X116.109 Y77.638 E1.2419 F1332
G1 X133.891 Y77.638 E2.4839
G1 X148.276 Y88.089 E3.7258
G1 X153.770 Y105.000 E4.9678
G1 X148.276 Y121.911 E6.2097
G1 X133.891 Y132.362 E7.4516
G1 X116.109 Y132.362 E8.6936
G1 X101.724 Y121.911 E9.9355
G1 X96.230 Y105.000 E11.1775
G1 X101.662 Y88.279 E12.4054
G1 X101.724 Y88.089 F1332
G92 E0
G1 X103.342 Y86.914 E-1.5000 F2400
; layer 9, Z = 3.150
; inner perimeter
G1 X101.944 Y88.249 F4800
G1 Z3.150 F1002
G1 E0.0000 F1800
G92 E0
G1 X116.193 Y77.896 E1.2302 F1511
G1 X133.807 Y77.896 E2.4605
G1 X148.056 Y88.249 E3.6907
G1 X153.499 Y105.000 E4.9209
G1 X148.056 Y121.751 E6.1511
G1 X133.807 Y132.104 E7.3814
G1 X116.193 Y132.104 E8.6116
G1 X101.944 Y121.751 E9.8418
G1 X96.501 Y105.000 E11.0720
G1 X101.882 Y88.439 E12.2883
G1 X101.944 Y88.249 F1511
; outer perimeter
G1 X101.535 Y87.952 F4800
G92 E0
G1 X116.037 Y77.416 E1.2520 F1343
G1 X133.963 Y77.416 E2.5040
G1 X148.465 Y87.952 E3.7560
G1 X154.004 Y105.000 E5.0081
G1 X148.465 Y122.048 E6.2601
G1 X133.963 Y132.584 E7.5121
G1 X116.037 Y132.584 E8.7641
G1 X101.535 Y122.048 E10.0161
G1 X95.996 Y105.000 E11.2681
G1 X101.474 Y88.142 E12.5062
G1 X101.535 Y87.952 F1343
G92 E0
G1 X103.154 Y86.776 E-1.5000 F2400
; layer 10, Z = 3.500
; inner perimeter
G1 X101.755 Y88.112 F4800
G1 Z3.500 F1002
G1 E0.0000 F1800
G92 E0
G1 X116.121 Y77.674 E1.2403 F1523
G1 X133.879 Y77.674 E2.4806
G1 X148.245 Y88.112 E3.7209
G1 X153.732 Y105.000 E4.9612
G1 X148.245 Y121.888 E6.2015
G1 X133.879 Y132.326 E7.4418
G1 X116.121 Y132.326 E8.6821
G1 X101.755 Y121.888 E9.9224
G1 X96.268 Y105.000 E11.1627
G1 X101.693 Y88.302 E12.3890
G1 X101.755 Y88.112 F1523
; outer perimeter
G1 X101.347 Y87.815 F4800
G92 E0
G1 X115.965 Y77.194 E1.2621 F1354
G1 X134.035 Y77.194 E2.5242
G1 X148.653 Y87.815 E3.7863
G1 X154.237 Y105.000 E5.0483
G1 X148.653 Y122.185 E6.3104
G1 X134.035 Y132.806 E7.5725
G1 X115.965 Y132.806 E8.8346
G1 X101.347 Y122.185 E10.0967
G1 X95.763 Y105.000 E11.3588
G1 X101.285 Y88.005 E12.6069
G1 X101.347 Y87.815 F1354
G92 E0
G1 X102.965 Y86.639 E-1.5000 F2400
; layer 11, Z = 3.850
; inner perimeter
G1 X101.566 Y87.974 F4800
G1 Z3.850 F1002
G1 E0.0000 F1800
G92 E0
G1 X116.049 Y77.452 E1.2504 F1536
