; G-Code generated by Simplify3D(R) Version 4.0.0
; Dec 7, 2017 at 8:41:56 PM
; Settings Summary
;   processName,Process1
;   applyToModels,customizable_christmas_tree
;   profileName,Prusa Research Original Prusa i3 MK2 (modified)
;   profileVersion,2017-07-23 22:27:18
;   baseProfile,
;   printMaterial,PLA
;   printQuality,Fast
;   printExtruders,
;   extruderName,Primary Extruder
;   extruderToolheadNumber,0
;   extruderDiameter,0.4
;   extruderAutoWidth,1
;   extruderWidth,0.48
;   extrusionMultiplier,1
;   extruderUseRetract,1
;   extruderRetractionDistance,1.5
;   extruderExtraRestartDistance,0
;   extruderRetractionZLift,0
;   extruderRetractionSpeed,1800
;   extruderUseCoasting,1
;   extruderCoastingDistance,0.2
;   extruderUseWipe,1
;   extruderWipeDistance,2
;   primaryExtruder,0
;   layerHeight,0.35
;   topSolidLayers,2
;   bottomSolidLayers,0
;   perimeterOutlines,2
;   printPerimetersInsideOut,1
;   startPointOption,2
;   startPointOriginX,0
;   startPointOriginY,0
;   sequentialIslands,0
;   spiralVaseMode,0
;   firstLayerHeightPercentage,100
;   firstLayerWidthPercentage,100
;   firstLayerUnderspeed,0.5
;   useRaft,0
;   raftExtruder,0
;   raftTopLayers,3
;   raftBaseLayers,2
;   raftOffset,3
;   raftSeparationDistance,0.14
;   raftTopInfill,100
;   aboveRaftSpeedMultiplier,0.3
;   useSkirt,1
;   skirtExtruder,0
;   skirtLayers,1
;   skirtOutlines,1
;   skirtOffset,4
;   usePrimePillar,0
;   primePillarExtruder,999
;   primePillarWidth,12
;   primePillarLocation,7
;   primePillarSpeedMultiplier,1
;   useOozeShield,0
;   oozeShieldExtruder,999
;   oozeShieldOffset,2
;   oozeShieldOutlines,1
;   oozeShieldSidewallShape,1
;   oozeShieldSidewallAngle,30
;   oozeShieldSpeedMultiplier,1
;   infillExtruder,0
;   internalInfillPattern,Rectilinear
;   externalInfillPattern,Rectilinear
;   infillPercentage,0
;   outlineOverlapPercentage,20
;   infillExtrusionWidthPercentage,100
;   minInfillLength,5
;   infillLayerInterval,1
;   internalInfillAngles,45,-45
;   overlapInternalInfillAngles,0
;   externalInfillAngles,45,-45
;   generateSupport,0
;   supportExtruder,0
;   supportInfillPercentage,25
;   supportExtraInflation,0
;   supportBaseLayers,0
;   denseSupportExtruder,0
;   denseSupportLayers,0
;   denseSupportInfillPercentage,70
;   supportLayerInterval,1
;   supportHorizontalPartOffset,0.3
;   supportUpperSeparationLayers,1
;   supportLowerSeparationLayers,1
;   supportType,0
;   supportGridSpacing,4
;   maxOverhangAngle,45
;   supportAngles,0
;   temperatureName,Primary Extruder,Heated Bed
;   temperatureNumber,0,0
;   temperatureSetpointCount,1,1
;   temperatureSetpointLayers,1,1
;   temperatureSetpointTemperatures,210,60
;   temperatureStabilizeAtStartup,1,1
;   temperatureHeatedBed,0,1
;   temperatureRelayBetweenLayers,0,0
;   temperatureRelayBetweenLoops,0,0
;   fanLayers,1,2
;   fanSpeeds,0,100
;   blipFanToFullPower,0
;   adjustSpeedForCooling,1
;   minSpeedLayerTime,15
;   minCoolingSpeedSlowdown,20
;   increaseFanForCooling,0
;   minFanLayerTime,45
;   maxCoolingFanSpeed,100
;   increaseFanForBridging,0
;   bridgingFanSpeed,100
;   use5D,1
;   relativeEdistances,0
;   allowEaxisZeroing,1
;   independentExtruderAxes,0
;   includeM10123,0
;   stickySupport,1
;   applyToolheadOffsets,0
;   gcodeXoffset,0
;   gcodeYoffset,0
;   gcodeZoffset,0
;   overrideMachineDefinition,1
;   machineTypeOverride,0
;   strokeXoverride,250
;   strokeYoverride,210
;   strokeZoverride,200
;   originOffsetXoverride,0
;   originOffsetYoverride,0
;   originOffsetZoverride,0
;   homeXdirOverride,-1
;   homeYdirOverride,-1
;   homeZdirOverride,-1
;   flipXoverride,1
;   flipYoverride,-1
;   flipZoverride,1
;   toolheadOffsets,0,0|0,0|0,0|0,0|0,0|0,0
;   overrideFirmwareConfiguration,1
;   firmwareTypeOverride,RepRap (Marlin/Repetier/Sprinter)
;   GPXconfigOverride,r2
;   baudRateOverride,250000
;   overridePrinterModels,1
;   printerModelsOverride
;   startingGcode,M115 U3.0.7 ; use the latest firmware version,G28 W ; home all axes without mesh bed leveling,G80 ; run mesh bed leveling routine,G1 Y-3.0 F1000.0 ; prepare to prime,G92 E0 ; reset extrusion distance,G1 X60.0 E9.0  F1000.0 ; priming,G1 X100.0 E12.5  F1000.0 ; priming
;   layerChangeGcode,
;   retractionGcode,
;   toolChangeGcode,
;   endingGcode,M106 S0 ; turn off cooling fan,M104 S0 ; turn off extruder,M140 S0 ; turn off bed,G1 X0 Y200 ; part removal,M84 ; disable motors
;   exportFileFormat,gcode
;   celebration,0
;   celebrationSong,Random Song
;   postProcessing,
;   defaultSpeed,2400
;   outlineUnderspeed,0.8
;   solidInfillUnderspeed,0.8
;   supportUnderspeed,0.8
;   rapidXYspeed,4800
;   rapidZspeed,1002
;   minBridgingArea,50
;   bridgingExtraInflation,0
;   bridgingExtrusionMultiplier,1
;   bridgingSpeedMultiplier,1
;   useFixedBridgingAngle,0
;   fixedBridgingAngle,0
;   applyBridgingToPerimeters,0
;   filamentDiameters,1.75|1.75|1.75|1.75|1.75|1.75
;   filamentPricesPerKg,46|46|46|46|46|46
;   filamentDensities,1.25|1.25|1.25|1.25|1.25|1.25
;   useMinPrintHeight,1
;   minPrintHeight,0
;   useMaxPrintHeight,1
;   maxPrintHeight,200
;   useDiaphragm,0
;   diaphragmLayerInterval,20
;   robustSlicing,1
;   mergeAllIntoSolid,0
;   onlyRetractWhenCrossingOutline,1
;   retractBetweenLayers,1
;   useRetractionMinTravel,0
;   retractionMinTravel,3
;   retractWhileWiping,1
;   onlyWipeOutlines,1
;   avoidCrossingOutline,0
;   maxMovementDetourFactor,3
;   toolChangeRetractionDistance,12
;   toolChangeExtraRestartDistance,-0.5
;   toolChangeRetractionSpeed,600
;   externalThinWallType,0
;   internalThinWallType,2
;   thinWallAllowedOverlapPercentage,25
;   singleExtrusionMinLength,1
;   singleExtrusionMinPrintingWidthPercentage,50
;   singleExtrusionMaxPrintingWidthPercentage,200
;   singleExtrusionEndpointExtension,0.2
;   horizontalSizeCompensation,0
G90
M82
M106 S0
M140 S60
M190 S60
M104 S210 T0
M109 S210 T0
M115 U3.0.7 ; use the latest firmware version
G28 W ; home all axes without mesh bed leveling
G80 ; run mesh bed leveling routine
G1 Y-3.0 F1000.0 ; prepare to prime
G92 E0 ; reset extrusion distance
G1 X60.0 E9.0  F1000.0 ; priming
G1 X100.0 E12.5  F1000.0 ; priming
G92 E0
G1 E-1.5000 F1800
G1 Z0.350 F1002
; process Process1
; layer 1, Z = 0.350
T0
; tool H0.350 W0.480
; skirt
G1 X85.085 Y75.194 F4800
G1 E0.0000 F540
G92 E0
G1 X85.112 Y75.167 E0.0026 F1200
G1 X108.953 Y57.846 E2.0610
G1 X108.987 Y57.828 E2.0636
G1 X110.228 Y57.425 E2.1547
G1 X110.265 Y57.419 E2.1574
G1 X139.735 Y57.419 E4.2157
G1 X139.772 Y57.425 E4.2183
G1 X141.013 Y57.828 E4.3095
G1 X141.047 Y57.846 E4.3121
G1 X164.888 Y75.167 E6.3705
G1 X164.915 Y75.194 E6.3731
G1 X165.682 Y76.250 E6.4642
G1 X165.699 Y76.283 E6.4669
G1 X174.805 Y104.310 E8.5252
G1 X174.811 Y104.348 E8.5278
G1 X174.811 Y105.652 E8.6190
G1 X174.805 Y105.690 E8.6216
G1 X165.699 Y133.717 E10.6799
G1 X165.682 Y133.750 E10.6826
G1 X164.915 Y134.806 E10.7737
G1 X164.888 Y134.833 E10.7764
G1 X141.047 Y152.154 E12.8347
G1 X141.013 Y152.172 E12.8373
G1 X139.772 Y152.575 E12.9285
G1 X139.735 Y152.581 E12.9311
G1 X110.265 Y152.581 E14.9894
G1 X110.228 Y152.575 E14.9921
G1 X108.987 Y152.172 E15.0832
G1 X108.953 Y152.154 E15.0858
G1 X85.112 Y134.833 E17.1442
G1 X85.085 Y134.806 E17.1468
G1 X84.318 Y133.750 E17.2379
G1 X84.301 Y133.717 E17.2406
G1 X75.195 Y105.690 E19.2989
G1 X75.189 Y105.652 E19.3016
G1 X75.189 Y104.348 E19.3927
G1 X75.195 Y104.310 E19.3953
G1 X84.301 Y76.283 E21.4537
G1 X84.318 Y76.250 E21.4563
G1 X84.968 Y75.356 E21.5335
G1 X85.085 Y75.194 F1200
G92 E0
G1 E-1.5000 F1800
; inner perimeter
G1 X88.745 Y78.659 F4800
G1 E0.0000 F1800
G92 E0
G1 X111.152 Y62.379 E1.9345 F1080
G1 X138.848 Y62.379 E3.8690
G1 X161.255 Y78.659 E5.8035
G1 X169.814 Y105.000 E7.7380
G1 X161.255 Y131.341 E9.6725
G1 X138.848 Y147.621 E11.6071
G1 X111.152 Y147.621 E13.5416
G1 X88.745 Y131.341 E15.4761
G1 X80.186 Y105.000 E17.4106
G1 X88.683 Y78.849 E19.3311
G1 X88.745 Y78.659 F1080
; outer perimeter
G1 X88.336 Y78.362 F4800
G92 E0
G1 X110.996 Y61.899 E1.9563 F960
G1 X139.004 Y61.899 E3.9126
G1 X161.664 Y78.362 E5.8689
G1 X170.319 Y105.000 E7.8252
G1 X161.664 Y131.638 E9.7815
G1 X139.004 Y148.101 E11.7378
G1 X110.996 Y148.101 E13.6941
G1 X88.336 Y131.638 E15.6504
G1 X79.681 Y105.000 E17.6067
G1 X88.274 Y78.552 E19.5490
G1 X88.336 Y78.362 F960
G92 E0
G1 X89.954 Y77.187 E-1.5000 F2400
; layer 2, Z = 0.700
M106 S255
; inner perimeter
G1 X88.556 Y78.522 F4800
G1 Z0.700 F1002
G1 E0.0000 F1800
G92 E0
G1 X111.080 Y62.157 E1.9446 F2160
G1 X138.920 Y62.157 E3.8892
G1 X161.444 Y78.522 E5.8337
G1 X170.047 Y105.000 E7.7783
G1 X161.444 Y131.478 E9.7229
G1 X138.920 Y147.843 E11.6675
G1 X111.080 Y147.843 E13.6121
G1 X88.556 Y131.478 E15.5566
G1 X79.953 Y105.000 E17.5012
G1 X88.494 Y78.712 E19.4318
G1 X88.556 Y78.522 F2160
; outer perimeter
G1 X88.147 Y78.225 F4800
G92 E0
G1 X110.924 Y61.677 E1.9664 F1920
G1 X139.076 Y61.677 E3.9327
G1 X161.852 Y78.225 E5.8991
G1 X170.552 Y105.000 E7.8655
G1 X161.852 Y131.775 E9.8318
G1 X139.076 Y148.323 E11.7982
G1 X110.924 Y148.323 E13.7646
G1 X88.147 Y131.775 E15.7309
G1 X79.448 Y105.000 E17.6973
G1 X88.086 Y78.415 E19.6497
G1 X88.147 Y78.225 F1920
G92 E0
G1 X89.766 Y77.050 E-1.5000 F2400
; layer 3, Z = 1.050
; inner perimeter
G1 X88.367 Y78.385 F4800
G1 Z1.050 F1002
G1 E0.0000 F1800
G92 E0
G1 X111.007 Y61.935 E1.9547 F2160
G1 X138.993 Y61.935 E3.9093
G1 X161.633 Y78.385 E5.8640
G1 X170.281 Y105.000 E7.8186
G1 X161.633 Y131.615 E9.7733
G1 X138.993 Y148.065 E11.7279
G1 X111.007 Y148.065 E13.6826
G1 X88.367 Y131.615 E15.6372
G1 X79.719 Y105.000 E17.5919
G1 X88.305 Y78.575 E19.5326
G1 X88.367 Y78.385 F2160
; outer perimeter
G1 X87.959 Y78.088 F4800
G92 E0
G1 X110.852 Y61.455 E1.9764 F1920
G1 X139.148 Y61.455 E3.9529
G1 X162.041 Y78.088 E5.9293
G1 X170.785 Y105.000 E7.9058
G1 X162.041 Y131.912 E9.8822
G1 X139.148 Y148.545 E11.8586
G1 X110.852 Y148.545 E13.8351
G1 X87.959 Y131.912 E15.8115
G1 X79.215 Y105.000 E17.7880
G1 X87.897 Y78.278 E19.7504
G1 X87.959 Y78.088 F1920
G92 E0
G1 X89.577 Y76.912 E-1.5000 F2400
; layer 4, Z = 1.400
; inner perimeter
G1 X88.178 Y78.247 F4800
G1 Z1.400 F1002
G1 E0.0000 F1800
G92 E0
G1 X110.935 Y61.714 E1.9647 F2160
G1 X139.065 Y61.714 E3.9295
G1 X161.822 Y78.247 E5.8942
G1 X170.514 Y105.000 E7.8589
G1 X161.822 Y131.753 E9.8236
G1 X139.065 Y148.286 E11.7884
G1 X110.935 Y148.286 E13.7531
G1 X88.178 Y131.753 E15.7178
G1 X79.486 Y105.000 E17.6825
G1 X88.116 Y78.438 E19.6333
G1 X88.178 Y78.247 F2160
; outer perimeter
G1 X87.770 Y77.951 F4800
G92 E0
G1 X110.779 Y61.233 E1.9865 F1920
G1 X139.221 Y61.233 E3.9730
G1 X162.230 Y77.951 E5.9595
G1 X171.019 Y105.000 E7.9461
G1 X162.230 Y132.049 E9.9326
G1 X139.221 Y148.766 E11.9191
G1 X110.779 Y148.766 E13.9056
G1 X87.770 Y132.049 E15.8921
G1 X78.981 Y105.000 E17.8786
G1 X87.708 Y78.141 E19.8512
G1 X87.770 Y77.951 F1920
G92 E0
G1 X89.388 Y76.775 E-1.5000 F2400
; layer 5, Z = 1.750
; inner perimeter
G1 X87.989 Y78.110 F4800
G1 Z1.750 F1002
G1 E0.0000 F1800
G92 E0
G1 X110.863 Y61.492 E1.9748 F2160
G1 X139.137 Y61.492 E3.9496
G1 X162.011 Y78.110 E5.9244
G1 X170.747 Y105.000 E7.8992
G1 X162.011 Y131.890 E9.8740
G1 X139.137 Y148.508 E11.8488
G1 X110.863 Y148.508 E13.8236
G1 X87.989 Y131.890 E15.7984
G1 X79.253 Y105.000 E17.7732
G1 X87.928 Y78.301 E19.7340
G1 X87.989 Y78.110 F2160
; outer perimeter
G1 X87.581 Y77.814 F4800
G92 E0
G1 X110.707 Y61.012 E1.9966 F1920
G1 X139.293 Y61.012 E3.9932
G1 X162.419 Y77.814 E5.9898
G1 X171.252 Y105.000 E7.9863
G1 X162.419 Y132.186 E9.9829
G1 X139.293 Y148.988 E11.9795
G1 X110.707 Y148.988 E13.9761
G1 X87.581 Y132.186 E15.9727
G1 X78.748 Y105.000 E17.9693
G1 X87.519 Y78.004 E19.9519
G1 X87.581 Y77.814 F1920
G92 E0
G1 X89.199 Y76.638 E-1.5000 F2400
; layer 6, Z = 2.100
; inner perimeter
G1 X87.801 Y77.973 F4800
G1 Z2.100 F1002
G1 E0.0000 F1800
G92 E0
G1 X110.791 Y61.270 E1.9849 F2160
G1 X139.209 Y61.270 E3.9697
G1 X162.199 Y77.973 E5.9546
G1 X170.981 Y105.000 E7.9395
G1 X162.199 Y132.027 E9.9244
G1 X139.209 Y148.730 E11.9092
G1 X110.791 Y148.730 E13.8941
G1 X87.801 Y132.027 E15.8790
G1 X79.019 Y105.000 E17.8638
G1 X87.739 Y78.163 E19.8347
G1 X87.801 Y77.973 F2160
; outer perimeter
G1 X87.392 Y77.676 F4800
G92 E0
G1 X110.635 Y60.790 E2.0067 F1920
G1 X139.365 Y60.790 E4.0133
G1 X162.608 Y77.676 E6.0200
G1 X171.485 Y105.000 E8.0266
G1 X162.608 Y132.323 E10.0333
G1 X139.365 Y149.210 E12.0399
G1 X110.635 Y149.210 E14.0466
G1 X87.392 Y132.323 E16.0533
G1 X78.514 Y105.000 E18.0599
G1 X87.331 Y77.867 E20.0526
G1 X87.392 Y77.676 F1920
G92 E0
G1 X89.010 Y76.501 E-1.5000 F2400
; layer 7, Z = 2.450
; inner perimeter
G1 X87.612 Y77.836 F4800
G1 Z2.450 F1002
G1 E0.0000 F1800
G92 E0
G1 X110.719 Y61.048 E1.9949 F2160
G1 X139.281 Y61.048 E3.9899
G1 X162.388 Y77.836 E5.9848
G1 X171.214 Y105.000 E7.9798
G1 X162.388 Y132.164 E9.9747
G1 X139.281 Y148.952 E11.9697
G1 X110.719 Y148.952 E13.9646
G1 X87.612 Y132.164 E15.9595
G1 X78.786 Y105.000 E17.9545
G1 X87.550 Y78.026 E19.9355
G1 X87.612 Y77.836 F2160
; outer perimeter
G1 X87.204 Y77.539 F4800
G92 E0
G1 X110.563 Y60.568 E2.0167 F1920
G1 X139.437 Y60.568 E4.0335
G1 X162.796 Y77.539 E6.0502
G1 X171.719 Y105.000 E8.0669
G1 X162.796 Y132.461 E10.0836
G1 X139.437 Y149.432 E12.1004
G1 X110.563 Y149.432 E14.1171
G1 X87.204 Y132.461 E16.1338
G1 X78.281 Y105.000 E18.1506
G1 X87.142 Y77.730 E20.1533
G1 X87.204 Y77.539 F1920
G92 E0
G1 X88.822 Y76.364 E-1.5000 F2400
; layer 8, Z = 2.800
; inner perimeter
G1 X87.423 Y77.699 F4800
G1 Z2.800 F1002
G1 E0.0000 F1800
G92 E0
G1 X110.647 Y60.826 E2.0050 F2160
G1 X139.353 Y60.826 E4.0100
G1 X162.577 Y77.699 E6.0150
G1 X171.447 Y105.000 E8.0201
G1 X162.577 Y132.301 E10.0251
G1 X139.353 Y149.174 E12.0301
G1 X110.647 Y149.174 E14.0351
G1 X87.423 Y132.301 E16.0401
G1 X78.553 Y105.000 E18.0451
G1 X87.361 Y77.889 E20.0362
G1 X87.423 Y77.699 F2160
; outer perimeter
G1 X87.015 Y77.402 F4800
G92 E0
G1 X110.491 Y60.346 E2.0268 F1920
G1 X139.509 Y60.346 E4.0536
G1 X162.985 Y77.402 E6.0804
G1 X171.952 Y105.000 E8.1072
G1 X162.985 Y132.598 E10.1340
G1 X139.509 Y149.654 E12.1608
G1 X110.491 Y149.654 E14.1876
G1 X87.015 Y132.598 E16.2144
G1 X78.048 Y105.000 E18.2412
G1 X86.953 Y77.592 E20.2541
G1 X87.015 Y77.402 F1920
G92 E0
G1 X88.633 Y76.227 E-1.5000 F2400
; layer 9, Z = 3.150
; inner perimeter
G1 X87.234 Y77.562 F4800
G1 Z3.150 F1002
G1 E0.0000 F1800
G92 E0
G1 X110.575 Y60.604 E2.0151 F2160
G1 X139.425 Y60.604 E4.0302
G1 X162.766 Y77.562 E6.0453
G1 X171.681 Y105.000 E8.0604
G1 X162.766 Y132.438 E10.0754
G1 X139.425 Y149.396 E12.0905
G1 X110.575 Y149.396 E14.1056
G1 X87.234 Y132.438 E16.1207
G1 X78.319 Y105.000 E18.1358
G1 X87.173 Y77.752 E20.1369
G1 X87.234 Y77.562 F2160
; outer perimeter
G1 X86.826 Y77.265 F4800
G92 E0
G1 X110.419 Y60.124 E2.0369 F1920
G1 X139.581 Y60.124 E4.0737
G1 X163.174 Y77.265 E6.1106
G1 X172.185 Y105.000 E8.1475
G1 X163.174 Y132.735 E10.1844
G1 X139.581 Y149.876 E12.2213
G1 X110.419 Y149.876 E14.2581
G1 X86.826 Y132.735 E16.2950
G1 X77.814 Y105.000 E18.3319
G1 X86.764 Y77.455 E20.3548
G1 X86.826 Y77.265 F1920
G92 E0
G1 X88.444 Y76.089 E-1.5000 F2400
; layer 10, Z = 3.500
; inner perimeter
G1 X87.046 Y77.425 F4800
G1 Z3.500 F1002
G1 E0.0000 F1800
G92 E0
G1 X110.503 Y60.382 E2.0252 F2160
G1 X139.497 Y60.382 E4.0503
G1 X162.954 Y77.425 E6.0755
G1 X171.914 Y105.000 E8.1006
G1 X162.954 Y132.575 E10.1258
G1 X139.497 Y149.618 E12.1510
G1 X110.503 Y149.618 E14.1761
G1 X87.046 Y132.575 E16.2013
G1 X78.086 Y105.000 E18.2264
G1 X86.984 Y77.615 E20.2376
G1 X87.046 Y77.425 F2160
; outer perimeter
G1 X86.637 Y77.128 F4800
G92 E0
G1 X110.347 Y59.902 E2.0469 F1920
G1 X139.653 Y59.902 E4.0939
G1 X163.363 Y77.128 E6.1408
G1 X172.419 Y105.000 E8.1878
G1 X163.363 Y132.872 E10.2347
G1 X139.653 Y150.098 E12.2817
G1 X110.347 Y150.098 E14.3286
G1 X86.637 Y132.872 E16.3756
G1 X77.581 Y105.000 E18.4225
G1 X86.575 Y77.318 E20.4555
G1 X86.637 Y77.128 F1920
G92 E0
G1 X88.255 Y75.952 E-1.5000 F2400
; layer 11, Z = 3.850
; inner perimeter
G1 X86.857 Y77.287 F4800
G1 Z3.850 F1002
G1 E0.0000 F1800
G92 E0
G1 X110.431 Y60.160 E2.0352 F2160
G1 X139.569 Y60.160 E4.0705
