; G-Code generated by Simplify3D(R) Version 4.0.0
; Dec 7, 2017 at 8:42:27 PM
; Settings Summary
;   processName,Process1
;   applyToModels,customizable_christmas_tree
;   profileName,Prusa Research Original Prusa i3 MK2 (modified)
;   profileVersion,2017-07-23 22:27:18
;   baseProfile,
;   printMaterial,PLA
;   printQuality,Fast
;   printExtruders,
;   extruderName,Primary Extruder
;   extruderToolheadNumber,0
;   extruderDiameter,0.4
;   extruderAutoWidth,1
;   extruderWidth,0.48
;   extrusionMultiplier,1
;   extruderUseRetract,1
;   extruderRetractionDistance,1.5
;   extruderExtraRestartDistance,0
;   extruderRetractionZLift,0
;   extruderRetractionSpeed,1800
;   extruderUseCoasting,1
;   extruderCoastingDistance,0.2
;   extruderUseWipe,1
;   extruderWipeDistance,2
;   primaryExtruder,0
;   layerHeight,0.35
;   topSolidLayers,2
;   bottomSolidLayers,0
;   perimeterOutlines,2
;   printPerimetersInsideOut,1
;   startPointOption,2
;   startPointOriginX,0
;   startPointOriginY,0
;   sequentialIslands,0
;   spiralVaseMode,0
;   firstLayerHeightPercentage,100
;   firstLayerWidthPercentage,100
;   firstLayerUnderspeed,0.5
;   useRaft,0
;   raftExtruder,0
;   raftTopLayers,3
;   raftBaseLayers,2
;   raftOffset,3
;   raftSeparationDistance,0.14
;   raftTopInfill,100
;   aboveRaftSpeedMultiplier,0.3
;   useSkirt,1
;   skirtExtruder,0
;   skirtLayers,1
;   skirtOutlines,1
;   skirtOffset,4
;   usePrimePillar,0
;   primePillarExtruder,999
;   primePillarWidth,12
;   primePillarLocation,7
;   primePillarSpeedMultiplier,1
;   useOozeShield,0
;   oozeShieldExtruder,999
;   oozeShieldOffset,2
;   oozeShieldOutlines,1
;   oozeShieldSidewallShape,1
;   oozeShieldSidewallAngle,30
;   oozeShieldSpeedMultiplier,1
;   infillExtruder,0
;   internalInfillPattern,Rectilinear
;   externalInfillPattern,Rectilinear
;   infillPercentage,0
;   outlineOverlapPercentage,20
;   infillExtrusionWidthPercentage,100
;   minInfillLength,5
;   infillLayerInterval,1
;   internalInfillAngles,45,-45
;   overlapInternalInfillAngles,0
;   externalInfillAngles,45,-45
;   generateSupport,0
;   supportExtruder,0
;   supportInfillPercentage,25
;   supportExtraInflation,0
;   supportBaseLayers,0
;   denseSupportExtruder,0
;   denseSupportLayers,0
;   denseSupportInfillPercentage,70
;   supportLayerInterval,1
;   supportHorizontalPartOffset,0.3
;   supportUpperSeparationLayers,1
;   supportLowerSeparationLayers,1
;   supportType,0
;   supportGridSpacing,4
;   maxOverhangAngle,45
;   supportAngles,0
;   temperatureName,Primary Extruder,Heated Bed
;   temperatureNumber,0,0
;   temperatureSetpointCount,1,1
;   temperatureSetpointLayers,1,1
;   temperatureSetpointTemperatures,210,60
;   temperatureStabilizeAtStartup,1,1
;   temperatureHeatedBed,0,1
;   temperatureRelayBetweenLayers,0,0
;   temperatureRelayBetweenLoops,0,0
;   fanLayers,1,2
;   fanSpeeds,0,100
;   blipFanToFullPower,0
;   adjustSpeedForCooling,1
;   minSpeedLayerTime,15
;   minCoolingSpeedSlowdown,20
;   increaseFanForCooling,0
;   minFanLayerTime,45
;   maxCoolingFanSpeed,100
;   increaseFanForBridging,0
;   bridgingFanSpeed,100
;   use5D,1
;   relativeEdistances,0
;   allowEaxisZeroing,1
;   independentExtruderAxes,0
;   includeM10123,0
;   stickySupport,1
;   applyToolheadOffsets,0
;   gcodeXoffset,0
;   gcodeYoffset,0
;   gcodeZoffset,0
;   overrideMachineDefinition,1
;   machineTypeOverride,0
;   strokeXoverride,250
;   strokeYoverride,210
;   strokeZoverride,200
;   originOffsetXoverride,0
;   originOffsetYoverride,0
;   originOffsetZoverride,0
;   homeXdirOverride,-1
;   homeYdirOverride,-1
;   homeZdirOverride,-1
;   flipXoverride,1
;   flipYoverride,-1
;   flipZoverride,1
;   toolheadOffsets,0,0|0,0|0,0|0,0|0,0|0,0
;   overrideFirmwareConfiguration,1
;   firmwareTypeOverride,RepRap (Marlin/Repetier/Sprinter)
;   GPXconfigOverride,r2
;   baudRateOverride,250000
;   overridePrinterModels,1
;   printerModelsOverride
;   startingGcode,M115 U3.0.7 ; use the latest firmware version,G28 W ; home all axes without mesh bed leveling,G80 ; run mesh bed leveling routine,G1 Y-3.0 F1000.0 ; prepare to prime,G92 E0 ; reset extrusion distance,G1 X60.0 E9.0  F1000.0 ; priming,G1 X100.0 E12.5  F1000.0 ; priming
;   layerChangeGcode,
;   retractionGcode,
;   toolChangeGcode,
;   endingGcode,M106 S0 ; turn off cooling fan,M104 S0 ; turn off extruder,M140 S0 ; turn off bed,G1 X0 Y200 ; part removal,M84 ; disable motors
;   exportFileFormat,gcode
;   celebration,0
;   celebrationSong,Random Song
;   postProcessing,
;   defaultSpeed,2400
;   outlineUnderspeed,0.8
;   solidInfillUnderspeed,0.8
;   supportUnderspeed,0.8
;   rapidXYspeed,4800
;   rapidZspeed,1002
;   minBridgingArea,50
;   bridgingExtraInflation,0
;   bridgingExtrusionMultiplier,1
;   bridgingSpeedMultiplier,1
;   useFixedBridgingAngle,0
;   fixedBridgingAngle,0
;   applyBridgingToPerimeters,0
;   filamentDiameters,1.75|1.75|1.75|1.75|1.75|1.75
;   filamentPricesPerKg,46|46|46|46|46|46
;   filamentDensities,1.25|1.25|1.25|1.25|1.25|1.25
;   useMinPrintHeight,1
;   minPrintHeight,0
;   useMaxPrintHeight,1
;   maxPrintHeight,200
;   useDiaphragm,0
;   diaphragmLayerInterval,20
;   robustSlicing,1
;   mergeAllIntoSolid,0
;   onlyRetractWhenCrossingOutline,1
;   retractBetweenLayers,1
;   useRetractionMinTravel,0
;   retractionMinTravel,3
;   retractWhileWiping,1
;   onlyWipeOutlines,1
;   avoidCrossingOutline,0
;   maxMovementDetourFactor,3
;   toolChangeRetractionDistance,12
;   toolChangeExtraRestartDistance,-0.5
;   toolChangeRetractionSpeed,600
;   externalThinWallType,0
;   internalThinWallType,2
;   thinWallAllowedOverlapPercentage,25
;   singleExtrusionMinLength,1
;   singleExtrusionMinPrintingWidthPercentage,50
;   singleExtrusionMaxPrintingWidthPercentage,200
;   singleExtrusionEndpointExtension,0.2
;   horizontalSizeCompensation,0
G90
M82
M106 S0
M140 S60
M190 S60
M104 S210 T0
M109 S210 T0
M115 U3.0.7 ; use the latest firmware version
G28 W ; home all axes without mesh bed leveling
G80 ; run mesh bed leveling routine
G1 Y-3.0 F1000.0 ; prepare to prime
G92 E0 ; reset extrusion distance
G1 X60.0 E9.0  F1000.0 ; priming
G1 X100.0 E12.5  F1000.0 ; priming
G92 E0
G1 E-1.5000 F1800
G1 Z0.350 F1002
; process Process1
; layer 1, Z = 0.350
T0
; tool H0.350 W0.480
; skirt
G1 X92.440 Y80.537 F4800
G1 E0.0000 F540
G92 E0
G1 X92.467 Y80.511 E0.0026 F1200
G1 X111.763 Y66.491 E1.6685
G1 X111.796 Y66.474 E1.6712
G1 X113.037 Y66.071 E1.7623
G1 X113.075 Y66.065 E1.7650
G1 X136.925 Y66.065 E3.4308
G1 X136.963 Y66.071 E3.4335
G1 X138.204 Y66.474 E3.5246
G1 X138.237 Y66.491 E3.5273
G1 X157.533 Y80.511 E5.1932
G1 X157.560 Y80.537 E5.1958
G1 X158.327 Y81.593 E5.2869
G1 X158.344 Y81.627 E5.2896
G1 X165.714 Y104.310 E6.9555
G1 X165.720 Y104.348 E6.9581
G1 X165.720 Y105.652 E7.0493
G1 X165.714 Y105.690 E7.0519
G1 X158.344 Y128.373 E8.7178
G1 X158.327 Y128.407 E8.7204
G1 X157.560 Y129.463 E8.8116
G1 X157.533 Y129.489 E8.8142
G1 X138.237 Y143.508 E10.4801
G1 X138.204 Y143.526 E10.4827
G1 X136.963 Y143.929 E10.5739
G1 X136.925 Y143.935 E10.5765
G1 X113.075 Y143.935 E12.2424
G1 X113.037 Y143.929 E12.2451
G1 X111.796 Y143.526 E12.3362
G1 X111.763 Y143.508 E12.3388
G1 X92.467 Y129.489 E14.0047
G1 X92.440 Y129.463 E14.0074
G1 X91.673 Y128.407 E14.0985
G1 X91.656 Y128.373 E14.1011
G1 X84.286 Y105.690 E15.7670
G1 X84.280 Y105.652 E15.7697
G1 X84.280 Y104.348 E15.8608
G1 X84.286 Y104.310 E15.8635
G1 X91.656 Y81.627 E17.5294
G1 X91.673 Y81.593 E17.5320
G1 X92.323 Y80.699 E17.6092
G1 X92.440 Y80.537 F1200
G92 E0
G1 E-1.5000 F1800
; inner perimeter
G1 X96.099 Y84.002 F4800
G1 E0.0000 F1800
G92 E0
G1 X113.961 Y71.025 E1.5421 F1080
G1 X136.039 Y71.025 E3.0842
G1 X153.901 Y84.002 E4.6262
G1 X160.723 Y105.000 E6.1683
G1 X153.901 Y125.998 E7.7104
G1 X136.039 Y138.975 E9.2525
G1 X113.961 Y138.975 E10.7945
G1 X96.099 Y125.998 E12.3366
G1 X89.277 Y105.000 E13.8787
G1 X96.037 Y84.193 E15.4068
G1 X96.099 Y84.002 F1080
; outer perimeter
G1 X95.691 Y83.706 F4800
G92 E0
G1 X113.805 Y70.545 E1.5639 F960
G1 X136.195 Y70.545 E3.1277
G1 X154.309 Y83.706 E4.6916
G1 X161.228 Y105.000 E6.2555
G1 X154.309 Y126.294 E7.8193
G1 X136.195 Y139.455 E9.3832
G1 X113.805 Y139.455 E10.9471
G1 X95.691 Y126.294 E12.5109
G1 X88.772 Y105.000 E14.0748
G1 X95.629 Y83.896 E15.6247
G1 X95.691 Y83.706 F960
G92 E0
G1 X97.309 Y82.530 E-1.5000 F2400
; layer 2, Z = 0.700
M106 S255
; inner perimeter
G1 X95.910 Y83.865 F4800
G1 Z0.700 F1002
G1 E0.0000 F1800
G92 E0
G1 X113.889 Y70.803 E1.5522 F1903
G1 X136.111 Y70.803 E3.1043
G1 X154.089 Y83.865 E4.6565
G1 X160.957 Y105.000 E6.2086
G1 X154.089 Y126.135 E7.7608
G1 X136.111 Y139.197 E9.3129
G1 X113.889 Y139.197 E10.8651
G1 X95.910 Y126.135 E12.4172
G1 X89.043 Y105.000 E13.9694
G1 X95.849 Y84.055 E15.5075
G1 X95.910 Y83.865 F1903
; outer perimeter
G1 X95.502 Y83.569 F4800
G92 E0
G1 X113.733 Y70.323 E1.5739 F1692
G1 X136.267 Y70.323 E3.1479
G1 X154.498 Y83.569 E4.7218
G1 X161.461 Y105.000 E6.2957
G1 X154.498 Y126.431 E7.8697
G1 X136.267 Y139.677 E9.4436
G1 X113.733 Y139.677 E11.0176
G1 X95.502 Y126.431 E12.5915
G1 X88.539 Y105.000 E14.1654
G1 X95.440 Y83.759 E15.7254
G1 X95.502 Y83.569 F1692
G92 E0
G1 X97.120 Y82.393 E-1.5000 F2400
; layer 3, Z = 1.050
; inner perimeter
G1 X95.722 Y83.728 F4800
G1 Z1.050 F1002
G1 E0.0000 F1800
G92 E0
G1 X113.817 Y70.581 E1.5622 F1915
G1 X136.183 Y70.581 E3.1244
G1 X154.278 Y83.728 E4.6867
G1 X161.190 Y105.000 E6.2489
G1 X154.278 Y126.272 E7.8111
G1 X136.183 Y139.419 E9.3733
G1 X113.817 Y139.419 E10.9356
G1 X95.722 Y126.272 E12.4978
G1 X88.810 Y105.000 E14.0600
G1 X95.660 Y83.918 E15.6083
G1 X95.722 Y83.728 F1915
; outer perimeter
G1 X95.313 Y83.431 F4800
G92 E0
G1 X113.661 Y70.101 E1.5840 F1702
G1 X136.339 Y70.101 E3.1680
G1 X154.687 Y83.431 E4.7520
G1 X161.695 Y105.000 E6.3360
G1 X154.687 Y126.569 E7.9200
G1 X136.339 Y139.899 E9.5041
G1 X113.661 Y139.899 E11.0881
G1 X95.313 Y126.569 E12.6721
G1 X88.305 Y105.000 E14.2561
G1 X95.252 Y83.622 E15.8261
G1 X95.313 Y83.431 F1702
G92 E0
G1 X96.931 Y82.256 E-1.5000 F2400
; layer 4, Z = 1.400
; inner perimeter
G1 X95.533 Y83.591 F4800
G1 Z1.400 F1002
G1 E0.0000 F1800
G92 E0
G1 X113.745 Y70.359 E1.5723 F1927
G1 X136.255 Y70.359 E3.1446
G1 X154.467 Y83.591 E4.7169
G1 X161.423 Y105.000 E6.2892
G1 X154.467 Y126.409 E7.8615
G1 X136.255 Y139.641 E9.4338
G1 X113.745 Y139.641 E11.0061
G1 X95.533 Y126.409 E12.5784
G1 X88.577 Y105.000 E14.1507
G1 X95.471 Y83.781 E15.7090
G1 X95.533 Y83.591 F1927
; outer perimeter
G1 X95.125 Y83.294 F4800
G92 E0
G1 X113.589 Y69.879 E1.5941 F1713
G1 X136.411 Y69.879 E3.1882
G1 X154.875 Y83.294 E4.7822
G1 X161.928 Y105.000 E6.3763
G1 X154.875 Y126.706 E7.9704
G1 X136.411 Y140.121 E9.5645
G1 X113.589 Y140.121 E11.1586
G1 X95.125 Y126.706 E12.7527
G1 X88.072 Y105.000 E14.3467
G1 X95.063 Y83.485 E15.9269
G1 X95.125 Y83.294 F1713
G92 E0
G1 X96.743 Y82.119 E-1.5000 F2400
; layer 5, Z = 1.750
; inner perimeter
G1 X95.344 Y83.454 F4800
G1 Z1.750 F1002
G1 E0.0000 F1800
G92 E0
G1 X113.673 Y70.138 E1.5824 F1940
G1 X136.327 Y70.138 E3.1647
G1 X154.656 Y83.454 E4.7471
G1 X161.657 Y105.000 E6.3295
G1 X154.656 Y126.546 E7.9118
G1 X136.327 Y139.862 E9.4942
G1 X113.673 Y139.862 E11.0766
G1 X95.344 Y126.546 E12.6589
G1 X88.343 Y105.000 E14.2413
G1 X95.282 Y83.644 E15.8097
G1 X95.344 Y83.454 F1940
; outer perimeter
G1 X94.936 Y83.157 F4800
G92 E0
G1 X113.517 Y69.658 E1.6042 F1724
G1 X136.483 Y69.658 E3.2083
G1 X155.064 Y83.157 E4.8125
G1 X162.161 Y105.000 E6.4166
G1 X155.064 Y126.843 E8.0208
G1 X136.483 Y140.342 E9.6249
G1 X113.517 Y140.342 E11.2291
G1 X94.936 Y126.843 E12.8332
G1 X87.839 Y105.000 E14.4374
G1 X94.874 Y83.347 E16.0276
G1 X94.936 Y83.157 F1724
G92 E0
G1 X96.554 Y81.982 E-1.5000 F2400
; layer 6, Z = 2.100
; inner perimeter
G1 X95.155 Y83.317 F4800
G1 Z2.100 F1002
G1 E0.0000 F1800
G92 E0
G1 X113.600 Y69.916 E1.5924 F1952
G1 X136.400 Y69.916 E3.1849
G1 X154.845 Y83.317 E4.7773
G1 X161.890 Y105.000 E6.3698
G1 X154.845 Y126.683 E7.9622
G1 X136.400 Y140.084 E9.5546
G1 X113.600 Y140.084 E11.1471
G1 X95.155 Y126.683 E12.7395
G1 X88.110 Y105.000 E14.3320
G1 X95.094 Y83.507 E15.9104
G1 X95.155 Y83.317 F1952
; outer perimeter
G1 X94.747 Y83.020 F4800
G92 E0
G1 X113.444 Y69.436 E1.6142 F1735
G1 X136.556 Y69.436 E3.2285
G1 X155.253 Y83.020 E4.8427
G1 X162.395 Y105.000 E6.4569
G1 X155.253 Y126.980 E8.0711
G1 X136.556 Y140.564 E9.6854
G1 X113.444 Y140.564 E11.2996
G1 X94.747 Y126.980 E12.9138
G1 X87.605 Y105.000 E14.5280
G1 X94.685 Y83.210 E16.1283
G1 X94.747 Y83.020 F1735
G92 E0
G1 X96.365 Y81.844 E-1.5000 F2400
; layer 7, Z = 2.450
; inner perimeter
G1 X94.967 Y83.179 F4800
G1 Z2.450 F1002
G1 E0.0000 F1800
G92 E0
G1 X113.528 Y69.694 E1.6025 F1964
G1 X136.472 Y69.694 E3.2050
G1 X155.033 Y83.180 E4.8075
G1 X162.123 Y105.000 E6.4101
G1 X155.033 Y126.820 E8.0126
G1 X136.472 Y140.306 E9.6151
G1 X113.528 Y140.306 E11.2176
G1 X94.967 Y126.821 E12.8201
G1 X87.877 Y105.000 E14.4226
G1 X94.905 Y83.370 E16.0112
G1 X94.967 Y83.179 F1964
; outer perimeter
G1 X94.558 Y82.883 F4800
G92 E0
G1 X113.372 Y69.214 E1.6243 F1746
G1 X136.628 Y69.214 E3.2486
G1 X155.442 Y82.883 E4.8729
G1 X162.628 Y105.000 E6.4972
G1 X155.442 Y127.117 E8.1215
G1 X136.628 Y140.786 E9.7458
G1 X113.372 Y140.786 E11.3701
G1 X94.558 Y127.117 E12.9944
G1 X87.372 Y105.000 E14.6187
G1 X94.497 Y83.073 E16.2290
G1 X94.558 Y82.883 F1746
G92 E0
G1 X96.176 Y81.707 E-1.5000 F2400
; layer 8, Z = 2.800
; inner perimeter
G1 X94.778 Y83.042 F4800
G1 Z2.800 F1002
G1 E0.0000 F1800
G92 E0
G1 X113.456 Y69.472 E1.6126 F1976
G1 X136.544 Y69.472 E3.2252
G1 X155.222 Y83.042 E4.8378
G1 X162.357 Y105.000 E6.4503
G1 X155.222 Y126.958 E8.0629
G1 X136.544 Y140.528 E9.6755
G1 X113.456 Y140.528 E11.2881
G1 X94.778 Y126.958 E12.9007
G1 X87.643 Y105.000 E14.5133
G1 X94.716 Y83.233 E16.1119
G1 X94.778 Y83.042 F1976
; outer perimeter
G1 X94.370 Y82.746 F4800
G92 E0
G1 X113.300 Y68.992 E1.6344 F1757
G1 X136.700 Y68.992 E3.2687
G1 X155.630 Y82.746 E4.9031
G1 X162.861 Y105.000 E6.5375
G1 X155.630 Y127.254 E8.1719
G1 X136.700 Y141.008 E9.8062
G1 X113.300 Y141.008 E11.4406
G1 X94.370 Y127.254 E13.0750
G1 X87.139 Y105.000 E14.7093
G1 X94.308 Y82.936 E16.3298
G1 X94.370 Y82.746 F1757
G92 E0
G1 X95.988 Y81.570 E-1.5000 F2400
; layer 9, Z = 3.150
; inner perimeter
G1 X94.589 Y82.905 F4800
G1 Z3.150 F1002
G1 E0.0000 F1800
G92 E0
G1 X113.384 Y69.250 E1.6227 F1989
G1 X136.616 Y69.250 E3.2453
G1 X155.411 Y82.905 E4.8680
G1 X162.590 Y105.000 E6.4906
G1 X155.411 Y127.095 E8.1133
G1 X136.616 Y140.750 E9.7359
G1 X113.384 Y140.750 E11.3586
G1 X94.589 Y127.095 E12.9813
G1 X87.410 Y105.000 E14.6039
G1 X94.527 Y83.095 E16.2126
G1 X94.589 Y82.905 F1989
; outer perimeter
G1 X94.181 Y82.609 F4800
G92 E0
G1 X113.228 Y68.770 E1.6444 F1768
G1 X136.772 Y68.770 E3.2889
G1 X155.819 Y82.609 E4.9333
G1 X163.095 Y105.000 E6.5778
G1 X155.819 Y127.391 E8.2222
G1 X136.772 Y141.230 E9.8667
G1 X113.228 Y141.230 E11.5111
G1 X94.181 Y127.391 E13.1556
G1 X86.905 Y105.000 E14.8000
G1 X94.119 Y82.799 E16.4305
G1 X94.181 Y82.609 F1768
G92 E0
G1 X95.799 Y81.433 E-1.5000 F2400
; layer 10, Z = 3.500
; inner perimeter
G1 X94.400 Y82.768 F4800
G1 Z3.500 F1002
G1 E0.0000 F1800
G92 E0
G1 X113.312 Y69.028 E1.6327 F2001
G1 X136.688 Y69.028 E3.2655
G1 X155.600 Y82.768 E4.8982
G1 X162.823 Y105.000 E6.5309
G1 X155.600 Y127.232 E8.1637
G1 X136.688 Y140.972 E9.7964
G1 X113.312 Y140.972 E11.4291
G1 X94.400 Y127.232 E13.0618
G1 X87.177 Y105.000 E14.6946
G1 X94.339 Y82.958 E16.3133
G1 X94.400 Y82.768 F2001
; outer perimeter
G1 X93.992 Y82.471 F4800
G92 E0
G1 X113.156 Y68.548 E1.6545 F1779
G1 X136.844 Y68.548 E3.3090
G1 X156.008 Y82.471 E4.9635
G1 X163.328 Y105.000 E6.6181
G1 X156.008 Y127.529 E8.2726
G1 X136.844 Y141.452 E9.9271
G1 X113.156 Y141.452 E11.5816
G1 X93.992 Y127.529 E13.2361
G1 X86.672 Y105.000 E14.8907
G1 X93.930 Y82.662 E16.5312
G1 X93.992 Y82.471 F1779
G92 E0
G1 X95.610 Y81.296 E-1.5000 F2400
; layer 11, Z = 3.850
; inner perimeter
G1 X94.212 Y82.631 F4800
G1 Z3.850 F1002
G1 E0.0000 F1800
G92 E0
G1 X113.240 Y68.806 E1.6428 F2013
G1 X136.760 Y68.806 E3.2856
G1 X155.788 Y82.631 E4.9284
