; G-Code generated by Simplify3D(R) Version 4.0.0
; May 5, 2018 at 3:01:23 PM
; Settings Summary
;   processName,Process1
;   applyToModels,marking-silhuett-A,marking-silhuett-B,marking-silhuett-C,marking-silhuett-D,marking-silhuett-E,marking-silhuett-F,marking-silhuett-G
;   profileName,Original Prusa i3 MK2 RC4 (modified)
;   profileVersion,2016-08-30 14:21:19
;   baseProfile,Prusa Mendel (modified)
;   printMaterial,PLA
;   printQuality,FAST 0.3mm
;   printExtruders,
;   extruderName,Primary Extruder
;   extruderToolheadNumber,0
;   extruderDiameter,0.4
;   extruderAutoWidth,1
;   extruderWidth,0.48
;   extrusionMultiplier,1
;   extruderUseRetract,1
;   extruderRetractionDistance,0.8
;   extruderExtraRestartDistance,0
;   extruderRetractionZLift,0
;   extruderRetractionSpeed,1800
;   extruderUseCoasting,1
;   extruderCoastingDistance,0.2
;   extruderUseWipe,1
;   extruderWipeDistance,2
;   primaryExtruder,0
;   layerHeight,0.3
;   topSolidLayers,4
;   bottomSolidLayers,4
;   perimeterOutlines,3
;   printPerimetersInsideOut,1
;   startPointOption,2
;   startPointOriginX,0
;   startPointOriginY,0
;   sequentialIslands,0
;   spiralVaseMode,0
;   firstLayerHeightPercentage,66
;   firstLayerWidthPercentage,95
;   firstLayerUnderspeed,0.6
;   useRaft,0
;   raftExtruder,0
;   raftTopLayers,3
;   raftBaseLayers,2
;   raftOffset,3
;   raftSeparationDistance,0.14
;   raftTopInfill,100
;   aboveRaftSpeedMultiplier,0.3
;   useSkirt,1
;   skirtExtruder,0
;   skirtLayers,1
;   skirtOutlines,1
;   skirtOffset,4
;   usePrimePillar,0
;   primePillarExtruder,999
;   primePillarWidth,12
;   primePillarLocation,7
;   primePillarSpeedMultiplier,1
;   useOozeShield,0
;   oozeShieldExtruder,999
;   oozeShieldOffset,2
;   oozeShieldOutlines,1
;   oozeShieldSidewallShape,1
;   oozeShieldSidewallAngle,30
;   oozeShieldSpeedMultiplier,1
;   infillExtruder,0
;   internalInfillPattern,Rectilinear
;   externalInfillPattern,Rectilinear
;   infillPercentage,10
;   outlineOverlapPercentage,21
;   infillExtrusionWidthPercentage,100
;   minInfillLength,2
;   infillLayerInterval,1
;   internalInfillAngles,45,-45
;   overlapInternalInfillAngles,0
;   externalInfillAngles,45,-45
;   generateSupport,0
;   supportExtruder,0
;   supportInfillPercentage,30
;   supportExtraInflation,1.4
;   supportBaseLayers,0
;   denseSupportExtruder,0
;   denseSupportLayers,0
;   denseSupportInfillPercentage,70
;   supportLayerInterval,1
;   supportHorizontalPartOffset,0.2
;   supportUpperSeparationLayers,1
;   supportLowerSeparationLayers,1
;   supportType,0
;   supportGridSpacing,4
;   maxOverhangAngle,45
;   supportAngles,0
;   temperatureName,Primary Extruder,Heated Bed
;   temperatureNumber,0,1
;   temperatureSetpointCount,1,1
;   temperatureSetpointLayers,1,1
;   temperatureSetpointTemperatures,215,55
;   temperatureStabilizeAtStartup,1,1
;   temperatureHeatedBed,0,1
;   temperatureRelayBetweenLayers,0,0
;   temperatureRelayBetweenLoops,0,0
;   fanLayers,1,2
;   fanSpeeds,0,100
;   blipFanToFullPower,1
;   adjustSpeedForCooling,1
;   minSpeedLayerTime,15
;   minCoolingSpeedSlowdown,5
;   increaseFanForCooling,0
;   minFanLayerTime,45
;   maxCoolingFanSpeed,100
;   increaseFanForBridging,1
;   bridgingFanSpeed,100
;   use5D,1
;   relativeEdistances,1
;   allowEaxisZeroing,1
;   independentExtruderAxes,0
;   includeM10123,0
;   stickySupport,1
;   applyToolheadOffsets,0
;   gcodeXoffset,0
;   gcodeYoffset,0
;   gcodeZoffset,0
;   overrideMachineDefinition,1
;   machineTypeOverride,0
;   strokeXoverride,250
;   strokeYoverride,210
;   strokeZoverride,200
;   originOffsetXoverride,0
;   originOffsetYoverride,0
;   originOffsetZoverride,0
;   homeXdirOverride,-1
;   homeYdirOverride,-1
;   homeZdirOverride,-1
;   flipXoverride,1
;   flipYoverride,-1
;   flipZoverride,1
;   toolheadOffsets,0,0|0,0|0,0|0,0|0,0|0,0
;   overrideFirmwareConfiguration,0
;   firmwareTypeOverride,RepRap (Marlin/Repetier/Sprinter)
;   GPXconfigOverride,r2
;   baudRateOverride,250000
;   overridePrinterModels,1
;   printerModelsOverride
;   startingGcode,M115 U3.0.7 ; tell the printer latest firmware varsion available,G28 W ; home all without mesh bed level,G80 ; mesh bed leveling,G1 Y-3.0 F1000.0 ; go outside printing area,G1 X60.0 E9.0  F1000.0 ; intro line,G1 X100.0 E12.5  F1000.0 ; intro line
;   layerChangeGcode,
;   retractionGcode,
;   toolChangeGcode,
;   endingGcode,M104 S0 ; turn off temperature,M140 S0 ; turn off heatbed,M107 ; turn off fan,G1 X0 Y200; home X axis,M84 ; disable motors
;   exportFileFormat,gcode
;   celebration,0
;   celebrationSong,Random Song
;   postProcessing,{REPLACE "; outer perimeter\n" "; outer perimeter\nM204 S600\n"},{REPLACE "; inner perimeter\n" "; inner perimeter\nM204 S1200\n"},{REPLACE "; solid layer\n" "; solid layer\nM204 S1500\n"},{REPLACE "; infill\n" "; infill\nM204 S2000\n"}
;   defaultSpeed,2400
;   outlineUnderspeed,1
;   solidInfillUnderspeed,0.8
;   supportUnderspeed,0.8
;   rapidXYspeed,4800
;   rapidZspeed,1002
;   minBridgingArea,50
;   bridgingExtraInflation,1
;   bridgingExtrusionMultiplier,1
;   bridgingSpeedMultiplier,1
;   useFixedBridgingAngle,0
;   fixedBridgingAngle,0
;   applyBridgingToPerimeters,0
;   filamentDiameters,1.75|1.75|1.75|1.75|1.75|1.75
;   filamentPricesPerKg,215|215|215|215|215|215
;   filamentDensities,1.25|1.25|1.25|1.25|1.25|1.25
;   useMinPrintHeight,0
;   minPrintHeight,0
;   useMaxPrintHeight,0
;   maxPrintHeight,0
;   useDiaphragm,0
;   diaphragmLayerInterval,20
;   robustSlicing,1
;   mergeAllIntoSolid,0
;   onlyRetractWhenCrossingOutline,0
;   retractBetweenLayers,1
;   useRetractionMinTravel,1
;   retractionMinTravel,3
;   retractWhileWiping,1
;   onlyWipeOutlines,1
;   avoidCrossingOutline,0
;   maxMovementDetourFactor,3
;   toolChangeRetractionDistance,12
;   toolChangeExtraRestartDistance,-0.5
;   toolChangeRetractionSpeed,600
;   externalThinWallType,0
;   internalThinWallType,2
;   thinWallAllowedOverlapPercentage,25
;   singleExtrusionMinLength,1
;   singleExtrusionMinPrintingWidthPercentage,50
;   singleExtrusionMaxPrintingWidthPercentage,200
;   singleExtrusionEndpointExtension,0.2
;   horizontalSizeCompensation,0
G90
M83
M106 S255
G4 P500
M106 S0
M140 S55
M190 S55
M104 S215 T0
M109 S215 T0
M115 U3.0.7 ; tell the printer latest firmware varsion available
G28 W ; home all without mesh bed level
G80 ; mesh bed leveling
G1 Y-3.0 F1000.0 ; go outside printing area
G1 X60.0 E9.0  F1000.0 ; intro line
G1 X100.0 E12.5  F1000.0 ; intro line
G1 E-0.8000 F1800
G1 Z0.198 F1002
; process Process1
; layer 1, Z = 0.198
T0
; tool H0.300 W0.456
; skirt
G1 X15.707 Y18.297 F4800
G1 E0.8000 F540
G1 X15.795 Y18.260 E0.0054 F1440
G1 X69.205 Y18.260 E3.0376
G1 X69.293 Y18.297 E0.0054
G1 X70.000 Y19.004 E0.0569
G1 X70.707 Y18.297 E0.0569
G1 X70.795 Y18.260 E0.0054
G1 X124.205 Y18.260 E3.0376
G1 X124.293 Y18.297 E0.0054
G1 X125.000 Y19.004 E0.0569
G1 X125.707 Y18.297 E0.0569
G1 X125.795 Y18.260 E0.0054
G1 X179.205 Y18.260 E3.0376
G1 X179.293 Y18.297 E0.0054
G1 X180.000 Y19.004 E0.0569
G1 X180.707 Y18.297 E0.0569
G1 X180.795 Y18.260 E0.0054
G1 X234.205 Y18.260 E3.0376
G1 X234.293 Y18.297 E0.0054
G1 X236.703 Y20.707 E0.1939
G1 X236.740 Y20.795 E0.0054
G1 X236.740 Y104.205 E4.7439
G1 X236.703 Y104.293 E0.0054
G1 X236.371 Y104.625 E0.0267
G1 X237.454 Y105.707 E0.0871
G1 X237.490 Y105.795 E0.0054
G1 X237.490 Y189.205 E4.7439
G1 X237.454 Y189.293 E0.0054
G1 X235.043 Y191.703 E0.1939
G1 X234.955 Y191.740 E0.0054
G1 X181.546 Y191.740 E3.0376
G1 X181.457 Y191.703 E0.0054
G1 X179.047 Y189.293 E0.1939
G1 X179.010 Y189.205 E0.0054
G1 X179.010 Y106.740 E4.6902
G1 X126.740 Y106.740 E2.9729
G1 X126.740 Y189.205 E4.6902
G1 X126.703 Y189.293 E0.0054
G1 X124.293 Y191.703 E0.1939
G1 X124.205 Y191.740 E0.0054
G1 X70.795 Y191.740 E3.0376
G1 X70.707 Y191.703 E0.0054
G1 X70.000 Y190.996 E0.0569
G1 X69.293 Y191.703 E0.0569
G1 X69.205 Y191.740 E0.0054
G1 X15.795 Y191.740 E3.0376
G1 X15.707 Y191.703 E0.0054
G1 X13.297 Y189.293 E0.1939
G1 X13.260 Y189.205 E0.0054
G1 X13.260 Y105.795 E4.7439
G1 X13.297 Y105.707 E0.0054
G1 X14.004 Y105.000 E0.0569
G1 X13.297 Y104.293 E0.0569
G1 X13.260 Y104.205 E0.0054
G1 X13.260 Y20.795 E4.7439
G1 X13.297 Y20.707 E0.0054
G1 X15.566 Y18.438 E0.1825
G1 X15.707 Y18.297 F1440
G1 E-0.8000 F1800
; inner perimeter
M204 S1200
G1 X18.640 Y23.640 F4800
G1 E0.8000 F1800
G1 X66.360 Y23.640 E2.7141 F1440
G1 X66.360 Y101.360 E4.4203
G1 X18.640 Y101.360 E2.7141
G1 X18.640 Y23.840 E4.4089
G1 X18.640 Y23.640 F1440
G1 X18.184 Y23.184 F4800
G1 X66.816 Y23.184 E2.7659 F1440
G1 X66.816 Y101.816 E4.4722
G1 X18.184 Y101.816 E2.7659
G1 X18.184 Y23.384 E4.4608
G1 X18.184 Y23.184 F1440
; outer perimeter
M204 S600
G1 X17.728 Y22.728 F4800
G1 X67.272 Y22.728 E2.8178 F1440
G1 X67.272 Y102.272 E4.5241
G1 X17.728 Y102.272 E2.8178
G1 X17.728 Y22.928 E4.5127
G1 X17.728 Y22.728 F1440
G1 X18.795 Y22.728 E-0.8000 F2400
G1 X19.728 Y22.728 F2400
; inner perimeter
M204 S1200
G1 X30.781 Y37.360 F4800
G1 E0.8000 F1800
G1 X30.781 Y68.312 E1.7604 F1440
G1 X53.442 Y68.312 E1.2888
G1 X53.442 Y62.858 E0.3102
G1 X36.946 Y62.858 E0.9382
G1 X36.946 Y54.488 E0.4760
G1 X52.954 Y54.488 E0.9105
G1 X52.954 Y48.994 E0.3125
G1 X36.946 Y48.994 E0.9105
G1 X36.946 Y37.360 E0.6617
G1 X30.981 Y37.360 E0.3393
G1 X30.781 Y37.360 F1440
G1 X31.237 Y37.816 F4800
G1 X31.237 Y67.856 E1.7085 F1440
G1 X52.986 Y67.856 E1.2370
G1 X52.986 Y63.314 E0.2583
G1 X36.490 Y63.314 E0.9382
G1 X36.490 Y54.032 E0.5279
G1 X52.498 Y54.032 E0.9105
G1 X52.498 Y49.450 E0.2606
G1 X36.490 Y49.450 E0.9105
G1 X36.490 Y37.816 E0.6617
G1 X31.437 Y37.816 E0.2874
G1 X31.237 Y37.816 F1440
; outer perimeter
M204 S600
G1 X31.693 Y38.272 F4800
G1 X31.693 Y67.400 E1.6566 F1440
G1 X52.530 Y67.400 E1.1851
G1 X52.530 Y63.770 E0.2065
G1 X36.034 Y63.770 E0.9382
G1 X36.034 Y53.576 E0.5798
G1 X52.042 Y53.576 E0.9105
G1 X52.042 Y49.906 E0.2087
G1 X36.034 Y49.906 E0.9105
G1 X36.034 Y38.272 E0.6617
G1 X31.893 Y38.272 E0.2355
G1 X31.693 Y38.272 F1440
G1 X31.693 Y39.339 E-0.8000 F2400
G1 X31.693 Y40.272 F2400
; solid layer
M204 S1500
G1 X37.306 Y38.212 F4800
G1 E0.8000 F1800
G1 X47.728 Y48.634 E0.8382 F1152
G1 X47.083 Y48.634 E0.0367
G1 X37.306 Y38.857 E0.7864
G1 X37.306 Y39.502 E0.0367
G1 X46.438 Y48.634 E0.7345
G1 X45.793 Y48.634 E0.0367
G1 X37.306 Y40.147 E0.6826
G1 X37.306 Y40.792 E0.0367
G1 X45.148 Y48.634 E0.6308
G1 X44.503 Y48.634 E0.0367
G1 X37.306 Y41.437 E0.5789
G1 X37.306 Y42.082 E0.0367
G1 X43.858 Y48.634 E0.5270
G1 X43.214 Y48.634 E0.0367
G1 X37.306 Y42.726 E0.4751
G1 X37.306 Y43.371 E0.0367
G1 X42.569 Y48.634 E0.4233
G1 X41.924 Y48.634 E0.0367
G1 X37.306 Y44.016 E0.3714
G1 X37.306 Y44.661 E0.0367
G1 X41.279 Y48.634 E0.3195
G1 X40.634 Y48.634 E0.0367
G1 X37.306 Y45.306 E0.2677
G1 X37.306 Y45.951 E0.0367
G1 X39.989 Y48.634 E0.2158
G1 X39.344 Y48.634 E0.0367
G1 X37.306 Y46.596 E0.1639
G1 X37.306 Y47.241 E0.0367
G1 X38.699 Y48.634 E0.1121
G1 X38.055 Y48.634 E0.0367
G1 X37.306 Y47.885 E0.0602
G1 X37.306 Y48.477 E0.0336
G1 X37.306 Y48.530 F1152
G1 X37.410 Y48.634 F1152
G1 E-0.8000 F1800
G1 X37.306 Y62.073 F4800
G1 E0.8000 F1800
G1 X37.731 Y62.498 E0.0342 F1152
G1 X38.376 Y62.498 E0.0367
G1 X37.306 Y61.428 E0.0860
G1 X37.306 Y60.783 E0.0367
G1 X39.021 Y62.498 E0.1379
G1 X39.666 Y62.498 E0.0367
G1 X37.306 Y60.138 E0.1898
G1 X37.306 Y59.493 E0.0367
G1 X40.311 Y62.498 E0.2417
G1 X40.956 Y62.498 E0.0367
G1 X37.306 Y58.848 E0.2935
G1 X37.306 Y58.204 E0.0367
G1 X41.600 Y62.498 E0.3454
G1 X42.245 Y62.498 E0.0367
G1 X37.306 Y57.559 E0.3973
G1 X37.306 Y56.914 E0.0367
G1 X42.890 Y62.498 E0.4491
G1 X43.535 Y62.498 E0.0367
G1 X37.306 Y56.269 E0.5010
G1 X37.306 Y55.624 E0.0367
G1 X44.180 Y62.498 E0.5529
G1 X44.825 Y62.498 E0.0367
G1 X37.306 Y54.979 E0.6047
G1 X37.306 Y54.848 E0.0074
G1 X37.820 Y54.848 E0.0292
G1 X45.470 Y62.498 E0.6153
G1 X46.115 Y62.498 E0.0367
G1 X38.465 Y54.848 E0.6153
G1 X39.110 Y54.848 E0.0367
G1 X46.759 Y62.498 E0.6153
G1 X47.404 Y62.498 E0.0367
G1 X39.755 Y54.848 E0.6153
G1 X40.400 Y54.848 E0.0367
G1 X48.049 Y62.498 E0.6153
G1 X48.694 Y62.498 E0.0367
G1 X41.045 Y54.848 E0.6153
G1 X41.689 Y54.848 E0.0367
G1 X49.339 Y62.498 E0.6153
G1 X49.984 Y62.498 E0.0367
G1 X42.334 Y54.848 E0.6153
G1 X42.979 Y54.848 E0.0367
G1 X50.629 Y62.498 E0.6153
G1 X51.274 Y62.498 E0.0367
G1 X43.624 Y54.848 E0.6153
G1 X44.269 Y54.848 E0.0367
G1 X51.919 Y62.498 E0.6153
G1 X52.563 Y62.498 E0.0367
G1 X44.914 Y54.848 E0.6153
G1 X45.559 Y54.848 E0.0367
G1 X53.208 Y62.498 E0.6153
G1 X53.802 Y62.498 E0.0338
G1 X53.802 Y63.092 E0.0338
G1 X66.000 Y75.289 E0.9811
G1 X66.000 Y74.644 E0.0367
G1 X46.204 Y54.848 E1.5923
G1 X46.849 Y54.848 E0.0367
G1 X66.000 Y73.999 E1.5404
G1 X66.000 Y73.355 E0.0367
G1 X47.493 Y54.848 E1.4885
G1 X48.138 Y54.848 E0.0367
G1 X66.000 Y72.710 E1.4367
G1 X66.000 Y72.065 E0.0367
G1 X48.783 Y54.848 E1.3848
G1 X49.428 Y54.848 E0.0367
G1 X66.000 Y71.420 E1.3329
G1 X66.000 Y70.775 E0.0367
G1 X50.073 Y54.848 E1.2810
G1 X50.718 Y54.848 E0.0367
G1 X66.000 Y70.130 E1.2292
G1 X66.000 Y69.485 E0.0367
G1 X51.363 Y54.848 E1.1773
G1 X52.008 Y54.848 E0.0367
G1 X66.000 Y68.840 E1.1254
G1 X66.000 Y68.196 E0.0367
G1 X52.652 Y54.848 E1.0736
G1 X53.297 Y54.848 E0.0367
G1 X66.000 Y67.551 E1.0217
G1 X66.000 Y66.906 E0.0367
G1 X53.314 Y54.220 E1.0203
G1 X53.314 Y53.575 E0.0367
G1 X66.000 Y66.261 E1.0203
G1 X66.000 Y65.616 E0.0367
G1 X53.314 Y52.930 E1.0203
G1 X53.314 Y52.286 E0.0367
G1 X66.000 Y64.971 E1.0203
G1 X66.000 Y64.326 E0.0367
G1 X53.314 Y51.641 E1.0203
G1 X53.314 Y50.996 E0.0367
G1 X66.000 Y63.681 E1.0203
G1 X66.000 Y63.036 E0.0367
G1 X53.314 Y50.351 E1.0203
G1 X53.314 Y49.706 E0.0367
G1 X66.000 Y62.392 E1.0203
G1 X66.000 Y61.747 E0.0367
G1 X53.456 Y49.203 E1.0090
G1 X53.314 Y49.061 F1152
G1 E-0.8000 F1800
G1 X53.802 Y63.737 F4800
G1 E0.8000 F1800
G1 X66.000 Y75.934 E0.9811 F1152
G1 X66.000 Y76.579 E0.0367
G1 X53.802 Y64.381 E0.9811
G1 X53.802 Y65.026 E0.0367
G1 X66.000 Y77.224 E0.9811
G1 X66.000 Y77.869 E0.0367
G1 X53.802 Y65.671 E0.9811
G1 X53.802 Y66.316 E0.0367
G1 X66.000 Y78.514 E0.9811
G1 X66.000 Y79.158 E0.0367
G1 X53.802 Y66.961 E0.9811
G1 X53.802 Y67.606 E0.0367
G1 X66.000 Y79.803 E0.9811
G1 X66.000 Y80.448 E0.0367
G1 X53.802 Y68.251 E0.9811
G1 X53.802 Y68.672 E0.0240
G1 X53.579 Y68.672 E0.0127
G1 X66.000 Y81.093 E0.9991
G1 X66.000 Y81.738 E0.0367
G1 X52.934 Y68.672 E1.0509
G1 X52.289 Y68.672 E0.0367
G1 X66.000 Y82.383 E1.1028
G1 X66.000 Y83.028 E0.0367
G1 X51.644 Y68.672 E1.1547
G1 X50.999 Y68.672 E0.0367
G1 X66.000 Y83.673 E1.2065
G1 X66.000 Y84.318 E0.0367
G1 X50.354 Y68.672 E1.2584
G1 X49.710 Y68.672 E0.0367
G1 X66.000 Y84.962 E1.3103
G1 X66.000 Y85.607 E0.0367
G1 X49.065 Y68.672 E1.3621
G1 X48.420 Y68.672 E0.0367
G1 X66.000 Y86.252 E1.4140
G1 X66.000 Y86.897 E0.0367
G1 X47.775 Y68.672 E1.4659
G1 X47.130 Y68.672 E0.0367
G1 X66.000 Y87.542 E1.5178
G1 X66.000 Y88.187 E0.0367
G1 X46.485 Y68.672 E1.5696
G1 X45.840 Y68.672 E0.0367
G1 X66.000 Y88.832 E1.6215
G1 X66.000 Y89.477 E0.0367
G1 X45.195 Y68.672 E1.6734
G1 X44.551 Y68.672 E0.0367
G1 X66.000 Y90.121 E1.7252
G1 X66.000 Y90.766 E0.0367
G1 X43.906 Y68.672 E1.7771
G1 X43.261 Y68.672 E0.0367
G1 X66.000 Y91.411 E1.8290
G1 X66.000 Y92.056 E0.0367
G1 X42.616 Y68.672 E1.8808
G1 X41.971 Y68.672 E0.0367
G1 X66.000 Y92.701 E1.9327
G1 X66.000 Y93.346 E0.0367
G1 X41.326 Y68.672 E1.9846
G1 X40.681 Y68.672 E0.0367
G1 X66.000 Y93.991 E2.0365
G1 X66.000 Y94.636 E0.0367
G1 X40.036 Y68.672 E2.0883
G1 X39.391 Y68.672 E0.0367
G1 X66.000 Y95.281 E2.1402
G1 X66.000 Y95.925 E0.0367
G1 X38.747 Y68.672 E2.1921
G1 X38.102 Y68.672 E0.0367
G1 X66.000 Y96.570 E2.2439
G1 X66.000 Y97.215 E0.0367
G1 X37.457 Y68.672 E2.2958
G1 X36.812 Y68.672 E0.0367
G1 X66.000 Y97.860 E2.3477
G1 X66.000 Y98.505 E0.0367
G1 X36.167 Y68.672 E2.3995
G1 X35.522 Y68.672 E0.0367
G1 X66.000 Y99.150 E2.4514
G1 X66.000 Y99.795 E0.0367
G1 X34.877 Y68.672 E2.5033
G1 X34.232 Y68.672 E0.0367
G1 X66.000 Y100.440 E2.5551
G1 X66.000 Y101.000 E0.0319
G1 X65.915 Y101.000 E0.0048
G1 X33.588 Y68.672 E2.6002
G1 X32.943 Y68.672 E0.0367
G1 X65.270 Y101.000 E2.6002
G1 X64.625 Y101.000 E0.0367
G1 X32.298 Y68.672 E2.6002
