; G-Code generated by Simplify3D(R) Version 4.0.0
; Apr 26, 2018 at 9:58:41 AM
; Settings Summary
;   processName,Process1
;   applyToModels,drawer-divider-small
;   profileName,Original Prusa i3 MK2 RC4 (modified)
;   profileVersion,2016-08-30 14:21:19
;   baseProfile,Prusa Mendel (modified)
;   printMaterial,PLA
;   printQuality,FAST 0.3mm
;   printExtruders,
;   extruderName,Primary Extruder
;   extruderToolheadNumber,0
;   extruderDiameter,0.4
;   extruderAutoWidth,0
;   extruderWidth,0.45
;   extrusionMultiplier,1
;   extruderUseRetract,1
;   extruderRetractionDistance,0.8
;   extruderExtraRestartDistance,0
;   extruderRetractionZLift,0
;   extruderRetractionSpeed,1800
;   extruderUseCoasting,1
;   extruderCoastingDistance,0.2
;   extruderUseWipe,1
;   extruderWipeDistance,2
;   primaryExtruder,0
;   layerHeight,0.3
;   topSolidLayers,4
;   bottomSolidLayers,4
;   perimeterOutlines,4
;   printPerimetersInsideOut,1
;   startPointOption,2
;   startPointOriginX,0
;   startPointOriginY,0
;   sequentialIslands,0
;   spiralVaseMode,0
;   firstLayerHeightPercentage,66
;   firstLayerWidthPercentage,95
;   firstLayerUnderspeed,0.6
;   useRaft,0
;   raftExtruder,0
;   raftTopLayers,3
;   raftBaseLayers,2
;   raftOffset,3
;   raftSeparationDistance,0.14
;   raftTopInfill,100
;   aboveRaftSpeedMultiplier,0.3
;   useSkirt,1
;   skirtExtruder,0
;   skirtLayers,1
;   skirtOutlines,1
;   skirtOffset,1.8
;   usePrimePillar,0
;   primePillarExtruder,999
;   primePillarWidth,12
;   primePillarLocation,7
;   primePillarSpeedMultiplier,1
;   useOozeShield,0
;   oozeShieldExtruder,999
;   oozeShieldOffset,2
;   oozeShieldOutlines,1
;   oozeShieldSidewallShape,1
;   oozeShieldSidewallAngle,30
;   oozeShieldSpeedMultiplier,1
;   infillExtruder,0
;   internalInfillPattern,Rectilinear
;   externalInfillPattern,Rectilinear
;   infillPercentage,15
;   outlineOverlapPercentage,21
;   infillExtrusionWidthPercentage,100
;   minInfillLength,2
;   infillLayerInterval,1
;   internalInfillAngles,45,-45
;   overlapInternalInfillAngles,0
;   externalInfillAngles,45,-45
;   generateSupport,0
;   supportExtruder,0
;   supportInfillPercentage,30
;   supportExtraInflation,1.4
;   supportBaseLayers,0
;   denseSupportExtruder,0
;   denseSupportLayers,0
;   denseSupportInfillPercentage,70
;   supportLayerInterval,1
;   supportHorizontalPartOffset,0.2
;   supportUpperSeparationLayers,1
;   supportLowerSeparationLayers,1
;   supportType,0
;   supportGridSpacing,4
;   maxOverhangAngle,45
;   supportAngles,0
;   temperatureName,Primary Extruder,Heated Bed
;   temperatureNumber,0,1
;   temperatureSetpointCount,1,1
;   temperatureSetpointLayers,1,1
;   temperatureSetpointTemperatures,215,55
;   temperatureStabilizeAtStartup,1,1
;   temperatureHeatedBed,0,1
;   temperatureRelayBetweenLayers,0,0
;   temperatureRelayBetweenLoops,0,0
;   fanLayers,1,2
;   fanSpeeds,0,100
;   blipFanToFullPower,1
;   adjustSpeedForCooling,1
;   minSpeedLayerTime,15
;   minCoolingSpeedSlowdown,5
;   increaseFanForCooling,0
;   minFanLayerTime,45
;   maxCoolingFanSpeed,100
;   increaseFanForBridging,1
;   bridgingFanSpeed,100
;   use5D,1
;   relativeEdistances,1
;   allowEaxisZeroing,1
;   independentExtruderAxes,0
;   includeM10123,0
;   stickySupport,1
;   applyToolheadOffsets,0
;   gcodeXoffset,0
;   gcodeYoffset,0
;   gcodeZoffset,0
;   overrideMachineDefinition,1
;   machineTypeOverride,0
;   strokeXoverride,250
;   strokeYoverride,210
;   strokeZoverride,200
;   originOffsetXoverride,0
;   originOffsetYoverride,0
;   originOffsetZoverride,0
;   homeXdirOverride,-1
;   homeYdirOverride,-1
;   homeZdirOverride,-1
;   flipXoverride,1
;   flipYoverride,-1
;   flipZoverride,1
;   toolheadOffsets,0,0|0,0|0,0|0,0|0,0|0,0
;   overrideFirmwareConfiguration,0
;   firmwareTypeOverride,RepRap (Marlin/Repetier/Sprinter)
;   GPXconfigOverride,r2
;   baudRateOverride,250000
;   overridePrinterModels,1
;   printerModelsOverride
;   startingGcode,M115 U3.0.7 ; tell the printer latest firmware varsion available,G28 W ; home all without mesh bed level,G80 ; mesh bed leveling,G1 Y-3.0 F1000.0 ; go outside printing area,G1 X60.0 E9.0  F1000.0 ; intro line,G1 X100.0 E12.5  F1000.0 ; intro line
;   layerChangeGcode,
;   retractionGcode,
;   toolChangeGcode,
;   endingGcode,M104 S0 ; turn off temperature,M140 S0 ; turn off heatbed,M107 ; turn off fan,G1 X0 Y200; home X axis,M84 ; disable motors
;   exportFileFormat,gcode
;   celebration,0
;   celebrationSong,Random Song
;   postProcessing,{REPLACE "; outer perimeter\n" "; outer perimeter\nM204 S600\n"},{REPLACE "; inner perimeter\n" "; inner perimeter\nM204 S1200\n"},{REPLACE "; solid layer\n" "; solid layer\nM204 S1500\n"},{REPLACE "; infill\n" "; infill\nM204 S2000\n"}
;   defaultSpeed,2400
;   outlineUnderspeed,1
;   solidInfillUnderspeed,0.8
;   supportUnderspeed,0.8
;   rapidXYspeed,4800
;   rapidZspeed,1002
;   minBridgingArea,50
;   bridgingExtraInflation,1
;   bridgingExtrusionMultiplier,1
;   bridgingSpeedMultiplier,1
;   useFixedBridgingAngle,0
;   fixedBridgingAngle,0
;   applyBridgingToPerimeters,0
;   filamentDiameters,1.75|1.75|1.75|1.75|1.75|1.75
;   filamentPricesPerKg,215|215|215|215|215|215
;   filamentDensities,1.25|1.25|1.25|1.25|1.25|1.25
;   useMinPrintHeight,0
;   minPrintHeight,0
;   useMaxPrintHeight,0
;   maxPrintHeight,0
;   useDiaphragm,0
;   diaphragmLayerInterval,20
;   robustSlicing,1
;   mergeAllIntoSolid,0
;   onlyRetractWhenCrossingOutline,0
;   retractBetweenLayers,1
;   useRetractionMinTravel,1
;   retractionMinTravel,3
;   retractWhileWiping,1
;   onlyWipeOutlines,1
;   avoidCrossingOutline,0
;   maxMovementDetourFactor,3
;   toolChangeRetractionDistance,12
;   toolChangeExtraRestartDistance,-0.5
;   toolChangeRetractionSpeed,600
;   externalThinWallType,0
;   internalThinWallType,2
;   thinWallAllowedOverlapPercentage,25
;   singleExtrusionMinLength,1
;   singleExtrusionMinPrintingWidthPercentage,50
;   singleExtrusionMaxPrintingWidthPercentage,200
;   singleExtrusionEndpointExtension,0.2
;   horizontalSizeCompensation,0
G90
M83
M106 S255
G4 P500
M106 S0
M140 S55
M190 S55
M104 S215 T0
M109 S215 T0
M115 U3.0.7 ; tell the printer latest firmware varsion available
G28 W ; home all without mesh bed level
G80 ; mesh bed leveling
G1 Y-3.0 F1000.0 ; go outside printing area
G1 X60.0 E9.0  F1000.0 ; intro line
G1 X100.0 E12.5  F1000.0 ; intro line
G1 E-0.8000 F1800
G1 Z0.198 F1002
; process Process1
; layer 1, Z = 0.198
T0
; tool H0.300 W0.428
; skirt
G1 X73.009 Y63.134 F4800
G1 E0.8000 F540
G1 X74.127 Y62.017 E0.0843 F1440
G1 X74.210 Y61.983 E0.0048
G1 X96.896 Y61.983 E1.2096
G1 X97.376 Y61.784 E0.0277
G1 X97.420 Y61.775 E0.0024
G1 X98.180 Y61.775 E0.0405
G1 X98.224 Y61.784 E0.0024
G1 X98.704 Y61.983 E0.0277
G1 X175.790 Y61.983 E4.1103
G1 X175.873 Y62.017 E0.0048
G1 X176.991 Y63.134 E0.0843
G1 X177.025 Y63.217 E0.0048
G1 X177.025 Y146.783 E4.4557
G1 X176.991 Y146.866 E0.0048
G1 X175.873 Y147.983 E0.0843
G1 X175.790 Y148.017 E0.0048
G1 X98.704 Y148.017 E4.1103
G1 X98.224 Y148.216 E0.0277
G1 X98.180 Y148.225 E0.0024
G1 X97.420 Y148.225 E0.0405
G1 X97.376 Y148.216 E0.0024
G1 X96.896 Y148.017 E0.0277
G1 X74.210 Y148.017 E1.2097
G1 X74.127 Y147.983 E0.0048
G1 X73.009 Y146.866 E0.0843
G1 X72.975 Y146.783 E0.0048
G1 X72.975 Y63.328 E4.4498
G1 X72.975 Y63.217 F1440
G1 X73.009 Y63.134 F1440
G1 E-0.8000 F1800
; inner perimeter
M204 S1200
G1 X76.496 Y65.504 F4800
G1 E0.8000 F1800
G1 X97.597 Y65.504 E1.1251 F1440
G1 X97.800 Y65.420 E0.0117
G1 X98.003 Y65.504 E0.0117
G1 X173.504 Y65.504 E4.0257
G1 X173.504 Y144.496 E4.2119
G1 X98.003 Y144.496 E4.0257
G1 X97.800 Y144.581 E0.0117
G1 X97.597 Y144.496 E0.0117
G1 X76.496 Y144.496 E1.1251
G1 X76.496 Y65.704 E4.2012
G1 X76.496 Y65.504 F1440
G1 X76.069 Y65.076 F4800
G1 X97.512 Y65.076 E1.1433 F1440
G1 X97.800 Y64.957 E0.0166
G1 X98.088 Y65.076 E0.0166
G1 X173.931 Y65.076 E4.0440
G1 X173.931 Y144.924 E4.2575
G1 X98.088 Y144.924 E4.0440
G1 X97.800 Y145.043 E0.0166
G1 X97.512 Y144.924 E0.0166
G1 X76.069 Y144.924 E1.1433
G1 X76.069 Y65.276 E4.2468
G1 X76.069 Y65.076 F1440
G1 X75.641 Y64.649 F4800
G1 X97.427 Y64.649 E1.1616 F1440
G1 X97.800 Y64.494 E0.0216
G1 X98.173 Y64.649 E0.0216
G1 X174.359 Y64.649 E4.0622
G1 X174.359 Y145.351 E4.3031
G1 X98.173 Y145.351 E4.0622
G1 X97.800 Y145.506 E0.0216
G1 X97.427 Y145.351 E0.0216
G1 X75.641 Y145.351 E1.1616
G1 X75.641 Y64.849 E4.2924
G1 X75.641 Y64.649 F1440
; outer perimeter
M204 S600
G1 X75.214 Y64.221 F4800
G1 X97.342 Y64.221 E1.1799 F1440
G1 X97.800 Y64.031 E0.0265
G1 X98.258 Y64.221 E0.0265
G1 X174.786 Y64.221 E4.0805
G1 X174.786 Y145.779 E4.3487
G1 X98.258 Y145.779 E4.0805
G1 X97.800 Y145.969 E0.0265
G1 X97.341 Y145.779 E0.0265
G1 X75.214 Y145.779 E1.1799
G1 X75.214 Y64.421 E4.3380
G1 X75.214 Y64.221 F1440
G1 X76.280 Y64.221 E-0.8000 F2400
G1 X77.214 Y64.221 F2400
; solid layer
M204 S1500
G1 X77.100 Y144.159 F4800
G1 E0.8000 F1800
G1 X76.834 Y143.893 E0.0200 F1152
G1 X76.834 Y143.288 E0.0322
G1 X77.704 Y144.159 E0.0656
G1 X78.309 Y144.159 E0.0322
G1 X76.834 Y142.684 E0.1112
G1 X76.834 Y142.079 E0.0322
G1 X78.913 Y144.159 E0.1568
G1 X79.518 Y144.159 E0.0322
G1 X76.834 Y141.475 E0.2024
G1 X76.834 Y140.870 E0.0322
G1 X80.122 Y144.159 E0.2480
G1 X80.727 Y144.159 E0.0322
G1 X76.834 Y140.265 E0.2936
G1 X76.834 Y139.661 E0.0322
G1 X81.332 Y144.159 E0.3391
G1 X81.936 Y144.159 E0.0322
G1 X76.834 Y139.056 E0.3847
G1 X76.834 Y138.452 E0.0322
G1 X82.541 Y144.159 E0.4303
G1 X83.145 Y144.159 E0.0322
G1 X76.834 Y137.847 E0.4759
G1 X76.834 Y137.243 E0.0322
G1 X83.750 Y144.159 E0.5215
G1 X84.354 Y144.159 E0.0322
G1 X76.834 Y136.638 E0.5671
G1 X76.834 Y136.033 E0.0322
G1 X84.959 Y144.159 E0.6127
G1 X85.564 Y144.159 E0.0322
G1 X76.834 Y135.429 E0.6583
G1 X76.834 Y134.824 E0.0322
G1 X86.168 Y144.159 E0.7039
G1 X86.773 Y144.159 E0.0322
G1 X76.834 Y134.220 E0.7494
G1 X76.834 Y133.615 E0.0322
G1 X87.377 Y144.159 E0.7950
G1 X87.982 Y144.159 E0.0322
G1 X76.834 Y133.011 E0.8406
G1 X76.834 Y132.406 E0.0322
G1 X88.587 Y144.159 E0.8862
G1 X89.191 Y144.159 E0.0322
G1 X76.834 Y131.801 E0.9318
G1 X76.834 Y131.197 E0.0322
G1 X89.796 Y144.159 E0.9774
G1 X90.400 Y144.159 E0.0322
G1 X76.834 Y130.592 E1.0230
G1 X76.834 Y129.988 E0.0322
G1 X91.005 Y144.159 E1.0686
G1 X91.609 Y144.159 E0.0322
G1 X76.834 Y129.383 E1.1142
G1 X76.834 Y128.779 E0.0322
G1 X92.214 Y144.159 E1.1597
G1 X92.819 Y144.159 E0.0322
G1 X76.834 Y128.174 E1.2053
G1 X76.834 Y127.569 E0.0322
G1 X93.423 Y144.159 E1.2509
G1 X94.028 Y144.159 E0.0322
G1 X76.834 Y126.965 E1.2965
G1 X76.834 Y126.360 E0.0322
G1 X94.632 Y144.159 E1.3421
G1 X95.237 Y144.159 E0.0322
G1 X76.834 Y125.756 E1.3877
G1 X76.834 Y125.151 E0.0322
G1 X95.841 Y144.159 E1.4333
G1 X96.446 Y144.159 E0.0322
G1 X76.834 Y124.547 E1.4789
G1 X76.834 Y123.942 E0.0322
G1 X97.051 Y144.159 E1.5245
G1 X97.655 Y144.159 E0.0322
G1 X76.834 Y123.337 E1.5700
G1 X76.834 Y122.733 E0.0322
G1 X98.260 Y144.159 E1.6156
G1 X98.864 Y144.159 E0.0322
G1 X76.834 Y122.128 E1.6612
G1 X76.834 Y121.524 E0.0322
G1 X99.469 Y144.159 E1.7068
G1 X100.073 Y144.159 E0.0322
G1 X76.834 Y120.919 E1.7524
G1 X76.834 Y120.314 E0.0322
G1 X100.678 Y144.159 E1.7980
G1 X101.283 Y144.159 E0.0322
G1 X76.834 Y119.710 E1.8436
G1 X76.834 Y119.105 E0.0322
G1 X101.887 Y144.159 E1.8892
G1 X102.492 Y144.159 E0.0322
G1 X76.834 Y118.501 E1.9348
G1 X76.834 Y117.896 E0.0322
G1 X103.096 Y144.159 E1.9803
G1 X103.701 Y144.159 E0.0322
G1 X76.834 Y117.292 E2.0259
G1 X76.834 Y116.687 E0.0322
G1 X104.305 Y144.159 E2.0715
G1 X104.910 Y144.159 E0.0322
G1 X76.834 Y116.082 E2.1171
G1 X76.834 Y115.478 E0.0322
G1 X105.515 Y144.159 E2.1627
G1 X106.119 Y144.159 E0.0322
G1 X76.834 Y114.873 E2.2083
G1 X76.834 Y114.269 E0.0322
G1 X106.724 Y144.159 E2.2539
G1 X107.328 Y144.159 E0.0322
G1 X76.834 Y113.664 E2.2995
G1 X76.834 Y113.060 E0.0322
G1 X107.933 Y144.159 E2.3451
G1 X108.538 Y144.159 E0.0322
G1 X76.834 Y112.455 E2.3906
G1 X76.834 Y111.850 E0.0322
G1 X109.142 Y144.159 E2.4362
G1 X109.747 Y144.159 E0.0322
G1 X76.834 Y111.246 E2.4818
G1 X76.834 Y110.641 E0.0322
G1 X110.351 Y144.159 E2.5274
G1 X110.956 Y144.159 E0.0322
G1 X76.834 Y110.037 E2.5730
G1 X76.834 Y109.432 E0.0322
G1 X111.560 Y144.159 E2.6186
G1 X112.165 Y144.159 E0.0322
G1 X76.834 Y108.828 E2.6642
G1 X76.834 Y108.223 E0.0322
G1 X112.770 Y144.159 E2.7098
G1 X113.374 Y144.159 E0.0322
G1 X76.834 Y107.618 E2.7553
G1 X76.834 Y107.014 E0.0322
G1 X113.979 Y144.159 E2.8009
G1 X114.583 Y144.159 E0.0322
G1 X76.834 Y106.409 E2.8465
G1 X76.834 Y105.805 E0.0322
G1 X115.188 Y144.159 E2.8921
G1 X115.792 Y144.159 E0.0322
G1 X76.834 Y105.200 E2.9377
G1 X76.834 Y104.595 E0.0322
G1 X116.397 Y144.159 E2.9833
G1 X117.002 Y144.159 E0.0322
G1 X76.834 Y103.991 E3.0289
G1 X76.834 Y103.386 E0.0322
G1 X117.606 Y144.159 E3.0745
G1 X118.211 Y144.159 E0.0322
G1 X76.834 Y102.782 E3.1201
G1 X76.834 Y102.177 E0.0322
G1 X118.815 Y144.159 E3.1656
G1 X119.420 Y144.159 E0.0322
G1 X76.834 Y101.573 E3.2112
G1 X76.834 Y100.968 E0.0322
G1 X120.024 Y144.159 E3.2568
G1 X120.629 Y144.159 E0.0322
G1 X76.834 Y100.363 E3.3024
G1 X76.834 Y99.759 E0.0322
G1 X121.234 Y144.159 E3.3480
G1 X121.838 Y144.159 E0.0322
G1 X76.834 Y99.154 E3.3936
G1 X76.834 Y98.550 E0.0322
G1 X122.443 Y144.159 E3.4392
G1 X123.047 Y144.159 E0.0322
G1 X76.834 Y97.945 E3.4848
G1 X76.834 Y97.341 E0.0322
G1 X123.652 Y144.159 E3.5304
G1 X124.257 Y144.159 E0.0322
G1 X76.834 Y96.736 E3.5759
G1 X76.834 Y96.131 E0.0322
G1 X124.861 Y144.159 E3.6215
G1 X125.466 Y144.159 E0.0322
G1 X76.834 Y95.527 E3.6671
G1 X76.834 Y94.922 E0.0322
G1 X126.070 Y144.159 E3.7127
G1 X126.675 Y144.159 E0.0322
G1 X76.834 Y94.318 E3.7583
G1 X76.834 Y93.713 E0.0322
G1 X127.279 Y144.159 E3.8039
G1 X127.884 Y144.159 E0.0322
G1 X76.834 Y93.109 E3.8495
G1 X76.834 Y92.504 E0.0322
G1 X128.489 Y144.159 E3.8951
G1 X129.093 Y144.159 E0.0322
G1 X76.834 Y91.899 E3.9407
G1 X76.834 Y91.295 E0.0322
G1 X129.698 Y144.159 E3.9862
G1 X130.302 Y144.159 E0.0322
G1 X76.834 Y90.690 E4.0318
G1 X76.834 Y90.086 E0.0322
G1 X130.907 Y144.159 E4.0774
G1 X131.511 Y144.159 E0.0322
G1 X76.834 Y89.481 E4.1230
G1 X76.834 Y88.877 E0.0322
G1 X132.116 Y144.159 E4.1686
G1 X132.721 Y144.159 E0.0322
G1 X76.834 Y88.272 E4.2142
G1 X76.834 Y87.667 E0.0322
G1 X133.325 Y144.159 E4.2598
G1 X133.930 Y144.159 E0.0322
G1 X76.834 Y87.063 E4.3054
G1 X76.834 Y86.458 E0.0322
G1 X134.534 Y144.159 E4.3510
G1 X135.139 Y144.159 E0.0322
G1 X76.834 Y85.854 E4.3965
G1 X76.834 Y85.249 E0.0322
G1 X135.743 Y144.159 E4.4421
G1 X136.348 Y144.159 E0.0322
G1 X76.834 Y84.644 E4.4877
G1 X76.834 Y84.040 E0.0322
G1 X136.953 Y144.159 E4.5333
G1 X137.557 Y144.159 E0.0322
G1 X76.834 Y83.435 E4.5789
G1 X76.834 Y82.831 E0.0322
G1 X138.162 Y144.159 E4.6245
G1 X138.766 Y144.159 E0.0322
G1 X76.834 Y82.226 E4.6701
G1 X76.834 Y81.622 E0.0322
G1 X139.371 Y144.159 E4.7157
G1 X139.975 Y144.159 E0.0322
G1 X76.834 Y81.017 E4.7613
G1 X76.834 Y80.412 E0.0322
G1 X140.580 Y144.159 E4.8068
G1 X141.185 Y144.159 E0.0322
G1 X76.834 Y79.808 E4.8524
G1 X76.834 Y79.203 E0.0322
G1 X141.789 Y144.159 E4.8980
G1 X142.394 Y144.159 E0.0322
G1 X76.834 Y78.599 E4.9436
G1 X76.834 Y77.994 E0.0322
G1 X142.998 Y144.159 E4.9892
G1 X143.603 Y144.159 E0.0322
G1 X76.834 Y77.390 E5.0348
G1 X76.834 Y76.785 E0.0322
G1 X144.208 Y144.159 E5.0804
G1 X144.812 Y144.159 E0.0322
G1 X76.834 Y76.180 E5.1260
G1 X76.834 Y75.576 E0.0322
G1 X145.417 Y144.159 E5.1716
G1 X146.021 Y144.159 E0.0322
G1 X76.834 Y74.971 E5.2171
G1 X76.834 Y74.367 E0.0322
G1 X146.626 Y144.159 E5.2627
G1 X147.230 Y144.159 E0.0322
G1 X76.834 Y73.762 E5.3083
G1 X76.834 Y73.158 E0.0322
G1 X147.835 Y144.159 E5.3539
G1 X148.440 Y144.159 E0.0322
G1 X76.834 Y72.553 E5.3995
G1 X76.834 Y71.948 E0.0322
G1 X149.044 Y144.159 E5.4451
G1 X149.649 Y144.159 E0.0322
G1 X76.834 Y71.344 E5.4907
G1 X76.834 Y70.739 E0.0322
G1 X150.253 Y144.159 E5.5363
G1 X150.858 Y144.159 E0.0322
G1 X76.834 Y70.135 E5.5819
G1 X76.834 Y69.530 E0.0322
G1 X151.462 Y144.159 E5.6274
G1 X152.067 Y144.159 E0.0322
G1 X76.834 Y68.925 E5.6730
G1 X76.834 Y68.321 E0.0322
G1 X152.672 Y144.159 E5.7186
G1 X153.276 Y144.159 E0.0322
G1 X76.834 Y67.716 E5.7642
