; G-Code generated by Simplify3D(R) Version 4.0.0
; Dec 17, 2017 at 12:48:31 PM
; Settings Summary
;   processName,Fine
;   applyToModels,18_crossbarPin
;   profileName,Prusa Research Original Prusa i3 MK2 (modified)
;   profileVersion,2017-07-23 22:27:18
;   baseProfile,
;   printMaterial,PLA
;   printQuality,High
;   printExtruders,
;   extruderName,Primary Extruder
;   extruderToolheadNumber,0
;   extruderDiameter,0.4
;   extruderAutoWidth,1
;   extruderWidth,0.48
;   extrusionMultiplier,1
;   extruderUseRetract,1
;   extruderRetractionDistance,1.5
;   extruderExtraRestartDistance,0
;   extruderRetractionZLift,0
;   extruderRetractionSpeed,1800
;   extruderUseCoasting,1
;   extruderCoastingDistance,0.2
;   extruderUseWipe,1
;   extruderWipeDistance,2
;   primaryExtruder,0
;   layerHeight,0.1
;   topSolidLayers,3
;   bottomSolidLayers,3
;   perimeterOutlines,3
;   printPerimetersInsideOut,1
;   startPointOption,2
;   startPointOriginX,0
;   startPointOriginY,0
;   sequentialIslands,0
;   spiralVaseMode,0
;   firstLayerHeightPercentage,120
;   firstLayerWidthPercentage,100
;   firstLayerUnderspeed,0.5
;   useRaft,0
;   raftExtruder,0
;   raftTopLayers,3
;   raftBaseLayers,2
;   raftOffset,3
;   raftSeparationDistance,0.14
;   raftTopInfill,100
;   aboveRaftSpeedMultiplier,0.3
;   useSkirt,1
;   skirtExtruder,0
;   skirtLayers,2
;   skirtOutlines,1
;   skirtOffset,4
;   usePrimePillar,0
;   primePillarExtruder,999
;   primePillarWidth,12
;   primePillarLocation,7
;   primePillarSpeedMultiplier,1
;   useOozeShield,0
;   oozeShieldExtruder,999
;   oozeShieldOffset,2
;   oozeShieldOutlines,1
;   oozeShieldSidewallShape,1
;   oozeShieldSidewallAngle,30
;   oozeShieldSpeedMultiplier,1
;   infillExtruder,0
;   internalInfillPattern,Rectilinear
;   externalInfillPattern,Rectilinear
;   infillPercentage,15
;   outlineOverlapPercentage,20
;   infillExtrusionWidthPercentage,100
;   minInfillLength,5
;   infillLayerInterval,1
;   internalInfillAngles,45,-45
;   overlapInternalInfillAngles,0
;   externalInfillAngles,45,-45
;   generateSupport,1
;   supportExtruder,0
;   supportInfillPercentage,40
;   supportExtraInflation,0
;   supportBaseLayers,0
;   denseSupportExtruder,0
;   denseSupportLayers,0
;   denseSupportInfillPercentage,70
;   supportLayerInterval,1
;   supportHorizontalPartOffset,0.3
;   supportUpperSeparationLayers,1
;   supportLowerSeparationLayers,1
;   supportType,0
;   supportGridSpacing,4
;   maxOverhangAngle,45
;   supportAngles,0
;   temperatureName,Primary Extruder,Heated Bed
;   temperatureNumber,0,0
;   temperatureSetpointCount,1,1
;   temperatureSetpointLayers,1,1
;   temperatureSetpointTemperatures,200,60
;   temperatureStabilizeAtStartup,1,1
;   temperatureHeatedBed,0,1
;   temperatureRelayBetweenLayers,0,0
;   temperatureRelayBetweenLoops,0,0
;   fanLayers,1,2
;   fanSpeeds,0,100
;   blipFanToFullPower,0
;   adjustSpeedForCooling,1
;   minSpeedLayerTime,15
;   minCoolingSpeedSlowdown,20
;   increaseFanForCooling,0
;   minFanLayerTime,45
;   maxCoolingFanSpeed,100
;   increaseFanForBridging,0
;   bridgingFanSpeed,100
;   use5D,1
;   relativeEdistances,0
;   allowEaxisZeroing,1
;   independentExtruderAxes,0
;   includeM10123,0
;   stickySupport,1
;   applyToolheadOffsets,0
;   gcodeXoffset,0
;   gcodeYoffset,0
;   gcodeZoffset,0
;   overrideMachineDefinition,1
;   machineTypeOverride,0
;   strokeXoverride,250
;   strokeYoverride,210
;   strokeZoverride,200
;   originOffsetXoverride,0
;   originOffsetYoverride,0
;   originOffsetZoverride,0
;   homeXdirOverride,-1
;   homeYdirOverride,-1
;   homeZdirOverride,-1
;   flipXoverride,1
;   flipYoverride,-1
;   flipZoverride,1
;   toolheadOffsets,0,0|0,0|0,0|0,0|0,0|0,0
;   overrideFirmwareConfiguration,1
;   firmwareTypeOverride,RepRap (Marlin/Repetier/Sprinter)
;   GPXconfigOverride,r2
;   baudRateOverride,250000
;   overridePrinterModels,1
;   printerModelsOverride
;   startingGcode,M115 U3.0.7 ; use the latest firmware version,G28 W ; home all axes without mesh bed leveling,G80 ; run mesh bed leveling routine,G1 Y-3.0 F1000.0 ; prepare to prime,G92 E0 ; reset extrusion distance,G1 X60.0 E9.0  F1000.0 ; priming,G1 X100.0 E12.5  F1000.0 ; priming
;   layerChangeGcode,
;   retractionGcode,
;   toolChangeGcode,
;   endingGcode,M106 S0 ; turn off cooling fan,M104 S0 ; turn off extruder,M140 S0 ; turn off bed,G1 X0 Y200 ; part removal,M84 ; disable motors
;   exportFileFormat,gcode
;   celebration,0
;   celebrationSong,Random Song
;   postProcessing,
;   defaultSpeed,2400
;   outlineUnderspeed,0.8
;   solidInfillUnderspeed,0.8
;   supportUnderspeed,0.8
;   rapidXYspeed,4800
;   rapidZspeed,1002
;   minBridgingArea,50
;   bridgingExtraInflation,0
;   bridgingExtrusionMultiplier,1
;   bridgingSpeedMultiplier,1
;   useFixedBridgingAngle,0
;   fixedBridgingAngle,0
;   applyBridgingToPerimeters,0
;   filamentDiameters,1.75|1.75|1.75|1.75|1.75|1.75
;   filamentPricesPerKg,199|46|46|46|46|46
;   filamentDensities,1.25|1.25|1.25|1.25|1.25|1.25
;   useMinPrintHeight,0
;   minPrintHeight,0
;   useMaxPrintHeight,1
;   maxPrintHeight,235
;   useDiaphragm,0
;   diaphragmLayerInterval,20
;   robustSlicing,1
;   mergeAllIntoSolid,0
;   onlyRetractWhenCrossingOutline,1
;   retractBetweenLayers,1
;   useRetractionMinTravel,0
;   retractionMinTravel,3
;   retractWhileWiping,1
;   onlyWipeOutlines,1
;   avoidCrossingOutline,0
;   maxMovementDetourFactor,3
;   toolChangeRetractionDistance,12
;   toolChangeExtraRestartDistance,-0.5
;   toolChangeRetractionSpeed,600
;   externalThinWallType,0
;   internalThinWallType,2
;   thinWallAllowedOverlapPercentage,25
;   singleExtrusionMinLength,1
;   singleExtrusionMinPrintingWidthPercentage,50
;   singleExtrusionMaxPrintingWidthPercentage,200
;   singleExtrusionEndpointExtension,0.2
;   horizontalSizeCompensation,0
G90
M82
M106 S0
M140 S60
M190 S60
M104 S200 T0
M109 S200 T0
M115 U3.0.7 ; use the latest firmware version
G28 W ; home all axes without mesh bed leveling
G80 ; run mesh bed leveling routine
G1 Y-3.0 F1000.0 ; prepare to prime
G92 E0 ; reset extrusion distance
G1 X60.0 E9.0  F1000.0 ; priming
G1 X100.0 E12.5  F1000.0 ; priming
G92 E0
G1 E-1.5000 F1800
G1 Z0.120 F1002
; process Fine
; layer 1, Z = 0.120
T0
; tool H0.120 W0.480
; skirt
G1 X122.015 Y87.027 F4800
G1 E0.0000 F540
G92 E0
G1 X122.480 Y86.396 E0.0188 F480
G1 X122.487 Y86.387 E0.0191
G1 X122.765 Y86.080 E0.0290
G1 X122.773 Y86.072 E0.0292
G1 X123.355 Y85.546 E0.0480
G1 X123.364 Y85.538 E0.0483
G1 X123.697 Y85.293 E0.0582
G1 X123.707 Y85.287 E0.0585
G1 X124.381 Y84.887 E0.0773
G1 X124.392 Y84.882 E0.0776
G1 X124.767 Y84.707 E0.0875
G1 X124.778 Y84.703 E0.0877
G1 X125.518 Y84.446 E0.1065
G1 X125.530 Y84.443 E0.1068
G1 X125.932 Y84.347 E0.1167
G1 X125.944 Y84.344 E0.1170
G1 X126.721 Y84.240 E0.1358
G1 X126.733 Y84.239 E0.1360
G1 X127.146 Y84.225 E0.1459
G1 X127.158 Y84.225 E0.1462
G1 X127.940 Y84.278 E0.1650
G1 X127.952 Y84.279 E0.1653
G1 X128.360 Y84.348 E0.1752
G1 X128.371 Y84.350 E0.1755
G1 X129.127 Y84.558 E0.1943
G1 X129.139 Y84.561 E0.1945
G1 X129.524 Y84.710 E0.2044
G1 X129.535 Y84.715 E0.2047
G1 X130.235 Y85.068 E0.2235
G1 X130.245 Y85.074 E0.2238
G1 X130.594 Y85.297 E0.2337
G1 X130.604 Y85.304 E0.2340
G1 X131.192 Y85.768 E0.2519
G1 X131.199 Y85.775 E0.2522
G1 X131.451 Y86.010 E0.2604
G1 X131.458 Y86.017 E0.2606
G1 X131.855 Y86.456 E0.2748
G1 X131.861 Y86.463 E0.2750
G1 X132.070 Y86.737 E0.2833
G1 X132.076 Y86.746 E0.2835
G1 X132.479 Y87.377 E0.3015
G1 X132.485 Y87.388 E0.3018
G1 X132.671 Y87.756 E0.3117
G1 X132.676 Y87.767 E0.3120
G1 X132.958 Y88.499 E0.3307
G1 X132.962 Y88.510 E0.3310
G1 X133.071 Y88.909 E0.3409
G1 X133.074 Y88.921 E0.3412
G1 X133.204 Y89.694 E0.3600
G1 X133.205 Y89.706 E0.3603
G1 X133.233 Y90.118 E0.3702
G1 X133.233 Y90.130 E0.3704
G1 X133.207 Y90.913 E0.3892
G1 X133.206 Y90.925 E0.3895
G1 X133.151 Y91.335 E0.3994
G1 X133.149 Y91.347 E0.3997
G1 X132.967 Y92.109 E0.4185
G1 X132.964 Y92.121 E0.4188
G1 X132.828 Y92.512 E0.4287
G1 X132.823 Y92.523 E0.4289
G1 X132.493 Y93.234 E0.4477
G1 X132.488 Y93.245 E0.4480
G1 X132.277 Y93.600 E0.4579
G1 X132.271 Y93.610 E0.4582
G1 X131.806 Y94.241 E0.4770
G1 X131.798 Y94.250 E0.4772
G1 X131.521 Y94.557 E0.4871
G1 X131.512 Y94.566 E0.4874
G1 X130.931 Y95.091 E0.5062
G1 X130.922 Y95.099 E0.5065
G1 X130.589 Y95.344 E0.5164
G1 X130.579 Y95.351 E0.5167
G1 X129.904 Y95.750 E0.5355
G1 X129.894 Y95.756 E0.5357
G1 X129.519 Y95.930 E0.5456
G1 X129.508 Y95.934 E0.5459
G1 X128.800 Y96.180 E0.5639
G1 X128.790 Y96.183 E0.5641
G1 X128.457 Y96.268 E0.5724
G1 X128.447 Y96.271 E0.5726
G1 X127.863 Y96.369 E0.5868
G1 X127.853 Y96.370 E0.5870
G1 X127.510 Y96.399 E0.5953
G1 X127.500 Y96.399 E0.5955
G1 X126.751 Y96.399 E0.6134
G1 X126.739 Y96.399 E0.6137
G1 X126.327 Y96.357 E0.6236
G1 X126.316 Y96.356 E0.6239
G1 X125.547 Y96.199 E0.6427
G1 X125.536 Y96.196 E0.6430
G1 X125.141 Y96.074 E0.6529
G1 X125.130 Y96.070 E0.6532
G1 X124.408 Y95.764 E0.6719
G1 X124.397 Y95.759 E0.6722
G1 X124.035 Y95.560 E0.6821
G1 X124.025 Y95.554 E0.6824
G1 X123.378 Y95.110 E0.7012
G1 X123.369 Y95.103 E0.7015
G1 X123.053 Y94.836 E0.7114
G1 X123.044 Y94.828 E0.7117
G1 X122.499 Y94.264 E0.7304
G1 X122.491 Y94.255 E0.7307
G1 X122.235 Y93.931 E0.7406
G1 X122.228 Y93.921 E0.7409
G1 X121.807 Y93.260 E0.7597
G1 X121.801 Y93.250 E0.7600
G1 X121.614 Y92.881 E0.7699
G1 X121.609 Y92.870 E0.7701
G1 X121.328 Y92.139 E0.7889
G1 X121.324 Y92.127 E0.7892
G1 X121.215 Y91.728 E0.7991
G1 X121.212 Y91.717 E0.7994
G1 X121.087 Y90.976 E0.8174
G1 X121.086 Y90.966 E0.8176
G1 X121.057 Y90.621 E0.8259
G1 X121.057 Y90.611 E0.8262
G1 X121.057 Y89.981 E0.8412
G1 X121.058 Y89.969 E0.8415
G1 X121.100 Y89.559 E0.8514
G1 X121.101 Y89.547 E0.8517
G1 X121.289 Y88.629 E0.8741
G1 X121.292 Y88.615 E0.8745
G1 X121.443 Y88.158 E0.8860
G1 X121.448 Y88.145 E0.8863
G1 X121.792 Y87.404 E0.9059
G1 X121.798 Y87.393 E0.9062
G1 X121.912 Y87.199 E0.9116
G1 X122.008 Y87.037 F480
G1 X122.015 Y87.027 F480
G92 E0
G1 E-1.5000 F1800
; inner perimeter
G1 X126.589 Y89.991 F4800
G1 E0.0000 F1800
G92 E0
G1 X126.665 Y89.887 E0.0031 F432
G1 X126.761 Y89.800 E0.0062
G1 X126.872 Y89.735 E0.0093
G1 X126.994 Y89.692 E0.0123
G1 X127.121 Y89.675 E0.0154
G1 X127.250 Y89.684 E0.0185
G1 X127.374 Y89.718 E0.0216
G1 X127.489 Y89.776 E0.0247
G1 X127.606 Y89.868 E0.0283
G1 X127.637 Y89.903 E0.0294
G1 X127.717 Y90.028 E0.0329
G1 X127.764 Y90.149 E0.0360
G1 X127.785 Y90.276 E0.0391
G1 X127.781 Y90.405 E0.0422
G1 X127.751 Y90.530 E0.0453
G1 X127.697 Y90.647 E0.0484
G1 X127.620 Y90.751 E0.0515
G1 X127.525 Y90.837 E0.0546
G1 X127.414 Y90.903 E0.0576
G1 X127.273 Y90.952 E0.0612
G1 X127.227 Y90.959 E0.0623
G1 X127.078 Y90.959 E0.0659
G1 X126.952 Y90.934 E0.0690
G1 X126.833 Y90.883 E0.0721
G1 X126.727 Y90.810 E0.0751
G1 X126.637 Y90.718 E0.0782
G1 X126.568 Y90.609 E0.0813
G1 X126.522 Y90.489 E0.0844
G1 X126.497 Y90.342 E0.0880
G1 X126.497 Y90.264 E0.0898
G1 X126.518 Y90.177 E0.0920
G1 X126.534 Y90.107 F432
G1 X126.589 Y89.991 F432
G1 X126.174 Y89.745 F4800
G92 E0
G1 X126.307 Y89.563 E0.0054 F432
G1 X126.475 Y89.412 E0.0108
G1 X126.669 Y89.297 E0.0162
G1 X126.882 Y89.223 E0.0216
G1 X127.105 Y89.193 E0.0270
G1 X127.330 Y89.208 E0.0324
G1 X127.548 Y89.268 E0.0378
G1 X127.749 Y89.369 E0.0432
G1 X127.935 Y89.517 E0.0489
G1 X128.020 Y89.610 E0.0519
G1 X128.148 Y89.811 E0.0576
G1 X128.229 Y90.021 E0.0630
G1 X128.267 Y90.243 E0.0684
G1 X128.259 Y90.469 E0.0738
G1 X128.207 Y90.688 E0.0792
G1 X128.112 Y90.893 E0.0846
G1 X127.978 Y91.074 E0.0900
G1 X127.811 Y91.226 E0.0954
G1 X127.617 Y91.340 E0.1008
G1 X127.392 Y91.418 E0.1065
G1 X127.268 Y91.439 E0.1095
G1 X127.030 Y91.439 E0.1152
G1 X126.809 Y91.394 E0.1206
G1 X126.601 Y91.306 E0.1260
G1 X126.416 Y91.179 E0.1314
G1 X126.259 Y91.017 E0.1368
G1 X126.137 Y90.827 E0.1422
G1 X126.056 Y90.616 E0.1476
G1 X126.017 Y90.382 E0.1533
G1 X126.017 Y90.229 E0.1570
G1 X126.021 Y90.192 E0.1579
G1 X126.079 Y89.949 E0.1638
G1 X126.089 Y89.926 E0.1644
G1 X126.174 Y89.745 F432
; outer perimeter
G1 X125.759 Y89.499 F4800
G92 E0
G1 X125.950 Y89.240 E0.0077 F384
G1 X126.188 Y89.023 E0.0154
G1 X126.466 Y88.859 E0.0231
G1 X126.770 Y88.754 E0.0308
G1 X127.089 Y88.711 E0.0386
G1 X127.410 Y88.732 E0.0463
G1 X127.721 Y88.817 E0.0540
G1 X128.008 Y88.963 E0.0617
G1 X128.264 Y89.165 E0.0695
G1 X128.403 Y89.318 E0.0745
G1 X128.579 Y89.593 E0.0823
G1 X128.694 Y89.894 E0.0900
G1 X128.748 Y90.211 E0.0977
G1 X128.737 Y90.533 E0.1054
G1 X128.663 Y90.846 E0.1131
G1 X128.527 Y91.139 E0.1208
G1 X128.336 Y91.398 E0.1285
G1 X128.097 Y91.614 E0.1363
G1 X127.820 Y91.778 E0.1440
G1 X127.512 Y91.885 E0.1518
G1 X127.308 Y91.919 E0.1567
G1 X126.982 Y91.919 E0.1645
G1 X126.666 Y91.855 E0.1723
G1 X126.370 Y91.730 E0.1800
G1 X126.104 Y91.547 E0.1877
G1 X125.880 Y91.316 E0.1954
G1 X125.707 Y91.044 E0.2031
G1 X125.591 Y90.744 E0.2108
G1 X125.537 Y90.422 E0.2186
G1 X125.537 Y90.204 E0.2239
G1 X125.546 Y90.112 E0.2261
G1 X125.623 Y89.791 E0.2340
G1 X125.674 Y89.680 E0.2369
G1 X125.759 Y89.499 F384
G1 X125.950 Y89.240 F2400
G1 X126.188 Y89.023 F2400
G1 X126.466 Y88.859 F2400
G1 X126.770 Y88.754 F2400
G1 X127.089 Y88.711 F2400
G1 X127.410 Y88.732 F2400
G1 X127.476 Y88.750 F2400
; solid layer
G1 X126.961 Y90.137 F4800
G92 E0
G1 X127.183 Y90.359 E0.0075 F384
G1 X127.325 Y90.500 F384
G92 E0
G1 E-1.5000 F1800
; layer 2, Z = 0.220
M106 S255
; tool H0.100 W0.480
; skirt
G1 X131.512 Y94.566 F4800
G1 Z0.220 F1002
G1 E0.0000 F1800
G92 E0
G1 X130.931 Y95.091 E0.0156 F480
G1 X130.922 Y95.099 E0.0159
G1 X130.589 Y95.344 E0.0241
G1 X130.579 Y95.351 E0.0244
G1 X129.904 Y95.750 E0.0400
G1 X129.894 Y95.756 E0.0403
G1 X129.519 Y95.930 E0.0485
G1 X129.508 Y95.934 E0.0487
G1 X128.800 Y96.180 E0.0637
G1 X128.790 Y96.183 E0.0639
G1 X128.457 Y96.268 E0.0708
G1 X128.447 Y96.271 E0.0710
G1 X127.863 Y96.369 E0.0828
G1 X127.853 Y96.370 E0.0830
G1 X127.510 Y96.399 E0.0898
G1 X127.500 Y96.399 E0.0901
G1 X126.751 Y96.399 E0.1050
G1 X126.739 Y96.399 E0.1052
G1 X126.327 Y96.357 E0.1135
G1 X126.316 Y96.356 E0.1137
G1 X125.547 Y96.199 E0.1294
G1 X125.536 Y96.196 E0.1296
G1 X125.141 Y96.074 E0.1379
G1 X125.130 Y96.070 E0.1381
G1 X124.408 Y95.764 E0.1537
G1 X124.397 Y95.759 E0.1540
G1 X124.035 Y95.560 E0.1622
G1 X124.025 Y95.554 E0.1625
G1 X123.378 Y95.110 E0.1781
G1 X123.369 Y95.103 E0.1784
G1 X123.053 Y94.836 E0.1866
G1 X123.044 Y94.828 E0.1869
G1 X122.499 Y94.264 E0.2025
G1 X122.491 Y94.255 E0.2027
G1 X122.235 Y93.931 E0.2110
G1 X122.228 Y93.921 E0.2112
G1 X121.807 Y93.260 E0.2269
G1 X121.801 Y93.250 E0.2271
G1 X121.614 Y92.881 E0.2354
G1 X121.609 Y92.870 E0.2356
G1 X121.328 Y92.139 E0.2512
G1 X121.324 Y92.127 E0.2515
G1 X121.215 Y91.728 E0.2597
G1 X121.212 Y91.717 E0.2600
G1 X121.087 Y90.976 E0.2749
G1 X121.086 Y90.966 E0.2751
G1 X121.057 Y90.621 E0.2821
G1 X121.057 Y90.611 E0.2823
G1 X121.057 Y89.981 E0.2948
G1 X121.058 Y89.969 E0.2951
G1 X121.100 Y89.559 E0.3033
G1 X121.101 Y89.547 E0.3035
G1 X121.289 Y88.629 E0.3222
G1 X121.292 Y88.615 E0.3225
G1 X121.443 Y88.158 E0.3321
G1 X121.448 Y88.145 E0.3324
G1 X121.792 Y87.404 E0.3487
G1 X121.798 Y87.393 E0.3490
G1 X122.008 Y87.037 E0.3572
G1 X122.015 Y87.027 E0.3574
G1 X122.480 Y86.396 E0.3731
G1 X122.487 Y86.387 E0.3733
G1 X122.765 Y86.080 E0.3816
G1 X122.773 Y86.072 E0.3818
G1 X123.355 Y85.546 E0.3975
G1 X123.364 Y85.538 E0.3977
G1 X123.697 Y85.293 E0.4060
G1 X123.707 Y85.287 E0.4062
G1 X124.381 Y84.887 E0.4218
G1 X124.392 Y84.882 E0.4221
G1 X124.767 Y84.707 E0.4303
G1 X124.778 Y84.703 E0.4306
G1 X125.518 Y84.446 E0.4462
G1 X125.530 Y84.443 E0.4464
G1 X125.932 Y84.347 E0.4547
G1 X125.944 Y84.344 E0.4549
G1 X126.721 Y84.240 E0.4706
G1 X126.733 Y84.239 E0.4708
G1 X127.146 Y84.225 E0.4791
G1 X127.158 Y84.225 E0.4793
G1 X127.940 Y84.278 E0.4949
G1 X127.952 Y84.279 E0.4952
G1 X128.360 Y84.348 E0.5034
G1 X128.371 Y84.350 E0.5037
G1 X129.127 Y84.558 E0.5193
G1 X129.139 Y84.561 E0.5196
G1 X129.524 Y84.710 E0.5278
G1 X129.535 Y84.715 E0.5280
G1 X130.235 Y85.068 E0.5437
G1 X130.245 Y85.074 E0.5439
G1 X130.594 Y85.297 E0.5522
G1 X130.604 Y85.304 E0.5524
G1 X131.192 Y85.768 E0.5674
G1 X131.199 Y85.775 E0.5676
