; G-Code generated by Simplify3D(R) Version 4.0.0
; Dec 17, 2017 at 3:38:47 PM
; Settings Summary
;   processName,Fine
;   applyToModels,20_grill
;   profileName,Prusa Research Original Prusa i3 MK2 (modified)
;   profileVersion,2017-07-23 22:27:18
;   baseProfile,
;   printMaterial,PLA
;   printQuality,High
;   printExtruders,
;   extruderName,Primary Extruder
;   extruderToolheadNumber,0
;   extruderDiameter,0.4
;   extruderAutoWidth,1
;   extruderWidth,0.48
;   extrusionMultiplier,1
;   extruderUseRetract,1
;   extruderRetractionDistance,1.5
;   extruderExtraRestartDistance,0
;   extruderRetractionZLift,0
;   extruderRetractionSpeed,1800
;   extruderUseCoasting,1
;   extruderCoastingDistance,0.2
;   extruderUseWipe,1
;   extruderWipeDistance,2
;   primaryExtruder,0
;   layerHeight,0.1
;   topSolidLayers,3
;   bottomSolidLayers,3
;   perimeterOutlines,3
;   printPerimetersInsideOut,1
;   startPointOption,2
;   startPointOriginX,0
;   startPointOriginY,0
;   sequentialIslands,0
;   spiralVaseMode,0
;   firstLayerHeightPercentage,120
;   firstLayerWidthPercentage,100
;   firstLayerUnderspeed,0.5
;   useRaft,0
;   raftExtruder,0
;   raftTopLayers,3
;   raftBaseLayers,2
;   raftOffset,3
;   raftSeparationDistance,0.14
;   raftTopInfill,100
;   aboveRaftSpeedMultiplier,0.3
;   useSkirt,1
;   skirtExtruder,0
;   skirtLayers,2
;   skirtOutlines,1
;   skirtOffset,4
;   usePrimePillar,0
;   primePillarExtruder,999
;   primePillarWidth,12
;   primePillarLocation,7
;   primePillarSpeedMultiplier,1
;   useOozeShield,0
;   oozeShieldExtruder,999
;   oozeShieldOffset,2
;   oozeShieldOutlines,1
;   oozeShieldSidewallShape,1
;   oozeShieldSidewallAngle,30
;   oozeShieldSpeedMultiplier,1
;   infillExtruder,0
;   internalInfillPattern,Rectilinear
;   externalInfillPattern,Rectilinear
;   infillPercentage,15
;   outlineOverlapPercentage,20
;   infillExtrusionWidthPercentage,100
;   minInfillLength,5
;   infillLayerInterval,1
;   internalInfillAngles,45,-45
;   overlapInternalInfillAngles,0
;   externalInfillAngles,45,-45
;   generateSupport,1
;   supportExtruder,0
;   supportInfillPercentage,40
;   supportExtraInflation,0
;   supportBaseLayers,0
;   denseSupportExtruder,0
;   denseSupportLayers,0
;   denseSupportInfillPercentage,70
;   supportLayerInterval,1
;   supportHorizontalPartOffset,0.3
;   supportUpperSeparationLayers,1
;   supportLowerSeparationLayers,1
;   supportType,0
;   supportGridSpacing,4
;   maxOverhangAngle,45
;   supportAngles,0
;   temperatureName,Primary Extruder,Heated Bed
;   temperatureNumber,0,0
;   temperatureSetpointCount,1,1
;   temperatureSetpointLayers,1,1
;   temperatureSetpointTemperatures,210,60
;   temperatureStabilizeAtStartup,1,1
;   temperatureHeatedBed,0,1
;   temperatureRelayBetweenLayers,0,0
;   temperatureRelayBetweenLoops,0,0
;   fanLayers,1,2
;   fanSpeeds,0,100
;   blipFanToFullPower,0
;   adjustSpeedForCooling,1
;   minSpeedLayerTime,15
;   minCoolingSpeedSlowdown,20
;   increaseFanForCooling,0
;   minFanLayerTime,45
;   maxCoolingFanSpeed,100
;   increaseFanForBridging,0
;   bridgingFanSpeed,100
;   use5D,1
;   relativeEdistances,0
;   allowEaxisZeroing,1
;   independentExtruderAxes,0
;   includeM10123,0
;   stickySupport,1
;   applyToolheadOffsets,0
;   gcodeXoffset,0
;   gcodeYoffset,0
;   gcodeZoffset,0
;   overrideMachineDefinition,1
;   machineTypeOverride,0
;   strokeXoverride,250
;   strokeYoverride,210
;   strokeZoverride,200
;   originOffsetXoverride,0
;   originOffsetYoverride,0
;   originOffsetZoverride,0
;   homeXdirOverride,-1
;   homeYdirOverride,-1
;   homeZdirOverride,-1
;   flipXoverride,1
;   flipYoverride,-1
;   flipZoverride,1
;   toolheadOffsets,0,0|0,0|0,0|0,0|0,0|0,0
;   overrideFirmwareConfiguration,1
;   firmwareTypeOverride,RepRap (Marlin/Repetier/Sprinter)
;   GPXconfigOverride,r2
;   baudRateOverride,250000
;   overridePrinterModels,1
;   printerModelsOverride
;   startingGcode,M115 U3.0.7 ; use the latest firmware version,G28 W ; home all axes without mesh bed leveling,G80 ; run mesh bed leveling routine,G1 Y-3.0 F1000.0 ; prepare to prime,G92 E0 ; reset extrusion distance,G1 X60.0 E9.0  F1000.0 ; priming,G1 X100.0 E12.5  F1000.0 ; priming
;   layerChangeGcode,
;   retractionGcode,
;   toolChangeGcode,
;   endingGcode,M106 S0 ; turn off cooling fan,M104 S0 ; turn off extruder,M140 S0 ; turn off bed,G1 X0 Y200 ; part removal,M84 ; disable motors
;   exportFileFormat,gcode
;   celebration,0
;   celebrationSong,Random Song
;   postProcessing,
;   defaultSpeed,2400
;   outlineUnderspeed,0.8
;   solidInfillUnderspeed,0.8
;   supportUnderspeed,0.8
;   rapidXYspeed,4800
;   rapidZspeed,1002
;   minBridgingArea,50
;   bridgingExtraInflation,0
;   bridgingExtrusionMultiplier,1
;   bridgingSpeedMultiplier,1
;   useFixedBridgingAngle,0
;   fixedBridgingAngle,0
;   applyBridgingToPerimeters,0
;   filamentDiameters,1.75|1.75|1.75|1.75|1.75|1.75
;   filamentPricesPerKg,199|46|46|46|46|46
;   filamentDensities,1.25|1.25|1.25|1.25|1.25|1.25
;   useMinPrintHeight,0
;   minPrintHeight,0
;   useMaxPrintHeight,1
;   maxPrintHeight,235
;   useDiaphragm,0
;   diaphragmLayerInterval,20
;   robustSlicing,1
;   mergeAllIntoSolid,0
;   onlyRetractWhenCrossingOutline,1
;   retractBetweenLayers,1
;   useRetractionMinTravel,0
;   retractionMinTravel,3
;   retractWhileWiping,1
;   onlyWipeOutlines,1
;   avoidCrossingOutline,0
;   maxMovementDetourFactor,3
;   toolChangeRetractionDistance,12
;   toolChangeExtraRestartDistance,-0.5
;   toolChangeRetractionSpeed,600
;   externalThinWallType,0
;   internalThinWallType,2
;   thinWallAllowedOverlapPercentage,25
;   singleExtrusionMinLength,1
;   singleExtrusionMinPrintingWidthPercentage,50
;   singleExtrusionMaxPrintingWidthPercentage,200
;   singleExtrusionEndpointExtension,0.2
;   horizontalSizeCompensation,0
G90
M82
M106 S0
M140 S60
M190 S60
M104 S210 T0
M109 S210 T0
M115 U3.0.7 ; use the latest firmware version
G28 W ; home all axes without mesh bed leveling
G80 ; run mesh bed leveling routine
G1 Y-3.0 F1000.0 ; prepare to prime
G92 E0 ; reset extrusion distance
G1 X60.0 E9.0  F1000.0 ; priming
G1 X100.0 E12.5  F1000.0 ; priming
G92 E0
G1 E-1.5000 F1800
G1 Z0.120 F1002
; process Fine
; layer 1, Z = 0.120
T0
; tool H0.120 W0.480
; skirt
G1 X87.645 Y67.515 F4800
G1 E0.0000 F540
G92 E0
G1 X90.056 Y65.104 E0.0816 F1200
G1 X90.144 Y65.068 E0.0839
G1 X93.021 Y65.068 E0.1528
G1 X93.113 Y64.975 E0.1559
G1 X93.201 Y64.938 E0.1582
G1 X101.040 Y64.938 E0.3460
G1 X101.129 Y64.975 E0.3482
G1 X101.194 Y65.041 E0.3505
G1 X113.004 Y65.046 E0.6333
G1 X113.783 Y64.267 E0.6596
G1 X113.871 Y64.230 E0.6619
G1 X117.294 Y64.230 E0.7439
G1 X117.380 Y64.265 E0.7461
G1 X118.212 Y65.068 E0.7738
G1 X119.858 Y65.068 E0.8132
G1 X119.946 Y65.104 E0.8155
G1 X122.357 Y67.515 E0.8972
G1 X122.393 Y67.603 E0.8994
G1 X122.393 Y68.462 E0.9200
G1 X123.543 Y69.612 E0.9589
G1 X123.579 Y69.700 E0.9612
G1 X123.579 Y77.589 E1.1502
G1 X123.543 Y77.677 E1.1524
G1 X123.515 Y77.705 E1.1534
G1 X124.092 Y78.282 E1.1729
G1 X124.129 Y78.370 E1.1752
G1 X124.129 Y86.259 E1.3641
G1 X124.092 Y86.347 E1.3664
G1 X123.230 Y87.209 E1.3956
G1 X123.230 Y91.228 E1.4918
G1 X123.211 Y91.274 E1.4930
G1 X123.424 Y91.487 E1.5003
G1 X123.461 Y91.575 E1.5025
G1 X123.462 Y107.725 E1.8893
G1 X123.461 Y107.728 E1.8893
G1 X123.461 Y115.425 E2.0737
G1 X123.425 Y115.513 E2.0760
G1 X121.514 Y117.423 E2.1406
G1 X121.514 Y118.191 E2.1590
G1 X121.478 Y118.279 E2.1613
G1 X119.067 Y120.689 E2.2430
G1 X118.979 Y120.726 E2.2452
G1 X115.062 Y120.726 E2.3390
G1 X114.838 Y120.950 E2.3466
G1 X114.749 Y120.987 E2.3489
G1 X106.860 Y120.987 E2.5379
G1 X106.772 Y120.950 E2.5401
G1 X106.524 Y120.702 E2.5486
G1 X102.406 Y120.702 E2.6471
G1 X102.318 Y120.665 E2.6494
G1 X102.299 Y120.646 E2.6501
G1 X101.460 Y120.646 E2.6702
G1 X101.162 Y120.944 E2.6803
G1 X101.074 Y120.981 E2.6826
G1 X93.184 Y120.981 E2.8715
G1 X93.096 Y120.944 E2.8738
G1 X92.838 Y120.687 E2.8825
G1 X89.519 Y120.687 E2.9620
G1 X89.431 Y120.650 E2.9643
G1 X87.020 Y118.239 E3.0459
G1 X86.984 Y118.151 E3.0482
G1 X86.984 Y115.919 E3.1017
G1 X86.578 Y115.513 E3.1154
G1 X86.541 Y115.425 E3.1177
G1 X86.541 Y107.575 E3.3057
G1 X86.578 Y107.487 E3.3080
G1 X86.627 Y107.438 E3.3096
G1 X86.627 Y102.318 E3.4322
G1 X86.663 Y102.230 E3.4345
G1 X86.736 Y102.158 E3.4370
G1 X86.736 Y97.012 E3.5602
G1 X86.772 Y96.924 E3.5625
G1 X86.780 Y96.917 E3.5627
G1 X86.519 Y96.656 E3.5715
G1 X86.483 Y96.568 E3.5738
G1 X86.483 Y88.679 E3.7627
G1 X86.519 Y88.591 E3.7650
G1 X87.290 Y87.820 E3.7911
G1 X85.656 Y86.185 E3.8465
G1 X85.619 Y86.097 E3.8488
G1 X85.619 Y78.208 E4.0377
G1 X85.656 Y78.119 E4.0400
G1 X86.209 Y77.566 E4.0587
G1 X86.209 Y69.974 E4.2406
G1 X86.245 Y69.885 E4.2428
G1 X87.609 Y68.522 E4.2890
G1 X87.609 Y67.707 E4.3085
G1 X87.609 Y67.603 F1200
G1 X87.645 Y67.515 F1200
G92 E0
G1 E-1.5000 F1800
; inner perimeter
G1 X93.360 Y84.264 F4800
G1 E0.0000 F1800
G92 E0
G1 X93.886 Y84.264 E0.0126 F1080
G1 X93.886 Y85.002 E0.0303
G1 X93.360 Y85.002 E0.0429
G1 X93.360 Y84.464 E0.0557
G1 X93.360 Y84.264 F1080
; outer perimeter
G1 X92.880 Y84.142 F4800
G92 E0
G1 X91.625 Y84.142 E0.0300 F960
G1 X91.625 Y83.784 E0.0386
G1 X94.132 Y83.784 E0.0986
G1 X94.221 Y81.294 E0.1583
G1 X91.729 Y81.294 E0.2180
G1 X91.729 Y80.937 E0.2265
G1 X94.234 Y80.937 E0.2865
G1 X94.323 Y78.447 E0.3462
G1 X91.833 Y78.447 E0.4058
G1 X91.833 Y78.090 E0.4143
G1 X94.336 Y78.090 E0.4743
G1 X94.366 Y77.238 E0.4947
G1 X94.366 Y85.482 E0.6921
G1 X92.564 Y85.482 E0.7353
G1 X92.564 Y85.124 E0.7438
G1 X92.880 Y85.124 E0.7514
G1 X92.880 Y84.342 E0.7701
G1 X92.880 Y84.142 F960
G92 E0
G1 X91.625 Y84.142 E-0.9408 F2400
G1 X91.625 Y83.784 E-1.2089
G1 X92.014 Y83.784 E-1.5000
G1 X92.041 Y87.971 F4800
G1 E0.0000 F1800
G92 E0
G1 X94.366 Y87.972 E0.0557 F960
G1 X94.366 Y88.329 E0.0642
G1 X92.041 Y88.329 E0.1199
G1 X92.041 Y88.172 E0.1237
G1 X92.041 Y87.972 F960
G92 E0
G1 X94.041 Y87.971 E-1.5000 F2400
G1 X94.366 Y75.600 F4800
G1 E0.0000 F1800
G92 E0
G1 X91.937 Y75.600 E0.0582 F960
G1 X91.937 Y75.242 E0.0667
G1 X94.366 Y75.242 E0.1249
G1 X94.366 Y75.400 E0.1287
G1 X94.366 Y75.600 F960
G92 E0
G1 X92.366 Y75.600 E-1.5000 F2400
G1 X92.041 Y72.752 F4800
G1 E0.0000 F1800
G92 E0
G1 X92.041 Y72.395 E0.0086 F960
G1 X94.366 Y72.395 E0.0642
G1 X94.366 Y72.752 E0.0728
G1 X92.241 Y72.752 E0.1237
G1 X92.041 Y72.752 F960
G92 E0
G1 X92.041 Y72.395 E-0.2681 F2400
G1 X93.683 Y72.395 E-1.5000
G1 X94.366 Y69.905 F4800
G1 E0.0000 F1800
G92 E0
G1 X92.145 Y69.905 E0.0532 F960
G1 X92.145 Y69.548 E0.0618
G1 X94.366 Y69.548 E0.1149
G1 X94.366 Y69.705 E0.1187
G1 X94.366 Y69.905 F960
G92 E0
G1 X92.366 Y69.905 E-1.5000 F2400
G1 X91.937 Y90.819 F4800
G1 E0.0000 F1800
G92 E0
G1 X94.366 Y90.819 E0.0582 F960
G1 X94.366 Y91.176 E0.0667
G1 X91.937 Y91.176 E0.1249
G1 X91.937 Y91.019 E0.1287
G1 X91.937 Y90.819 F960
G92 E0
G1 X93.937 Y90.819 E-1.5000 F2400
G1 X94.366 Y93.651 F4800
G1 E0.0000 F1800
G92 E0
G1 X94.366 Y97.905 E0.1019 F960
G1 X94.213 Y97.905 E0.1055
G1 X94.251 Y96.871 E0.1303
G1 X91.729 Y96.871 E0.1907
G1 X91.729 Y96.513 E0.1993
G1 X94.264 Y96.513 E0.2600
G1 X94.353 Y94.024 E0.3196
G1 X91.833 Y94.024 E0.3800
G1 X91.833 Y93.666 E0.3885
G1 X94.181 Y93.666 E0.4448
G1 X94.366 Y93.666 F960
G1 X94.366 Y93.651 F960
G92 E0
G1 X94.366 Y95.651 E-1.5000 F2400
G1 X115.820 Y91.176 F4800
G1 E0.0000 F1800
G92 E0
G1 X115.820 Y90.819 E0.0086 F960
G1 X118.065 Y90.819 E0.0623
G1 X118.065 Y91.176 E0.0709
G1 X116.020 Y91.176 E0.1199
G1 X115.820 Y91.176 F960
G92 E0
G1 X115.820 Y90.819 E-0.2681 F2400
G1 X117.463 Y90.819 E-1.5000
G1 X117.961 Y88.329 F4800
G1 E0.0000 F1800
G92 E0
G1 X115.820 Y88.329 E0.0513 F960
G1 X115.820 Y87.971 E0.0598
G1 X117.961 Y87.972 E0.1111
G1 X117.961 Y88.129 E0.1149
G1 X117.961 Y88.329 F960
G92 E0
G1 X115.961 Y88.329 E-1.5000 F2400
G1 X115.820 Y85.482 F4800
G1 E0.0000 F1800
G92 E0
G1 X115.820 Y82.385 E0.0742 F960
G1 X115.870 Y83.784 E0.1077
G1 X118.377 Y83.784 E0.1677
G1 X118.377 Y84.142 E0.1763
G1 X117.122 Y84.142 E0.2063
G1 X117.122 Y85.124 E0.2298
G1 X117.438 Y85.124 E0.2374
G1 X117.438 Y85.482 E0.2460
G1 X116.020 Y85.482 E0.2799
G1 X115.820 Y85.482 F960
G1 X115.820 Y83.482 F2400
G1 X115.820 Y81.294 F4800
G92 E0
G1 X115.820 Y80.937 E0.0086 F960
G1 X118.273 Y80.937 E0.0673
G1 X118.273 Y81.294 E0.0759
G1 X116.020 Y81.294 E0.1298
G1 X115.820 Y81.294 F960
G92 E0
G1 X115.820 Y80.937 E-0.2681 F2400
G1 X117.463 Y80.937 E-1.5000
G1 X118.169 Y78.447 F4800
G1 E0.0000 F1800
G92 E0
G1 X115.820 Y78.447 E0.0563 F960
G1 X115.820 Y78.090 E0.0648
G1 X118.169 Y78.090 E0.1211
G1 X118.169 Y78.247 E0.1248
G1 X118.169 Y78.447 F960
G92 E0
G1 X116.169 Y78.447 E-1.5000 F2400
G1 X115.820 Y75.600 F4800
G1 E0.0000 F1800
G92 E0
G1 X115.820 Y75.242 E0.0086 F960
G1 X118.065 Y75.242 E0.0623
G1 X118.065 Y75.600 E0.0709
G1 X116.020 Y75.600 E0.1199
G1 X115.820 Y75.600 F960
G92 E0
G1 X115.820 Y75.242 E-0.2681 F2400
G1 X117.463 Y75.242 E-1.5000
G1 X117.961 Y72.752 F4800
G1 E0.0000 F1800
G92 E0
G1 X115.820 Y72.752 E0.0513 F960
G1 X115.820 Y72.395 E0.0598
G1 X117.961 Y72.395 E0.1111
G1 X117.961 Y72.552 E0.1149
G1 X117.961 Y72.752 F960
G92 E0
G1 X115.961 Y72.752 E-1.5000 F2400
G1 X115.820 Y69.905 F4800
G1 E0.0000 F1800
G92 E0
G1 X115.820 Y69.548 E0.0086 F960
G1 X117.857 Y69.548 E0.0573
G1 X117.857 Y69.905 E0.0659
G1 X116.020 Y69.905 E0.1099
G1 X115.820 Y69.905 F960
G92 E0
G1 X115.820 Y69.548 E-0.2681 F2400
G1 X117.463 Y69.548 E-1.5000
; gap fill
G1 X116.681 Y84.173 F4800
G1 E0.0000 F1800
G92 E0
G1 X116.733 Y84.225 E0.0018 F960
G1 X116.733 Y84.904 E0.0180
G1 X116.209 Y84.380 E0.0358
G1 X116.209 Y84.907 E0.0484
G1 X116.209 Y85.058 F960
G1 X116.243 Y85.093 F960
G92 E0
G1 E-1.5000 F1800
; support
G1 X116.236 Y86.700 F4800
G1 E0.0000 F1800
G92 E0
G1 X118.750 Y86.700 E0.0602 F960
G1 X118.750 Y85.500 E0.0889
G1 X118.477 Y85.500 E0.0955
G1 X118.277 Y85.500 F960
G92 E0
G1 E-1.5000 F1800
G1 X119.211 Y84.300 F4800
G1 E0.0000 F1800
G92 E0
G1 X119.649 Y84.300 E0.0105 F960
G1 X119.649 Y83.100 E0.0392
G1 X119.211 Y83.100 E0.0497
G1 X119.211 Y83.004 E0.0520
G1 X118.678 Y83.004 E0.0648
G1 X116.689 Y83.004 E0.1124
G1 X116.656 Y82.074 E0.1347
G1 X119.108 Y82.074 E0.1934
G1 X119.108 Y81.900 E0.1975
G1 X119.649 Y81.900 E0.2105
G1 X119.649 Y80.700 E0.2392
G1 X119.308 Y80.700 E0.2474
G1 X119.108 Y80.700 F960
G92 E0
G1 E-1.5000 F1800
G1 X119.099 Y74.700 F4800
G1 E0.0000 F1800
G92 E0
G1 X118.901 Y74.700 E0.0047 F960
G1 X118.901 Y74.462 E0.0104
G1 X118.366 Y74.462 E0.0232
G1 X116.385 Y74.462 E0.0707
G1 X116.352 Y73.532 E0.0930
G1 X118.797 Y73.532 E0.1515
G1 X118.797 Y73.500 E0.1523
G1 X119.099 Y73.500 E0.1595
G1 X119.099 Y72.300 E0.1883
G1 X118.997 Y72.300 E0.1907
G1 X118.797 Y72.300 F960
G92 E0
G1 E-1.5000 F1800
G1 X95.151 Y69.900 F4800
G1 E0.0000 F1800
G92 E0
G1 X114.778 Y69.900 E0.4700 F960
G1 X114.778 Y71.100 E0.4988
G1 X95.151 Y71.100 E0.9688
G1 X95.151 Y72.300 E0.9975
G1 X115.035 Y72.300 E1.4737
G1 X115.035 Y73.500 E1.5024
G1 X95.151 Y73.500 E1.9786
G1 X95.151 Y74.700 E2.0074
G1 X115.035 Y74.700 E2.4835
G1 X115.035 Y75.644 E2.5062
G1 X114.981 Y75.644 E2.5075
G1 X114.981 Y75.900 E2.5136
G1 X95.151 Y75.900 E2.9885
G1 X95.151 Y77.100 E3.0172
G1 X114.981 Y77.100 E3.4921
G1 X114.981 Y78.300 E3.5208
G1 X95.151 Y78.300 E3.9957
G1 X95.151 Y79.500 E4.0244
G1 X114.981 Y79.500 E4.4993
G1 X114.981 Y80.700 E4.5280
G1 X95.151 Y80.700 E5.0029
G1 X95.151 Y81.900 E5.0317
G1 X114.981 Y81.900 E5.5065
G1 X114.981 Y83.100 E5.5353
G1 X95.151 Y83.100 E6.0102
G1 X95.151 Y84.300 E6.0389
G1 X114.981 Y84.300 E6.5138
G1 X114.981 Y85.283 E6.5373
G1 X115.035 Y85.283 E6.5386
G1 X115.035 Y85.500 E6.5438
G1 X95.151 Y85.500 E7.0200
G1 X95.151 Y86.700 E7.0487
G1 X115.035 Y86.700 E7.5249
G1 X115.035 Y87.900 E7.5536
G1 X95.151 Y87.900 E8.0298
G1 X95.151 Y89.100 E8.0586
G1 X115.035 Y89.100 E8.5347
G1 X115.035 Y89.109 E8.5349
G1 X118.750 Y89.109 E8.6239
G1 X118.750 Y89.283 E8.6281
G1 X114.981 Y89.283 E8.7183
G1 X114.981 Y90.300 E8.7427
G1 X95.151 Y90.300 E9.2176
G1 X95.151 Y91.500 E9.2463
G1 X114.981 Y91.500 E9.7212
G1 X114.981 Y92.700 E9.7499
G1 X95.151 Y92.700 E10.2248
G1 X95.151 Y93.900 E10.2535
G1 X118.981 Y93.900 E10.8242
