; G-Code generated by Simplify3D(R) Version 4.0.0
; Dec 17, 2017 at 12:49:27 PM
; Settings Summary
;   processName,Fine
;   applyToModels,21_magazineFloorplate
;   profileName,Prusa Research Original Prusa i3 MK2 (modified)
;   profileVersion,2017-07-23 22:27:18
;   baseProfile,
;   printMaterial,PLA
;   printQuality,High
;   printExtruders,
;   extruderName,Primary Extruder
;   extruderToolheadNumber,0
;   extruderDiameter,0.4
;   extruderAutoWidth,1
;   extruderWidth,0.48
;   extrusionMultiplier,1
;   extruderUseRetract,1
;   extruderRetractionDistance,1.5
;   extruderExtraRestartDistance,0
;   extruderRetractionZLift,0
;   extruderRetractionSpeed,1800
;   extruderUseCoasting,1
;   extruderCoastingDistance,0.2
;   extruderUseWipe,1
;   extruderWipeDistance,2
;   primaryExtruder,0
;   layerHeight,0.1
;   topSolidLayers,3
;   bottomSolidLayers,3
;   perimeterOutlines,3
;   printPerimetersInsideOut,1
;   startPointOption,2
;   startPointOriginX,0
;   startPointOriginY,0
;   sequentialIslands,0
;   spiralVaseMode,0
;   firstLayerHeightPercentage,120
;   firstLayerWidthPercentage,100
;   firstLayerUnderspeed,0.5
;   useRaft,0
;   raftExtruder,0
;   raftTopLayers,3
;   raftBaseLayers,2
;   raftOffset,3
;   raftSeparationDistance,0.14
;   raftTopInfill,100
;   aboveRaftSpeedMultiplier,0.3
;   useSkirt,1
;   skirtExtruder,0
;   skirtLayers,2
;   skirtOutlines,1
;   skirtOffset,4
;   usePrimePillar,0
;   primePillarExtruder,999
;   primePillarWidth,12
;   primePillarLocation,7
;   primePillarSpeedMultiplier,1
;   useOozeShield,0
;   oozeShieldExtruder,999
;   oozeShieldOffset,2
;   oozeShieldOutlines,1
;   oozeShieldSidewallShape,1
;   oozeShieldSidewallAngle,30
;   oozeShieldSpeedMultiplier,1
;   infillExtruder,0
;   internalInfillPattern,Rectilinear
;   externalInfillPattern,Rectilinear
;   infillPercentage,15
;   outlineOverlapPercentage,20
;   infillExtrusionWidthPercentage,100
;   minInfillLength,5
;   infillLayerInterval,1
;   internalInfillAngles,45,-45
;   overlapInternalInfillAngles,0
;   externalInfillAngles,45,-45
;   generateSupport,1
;   supportExtruder,0
;   supportInfillPercentage,40
;   supportExtraInflation,0
;   supportBaseLayers,0
;   denseSupportExtruder,0
;   denseSupportLayers,0
;   denseSupportInfillPercentage,70
;   supportLayerInterval,1
;   supportHorizontalPartOffset,0.3
;   supportUpperSeparationLayers,1
;   supportLowerSeparationLayers,1
;   supportType,0
;   supportGridSpacing,4
;   maxOverhangAngle,45
;   supportAngles,0
;   temperatureName,Primary Extruder,Heated Bed
;   temperatureNumber,0,0
;   temperatureSetpointCount,1,1
;   temperatureSetpointLayers,1,1
;   temperatureSetpointTemperatures,200,60
;   temperatureStabilizeAtStartup,1,1
;   temperatureHeatedBed,0,1
;   temperatureRelayBetweenLayers,0,0
;   temperatureRelayBetweenLoops,0,0
;   fanLayers,1,2
;   fanSpeeds,0,100
;   blipFanToFullPower,0
;   adjustSpeedForCooling,1
;   minSpeedLayerTime,15
;   minCoolingSpeedSlowdown,20
;   increaseFanForCooling,0
;   minFanLayerTime,45
;   maxCoolingFanSpeed,100
;   increaseFanForBridging,0
;   bridgingFanSpeed,100
;   use5D,1
;   relativeEdistances,0
;   allowEaxisZeroing,1
;   independentExtruderAxes,0
;   includeM10123,0
;   stickySupport,1
;   applyToolheadOffsets,0
;   gcodeXoffset,0
;   gcodeYoffset,0
;   gcodeZoffset,0
;   overrideMachineDefinition,1
;   machineTypeOverride,0
;   strokeXoverride,250
;   strokeYoverride,210
;   strokeZoverride,200
;   originOffsetXoverride,0
;   originOffsetYoverride,0
;   originOffsetZoverride,0
;   homeXdirOverride,-1
;   homeYdirOverride,-1
;   homeZdirOverride,-1
;   flipXoverride,1
;   flipYoverride,-1
;   flipZoverride,1
;   toolheadOffsets,0,0|0,0|0,0|0,0|0,0|0,0
;   overrideFirmwareConfiguration,1
;   firmwareTypeOverride,RepRap (Marlin/Repetier/Sprinter)
;   GPXconfigOverride,r2
;   baudRateOverride,250000
;   overridePrinterModels,1
;   printerModelsOverride
;   startingGcode,M115 U3.0.7 ; use the latest firmware version,G28 W ; home all axes without mesh bed leveling,G80 ; run mesh bed leveling routine,G1 Y-3.0 F1000.0 ; prepare to prime,G92 E0 ; reset extrusion distance,G1 X60.0 E9.0  F1000.0 ; priming,G1 X100.0 E12.5  F1000.0 ; priming
;   layerChangeGcode,
;   retractionGcode,
;   toolChangeGcode,
;   endingGcode,M106 S0 ; turn off cooling fan,M104 S0 ; turn off extruder,M140 S0 ; turn off bed,G1 X0 Y200 ; part removal,M84 ; disable motors
;   exportFileFormat,gcode
;   celebration,0
;   celebrationSong,Random Song
;   postProcessing,
;   defaultSpeed,2400
;   outlineUnderspeed,0.8
;   solidInfillUnderspeed,0.8
;   supportUnderspeed,0.8
;   rapidXYspeed,4800
;   rapidZspeed,1002
;   minBridgingArea,50
;   bridgingExtraInflation,0
;   bridgingExtrusionMultiplier,1
;   bridgingSpeedMultiplier,1
;   useFixedBridgingAngle,0
;   fixedBridgingAngle,0
;   applyBridgingToPerimeters,0
;   filamentDiameters,1.75|1.75|1.75|1.75|1.75|1.75
;   filamentPricesPerKg,199|46|46|46|46|46
;   filamentDensities,1.25|1.25|1.25|1.25|1.25|1.25
;   useMinPrintHeight,0
;   minPrintHeight,0
;   useMaxPrintHeight,1
;   maxPrintHeight,235
;   useDiaphragm,0
;   diaphragmLayerInterval,20
;   robustSlicing,1
;   mergeAllIntoSolid,0
;   onlyRetractWhenCrossingOutline,1
;   retractBetweenLayers,1
;   useRetractionMinTravel,0
;   retractionMinTravel,3
;   retractWhileWiping,1
;   onlyWipeOutlines,1
;   avoidCrossingOutline,0
;   maxMovementDetourFactor,3
;   toolChangeRetractionDistance,12
;   toolChangeExtraRestartDistance,-0.5
;   toolChangeRetractionSpeed,600
;   externalThinWallType,0
;   internalThinWallType,2
;   thinWallAllowedOverlapPercentage,25
;   singleExtrusionMinLength,1
;   singleExtrusionMinPrintingWidthPercentage,50
;   singleExtrusionMaxPrintingWidthPercentage,200
;   singleExtrusionEndpointExtension,0.2
;   horizontalSizeCompensation,0
G90
M82
M106 S0
M140 S60
M190 S60
M104 S200 T0
M109 S200 T0
M115 U3.0.7 ; use the latest firmware version
G28 W ; home all axes without mesh bed leveling
G80 ; run mesh bed leveling routine
G1 Y-3.0 F1000.0 ; prepare to prime
G92 E0 ; reset extrusion distance
G1 X60.0 E9.0  F1000.0 ; priming
G1 X100.0 E12.5  F1000.0 ; priming
G92 E0
G1 E-1.5000 F1800
G1 Z0.120 F1002
; process Fine
; layer 1, Z = 0.120
T0
; tool H0.120 W0.480
; skirt
G1 X91.196 Y117.656 F4800
G1 E0.0000 F540
G92 E0
G1 X92.725 Y116.917 E0.0407 F1200
G1 X92.773 Y116.905 E0.0419
G1 X122.157 Y115.622 E0.7462
G1 X122.160 Y115.622 E0.7463
G1 X122.249 Y115.620 E0.7484
G1 X122.252 Y115.620 E0.7485
G1 X131.161 Y115.620 E0.9618
G1 X131.250 Y115.656 E0.9641
G1 X133.660 Y118.067 E1.0458
G1 X133.697 Y118.155 E1.0480
G1 X133.697 Y118.636 E1.0596
G1 X134.628 Y118.786 E1.0821
G1 X134.634 Y118.787 E1.0823
G1 X134.849 Y118.834 E1.0876
G1 X134.855 Y118.835 E1.0877
G1 X135.862 Y119.110 E1.1127
G1 X135.868 Y119.112 E1.1129
G1 X136.077 Y119.181 E1.1181
G1 X136.083 Y119.183 E1.1183
G1 X137.055 Y119.563 E1.1433
G1 X137.061 Y119.566 E1.1434
G1 X137.261 Y119.657 E1.1487
G1 X137.267 Y119.659 E1.1489
G1 X138.194 Y120.141 E1.1739
G1 X138.199 Y120.144 E1.1740
G1 X138.388 Y120.255 E1.1793
G1 X138.394 Y120.259 E1.1794
G1 X139.264 Y120.836 E1.2044
G1 X139.269 Y120.840 E1.2046
G1 X139.445 Y120.971 E1.2098
G1 X139.450 Y120.975 E1.2100
G1 X140.254 Y121.641 E1.2350
G1 X140.259 Y121.645 E1.2352
G1 X140.420 Y121.794 E1.2404
G1 X140.425 Y121.799 E1.2406
G1 X141.154 Y122.547 E1.2656
G1 X141.158 Y122.552 E1.2657
G1 X141.302 Y122.717 E1.2710
G1 X141.306 Y122.722 E1.2711
G1 X141.951 Y123.543 E1.2961
G1 X141.955 Y123.548 E1.2963
G1 X142.081 Y123.728 E1.3016
G1 X142.085 Y123.733 E1.3017
G1 X142.639 Y124.618 E1.3267
G1 X142.642 Y124.624 E1.3269
G1 X142.748 Y124.816 E1.3321
G1 X142.751 Y124.822 E1.3323
G1 X143.208 Y125.761 E1.3573
G1 X143.211 Y125.767 E1.3574
G1 X143.296 Y125.969 E1.3627
G1 X143.298 Y125.975 E1.3628
G1 X143.653 Y126.957 E1.3879
G1 X143.655 Y126.963 E1.3880
G1 X143.718 Y127.173 E1.3933
G1 X143.720 Y127.180 E1.3934
G1 X143.968 Y128.194 E1.4184
G1 X143.969 Y128.200 E1.4186
G1 X144.010 Y128.416 E1.4238
G1 X144.011 Y128.422 E1.4240
G1 X144.149 Y129.457 E1.4490
G1 X144.150 Y129.464 E1.4492
G1 X144.167 Y129.682 E1.4544
G1 X144.168 Y129.689 E1.4546
G1 X144.196 Y130.733 E1.4796
G1 X144.196 Y130.739 E1.4797
G1 X144.190 Y130.959 E1.4850
G1 X144.189 Y130.965 E1.4851
G1 X144.106 Y132.006 E1.5101
G1 X144.105 Y132.012 E1.5103
G1 X144.076 Y132.230 E1.5155
G1 X144.075 Y132.236 E1.5157
G1 X143.882 Y133.262 E1.5407
G1 X143.880 Y133.269 E1.5409
G1 X143.828 Y133.482 E1.5461
G1 X143.827 Y133.488 E1.5463
G1 X143.525 Y134.488 E1.5713
G1 X143.523 Y134.494 E1.5714
G1 X143.449 Y134.700 E1.5767
G1 X143.446 Y134.706 E1.5768
G1 X143.040 Y135.669 E1.6019
G1 X143.038 Y135.674 E1.6020
G1 X142.942 Y135.872 E1.6073
G1 X142.939 Y135.877 E1.6074
G1 X142.433 Y136.791 E1.6324
G1 X142.429 Y136.797 E1.6326
G1 X142.313 Y136.982 E1.6378
G1 X142.309 Y136.988 E1.6380
G1 X141.709 Y137.842 E1.6630
G1 X141.705 Y137.848 E1.6631
G1 X141.570 Y138.020 E1.6684
G1 X141.566 Y138.025 E1.6686
G1 X140.878 Y138.811 E1.6936
G1 X140.874 Y138.816 E1.6937
G1 X140.721 Y138.973 E1.6990
G1 X140.716 Y138.977 E1.6991
G1 X139.949 Y139.686 E1.7241
G1 X139.944 Y139.690 E1.7243
G1 X139.775 Y139.830 E1.7295
G1 X139.770 Y139.834 E1.7297
G1 X138.932 Y140.457 E1.7547
G1 X138.926 Y140.461 E1.7549
G1 X138.743 Y140.582 E1.7601
G1 X138.738 Y140.585 E1.7603
G1 X137.838 Y141.115 E1.7853
G1 X137.833 Y141.118 E1.7854
G1 X137.638 Y141.220 E1.7907
G1 X137.632 Y141.222 E1.7908
G1 X136.681 Y141.654 E1.8158
G1 X136.675 Y141.656 E1.8160
G1 X136.471 Y141.736 E1.8213
G1 X136.465 Y141.739 E1.8214
G1 X135.473 Y142.067 E1.8464
G1 X135.467 Y142.068 E1.8466
G1 X135.256 Y142.126 E1.8518
G1 X135.249 Y142.128 E1.8520
G1 X134.229 Y142.348 E1.8770
G1 X134.222 Y142.350 E1.8771
G1 X134.006 Y142.385 E1.8824
G1 X133.999 Y142.385 E1.8825
G1 X133.697 Y142.418 E1.8898
G1 X133.697 Y142.904 E1.9015
G1 X133.660 Y142.993 E1.9038
G1 X131.250 Y145.403 E1.9854
G1 X131.161 Y145.440 E1.9877
G1 X122.252 Y145.440 E2.2011
G1 X122.249 Y145.440 E2.2011
G1 X122.160 Y145.438 E2.2033
G1 X122.157 Y145.438 E2.2033
G1 X92.773 Y144.155 E2.9077
G1 X92.725 Y144.143 E2.9088
G1 X91.196 Y143.403 E2.9495
G1 X91.157 Y143.373 E2.9507
G1 X89.716 Y141.709 E3.0034
G1 X89.713 Y141.705 E3.0036
G1 X89.612 Y141.579 E3.0074
G1 X89.609 Y141.576 E3.0075
G1 X88.985 Y140.729 E3.0327
G1 X88.982 Y140.725 E3.0328
G1 X88.897 Y140.601 E3.0364
G1 X88.895 Y140.597 E3.0365
G1 X88.239 Y139.557 E3.0660
G1 X88.237 Y139.554 E3.0661
G1 X88.168 Y139.435 E3.0694
G1 X88.166 Y139.431 E3.0695
G1 X87.757 Y138.675 E3.0900
G1 X87.755 Y138.672 E3.0901
G1 X87.701 Y138.564 E3.0930
G1 X87.700 Y138.561 E3.0931
G1 X87.263 Y137.626 E3.1178
G1 X87.261 Y137.622 E3.1179
G1 X87.202 Y137.484 E3.1215
G1 X87.201 Y137.480 E3.1216
G1 X86.763 Y136.332 E3.1510
G1 X86.762 Y136.328 E3.1511
G1 X86.717 Y136.198 E3.1544
G1 X86.716 Y136.194 E3.1545
G1 X86.464 Y135.372 E3.1751
G1 X86.463 Y135.368 E3.1752
G1 X86.431 Y135.251 E3.1781
G1 X86.430 Y135.248 E3.1782
G1 X86.187 Y134.245 E3.2029
G1 X86.186 Y134.240 E3.2030
G1 X86.156 Y134.094 E3.2066
G1 X86.155 Y134.089 E3.2067
G1 X85.950 Y132.865 E3.2364
G1 X85.949 Y132.860 E3.2366
G1 X85.929 Y132.698 E3.2405
G1 X85.928 Y132.693 E3.2406
G1 X85.822 Y131.463 E3.2702
G1 X85.822 Y131.459 E3.2703
G1 X85.815 Y131.322 E3.2735
G1 X85.814 Y131.318 E3.2736
G1 X85.797 Y130.438 E3.2947
G1 X85.797 Y130.433 E3.2948
G1 X85.800 Y130.270 E3.2987
G1 X85.800 Y130.265 E3.2989
G1 X85.896 Y128.666 E3.3372
G1 X85.896 Y128.661 E3.3373
G1 X85.912 Y128.499 E3.3412
G1 X85.913 Y128.494 E3.3414
G1 X86.035 Y127.622 E3.3624
G1 X86.035 Y127.618 E3.3625
G1 X86.059 Y127.483 E3.3658
G1 X86.059 Y127.479 E3.3659
G1 X86.311 Y126.270 E3.3955
G1 X86.312 Y126.265 E3.3956
G1 X86.352 Y126.107 E3.3995
G1 X86.353 Y126.102 E3.3996
G1 X86.702 Y124.911 E3.4294
G1 X86.703 Y124.906 E3.4295
G1 X86.750 Y124.764 E3.4331
G1 X86.752 Y124.760 E3.4332
G1 X87.120 Y123.774 E3.4584
G1 X87.122 Y123.769 E3.4585
G1 X87.185 Y123.620 E3.4624
G1 X87.187 Y123.615 E3.4625
G1 X87.796 Y122.308 E3.4970
G1 X87.799 Y122.303 E3.4972
G1 X87.881 Y122.145 E3.5014
G1 X87.883 Y122.140 E3.5016
G1 X88.500 Y121.070 E3.5311
G1 X88.502 Y121.067 E3.5312
G1 X88.566 Y120.963 E3.5342
G1 X88.568 Y120.960 E3.5342
G1 X88.930 Y120.410 E3.5500
G1 X88.932 Y120.407 E3.5501
G1 X88.995 Y120.317 E3.5527
G1 X88.997 Y120.314 E3.5528
G1 X89.609 Y119.484 E3.5775
G1 X89.612 Y119.480 E3.5776
G1 X89.713 Y119.355 E3.5815
G1 X89.716 Y119.351 E3.5816
G1 X91.058 Y117.800 E3.6307
G1 X91.157 Y117.686 F1200
G1 X91.196 Y117.656 F1200
G92 E0
G1 E-1.5000 F1800
; inner perimeter
G1 X94.407 Y122.389 F4800
G1 E0.0000 F1800
G92 E0
G1 X122.326 Y121.170 E0.6692 F1080
G1 X128.257 Y121.170 E0.8113
G1 X128.257 Y123.980 E0.8785
G1 X132.191 Y123.980 E0.9728
G1 X132.547 Y123.989 E0.9813
G1 X132.895 Y124.017 E0.9897
G1 X133.241 Y124.063 E0.9980
G1 X133.584 Y124.127 E1.0064
G1 X133.923 Y124.209 E1.0147
G1 X134.257 Y124.309 E1.0231
G1 X134.585 Y124.427 E1.0314
G1 X134.906 Y124.563 E1.0398
G1 X135.220 Y124.715 E1.0481
G1 X135.525 Y124.883 E1.0565
G1 X135.764 Y125.032 E1.0632
G1 X135.695 Y125.289 E1.0696
G1 X135.325 Y125.303 E1.0784
G1 X134.943 Y125.345 E1.0876
G1 X134.564 Y125.415 E1.0969
G1 X134.191 Y125.513 E1.1061
G1 X133.828 Y125.638 E1.1153
G1 X133.484 Y125.784 E1.1243
G1 X133.141 Y125.960 E1.1335
G1 X132.812 Y126.161 E1.1427
G1 X132.499 Y126.386 E1.1519
G1 X132.204 Y126.632 E1.1611
G1 X131.935 Y126.891 E1.1701
G1 X131.678 Y127.178 E1.1793
G1 X131.443 Y127.483 E1.1885
G1 X131.230 Y127.805 E1.1978
G1 X131.043 Y128.140 E1.2070
G1 X130.884 Y128.479 E1.2159
G1 X130.746 Y128.838 E1.2251
G1 X130.636 Y129.208 E1.2344
G1 X130.552 Y129.584 E1.2436
G1 X130.497 Y129.963 E1.2528
G1 X130.470 Y130.337 E1.2618
G1 X130.470 Y130.722 E1.2710
G1 X130.498 Y131.106 E1.2802
G1 X130.554 Y131.487 E1.2894
G1 X130.639 Y131.863 E1.2987
G1 X130.750 Y132.230 E1.3078
G1 X130.884 Y132.580 E1.3168
G1 X131.047 Y132.929 E1.3260
G1 X131.236 Y133.265 E1.3353
G1 X131.449 Y133.586 E1.3445
G1 X131.685 Y133.889 E1.3537
G1 X131.934 Y134.168 E1.3626
G1 X132.212 Y134.435 E1.3719
G1 X132.508 Y134.681 E1.3811
G1 X132.822 Y134.905 E1.3903
G1 X133.150 Y135.104 E1.3995
G1 X133.483 Y135.275 E1.4085
G1 X133.837 Y135.426 E1.4177
G1 X134.202 Y135.550 E1.4269
G1 X134.575 Y135.647 E1.4362
G1 X134.952 Y135.716 E1.4453
G1 X135.324 Y135.757 E1.4543
G1 X135.695 Y135.770 E1.4632
G1 X135.764 Y136.027 E1.4696
G1 X135.538 Y136.168 E1.4759
G1 X135.233 Y136.338 E1.4843
G1 X134.920 Y136.491 E1.4926
G1 X134.599 Y136.627 E1.5010
G1 X134.271 Y136.745 E1.5093
G1 X133.937 Y136.846 E1.5177
G1 X133.599 Y136.929 E1.5260
G1 X133.256 Y136.994 E1.5344
G1 X132.911 Y137.041 E1.5427
G1 X132.577 Y137.068 E1.5507
G1 X128.257 Y137.084 E1.6542
G1 X128.257 Y139.890 E1.7214
G1 X122.326 Y139.890 E1.8634
G1 X94.407 Y138.671 E2.5327
G1 X94.082 Y138.283 E2.5448
G1 X93.781 Y137.895 E2.5565
G1 X93.496 Y137.494 E2.5683
G1 X93.228 Y137.083 E2.5801
G1 X92.976 Y136.662 E2.5918
G1 X92.740 Y136.230 E2.6036
G1 X92.523 Y135.790 E2.6153
G1 X92.322 Y135.342 E2.6271
G1 X92.140 Y134.886 E2.6389
G1 X91.977 Y134.424 E2.6506
G1 X91.817 Y133.904 E2.6636
G1 X91.595 Y132.989 E2.6862
G1 X91.508 Y132.516 E2.6977
G1 X91.439 Y132.030 E2.7094
G1 X91.389 Y131.542 E2.7212
G1 X91.358 Y131.052 E2.7329
G1 X91.347 Y130.498 E2.7462
G1 X91.358 Y130.019 E2.7577
G1 X91.433 Y129.081 E2.7802
G1 X91.508 Y128.542 E2.7933
G1 X91.597 Y128.060 E2.8050
G1 X91.704 Y127.581 E2.8168
G1 X91.831 Y127.106 E2.8285
G1 X91.973 Y126.647 E2.8400
G1 X92.303 Y125.766 E2.8626
G1 X92.523 Y125.268 E2.8756
G1 X92.740 Y124.829 E2.8873
G1 X92.976 Y124.398 E2.8991
G1 X93.228 Y123.976 E2.9109
G1 X93.496 Y123.565 E2.9226
G1 X93.781 Y123.165 E2.9344
G1 X94.082 Y122.776 E2.9461
G1 X94.278 Y122.542 E2.9535
G1 X94.407 Y122.389 F1080
G1 X94.036 Y122.084 F4800
G92 E0
G1 X94.187 Y121.918 E0.0054 F1080
G1 X122.315 Y120.690 E0.6796
G1 X128.737 Y120.690 E0.8334
G1 X128.737 Y123.500 E0.9007
G1 X132.197 Y123.500 E0.9836
G1 X132.572 Y123.510 E0.9925
G1 X132.946 Y123.539 E1.0015
G1 X133.317 Y123.588 E1.0105
G1 X133.685 Y123.657 E1.0194
G1 X134.048 Y123.746 E1.0284
G1 X134.407 Y123.853 E1.0374
