; G-Code generated by Simplify3D(R) Version 4.0.0
; Dec 20, 2017 at 5:20:32 PM
; Settings Summary
;   processName,Fine
;   applyToModels,33_hammerMechanism
;   profileName,Prusa Research Original Prusa i3 MK2 (modified)
;   profileVersion,2017-07-23 22:27:18
;   baseProfile,
;   printMaterial,PLA
;   printQuality,High
;   printExtruders,
;   extruderName,Primary Extruder
;   extruderToolheadNumber,0
;   extruderDiameter,0.4
;   extruderAutoWidth,1
;   extruderWidth,0.48
;   extrusionMultiplier,1
;   extruderUseRetract,1
;   extruderRetractionDistance,1.5
;   extruderExtraRestartDistance,0
;   extruderRetractionZLift,0
;   extruderRetractionSpeed,1800
;   extruderUseCoasting,1
;   extruderCoastingDistance,0.2
;   extruderUseWipe,1
;   extruderWipeDistance,2
;   primaryExtruder,0
;   layerHeight,0.1
;   topSolidLayers,5
;   bottomSolidLayers,5
;   perimeterOutlines,3
;   printPerimetersInsideOut,1
;   startPointOption,2
;   startPointOriginX,0
;   startPointOriginY,0
;   sequentialIslands,0
;   spiralVaseMode,0
;   firstLayerHeightPercentage,120
;   firstLayerWidthPercentage,100
;   firstLayerUnderspeed,0.5
;   useRaft,0
;   raftExtruder,0
;   raftTopLayers,3
;   raftBaseLayers,2
;   raftOffset,3
;   raftSeparationDistance,0.14
;   raftTopInfill,100
;   aboveRaftSpeedMultiplier,0.3
;   useSkirt,1
;   skirtExtruder,0
;   skirtLayers,2
;   skirtOutlines,1
;   skirtOffset,4
;   usePrimePillar,0
;   primePillarExtruder,999
;   primePillarWidth,12
;   primePillarLocation,7
;   primePillarSpeedMultiplier,1
;   useOozeShield,0
;   oozeShieldExtruder,999
;   oozeShieldOffset,2
;   oozeShieldOutlines,1
;   oozeShieldSidewallShape,1
;   oozeShieldSidewallAngle,30
;   oozeShieldSpeedMultiplier,1
;   infillExtruder,0
;   internalInfillPattern,Rectilinear
;   externalInfillPattern,Rectilinear
;   infillPercentage,15
;   outlineOverlapPercentage,20
;   infillExtrusionWidthPercentage,100
;   minInfillLength,5
;   infillLayerInterval,1
;   internalInfillAngles,45,-45
;   overlapInternalInfillAngles,0
;   externalInfillAngles,45,-45
;   generateSupport,1
;   supportExtruder,0
;   supportInfillPercentage,40
;   supportExtraInflation,0
;   supportBaseLayers,0
;   denseSupportExtruder,0
;   denseSupportLayers,0
;   denseSupportInfillPercentage,70
;   supportLayerInterval,1
;   supportHorizontalPartOffset,0.3
;   supportUpperSeparationLayers,1
;   supportLowerSeparationLayers,1
;   supportType,0
;   supportGridSpacing,4
;   maxOverhangAngle,45
;   supportAngles,0
;   temperatureName,Primary Extruder,Heated Bed
;   temperatureNumber,0,0
;   temperatureSetpointCount,1,1
;   temperatureSetpointLayers,1,1
;   temperatureSetpointTemperatures,210,60
;   temperatureStabilizeAtStartup,1,1
;   temperatureHeatedBed,0,1
;   temperatureRelayBetweenLayers,0,0
;   temperatureRelayBetweenLoops,0,0
;   fanLayers,1,2
;   fanSpeeds,0,100
;   blipFanToFullPower,0
;   adjustSpeedForCooling,1
;   minSpeedLayerTime,15
;   minCoolingSpeedSlowdown,20
;   increaseFanForCooling,0
;   minFanLayerTime,45
;   maxCoolingFanSpeed,100
;   increaseFanForBridging,0
;   bridgingFanSpeed,100
;   use5D,1
;   relativeEdistances,0
;   allowEaxisZeroing,1
;   independentExtruderAxes,0
;   includeM10123,0
;   stickySupport,1
;   applyToolheadOffsets,0
;   gcodeXoffset,0
;   gcodeYoffset,0
;   gcodeZoffset,0
;   overrideMachineDefinition,1
;   machineTypeOverride,0
;   strokeXoverride,250
;   strokeYoverride,210
;   strokeZoverride,200
;   originOffsetXoverride,0
;   originOffsetYoverride,0
;   originOffsetZoverride,0
;   homeXdirOverride,-1
;   homeYdirOverride,-1
;   homeZdirOverride,-1
;   flipXoverride,1
;   flipYoverride,-1
;   flipZoverride,1
;   toolheadOffsets,0,0|0,0|0,0|0,0|0,0|0,0
;   overrideFirmwareConfiguration,1
;   firmwareTypeOverride,RepRap (Marlin/Repetier/Sprinter)
;   GPXconfigOverride,r2
;   baudRateOverride,250000
;   overridePrinterModels,1
;   printerModelsOverride
;   startingGcode,M115 U3.0.7 ; use the latest firmware version,G28 W ; home all axes without mesh bed leveling,G80 ; run mesh bed leveling routine,G1 Y-3.0 F1000.0 ; prepare to prime,G92 E0 ; reset extrusion distance,G1 X60.0 E9.0  F1000.0 ; priming,G1 X100.0 E12.5  F1000.0 ; priming
;   layerChangeGcode,
;   retractionGcode,
;   toolChangeGcode,
;   endingGcode,M106 S0 ; turn off cooling fan,M104 S0 ; turn off extruder,M140 S0 ; turn off bed,G1 X0 Y200 ; part removal,M84 ; disable motors
;   exportFileFormat,gcode
;   celebration,0
;   celebrationSong,Random Song
;   postProcessing,
;   defaultSpeed,2400
;   outlineUnderspeed,0.8
;   solidInfillUnderspeed,0.8
;   supportUnderspeed,0.8
;   rapidXYspeed,4800
;   rapidZspeed,1002
;   minBridgingArea,50
;   bridgingExtraInflation,0
;   bridgingExtrusionMultiplier,1
;   bridgingSpeedMultiplier,1
;   useFixedBridgingAngle,0
;   fixedBridgingAngle,0
;   applyBridgingToPerimeters,0
;   filamentDiameters,1.75|1.75|1.75|1.75|1.75|1.75
;   filamentPricesPerKg,199|46|46|46|46|46
;   filamentDensities,1.25|1.25|1.25|1.25|1.25|1.25
;   useMinPrintHeight,0
;   minPrintHeight,0
;   useMaxPrintHeight,1
;   maxPrintHeight,235
;   useDiaphragm,0
;   diaphragmLayerInterval,20
;   robustSlicing,1
;   mergeAllIntoSolid,0
;   onlyRetractWhenCrossingOutline,1
;   retractBetweenLayers,1
;   useRetractionMinTravel,0
;   retractionMinTravel,3
;   retractWhileWiping,1
;   onlyWipeOutlines,1
;   avoidCrossingOutline,0
;   maxMovementDetourFactor,3
;   toolChangeRetractionDistance,12
;   toolChangeExtraRestartDistance,-0.5
;   toolChangeRetractionSpeed,600
;   externalThinWallType,0
;   internalThinWallType,2
;   thinWallAllowedOverlapPercentage,25
;   singleExtrusionMinLength,1
;   singleExtrusionMinPrintingWidthPercentage,50
;   singleExtrusionMaxPrintingWidthPercentage,200
;   singleExtrusionEndpointExtension,0.2
;   horizontalSizeCompensation,0
G90
M82
M106 S0
M140 S60
M190 S60
M104 S210 T0
M109 S210 T0
M115 U3.0.7 ; use the latest firmware version
G28 W ; home all axes without mesh bed leveling
G80 ; run mesh bed leveling routine
G1 Y-3.0 F1000.0 ; prepare to prime
G92 E0 ; reset extrusion distance
G1 X60.0 E9.0  F1000.0 ; priming
G1 X100.0 E12.5  F1000.0 ; priming
G92 E0
G1 E-1.5000 F1800
G1 Z0.120 F1002
; process Fine
; layer 1, Z = 0.120
T0
; tool H0.120 W0.480
; skirt
G1 X91.457 Y92.547 F4800
G1 E0.0000 F540
G92 E0
G1 X91.545 Y92.510 E0.0023 F1200
G1 X99.726 Y92.510 E0.1982
G1 X99.726 Y88.941 E0.2837
G1 X99.763 Y88.853 E0.2860
G1 X102.174 Y86.442 E0.3676
G1 X102.262 Y86.406 E0.3699
G1 X110.151 Y86.406 E0.5588
G1 X110.239 Y86.442 E0.5611
G1 X110.386 Y86.590 E0.5661
G1 X115.087 Y86.590 E0.6786
G1 X115.175 Y86.626 E0.6809
G1 X117.586 Y89.037 E0.7626
G1 X117.623 Y89.125 E0.7649
G1 X117.623 Y92.510 E0.8459
G1 X127.455 Y92.510 E1.0814
G1 X127.543 Y92.547 E1.0837
G1 X129.953 Y94.957 E1.1653
G1 X129.990 Y95.045 E1.1676
G1 X129.990 Y97.938 E1.2369
G1 X130.588 Y98.537 E1.2571
G1 X130.625 Y98.625 E1.2594
G1 X130.625 Y102.111 E1.3429
G1 X132.066 Y103.552 E1.3917
G1 X132.102 Y103.640 E1.3940
G1 X132.102 Y111.529 E1.5829
G1 X132.066 Y111.617 E1.5852
G1 X129.990 Y113.693 E1.6555
G1 X129.990 Y114.955 E1.6857
G1 X129.953 Y115.043 E1.6880
G1 X127.543 Y117.453 E1.7696
G1 X127.455 Y117.490 E1.7719
G1 X117.551 Y117.490 E2.0091
G1 X117.551 Y121.139 E2.0965
G1 X117.514 Y121.228 E2.0988
G1 X115.104 Y123.638 E2.1804
G1 X115.015 Y123.675 E2.1827
G1 X107.126 Y123.675 E2.3716
G1 X107.038 Y123.638 E2.3739
G1 X106.940 Y123.540 E2.3772
G1 X102.866 Y123.540 E2.4748
G1 X102.778 Y123.503 E2.4771
G1 X100.367 Y121.093 E2.5587
G1 X100.331 Y121.005 E2.5610
G1 X100.331 Y117.490 E2.6452
G1 X91.545 Y117.490 E2.8555
G1 X91.457 Y117.453 E2.8578
G1 X89.047 Y115.043 E2.9395
G1 X89.010 Y114.955 E2.9418
G1 X89.010 Y107.295 E3.1252
G1 X89.047 Y107.207 E3.1275
G1 X91.254 Y105.000 E3.2022
G1 X89.047 Y102.793 E3.2770
G1 X89.010 Y102.705 E3.2792
G1 X89.010 Y95.045 E3.4627
G1 X89.047 Y94.957 E3.4650
G1 X91.316 Y92.688 E3.5418
G1 X91.457 Y92.547 F1200
G92 E0
G1 E-1.5000 F1800
; inner perimeter
G1 X94.450 Y97.950 F4800
G1 E0.0000 F1800
G92 E0
G1 X124.550 Y97.950 E0.7208 F1080
G1 X124.550 Y99.206 E0.7509
G1 X124.376 Y99.272 E0.7554
G1 X124.016 Y99.435 E0.7648
G1 X123.667 Y99.620 E0.7743
G1 X123.331 Y99.827 E0.7837
G1 X123.009 Y100.055 E0.7932
G1 X122.702 Y100.304 E0.8026
G1 X122.411 Y100.571 E0.8121
G1 X122.138 Y100.856 E0.8216
G1 X121.883 Y101.158 E0.8310
G1 X121.648 Y101.476 E0.8405
G1 X121.435 Y101.807 E0.8499
G1 X121.242 Y102.152 E0.8594
G1 X121.072 Y102.509 E0.8688
G1 X120.925 Y102.875 E0.8783
G1 X120.801 Y103.250 E0.8878
G1 X120.702 Y103.633 E0.8972
G1 X120.627 Y104.020 E0.9067
G1 X120.577 Y104.412 E0.9161
G1 X120.553 Y104.806 E0.9256
G1 X120.553 Y105.201 E0.9350
G1 X120.578 Y105.592 E0.9444
G1 X120.628 Y105.983 E0.9539
G1 X120.703 Y106.371 E0.9633
G1 X120.802 Y106.753 E0.9728
G1 X120.926 Y107.128 E0.9822
G1 X121.073 Y107.495 E0.9917
G1 X121.244 Y107.851 E1.0011
G1 X121.436 Y108.196 E1.0106
G1 X121.650 Y108.527 E1.0201
G1 X121.885 Y108.845 E1.0295
G1 X122.140 Y109.147 E1.0390
G1 X122.413 Y109.432 E1.0484
G1 X122.704 Y109.699 E1.0579
G1 X123.011 Y109.947 E1.0673
G1 X123.334 Y110.175 E1.0768
G1 X123.670 Y110.382 E1.0863
G1 X124.019 Y110.567 E1.0957
G1 X124.379 Y110.729 E1.1052
G1 X124.550 Y110.794 E1.1096
G1 X124.550 Y112.050 E1.1396
G1 X94.450 Y112.050 E1.8604
G1 X94.450 Y110.200 E1.9047
G1 X118.950 Y110.200 E2.4915
G1 X118.950 Y99.800 E2.7405
G1 X94.450 Y99.800 E3.3272
G1 X94.450 Y98.150 E3.3667
G1 X94.450 Y97.950 F1080
G1 X93.970 Y97.470 F4800
G92 E0
G1 X125.030 Y97.470 E0.7438 F1080
G1 X125.030 Y99.547 E0.7935
G1 X124.900 Y99.587 E0.7968
G1 X124.560 Y99.716 E0.8055
G1 X124.228 Y99.866 E0.8142
G1 X123.906 Y100.037 E0.8230
G1 X123.596 Y100.228 E0.8317
G1 X123.298 Y100.438 E0.8404
G1 X123.015 Y100.667 E0.8491
G1 X122.747 Y100.914 E0.8579
G1 X122.495 Y101.177 E0.8666
G1 X122.260 Y101.456 E0.8753
G1 X122.044 Y101.749 E0.8840
G1 X121.846 Y102.055 E0.8928
G1 X121.669 Y102.373 E0.9015
G1 X121.512 Y102.702 E0.9102
G1 X121.376 Y103.040 E0.9189
G1 X121.262 Y103.386 E0.9277
G1 X121.171 Y103.739 E0.9364
G1 X121.102 Y104.096 E0.9451
G1 X121.055 Y104.458 E0.9538
G1 X121.033 Y104.821 E0.9626
G1 X121.033 Y105.185 E0.9713
G1 X121.056 Y105.546 E0.9799
G1 X121.102 Y105.907 E0.9886
G1 X121.171 Y106.265 E0.9974
G1 X121.263 Y106.617 E1.0061
G1 X121.377 Y106.963 E1.0148
G1 X121.513 Y107.301 E1.0235
G1 X121.670 Y107.630 E1.0323
G1 X121.848 Y107.948 E1.0410
G1 X122.045 Y108.254 E1.0497
G1 X122.262 Y108.547 E1.0584
G1 X122.497 Y108.826 E1.0672
G1 X122.749 Y109.089 E1.0759
G1 X123.017 Y109.335 E1.0846
G1 X123.301 Y109.564 E1.0933
G1 X123.599 Y109.774 E1.1021
G1 X123.909 Y109.965 E1.1108
G1 X124.231 Y110.136 E1.1195
G1 X124.563 Y110.286 E1.1282
G1 X124.904 Y110.414 E1.1370
G1 X125.030 Y110.453 E1.1401
G1 X125.030 Y112.530 E1.1899
G1 X93.970 Y112.530 E1.9337
G1 X93.970 Y109.720 E2.0010
G1 X118.470 Y109.720 E2.5877
G1 X118.470 Y100.280 E2.8137
G1 X93.970 Y100.280 E3.4004
G1 X93.970 Y97.670 E3.4630
G1 X93.970 Y97.470 F1080
; outer perimeter
G1 X93.490 Y96.990 F4800
G92 E0
G1 X125.510 Y96.990 E0.7668 F960
G1 X125.510 Y99.911 E0.8368
G1 X125.375 Y99.944 E0.8401
G1 X125.056 Y100.041 E0.8481
G1 X124.744 Y100.159 E0.8561
G1 X124.439 Y100.297 E0.8641
G1 X124.145 Y100.453 E0.8720
G1 X123.861 Y100.629 E0.8800
G1 X123.588 Y100.821 E0.8880
G1 X123.329 Y101.031 E0.8960
G1 X123.083 Y101.257 E0.9040
G1 X122.852 Y101.498 E0.9120
G1 X122.637 Y101.753 E0.9200
G1 X122.439 Y102.022 E0.9280
G1 X122.258 Y102.302 E0.9360
G1 X122.095 Y102.593 E0.9440
G1 X121.952 Y102.895 E0.9520
G1 X121.827 Y103.204 E0.9600
G1 X121.723 Y103.521 E0.9680
G1 X121.639 Y103.844 E0.9759
G1 X121.576 Y104.172 E0.9839
G1 X121.534 Y104.503 E0.9919
G1 X121.513 Y104.836 E0.9999
G1 X121.513 Y105.170 E1.0079
G1 X121.534 Y105.500 E1.0158
G1 X121.576 Y105.831 E1.0238
G1 X121.640 Y106.159 E1.0318
G1 X121.724 Y106.482 E1.0398
G1 X121.828 Y106.799 E1.0478
G1 X121.953 Y107.108 E1.0558
G1 X122.097 Y107.409 E1.0638
G1 X122.259 Y107.701 E1.0718
G1 X122.440 Y107.981 E1.0798
G1 X122.639 Y108.249 E1.0878
G1 X122.854 Y108.504 E1.0957
G1 X123.085 Y108.745 E1.1037
G1 X123.331 Y108.971 E1.1117
G1 X123.591 Y109.181 E1.1197
G1 X123.863 Y109.373 E1.1277
G1 X124.147 Y109.548 E1.1357
G1 X124.442 Y109.705 E1.1437
G1 X124.746 Y109.842 E1.1517
G1 X125.059 Y109.960 E1.1597
G1 X125.378 Y110.057 E1.1677
G1 X125.510 Y110.089 E1.1709
G1 X125.510 Y113.010 E1.2409
G1 X93.490 Y113.010 E2.0077
G1 X93.490 Y109.240 E2.0980
G1 X117.990 Y109.240 E2.6847
G1 X117.990 Y100.760 E2.8877
G1 X93.490 Y100.760 E3.4745
G1 X93.490 Y97.190 E3.5599
G1 X93.490 Y96.990 F960
G1 X95.490 Y96.990 F2400
; solid layer
G1 X95.091 Y99.416 F4800
G92 E0
G1 X94.834 Y99.159 E0.0087 F960
G1 X94.834 Y98.480 E0.0250
G1 X95.770 Y99.416 E0.0567
G1 X96.449 Y99.416 E0.0729
G1 X95.367 Y98.334 E0.1096
G1 X96.046 Y98.334 E0.1258
G1 X97.128 Y99.416 E0.1625
G1 X97.807 Y99.416 E0.1787
G1 X96.725 Y98.334 E0.2154
G1 X97.403 Y98.334 E0.2316
G1 X98.485 Y99.416 E0.2683
G1 X99.164 Y99.416 E0.2845
G1 X98.082 Y98.334 E0.3212
G1 X98.761 Y98.334 E0.3374
G1 X99.843 Y99.416 E0.3741
G1 X100.522 Y99.416 E0.3903
G1 X99.440 Y98.334 E0.4270
G1 X100.119 Y98.334 E0.4432
G1 X101.201 Y99.416 E0.4799
G1 X101.880 Y99.416 E0.4961
G1 X100.798 Y98.334 E0.5328
G1 X101.476 Y98.334 E0.5490
G1 X102.558 Y99.416 E0.5857
G1 X103.237 Y99.416 E0.6019
G1 X102.155 Y98.334 E0.6386
G1 X102.834 Y98.334 E0.6548
G1 X103.916 Y99.416 E0.6915
G1 X104.595 Y99.416 E0.7077
G1 X103.513 Y98.334 E0.7444
G1 X104.192 Y98.334 E0.7606
G1 X105.274 Y99.416 E0.7973
G1 X105.952 Y99.416 E0.8135
G1 X104.870 Y98.334 E0.8502
G1 X105.549 Y98.334 E0.8664
G1 X106.631 Y99.416 E0.9031
G1 X107.310 Y99.416 E0.9193
G1 X106.228 Y98.334 E0.9560
G1 X106.907 Y98.334 E0.9722
G1 X107.989 Y99.416 E1.0089
G1 X108.668 Y99.416 E1.0251
G1 X107.586 Y98.334 E1.0618
G1 X108.265 Y98.334 E1.0780
G1 X109.347 Y99.416 E1.1147
G1 X110.025 Y99.416 E1.1309
G1 X108.943 Y98.334 E1.1676
G1 X109.622 Y98.334 E1.1838
G1 X110.704 Y99.416 E1.2205
G1 X111.383 Y99.416 E1.2367
G1 X110.301 Y98.334 E1.2734
G1 X110.980 Y98.334 E1.2896
G1 X112.062 Y99.416 E1.3263
G1 X112.741 Y99.416 E1.3425
G1 X111.659 Y98.334 E1.3792
G1 X112.338 Y98.334 E1.3954
G1 X113.420 Y99.416 E1.4321
G1 X114.098 Y99.416 E1.4483
G1 X113.016 Y98.334 E1.4850
G1 X113.695 Y98.334 E1.5012
G1 X114.777 Y99.416 E1.5379
G1 X115.456 Y99.416 E1.5541
G1 X114.374 Y98.334 E1.5908
G1 X115.053 Y98.334 E1.6070
G1 X116.135 Y99.416 E1.6437
G1 X116.814 Y99.416 E1.6599
G1 X115.732 Y98.334 E1.6966
G1 X116.410 Y98.334 E1.7128
G1 X117.492 Y99.416 E1.7495
G1 X118.171 Y99.416 E1.7657
G1 X117.089 Y98.334 E1.8024
G1 X117.768 Y98.334 E1.8186
G1 X118.850 Y99.416 E1.8553
G1 X119.334 Y99.416 E1.8668
G1 X119.334 Y99.900 E1.8784
G1 X121.083 Y101.649 E1.9377
G1 X121.105 Y101.610 E1.9388
G1 X121.332 Y101.257 E1.9488
G1 X121.348 Y101.236 E1.9494
G1 X118.447 Y98.334 E2.0477
G1 X119.126 Y98.334 E2.0640
G1 X121.641 Y100.849 E2.1492
G1 X121.852 Y100.599 E2.1570
G1 X121.958 Y100.488 E2.1607
G1 X119.805 Y98.334 E2.2336
G1 X120.483 Y98.334 E2.2499
G1 X122.300 Y100.151 E2.3114
G1 X122.451 Y100.013 E2.3163
G1 X122.666 Y99.838 E2.3229
G1 X121.162 Y98.334 E2.3739
G1 X121.841 Y98.334 E2.3901
G1 X123.057 Y99.550 E2.4313
G1 X123.119 Y99.507 E2.4331
G1 X123.474 Y99.288 E2.4431
G1 X122.520 Y98.334 E2.4754
G1 X123.199 Y98.334 E2.4917
G1 X123.921 Y99.056 E2.5162
G1 X124.166 Y98.945 E2.5226
G1 X124.166 Y98.622 E2.5303
G1 X124.019 Y98.475 E2.5353
G1 X123.878 Y98.334 F960
G1 X119.334 Y100.579 F4800
G92 E0
G1 X120.846 Y102.091 E0.0512 F960
G1 X120.720 Y102.354 E0.0582
G1 X120.637 Y102.561 E0.0635
G1 X119.334 Y101.258 E0.1077
G1 X119.334 Y101.936 E0.1239
G1 X120.459 Y103.062 E0.1620
G1 X120.433 Y103.142 E0.1641
G1 X120.327 Y103.548 E0.1741
G1 X120.318 Y103.599 E0.1753
G1 X119.334 Y102.615 E0.2087
G1 X119.334 Y103.294 E0.2249
G1 X120.220 Y104.180 E0.2549
G1 X120.195 Y104.376 E0.2596
G1 X120.169 Y104.794 E0.2697
G1 X120.169 Y104.807 E0.2700
G1 X119.334 Y103.973 E0.2983
G1 X119.334 Y104.652 E0.3145
G1 X120.187 Y105.505 E0.3434
G1 X120.195 Y105.628 E0.3464
G1 X120.249 Y106.044 E0.3564
G1 X120.297 Y106.293 E0.3625
