; G-Code generated by Simplify3D(R) Version 4.0.0
; Dec 17, 2017 at 9:11:44 AM
; Settings Summary
;   processName,Fine
;   applyToModels,15_triggerMechanismA,16_triggerMechanismB,17_trigger
;   profileName,Prusa Research Original Prusa i3 MK2 (modified)
;   profileVersion,2017-07-23 22:27:18
;   baseProfile,
;   printMaterial,PLA
;   printQuality,High
;   printExtruders,
;   extruderName,Primary Extruder
;   extruderToolheadNumber,0
;   extruderDiameter,0.4
;   extruderAutoWidth,1
;   extruderWidth,0.48
;   extrusionMultiplier,1
;   extruderUseRetract,1
;   extruderRetractionDistance,1.5
;   extruderExtraRestartDistance,0
;   extruderRetractionZLift,0
;   extruderRetractionSpeed,1800
;   extruderUseCoasting,1
;   extruderCoastingDistance,0.2
;   extruderUseWipe,1
;   extruderWipeDistance,2
;   primaryExtruder,0
;   layerHeight,0.1
;   topSolidLayers,3
;   bottomSolidLayers,3
;   perimeterOutlines,3
;   printPerimetersInsideOut,1
;   startPointOption,2
;   startPointOriginX,0
;   startPointOriginY,0
;   sequentialIslands,0
;   spiralVaseMode,0
;   firstLayerHeightPercentage,120
;   firstLayerWidthPercentage,100
;   firstLayerUnderspeed,0.5
;   useRaft,0
;   raftExtruder,0
;   raftTopLayers,3
;   raftBaseLayers,2
;   raftOffset,3
;   raftSeparationDistance,0.14
;   raftTopInfill,100
;   aboveRaftSpeedMultiplier,0.3
;   useSkirt,1
;   skirtExtruder,0
;   skirtLayers,2
;   skirtOutlines,1
;   skirtOffset,4
;   usePrimePillar,0
;   primePillarExtruder,999
;   primePillarWidth,12
;   primePillarLocation,7
;   primePillarSpeedMultiplier,1
;   useOozeShield,0
;   oozeShieldExtruder,999
;   oozeShieldOffset,2
;   oozeShieldOutlines,1
;   oozeShieldSidewallShape,1
;   oozeShieldSidewallAngle,30
;   oozeShieldSpeedMultiplier,1
;   infillExtruder,0
;   internalInfillPattern,Rectilinear
;   externalInfillPattern,Rectilinear
;   infillPercentage,15
;   outlineOverlapPercentage,20
;   infillExtrusionWidthPercentage,100
;   minInfillLength,5
;   infillLayerInterval,1
;   internalInfillAngles,45,-45
;   overlapInternalInfillAngles,0
;   externalInfillAngles,45,-45
;   generateSupport,1
;   supportExtruder,0
;   supportInfillPercentage,40
;   supportExtraInflation,0
;   supportBaseLayers,0
;   denseSupportExtruder,0
;   denseSupportLayers,0
;   denseSupportInfillPercentage,70
;   supportLayerInterval,1
;   supportHorizontalPartOffset,0.3
;   supportUpperSeparationLayers,1
;   supportLowerSeparationLayers,1
;   supportType,0
;   supportGridSpacing,4
;   maxOverhangAngle,45
;   supportAngles,0
;   temperatureName,Primary Extruder,Heated Bed
;   temperatureNumber,0,0
;   temperatureSetpointCount,1,1
;   temperatureSetpointLayers,1,1
;   temperatureSetpointTemperatures,210,60
;   temperatureStabilizeAtStartup,1,1
;   temperatureHeatedBed,0,1
;   temperatureRelayBetweenLayers,0,0
;   temperatureRelayBetweenLoops,0,0
;   fanLayers,1,2
;   fanSpeeds,0,100
;   blipFanToFullPower,0
;   adjustSpeedForCooling,1
;   minSpeedLayerTime,15
;   minCoolingSpeedSlowdown,20
;   increaseFanForCooling,0
;   minFanLayerTime,45
;   maxCoolingFanSpeed,100
;   increaseFanForBridging,0
;   bridgingFanSpeed,100
;   use5D,1
;   relativeEdistances,0
;   allowEaxisZeroing,1
;   independentExtruderAxes,0
;   includeM10123,0
;   stickySupport,1
;   applyToolheadOffsets,0
;   gcodeXoffset,0
;   gcodeYoffset,0
;   gcodeZoffset,0
;   overrideMachineDefinition,1
;   machineTypeOverride,0
;   strokeXoverride,250
;   strokeYoverride,210
;   strokeZoverride,200
;   originOffsetXoverride,0
;   originOffsetYoverride,0
;   originOffsetZoverride,0
;   homeXdirOverride,-1
;   homeYdirOverride,-1
;   homeZdirOverride,-1
;   flipXoverride,1
;   flipYoverride,-1
;   flipZoverride,1
;   toolheadOffsets,0,0|0,0|0,0|0,0|0,0|0,0
;   overrideFirmwareConfiguration,1
;   firmwareTypeOverride,RepRap (Marlin/Repetier/Sprinter)
;   GPXconfigOverride,r2
;   baudRateOverride,250000
;   overridePrinterModels,1
;   printerModelsOverride
;   startingGcode,M115 U3.0.7 ; use the latest firmware version,G28 W ; home all axes without mesh bed leveling,G80 ; run mesh bed leveling routine,G1 Y-3.0 F1000.0 ; prepare to prime,G92 E0 ; reset extrusion distance,G1 X60.0 E9.0  F1000.0 ; priming,G1 X100.0 E12.5  F1000.0 ; priming
;   layerChangeGcode,
;   retractionGcode,
;   toolChangeGcode,
;   endingGcode,M106 S0 ; turn off cooling fan,M104 S0 ; turn off extruder,M140 S0 ; turn off bed,G1 X0 Y200 ; part removal,M84 ; disable motors
;   exportFileFormat,gcode
;   celebration,0
;   celebrationSong,Random Song
;   postProcessing,
;   defaultSpeed,2400
;   outlineUnderspeed,0.8
;   solidInfillUnderspeed,0.8
;   supportUnderspeed,0.8
;   rapidXYspeed,4800
;   rapidZspeed,1002
;   minBridgingArea,50
;   bridgingExtraInflation,0
;   bridgingExtrusionMultiplier,1
;   bridgingSpeedMultiplier,1
;   useFixedBridgingAngle,0
;   fixedBridgingAngle,0
;   applyBridgingToPerimeters,0
;   filamentDiameters,1.75|1.75|1.75|1.75|1.75|1.75
;   filamentPricesPerKg,199|46|46|46|46|46
;   filamentDensities,1.25|1.25|1.25|1.25|1.25|1.25
;   useMinPrintHeight,0
;   minPrintHeight,0
;   useMaxPrintHeight,1
;   maxPrintHeight,235
;   useDiaphragm,0
;   diaphragmLayerInterval,20
;   robustSlicing,1
;   mergeAllIntoSolid,0
;   onlyRetractWhenCrossingOutline,1
;   retractBetweenLayers,1
;   useRetractionMinTravel,0
;   retractionMinTravel,3
;   retractWhileWiping,1
;   onlyWipeOutlines,1
;   avoidCrossingOutline,0
;   maxMovementDetourFactor,3
;   toolChangeRetractionDistance,12
;   toolChangeExtraRestartDistance,-0.5
;   toolChangeRetractionSpeed,600
;   externalThinWallType,0
;   internalThinWallType,2
;   thinWallAllowedOverlapPercentage,25
;   singleExtrusionMinLength,1
;   singleExtrusionMinPrintingWidthPercentage,50
;   singleExtrusionMaxPrintingWidthPercentage,200
;   singleExtrusionEndpointExtension,0.2
;   horizontalSizeCompensation,0
G90
M82
M106 S0
M140 S60
M190 S60
M104 S210 T0
M109 S210 T0
M115 U3.0.7 ; use the latest firmware version
G28 W ; home all axes without mesh bed leveling
G80 ; run mesh bed leveling routine
G1 Y-3.0 F1000.0 ; prepare to prime
G92 E0 ; reset extrusion distance
G1 X60.0 E9.0  F1000.0 ; priming
G1 X100.0 E12.5  F1000.0 ; priming
G92 E0
G1 E-1.5000 F1800
G1 Z0.120 F1002
; process Fine
; layer 1, Z = 0.120
T0
; tool H0.120 W0.480
; skirt
G1 X75.365 Y58.678 F4800
G1 E0.0000 F540
G92 E0
G1 X75.417 Y58.615 E0.0020 F1200
G1 X77.912 Y57.112 E0.0717
G1 X77.993 Y57.096 E0.0737
G1 X79.644 Y57.325 E0.1136
G1 X79.647 Y57.325 E0.1137
G1 X79.736 Y57.340 E0.1158
G1 X79.739 Y57.340 E0.1159
G1 X81.011 Y57.575 E0.1469
G1 X81.016 Y57.576 E0.1470
G1 X81.175 Y57.611 E0.1509
G1 X81.179 Y57.613 E0.1510
G1 X82.375 Y57.932 E0.1806
G1 X82.379 Y57.933 E0.1808
G1 X82.528 Y57.979 E0.1845
G1 X82.532 Y57.981 E0.1846
G1 X83.697 Y58.388 E0.2141
G1 X83.701 Y58.390 E0.2142
G1 X83.846 Y58.447 E0.2180
G1 X83.850 Y58.449 E0.2181
G1 X84.980 Y58.943 E0.2476
G1 X84.984 Y58.945 E0.2477
G1 X85.125 Y59.013 E0.2515
G1 X85.129 Y59.015 E0.2516
G1 X86.218 Y59.594 E0.2811
G1 X86.222 Y59.596 E0.2812
G1 X86.357 Y59.674 E0.2850
G1 X86.361 Y59.676 E0.2851
G1 X87.404 Y60.335 E0.3146
G1 X87.407 Y60.338 E0.3147
G1 X87.536 Y60.426 E0.3184
G1 X87.540 Y60.429 E0.3186
G1 X88.530 Y61.165 E0.3481
G1 X88.533 Y61.168 E0.3482
G1 X88.655 Y61.265 E0.3519
G1 X88.658 Y61.268 E0.3520
G1 X89.590 Y62.077 E0.3816
G1 X89.593 Y62.080 E0.3817
G1 X89.707 Y62.186 E0.3854
G1 X89.710 Y62.189 E0.3855
G1 X90.578 Y63.066 E0.4151
G1 X90.581 Y63.070 E0.4152
G1 X90.686 Y63.184 E0.4189
G1 X90.689 Y63.188 E0.4190
G1 X91.488 Y64.128 E0.4486
G1 X91.491 Y64.131 E0.4487
G1 X91.588 Y64.254 E0.4524
G1 X91.590 Y64.257 E0.4525
G1 X92.305 Y65.239 E0.4816
G1 X92.307 Y65.242 E0.4817
G1 X92.373 Y65.338 E0.4845
G1 X92.375 Y65.341 E0.4846
G1 X92.730 Y65.892 E0.5003
G1 X92.732 Y65.895 E0.5003
G1 X92.792 Y65.995 E0.5031
G1 X92.794 Y65.998 E0.5032
G1 X93.393 Y67.054 E0.5323
G1 X93.395 Y67.058 E0.5324
G1 X93.466 Y67.197 E0.5361
G1 X93.468 Y67.201 E0.5362
G1 X93.994 Y68.317 E0.5658
G1 X93.996 Y68.321 E0.5659
G1 X94.057 Y68.464 E0.5696
G1 X94.058 Y68.469 E0.5697
G1 X94.498 Y69.621 E0.5993
G1 X94.500 Y69.625 E0.5994
G1 X94.550 Y69.773 E0.6031
G1 X94.551 Y69.777 E0.6032
G1 X94.771 Y70.519 E0.6218
G1 X96.098 Y69.193 E0.6667
G1 X96.186 Y69.156 E0.6690
G1 X137.785 Y69.156 E1.6652
G1 X137.785 Y59.691 E1.8918
G1 X137.822 Y59.603 E1.8941
G1 X140.233 Y57.193 E1.9757
G1 X140.321 Y57.156 E1.9780
G1 X153.730 Y57.156 E2.2991
G1 X153.818 Y57.193 E2.3014
G1 X156.229 Y59.603 E2.3831
G1 X156.265 Y59.691 E2.3854
G1 X156.265 Y69.156 E2.6120
G1 X173.930 Y69.156 E3.0350
G1 X174.018 Y69.193 E3.0373
G1 X176.429 Y71.603 E3.1190
G1 X176.465 Y71.691 E3.1212
G1 X176.465 Y95.305 E3.6867
G1 X176.429 Y95.393 E3.6890
G1 X174.018 Y97.804 E3.7707
G1 X173.930 Y97.841 E3.7729
G1 X158.386 Y97.841 E4.1452
G1 X158.298 Y97.804 E4.1475
G1 X155.887 Y95.393 E4.2291
G1 X155.851 Y95.305 E4.2314
G1 X155.851 Y89.512 E4.3701
G1 X114.931 Y89.512 E5.3500
G1 X114.931 Y95.305 E5.4888
G1 X114.894 Y95.393 E5.4910
G1 X112.484 Y97.804 E5.5727
G1 X112.395 Y97.841 E5.5750
G1 X97.131 Y97.841 E5.9405
G1 X97.131 Y100.104 E5.9947
G1 X97.094 Y100.192 E5.9970
G1 X94.684 Y102.603 E6.0787
G1 X94.595 Y102.639 E6.0809
G1 X91.282 Y102.639 E6.1603
G1 X91.282 Y112.159 E6.3883
G1 X92.279 Y112.159 E6.4121
G1 X92.367 Y112.196 E6.4144
G1 X94.778 Y114.607 E6.4961
G1 X94.815 Y114.695 E6.4984
G1 X94.815 Y120.488 E6.6371
G1 X135.735 Y120.488 E7.6170
G1 X135.735 Y114.695 E7.7557
G1 X135.771 Y114.607 E7.7580
G1 X138.182 Y112.196 E7.8397
G1 X138.270 Y112.159 E7.8419
G1 X153.814 Y112.159 E8.2142
G1 X153.902 Y112.196 E8.2165
G1 X156.313 Y114.607 E8.2981
G1 X156.349 Y114.695 E8.3004
G1 X156.349 Y138.309 E8.8659
G1 X156.313 Y138.397 E8.8682
G1 X153.902 Y140.807 E8.9498
G1 X153.814 Y140.844 E8.9521
G1 X146.149 Y140.844 E9.1356
G1 X146.149 Y150.309 E9.3623
G1 X146.113 Y150.397 E9.3646
G1 X143.702 Y152.807 E9.4462
G1 X143.614 Y152.844 E9.4485
G1 X130.405 Y152.844 E9.7648
G1 X130.316 Y152.807 E9.7671
G1 X127.906 Y150.397 E9.8488
G1 X127.869 Y150.309 E9.8510
G1 X127.869 Y147.594 E9.9160
G1 X120.205 Y147.594 E10.0996
G1 X120.116 Y147.557 E10.1019
G1 X117.706 Y145.147 E10.1835
G1 X117.669 Y145.059 E10.1858
G1 X117.669 Y140.844 E10.2867
G1 X76.070 Y140.844 E11.2829
G1 X75.982 Y140.807 E11.2852
G1 X73.571 Y138.397 E11.3669
G1 X73.535 Y138.309 E11.3691
G1 X73.535 Y114.695 E11.9346
G1 X73.571 Y114.607 E11.9369
G1 X75.982 Y112.196 E12.0185
G1 X76.070 Y112.159 E12.0208
G1 X76.802 Y112.159 E12.0384
G1 X76.802 Y104.195 E12.2291
G1 X76.838 Y104.107 E12.2314
G1 X77.545 Y103.400 E12.2553
G1 X76.839 Y102.694 E12.2792
G1 X76.803 Y102.606 E12.2815
G1 X76.793 Y83.098 E12.7487
G1 X76.812 Y83.032 E12.7503
G1 X78.110 Y81.001 E12.8080
G1 X78.162 Y80.956 E12.8097
G1 X80.005 Y80.106 E12.8583
G1 X80.593 Y79.767 E12.8745
G1 X80.983 Y79.501 E12.8859
G1 X81.513 Y79.074 E12.9021
G1 X81.988 Y78.616 E12.9179
G1 X82.434 Y78.103 E12.9342
G1 X82.714 Y77.723 E12.9455
G1 X83.075 Y77.145 E12.9619
G1 X83.374 Y76.557 E12.9776
G1 X83.619 Y75.945 E12.9934
G1 X83.816 Y75.293 E13.0097
G1 X83.916 Y74.832 E13.0210
G1 X84.008 Y74.157 E13.0373
G1 X84.040 Y73.498 E13.0531
G1 X84.012 Y72.819 E13.0694
G1 X83.951 Y72.314 E13.0816
G1 X83.888 Y71.967 E13.0901
G1 X83.714 Y71.294 E13.1067
G1 X83.487 Y70.652 E13.1230
G1 X83.295 Y70.221 E13.1343
G1 X82.953 Y69.592 E13.1515
G1 X82.763 Y69.296 E13.1599
G1 X82.463 Y68.884 E13.1721
G1 X81.997 Y68.341 E13.1892
G1 X81.750 Y68.091 E13.1976
G1 X81.343 Y67.727 E13.2107
G1 X81.052 Y67.497 E13.2196
G1 X80.652 Y67.220 E13.2312
G1 X79.864 Y66.771 E13.2529
G1 X75.570 Y64.763 E13.3665
G1 X75.508 Y64.698 E13.3686
G1 X74.285 Y61.743 E13.4452
G1 X74.283 Y61.653 E13.4474
G1 X75.297 Y58.866 E13.5184
G1 X75.365 Y58.678 F1200
G92 E0
G1 E-1.5000 F1800
; inner perimeter
G1 X89.545 Y73.452 F4800
G1 E0.0000 F1800
G92 E0
G1 X89.874 Y73.430 E0.0079 F1080
G1 X89.939 Y73.843 E0.0179
G1 X89.997 Y74.334 E0.0297
G1 X90.037 Y74.825 E0.0415
G1 X90.058 Y75.319 E0.0534
G1 X90.061 Y75.812 E0.0652
G1 X90.045 Y76.306 E0.0770
G1 X90.010 Y76.798 E0.0888
G1 X89.957 Y77.290 E0.1007
G1 X89.810 Y78.295 E0.1250
G1 X89.757 Y78.818 E0.1376
G1 X89.726 Y79.341 E0.1501
G1 X89.718 Y79.865 E0.1627
G1 X89.733 Y80.389 E0.1752
G1 X89.770 Y80.912 E0.1878
G1 X89.829 Y81.432 E0.2003
G1 X89.911 Y81.950 E0.2129
G1 X90.015 Y82.464 E0.2254
G1 X90.141 Y82.973 E0.2380
G1 X90.288 Y83.476 E0.2505
G1 X90.458 Y83.972 E0.2631
G1 X90.648 Y84.461 E0.2756
G1 X90.859 Y84.940 E0.2882
G1 X91.090 Y85.411 E0.3007
G1 X91.342 Y85.871 E0.3133
G1 X91.613 Y86.319 E0.3259
G1 X91.691 Y86.437 E0.3292
G1 X91.691 Y97.199 E0.5870
G1 X85.842 Y97.199 E0.7270
G1 X85.842 Y110.199 E1.0383
G1 X82.242 Y110.199 E1.1246
G1 X82.242 Y107.099 E1.1988
G1 X84.242 Y107.099 E1.2467
G1 X84.242 Y99.699 E1.4239
G1 X82.242 Y99.699 E1.4718
G1 X82.241 Y93.707 E1.6153
G1 X82.556 Y93.667 E1.6229
G1 X82.668 Y94.105 E1.6337
G1 X82.779 Y94.418 E1.6417
G1 X82.919 Y94.723 E1.6497
G1 X83.088 Y95.015 E1.6578
G1 X83.282 Y95.290 E1.6659
G1 X83.500 Y95.547 E1.6739
G1 X83.741 Y95.783 E1.6820
G1 X84.002 Y95.996 E1.6901
G1 X84.281 Y96.184 E1.6981
G1 X84.576 Y96.346 E1.7062
G1 X84.886 Y96.481 E1.7143
G1 X85.205 Y96.586 E1.7223
G1 X85.534 Y96.663 E1.7304
G1 X85.867 Y96.709 E1.7385
G1 X86.204 Y96.725 E1.7465
G1 X86.540 Y96.709 E1.7546
G1 X86.874 Y96.664 E1.7627
G1 X87.202 Y96.588 E1.7708
G1 X87.523 Y96.483 E1.7788
G1 X87.832 Y96.349 E1.7869
G1 X88.127 Y96.187 E1.7950
G1 X88.407 Y96.000 E1.8030
G1 X88.669 Y95.787 E1.8111
G1 X88.910 Y95.552 E1.8192
G1 X89.129 Y95.296 E1.8272
G1 X89.323 Y95.021 E1.8353
G1 X89.492 Y94.729 E1.8434
G1 X89.633 Y94.423 E1.8514
G1 X89.746 Y94.106 E1.8595
G1 X89.830 Y93.780 E1.8676
G1 X89.884 Y93.447 E1.8756
G1 X89.907 Y93.111 E1.8837
G1 X89.900 Y92.774 E1.8918
G1 X89.862 Y92.439 E1.8998
G1 X89.794 Y92.109 E1.9079
G1 X89.696 Y91.787 E1.9160
G1 X89.569 Y91.475 E1.9241
G1 X89.414 Y91.176 E1.9321
G1 X89.233 Y90.892 E1.9402
G1 X89.026 Y90.625 E1.9483
G1 X88.797 Y90.379 E1.9563
G1 X88.546 Y90.154 E1.9644
G1 X88.275 Y89.954 E1.9725
G1 X87.987 Y89.778 E1.9805
G1 X87.685 Y89.630 E1.9886
G1 X87.370 Y89.510 E1.9967
G1 X87.046 Y89.418 E2.0047
G1 X86.714 Y89.357 E2.0128
G1 X86.379 Y89.326 E2.0209
G1 X86.042 Y89.326 E2.0289
G1 X85.706 Y89.356 E2.0370
G1 X85.375 Y89.417 E2.0451
G1 X85.051 Y89.507 E2.0531
G1 X84.736 Y89.627 E2.0612
G1 X84.433 Y89.775 E2.0693
G1 X84.145 Y89.950 E2.0773
G1 X83.874 Y90.150 E2.0854
G1 X83.622 Y90.374 E2.0935
G1 X83.392 Y90.620 E2.1016
G1 X83.185 Y90.886 E2.1096
G1 X83.003 Y91.170 E2.1177
G1 X82.848 Y91.469 E2.1258
G1 X82.721 Y91.781 E2.1338
G1 X82.622 Y92.103 E2.1419
G1 X82.563 Y92.385 E2.1488
G1 X82.240 Y92.352 E2.1566
G1 X82.239 Y85.139 E2.3293
G1 X82.494 Y85.015 E2.3361
G1 X82.948 Y84.771 E2.3485
G1 X83.471 Y84.460 E2.3630
G1 X84.299 Y83.894 E2.3870
G1 X84.778 Y83.521 E2.4016
G1 X85.171 Y83.187 E2.4139
G1 X85.608 Y82.781 E2.4282
G1 X85.969 Y82.417 E2.4405
G1 X86.316 Y82.038 E2.4528
G1 X86.707 Y81.572 E2.4674
G1 X87.301 Y80.765 E2.4914
G1 X87.631 Y80.254 E2.5059
G1 X87.892 Y79.809 E2.5183
G1 X88.171 Y79.282 E2.5326
G1 X88.392 Y78.819 E2.5448
G1 X88.594 Y78.347 E2.5571
G1 X88.805 Y77.790 E2.5714
G1 X88.967 Y77.300 E2.5838
G1 X89.133 Y76.715 E2.5983
G1 X89.346 Y75.736 E2.6223
G1 X89.437 Y75.134 E2.6369
G1 X89.493 Y74.622 E2.6492
G1 X89.532 Y74.027 E2.6635
G1 X89.541 Y73.652 E2.6725
G1 X89.545 Y73.452 F1080
G1 X89.064 Y73.512 F4800
G92 E0
G1 X89.056 Y73.019 E0.0118 F1080
G1 X89.021 Y72.437 E0.0258
G1 X88.902 Y71.472 E0.0491
G1 X88.796 Y70.899 E0.0630
G1 X88.684 Y70.417 E0.0749
G1 X88.530 Y69.862 E0.0887
G1 X88.378 Y69.391 E0.1005
G1 X88.174 Y68.845 E0.1145
G1 X87.821 Y68.051 E0.1353
G1 X88.106 Y67.890 E0.1431
G1 X88.244 Y68.088 E0.1489
G1 X88.521 Y68.518 E0.1611
G1 X88.782 Y68.958 E0.1734
G1 X89.026 Y69.408 E0.1856
G1 X89.253 Y69.867 E0.1979
G1 X89.462 Y70.334 E0.2102
G1 X89.653 Y70.809 E0.2224
G1 X89.827 Y71.291 E0.2347
G1 X89.982 Y71.778 E0.2469
G1 X90.118 Y72.272 E0.2592
G1 X90.236 Y72.770 E0.2714
G1 X90.335 Y73.272 E0.2837
G1 X90.414 Y73.777 E0.2960
G1 X90.475 Y74.286 E0.3082
G1 X90.516 Y74.796 E0.3205
G1 X90.538 Y75.307 E0.3327
G1 X90.541 Y75.819 E0.3450
