; generated by Slic3r Prusa Edition 1.41.0+ on 2018-11-24 at 17:45:27

; 

; external perimeters extrusion width = 0.60mm
; perimeters extrusion width = 0.43mm
; infill extrusion width = 0.45mm
; solid infill extrusion width = 0.70mm
; top infill extrusion width = 0.43mm
; support material extrusion width = 0.35mm
; first layer extrusion width = 0.42mm

M201 X9000 Y9000 Z500 E10000 ; sets maximum accelerations, mm/sec^2
M203 X500 Y500 Z12 E120 ; sets maximum feedrates, mm/sec
M204 P2000 R1500 T2000 ; sets acceleration (P, T) and retract acceleration (R), mm/sec^2
M205 X10.00 Y10.00 Z0.20 E2.50 ; sets the jerk limits, mm/sec
M205 S0 T0 ; sets the minimum extruding and travel feed rate, mm/sec
M107
M115 U3.1.0 ; tell printer latest fw version
M83  ; extruder relative mode
M204 S2000 T1500 ; MK2 firmware only supports the old M204 format
M104 S210 ; set extruder temp
M140 S55 ; set bed temp
M190 S55 ; wait for bed temp
M109 S210 ; wait for extruder temp
G28 W ; home all without mesh bed level
G80 ; mesh bed leveling
G1 Y-3.0 F1000.0 ; go outside print area
G92 E0.0
G1 X60.0 E9.0  F1000.0 ; intro line
G1 X100.0 E12.5  F1000.0 ; intro line
G92 E0.0
M900 K30; Filament gcode
G21 ; set units to millimeters
G90 ; use absolute coordinates
M83 ; use relative distances for extrusion
;BEFORE_LAYER_CHANGE
G92 E0.0
;0.2


G1 E-0.80000 F2100.00000
G1 Z0.600 F10800.000
;AFTER_LAYER_CHANGE
;0.2
G1 X83.504 Y69.378
G1 Z0.200
G1 E0.80000 F2100.00000
M204 S1000
G1 F1800
G1 X84.757 Y67.969 E0.05909
G1 X87.295 Y65.388 E0.11351
G1 X88.709 Y64.088 E0.06024
G1 X91.524 Y61.754 E0.11465
G1 X93.035 Y60.626 E0.05909
G1 X96.041 Y58.609 E0.11351
G1 X97.688 Y57.620 E0.06024
G1 X100.882 Y55.917 E0.11351
G1 X104.319 Y54.373 E0.11814
G1 X107.714 Y53.115 E0.11351
G1 X109.512 Y52.551 E0.05907
G1 X111.328 Y52.048 E0.05909
G1 X114.897 Y51.253 E0.11466
G1 X116.755 Y50.937 E0.05909
G1 X120.387 Y50.506 E0.11465
G1 X122.267 Y50.380 E0.05909
G1 X125.890 Y50.319 E0.11362
G1 X127.807 Y50.384 E0.06012
G1 X131.450 Y50.693 E0.11465
G1 X133.318 Y50.948 E0.05909
G1 X136.876 Y51.617 E0.11351
G1 X140.523 Y52.561 E0.11814
G1 X143.959 Y53.703 E0.11351
G1 X145.749 Y54.401 E0.06024
G1 X149.051 Y55.884 E0.11351
G1 X150.729 Y56.742 E0.05907
G1 X152.376 Y57.657 E0.05909
G1 X155.479 Y59.592 E0.11466
G1 X157.025 Y60.670 E0.05909
G1 X159.916 Y62.909 E0.11466
G1 X161.346 Y64.137 E0.05909
G1 X163.996 Y66.657 E0.11465
G1 X165.293 Y68.024 E0.05909
G1 X167.675 Y70.799 E0.11465
G1 X168.827 Y72.290 E0.05909
G1 X170.916 Y75.292 E0.11465
G1 X171.912 Y76.892 E0.05909
G1 X173.686 Y80.089 E0.11465
G1 X174.515 Y81.782 E0.05909
G1 X175.942 Y85.109 E0.11351
G1 X176.610 Y86.910 E0.06024
G1 X177.693 Y90.364 E0.11351
G1 X178.576 Y94.028 E0.11814
G1 X179.185 Y97.596 E0.11351
G1 X179.408 Y99.470 E0.05918
G1 X179.656 Y103.116 E0.11457
G1 X179.688 Y105.037 E0.06024
G1 X179.566 Y108.655 E0.11351
G1 X179.408 Y110.532 E0.05907
G1 X179.185 Y112.404 E0.05909
G1 X178.569 Y116.008 E0.11465
G1 X178.158 Y117.848 E0.05909
G1 X177.181 Y121.371 E0.11465
G1 X176.585 Y123.160 E0.05909
G1 X175.257 Y126.566 E0.11465
G1 X174.483 Y128.285 E0.05909
G1 X172.817 Y131.540 E0.11465
G1 X171.874 Y133.172 E0.05909
G1 X169.887 Y136.241 E0.11465
G1 X168.783 Y137.769 E0.05909
G1 X166.496 Y140.622 E0.11465
G1 X165.243 Y142.031 E0.05909
G1 X162.705 Y144.612 E0.11351
G1 X161.291 Y145.912 E0.06024
G1 X158.476 Y148.246 E0.11465
G1 X156.965 Y149.374 E0.05909
G1 X153.959 Y151.391 E0.11351
G1 X152.312 Y152.380 E0.06024
G1 X149.118 Y154.083 E0.11351
G1 X145.681 Y155.627 E0.11814
G1 X142.286 Y156.885 E0.11351
G1 X140.489 Y157.449 E0.05907
G1 X138.672 Y157.952 E0.05909
G1 X135.103 Y158.747 E0.11465
G1 X133.245 Y159.063 E0.05909
G1 X129.613 Y159.494 E0.11465
G1 X127.733 Y159.620 E0.05909
G1 X124.077 Y159.681 E0.11465
G1 X122.193 Y159.616 E0.05909
G1 X118.550 Y159.307 E0.11465
G1 X116.682 Y159.052 E0.05909
G1 X113.124 Y158.383 E0.11351
G1 X109.477 Y157.439 E0.11814
G1 X106.041 Y156.297 E0.11351
G1 X104.251 Y155.599 E0.06024
G1 X100.949 Y154.116 E0.11351
G1 X99.271 Y153.258 E0.05907
G1 X97.624 Y152.343 E0.05909
G1 X94.521 Y150.408 E0.11466
G1 X92.975 Y149.330 E0.05909
G1 X90.084 Y147.091 E0.11465
G1 X88.654 Y145.863 E0.05909
G1 X86.004 Y143.343 E0.11465
G1 X84.707 Y141.976 E0.05909
G1 X82.325 Y139.201 E0.11465
G1 X81.173 Y137.710 E0.05909
G1 X79.084 Y134.708 E0.11465
G1 X78.088 Y133.108 E0.05909
G1 X76.314 Y129.911 E0.11465
G1 X75.485 Y128.218 E0.05909
G1 X74.058 Y124.891 E0.11351
G1 X72.809 Y121.336 E0.11814
G1 X71.842 Y117.848 E0.11351
G1 X71.424 Y115.972 E0.06024
G1 X70.815 Y112.404 E0.11351
G1 X70.592 Y110.533 E0.05907
G1 X70.344 Y106.884 E0.11468
G1 X70.312 Y104.963 E0.06024
G1 X70.434 Y101.345 E0.11351
G1 X70.592 Y99.468 E0.05907
G1 X70.815 Y97.596 E0.05909
G1 X71.431 Y93.992 E0.11465
G1 X71.842 Y92.152 E0.05909
G1 X72.819 Y88.629 E0.11465
G1 X73.415 Y86.840 E0.05909
G1 X74.743 Y83.434 E0.11465
G1 X75.517 Y81.715 E0.05909
G1 X77.183 Y78.460 E0.11465
G1 X78.126 Y76.828 E0.05909
G1 X80.113 Y73.759 E0.11465
G1 X81.217 Y72.231 E0.05909
G1 X83.467 Y69.425 E0.11277
; PURGING FINISHED
G1 F8640
G1 X84.757 Y67.969 E-0.44902
G1 X85.701 Y67.009 E-0.31098
G1 E-0.04000 F2100.00000
G1 Z0.800 F10800.000
G1 X86.075 Y101.396
G1 Z0.200
G1 E0.80000 F2100.00000
G1 F1800
G1 X86.075 Y110.437 E0.28349
G1 X86.188 Y111.488 E0.03314
G1 X86.365 Y112.747 E0.03985
G1 X86.590 Y114.038 E0.04109
G1 X86.829 Y115.184 E0.03672
G1 X86.829 Y97.492 E0.55472
G1 X86.862 Y97.331 E0.00516
G1 X87.583 Y97.331 E0.02262
G1 X87.583 Y118.054 E0.64974
G1 X87.889 Y119.030 E0.03208
G1 X88.337 Y120.308 E0.04247
G1 X88.337 Y97.331 E0.72043
G1 X89.091 Y97.331 E0.02365
G1 X89.091 Y122.188 E0.77937
G1 X89.846 Y123.853 E0.05731
G1 X89.846 Y108.706 E0.47494
G1 X90.600 Y108.706 E0.02365
G1 X90.600 Y125.324 E0.52104
G1 X91.354 Y126.665 E0.04825
G1 X91.354 Y108.706 E0.56310
G1 X91.373 Y108.706 E0.00060
G1 X91.373 Y115.530 E0.21398
G1 X92.108 Y115.530 E0.02305
G1 X92.108 Y127.899 E0.38780
G1 X92.862 Y129.041 E0.04290
G1 X92.862 Y115.530 E0.42360
G1 X93.616 Y115.530 E0.02365
G1 X93.616 Y130.103 E0.45692
G1 X94.371 Y131.097 E0.03912
G1 X94.371 Y120.080 E0.34542
G1 X95.125 Y120.080 E0.02365
G1 X95.125 Y132.030 E0.37467
G1 X95.879 Y132.909 E0.03633
G1 X95.879 Y120.080 E0.40225
G1 X95.923 Y120.080 E0.00138
G1 X95.923 Y124.630 E0.14266
G1 X96.633 Y124.630 E0.02227
G1 X96.633 Y133.741 E0.28567
G1 X97.387 Y134.530 E0.03422
G1 X97.387 Y124.630 E0.31040
G1 X98.141 Y124.630 E0.02365
G1 X98.141 Y135.279 E0.33388
G1 X98.896 Y135.982 E0.03234
G1 X98.896 Y126.905 E0.28462
G1 X99.650 Y126.905 E0.02365
G1 X99.650 Y136.653 E0.30565
G1 X100.404 Y137.294 E0.03103
G1 X100.404 Y126.905 E0.32574
G1 X100.473 Y126.905 E0.00215
G1 X100.473 Y129.180 E0.07133
G1 X101.158 Y129.180 E0.02149
G1 X101.158 Y137.907 E0.27364
G1 X101.912 Y138.486 E0.02981
G1 X101.912 Y129.180 E0.29178
G1 X102.666 Y129.180 E0.02365
G1 X102.666 Y139.036 E0.30905
G1 X103.421 Y139.565 E0.02887
G1 X103.421 Y131.455 E0.25429
G1 X104.175 Y131.455 E0.02365
G1 X104.175 Y140.071 E0.27015
G1 X104.929 Y140.545 E0.02793
G1 X104.929 Y131.455 E0.28502
G1 X105.022 Y131.455 E0.00293
G1 X105.022 Y133.730 E0.07133
G1 X105.683 Y133.730 E0.02071
G1 X105.683 Y141.001 E0.22799
G1 X106.437 Y141.439 E0.02735
G1 X106.437 Y133.730 E0.24174
G1 X107.191 Y133.730 E0.02365
G1 X107.191 Y141.848 E0.25456
G1 X107.945 Y142.241 E0.02666
G1 X107.945 Y133.730 E0.26687
G1 X108.700 Y133.730 E0.02365
G1 X108.700 Y142.618 E0.27870
G1 X109.454 Y142.968 E0.02607
G1 X109.454 Y133.730 E0.28967
G1 X109.572 Y133.730 E0.00371
G1 X109.572 Y136.004 E0.07133
G1 X110.208 Y136.004 E0.01993
G1 X110.208 Y143.305 E0.22890
G1 X110.962 Y143.625 E0.02569
G1 X110.962 Y136.004 E0.23893
G1 X111.716 Y136.004 E0.02365
G1 X111.716 Y143.922 E0.24824
G1 X112.283 Y144.141 E0.01907
G1 X112.470 Y144.208 E0.00623
G1 X112.470 Y136.004 E0.25721
G1 X113.225 Y136.004 E0.02365
G1 X113.225 Y144.473 E0.26553
G1 X113.979 Y144.722 E0.02490
G1 X113.979 Y136.004 E0.27334
G1 X114.122 Y136.004 E0.00449
G1 X114.122 Y138.279 E0.07133
G1 X114.733 Y138.279 E0.01916
G1 X114.733 Y144.961 E0.20949
G1 X115.487 Y145.175 E0.02458
G1 X115.487 Y138.279 E0.21621
G1 X116.241 Y138.279 E0.02365
G1 X116.241 Y145.380 E0.22263
G1 X116.995 Y145.567 E0.02437
G1 X116.995 Y138.279 E0.22851
G1 X117.750 Y138.279 E0.02365
G1 X117.750 Y145.739 E0.23390
G1 X118.504 Y145.901 E0.02419
G1 X118.504 Y138.279 E0.23898
G1 X118.672 Y138.279 E0.00527
G1 X118.672 Y140.554 E0.07133
G1 X119.258 Y140.554 E0.01838
G1 X119.258 Y146.041 E0.17203
G1 X120.012 Y146.172 E0.02400
G1 X120.012 Y140.554 E0.17615
G1 X120.766 Y140.554 E0.02365
G1 X120.766 Y146.286 E0.17973
G1 X121.520 Y146.386 E0.02385
G1 X121.520 Y140.554 E0.18285
G1 X122.274 Y140.554 E0.02365
G1 X122.274 Y146.476 E0.18568
G1 X123.029 Y146.546 E0.02375
G1 X123.029 Y140.554 E0.18785
G1 X123.783 Y140.554 E0.02365
G1 X123.783 Y146.607 E0.18979
G1 X124.537 Y146.650 E0.02368
G1 X124.537 Y140.554 E0.19114
G1 X125.291 Y140.554 E0.02365
G1 X125.291 Y146.682 E0.19214
G1 X126.045 Y146.702 E0.02365
G1 X126.045 Y140.554 E0.19275
G1 X126.799 Y140.554 E0.02365
G1 X126.799 Y146.703 E0.19280
G1 X127.554 Y146.697 E0.02365
G1 X127.554 Y140.554 E0.19261
G1 X128.308 Y140.554 E0.02365
G1 X128.308 Y146.671 E0.19179
G1 X129.062 Y146.636 E0.02367
G1 X129.062 Y138.279 E0.26202
G1 X129.816 Y138.279 E0.02365
G1 X129.816 Y146.585 E0.26043
G1 X130.570 Y146.520 E0.02373
G1 X130.570 Y138.279 E0.25839
G1 X131.324 Y138.279 E0.02365
G1 X131.324 Y146.445 E0.25602
G1 X132.079 Y146.350 E0.02383
G1 X132.079 Y138.279 E0.25306
G1 X132.833 Y138.279 E0.02365
G1 X132.833 Y146.247 E0.24983
G1 X133.587 Y146.126 E0.02395
G1 X133.587 Y138.279 E0.24602
G1 X134.341 Y138.279 E0.02365
G1 X134.341 Y145.992 E0.24184
G1 X135.095 Y145.846 E0.02409
G1 X135.095 Y138.279 E0.23723
G1 X135.849 Y138.279 E0.02365
G1 X135.849 Y145.681 E0.23208
G1 X136.604 Y145.506 E0.02428
G1 X136.604 Y138.279 E0.22658
G1 X137.358 Y138.279 E0.02365
G1 X137.358 Y145.314 E0.22056
G1 X138.112 Y145.107 E0.02452
G1 X138.112 Y136.004 E0.28542
G1 X138.866 Y136.004 E0.02365
G1 X138.866 Y144.886 E0.27846
G1 X139.620 Y144.648 E0.02479
G1 X139.620 Y136.004 E0.27101
G1 X140.073 Y136.004 E0.01419
G1 X140.073 Y133.730 E0.07133
G1 X140.374 Y133.730 E0.00946
G1 X140.374 Y144.364 E0.33344
G1 X141.128 Y144.061 E0.02549
G1 X141.128 Y133.730 E0.32394
G1 X141.883 Y133.730 E0.02365
G1 X141.883 Y143.741 E0.31390
G1 X142.637 Y143.403 E0.02591
G1 X142.637 Y133.730 E0.30332
G1 X143.391 Y133.730 E0.02365
G1 X143.391 Y143.048 E0.29217
G1 X144.145 Y142.670 E0.02645
G1 X144.145 Y133.730 E0.28033
G1 X144.622 Y133.730 E0.01497
G1 X144.622 Y131.455 E0.07133
G1 X144.899 Y131.455 E0.00868
G1 X144.899 Y142.280 E0.33941
G1 X145.653 Y141.864 E0.02700
G1 X145.653 Y131.455 E0.32637
G1 X146.408 Y131.455 E0.02365
G1 X146.408 Y141.437 E0.31300
G1 X147.162 Y140.977 E0.02770
G1 X147.162 Y129.180 E0.36989
G1 X147.916 Y129.180 E0.02365
G1 X147.916 Y140.507 E0.35516
G1 X148.670 Y140.004 E0.02843
G1 X148.670 Y129.180 E0.33939
G1 X149.172 Y129.180 E0.01575
G1 X149.172 Y126.905 E0.07133
G1 X149.424 Y126.905 E0.00790
G1 X149.424 Y139.483 E0.39438
G1 X150.178 Y138.939 E0.02916
G1 X150.178 Y126.905 E0.37732
G1 X150.933 Y126.905 E0.02365
G1 X150.933 Y138.361 E0.35921
G1 X151.687 Y137.768 E0.03009
G1 X151.687 Y124.630 E0.41193
G1 X152.441 Y124.630 E0.02365
G1 X152.441 Y137.134 E0.39205
G1 X153.195 Y136.473 E0.03143
G1 X153.195 Y124.630 E0.37135
G1 X153.722 Y124.630 E0.01652
G1 X153.722 Y120.080 E0.14266
G1 X153.949 Y120.080 E0.00712
G1 X153.949 Y135.789 E0.49255
G1 X154.703 Y135.055 E0.03301
G1 X154.703 Y120.080 E0.46952
G1 X155.457 Y120.080 E0.02365
G1 X155.457 Y134.289 E0.44552
G1 X156.212 Y133.491 E0.03443
G1 X156.212 Y117.805 E0.49182
G1 X156.966 Y117.805 E0.02365
G1 X156.966 Y132.639 E0.46510
G1 X157.720 Y131.738 E0.03685
G1 X157.720 Y117.805 E0.43684
G1 X158.272 Y117.805 E0.01730
G1 X158.272 Y108.706 E0.28531
G1 X158.474 Y108.706 E0.00634
G1 X158.474 Y130.788 E0.69238
G1 X159.228 Y129.784 E0.03939
G1 X159.228 Y108.706 E0.66088
G1 X159.982 Y108.706 E0.02365
G1 X159.982 Y129.008 E0.63656
G1 F8640
G1 X159.982 Y125.716 E-0.76000
G1 E-0.04000 F2100.00000
G1 Z0.800 F10800.000
G1 X161.304 Y126.962
G1 Z0.200
G1 E0.80000 F2100.00000
G1 F1800
G1 X161.304 Y120.754 E0.15851
G1 X161.779 Y120.754 E0.01213
G1 X161.779 Y125.915 E0.13179
G1 X162.254 Y125.053 E0.02514
G1 X162.254 Y120.754 E0.10976
G1 X162.729 Y120.754 E0.01213
G1 X162.729 Y124.141 E0.08648
G1 X163.204 Y123.185 E0.02727
G1 X163.204 Y120.754 E0.06206
G1 X163.496 Y120.754 E0.00745
G1 X163.496 Y113.929 E0.17426
G1 X163.679 Y113.929 E0.00468
G1 X163.679 Y122.080 E0.20812
G1 X164.154 Y120.821 E0.03436
G1 X164.154 Y113.929 E0.17597
G1 X164.628 Y113.929 E0.01213
G1 X164.628 Y119.429 E0.14041
G1 X165.103 Y117.838 E0.04239
G1 X165.103 Y113.929 E0.09979
G1 X165.578 Y113.929 E0.01213
G1 X165.578 Y116.492 E0.06544
G1 X165.262 Y113.773 F10800.000
G1 F1800
G1 X165.262 Y100.606 E0.41284
G1 X164.507 Y100.606 E0.02365
G1 X164.507 Y113.603 E0.40752
G1 X163.753 Y113.603 E0.02365
G1 X163.753 Y100.606 E0.40752
G1 X163.170 Y100.606 E0.01830
G1 X163.170 Y91.507 E0.28531
G1 X162.999 Y91.507 E0.00534
G1 X162.999 Y120.428 E0.90682
G1 X162.245 Y120.428 E0.02365
G1 X162.245 Y91.507 E0.90682
G1 X161.491 Y91.507 E0.02365
G1 X161.491 Y120.428 E0.90682
G1 X160.895 Y120.428 E0.01869
G1 X160.895 Y127.305 E0.21562
G1 X160.737 Y127.556 E0.00928
G1 X160.737 Y86.957 E1.27294
G1 X159.982 Y86.957 E0.02365
G1 X159.982 Y100.954 E0.43887
G1 X159.228 Y100.954 E0.02365
G1 X159.228 Y86.957 E0.43887
G1 X158.620 Y86.957 E0.01908
G1 X158.620 Y84.682 E0.07133
G1 X158.474 Y84.682 E0.00457
G1 X158.474 Y100.954 E0.51020
G1 X158.272 Y100.954 E0.00634
G1 X158.272 Y94.129 E0.21398
G1 X157.720 Y94.129 E0.01730
G1 X157.720 Y84.682 E0.29622
G1 X156.966 Y84.682 E0.02365
G1 X156.966 Y94.129 E0.29622
G1 X156.212 Y94.129 E0.02365
G1 X156.212 Y82.407 E0.36755
G1 X155.457 Y82.407 E0.02365
G1 X155.457 Y89.580 E0.22489
G1 X154.703 Y89.580 E0.02365
G1 X154.703 Y82.407 E0.22489
G1 X154.070 Y82.407 E0.01986
G1 X154.070 Y77.857 E0.14266
G1 X153.949 Y77.857 E0.00379
G1 X153.949 Y89.580 E0.36755
G1 X153.722 Y89.580 E0.00712
G1 X153.722 Y85.030 E0.14266
G1 X153.195 Y85.030 E0.01652
G1 X153.195 Y77.857 E0.22489
G1 X152.441 Y77.857 E0.02365
G1 X152.441 Y85.030 E0.22489
G1 X151.687 Y85.030 E0.02365
G1 X151.687 Y77.857 E0.22489
G1 X150.933 Y77.857 E0.02365
G1 X150.933 Y82.755 E0.15356
G1 X150.178 Y82.755 E0.02365
G1 X150.178 Y77.857 E0.15356
G1 X149.520 Y77.857 E0.02064
G1 X149.520 Y75.582 E0.07133
G1 X149.424 Y75.582 E0.00301
G1 X149.424 Y82.755 E0.22489
G1 X149.172 Y82.755 E0.00790
G1 X149.172 Y80.480 E0.07133
G1 X148.670 Y80.480 E0.01575
G1 X148.670 Y75.582 E0.15356
G1 X147.916 Y75.582 E0.02365
G1 X147.916 Y80.480 E0.15356
G1 X147.162 Y80.480 E0.02365
G1 X147.162 Y73.307 E0.22489
G1 X146.408 Y73.307 E0.02365
G1 X146.408 Y78.205 E0.15356
G1 X145.653 Y78.205 E0.02365
G1 X145.653 Y73.307 E0.15356
G1 X144.899 Y73.307 E0.02365
G1 X144.899 Y78.205 E0.15356
G1 X144.622 Y78.205 E0.00868
G1 X144.622 Y75.930 E0.07133
G1 X144.145 Y75.930 E0.01497
G1 X144.145 Y73.307 E0.08224
G1 X143.391 Y73.307 E0.02365
G1 X143.391 Y75.930 E0.08224
G1 X142.637 Y75.930 E0.02365
G1 X142.637 Y71.033 E0.15356
G1 X141.883 Y71.033 E0.02365
G1 X141.883 Y75.930 E0.15356
G1 X141.128 Y75.930 E0.02365
G1 X141.128 Y71.033 E0.15356
G1 X140.374 Y71.033 E0.02365
G1 X140.374 Y75.930 E0.15356
G1 X140.073 Y75.930 E0.00946
G1 X140.073 Y73.655 E0.07133
G1 X139.620 Y73.655 E0.01419
G1 X139.620 Y71.033 E0.08224
G1 X138.866 Y71.033 E0.02365
G1 X138.866 Y73.655 E0.08224
G1 X138.112 Y73.655 E0.02365
G1 X138.112 Y68.758 E0.15356
G1 X137.358 Y68.758 E0.02365
G1 X137.358 Y73.655 E0.15356
G1 X136.604 Y73.655 E0.02365
G1 X136.604 Y68.758 E0.15356
G1 X135.849 Y68.758 E0.02365
G1 X135.849 Y73.655 E0.15356
G1 X135.523 Y73.655 E0.01023
G1 X135.523 Y71.381 E0.07133
G1 X135.095 Y71.381 E0.01341
G1 X135.095 Y68.758 E0.08224
G1 X134.341 Y68.758 E0.02365
G1 X134.341 Y71.381 E0.08224
G1 X133.587 Y71.381 E0.02365
G1 X133.587 Y66.483 E0.15356
G1 X132.833 Y66.483 E0.02365
G1 X132.833 Y71.381 E0.15356
