; generated by Slic3r Prusa Edition 1.41.0+ on 2018-11-24 at 13:07:35

; 

; external perimeters extrusion width = 0.45mm
; perimeters extrusion width = 0.45mm
; infill extrusion width = 0.45mm
; solid infill extrusion width = 0.45mm
; top infill extrusion width = 0.45mm
; support material extrusion width = 0.35mm
; first layer extrusion width = 0.42mm

M201 X9000 Y9000 Z500 E10000 ; sets maximum accelerations, mm/sec^2
M203 X500 Y500 Z12 E120 ; sets maximum feedrates, mm/sec
M204 P2000 R1500 T2000 ; sets acceleration (P, T) and retract acceleration (R), mm/sec^2
M205 X10.00 Y10.00 Z0.20 E2.50 ; sets the jerk limits, mm/sec
M205 S0 T0 ; sets the minimum extruding and travel feed rate, mm/sec
M107
M115 U3.1.0 ; tell printer latest fw version
M83  ; extruder relative mode
M204 S2000 T1500 ; MK2 firmware only supports the old M204 format
M104 S210 ; set extruder temp
M140 S55 ; set bed temp
M190 S55 ; wait for bed temp
M109 S210 ; wait for extruder temp
G28 W ; home all without mesh bed level
G80 ; mesh bed leveling
G1 Y-3.0 F1000.0 ; go outside print area
G92 E0.0
G1 X60.0 E9.0  F1000.0 ; intro line
G1 X100.0 E12.5  F1000.0 ; intro line
G92 E0.0
M900 K30; Filament gcode
G21 ; set units to millimeters
G90 ; use absolute coordinates
M83 ; use relative distances for extrusion
;BEFORE_LAYER_CHANGE
G92 E0.0
;0.2


G1 E-0.80000 F2100.00000
G1 Z0.600 F10800.000
;AFTER_LAYER_CHANGE
;0.2
G1 X71.038 Y66.808
G1 Z0.200
G1 E0.80000 F2100.00000
M204 S1000
G1 F1800
G1 X73.690 Y63.325 E0.13724
G1 X75.141 Y61.605 E0.07057
G1 X78.137 Y58.395 E0.13768
G1 X79.764 Y56.819 E0.07103
G1 X83.056 Y53.935 E0.13722
G1 X84.821 Y52.538 E0.07057
G1 X86.632 Y51.203 E0.07057
G1 X90.262 Y48.797 E0.13653
G1 X94.171 Y46.566 E0.14112
G1 X98.089 Y44.666 E0.13653
G1 X100.194 Y43.772 E0.07172
G1 X104.283 Y42.274 E0.13653
G1 X106.432 Y41.605 E0.07057
G1 X110.590 Y40.537 E0.13460
G1 X112.890 Y40.065 E0.07364
G1 X117.081 Y39.426 E0.13292
G1 X119.471 Y39.179 E0.07532
G1 X121.717 Y39.029 E0.07057
G1 X126.074 Y38.957 E0.13664
G1 X128.356 Y39.033 E0.07160
G1 X132.732 Y39.401 E0.13767
G1 X136.977 Y40.042 E0.13460
G1 X139.279 Y40.506 E0.07364
G1 X143.499 Y41.586 E0.13656
G1 X145.683 Y42.262 E0.07169
G1 X149.714 Y43.737 E0.13460
G1 X151.878 Y44.651 E0.07364
G1 X155.829 Y46.566 E0.13768
G1 X157.803 Y47.648 E0.07057
G1 X161.512 Y49.930 E0.13656
G1 X163.398 Y51.224 E0.07169
G1 X166.769 Y53.795 E0.13292
G1 X168.606 Y55.342 E0.07532
G1 X170.274 Y56.854 E0.07057
G1 X173.365 Y59.951 E0.13722
G1 X176.290 Y63.300 E0.13939
G1 X179.043 Y66.929 E0.14283
G1 X185.110 Y77.437 E0.38044
G1 X186.883 Y81.653 E0.14342
G1 X188.299 Y85.794 E0.13722
G1 X188.920 Y87.958 E0.07057
G1 X189.886 Y92.085 E0.13292
G1 X190.320 Y94.448 E0.07532
G1 X190.885 Y98.803 E0.13768
G1 X191.062 Y101.046 E0.07057
G1 X191.188 Y105.436 E0.13768
G1 X191.138 Y107.718 E0.07160
G1 X190.825 Y112.065 E0.13665
G1 X190.551 Y114.299 E0.07057
G1 X190.201 Y116.523 E0.07057
G1 X189.303 Y120.821 E0.13768
G1 X188.150 Y124.956 E0.13460
G1 X187.408 Y127.185 E0.07364
G1 X186.622 Y129.294 E0.07057
G1 X184.885 Y133.326 E0.13768
G1 X182.901 Y137.203 E0.13656
G1 X181.759 Y139.185 E0.07169
G1 X179.431 Y142.791 E0.13460
G1 X178.062 Y144.700 E0.07364
G1 X176.686 Y146.481 E0.07057
G1 X173.832 Y149.817 E0.13767
G1 X170.761 Y152.957 E0.13768
G1 X169.093 Y154.499 E0.07126
G1 X165.740 Y157.301 E0.13699
G1 X163.943 Y158.656 E0.07057
G1 X160.435 Y161.037 E0.13292
G1 X158.385 Y162.288 E0.07532
G1 X154.656 Y164.306 E0.13292
G1 X152.491 Y165.346 E0.07532
G1 X148.438 Y167.036 E0.13768
G1 X146.299 Y167.804 E0.07126
G1 X142.118 Y169.072 E0.13699
G1 X139.935 Y169.618 E0.07057
G1 X135.626 Y170.466 E0.13768
G1 X133.377 Y170.792 E0.07125
G1 X131.031 Y171.043 E0.07399
G1 X118.890 Y171.040 E0.38067
G1 X114.374 Y170.466 E0.14274
G1 X110.101 Y169.626 E0.13654
G1 X107.882 Y169.072 E0.07171
G1 X103.715 Y167.808 E0.13653
G1 X101.596 Y167.049 E0.07056
G1 X97.543 Y165.361 E0.13768
G1 X95.478 Y164.376 E0.07172
G1 X91.647 Y162.307 E0.13653
G1 X89.722 Y161.140 E0.07057
G1 X86.167 Y158.734 E0.13460
G1 X84.289 Y157.324 E0.07364
G1 X80.993 Y154.573 E0.13460
G1 X79.265 Y152.982 E0.07364
G1 X77.665 Y151.399 E0.07057
G1 X74.704 Y148.162 E0.13756
G1 X73.268 Y146.424 E0.07069
G1 X70.644 Y142.903 E0.13768
G1 X69.392 Y141.033 E0.07057
G1 X67.152 Y137.299 E0.13653
G1 X65.100 Y133.293 E0.14112
G1 X63.378 Y129.294 E0.13653
G1 X62.580 Y127.150 E0.07172
G1 X61.267 Y122.998 E0.13653
G1 X60.697 Y120.821 E0.07057
G1 X59.805 Y116.558 E0.13656
G1 X59.449 Y114.299 E0.07169
G1 X59.175 Y112.065 E0.07057
G1 X58.861 Y107.686 E0.13767
G1 X58.812 Y105.436 E0.07057
G1 X58.937 Y101.065 E0.13710
G1 X59.115 Y98.803 E0.07114
G1 X59.680 Y94.448 E0.13768
G1 X60.082 Y92.233 E0.07057
G1 X61.070 Y87.993 E0.13653
G1 X62.383 Y83.688 E0.14112
G1 X63.929 Y79.617 E0.13653
G1 X64.841 Y77.535 E0.07125
G1 X71.008 Y66.860 E0.38656
; PURGING FINISHED
G1 F8640
G1 X72.998 Y64.238 E-0.76000
G1 E-0.04000 F2100.00000
G1 Z0.800 F10800.000
G1 X80.563 Y73.435
G1 Z0.200
G1 E0.80000 F2100.00000
G1 F1800
G1 X81.794 Y71.774 E0.06484
G1 X83.042 Y70.218 E0.06252
G1 X84.323 Y68.734 E0.06148
G1 X85.702 Y67.249 E0.06355
G1 X87.112 Y65.839 E0.06252
G1 X88.573 Y64.481 E0.06252
G1 X90.082 Y63.178 E0.06252
G1 X91.612 Y61.951 E0.06148
G1 X93.238 Y60.741 E0.06355
G1 X94.881 Y59.611 E0.06252
G1 X96.563 Y58.541 E0.06252
G1 X98.284 Y57.533 E0.06252
G1 X100.040 Y56.589 E0.06252
G1 X101.800 Y55.725 E0.06148
G1 X103.651 Y54.897 E0.06355
G1 X105.500 Y54.151 E0.06253
G1 X107.375 Y53.473 E0.06252
G1 X109.273 Y52.863 E0.06252
G1 X111.193 Y52.324 E0.06252
G1 X113.131 Y51.855 E0.06252
G1 X115.085 Y51.457 E0.06252
G1 X117.052 Y51.131 E0.06252
G1 X119.030 Y50.876 E0.06252
G1 X121.015 Y50.695 E0.06252
G1 X123.006 Y50.585 E0.06252
G1 X124.967 Y50.550 E0.06148
G1 X126.993 Y50.585 E0.06355
G1 X128.985 Y50.695 E0.06252
G1 X130.970 Y50.876 E0.06252
G1 X132.948 Y51.131 E0.06252
G1 X134.915 Y51.457 E0.06252
G1 X136.869 Y51.855 E0.06252
G1 X138.807 Y52.324 E0.06252
G1 X140.727 Y52.863 E0.06252
G1 X142.625 Y53.473 E0.06252
G1 X144.500 Y54.151 E0.06252
G1 X146.349 Y54.897 E0.06252
G1 X148.170 Y55.710 E0.06252
G1 X149.960 Y56.589 E0.06252
G1 X151.716 Y57.533 E0.06252
G1 X153.437 Y58.541 E0.06252
G1 X155.092 Y59.593 E0.06148
G1 X156.762 Y60.741 E0.06355
G1 X158.362 Y61.931 E0.06252
G1 X159.918 Y63.178 E0.06252
G1 X161.402 Y64.460 E0.06148
G1 X162.887 Y65.839 E0.06355
G1 X164.297 Y67.249 E0.06252
G1 X165.655 Y68.709 E0.06252
G1 X166.958 Y70.218 E0.06252
G1 X168.206 Y71.774 E0.06252
G1 X169.395 Y73.374 E0.06252
G1 X170.526 Y75.017 E0.06252
G1 X171.595 Y76.699 E0.06252
G1 X172.603 Y78.420 E0.06252
G1 X173.547 Y80.177 E0.06252
G1 X174.426 Y81.966 E0.06252
G1 X175.239 Y83.787 E0.06252
G1 X175.985 Y85.636 E0.06252
G1 X176.663 Y87.511 E0.06252
G1 X177.273 Y89.410 E0.06252
G1 X177.812 Y91.329 E0.06252
G1 X178.281 Y93.267 E0.06252
G1 X178.679 Y95.221 E0.06252
G1 X179.000 Y97.156 E0.06148
G1 X179.260 Y99.166 E0.06355
G1 X179.442 Y101.152 E0.06252
G1 X179.549 Y103.110 E0.06148
G1 X179.587 Y105.136 E0.06355
G1 X179.551 Y107.130 E0.06253
G1 X179.442 Y109.121 E0.06252
G1 X179.260 Y111.106 E0.06252
G1 X179.005 Y113.084 E0.06252
G1 X178.679 Y115.051 E0.06252
G1 X178.281 Y117.005 E0.06252
G1 X177.812 Y118.943 E0.06252
G1 X177.273 Y120.863 E0.06252
G1 X176.674 Y122.730 E0.06148
G1 X175.985 Y124.636 E0.06355
G1 X175.239 Y126.485 E0.06253
G1 X174.426 Y128.306 E0.06252
G1 X173.561 Y130.066 E0.06148
G1 X172.603 Y131.852 E0.06355
G1 X171.595 Y133.573 E0.06253
G1 X170.526 Y135.256 E0.06252
G1 X169.414 Y136.871 E0.06148
G1 X168.206 Y138.498 E0.06355
G1 X166.958 Y140.054 E0.06252
G1 X165.655 Y141.563 E0.06252
G1 X164.320 Y142.999 E0.06148
G1 X162.888 Y144.434 E0.06355
G1 X161.427 Y145.791 E0.06253
G1 X159.918 Y147.094 E0.06252
G1 X158.362 Y148.342 E0.06252
G1 X156.762 Y149.531 E0.06252
G1 X155.119 Y150.662 E0.06252
G1 X153.465 Y151.714 E0.06148
G1 X151.716 Y152.739 E0.06355
G1 X149.960 Y153.683 E0.06252
G1 X148.170 Y154.562 E0.06252
G1 X146.349 Y155.375 E0.06252
G1 X144.500 Y156.121 E0.06252
G1 X142.625 Y156.800 E0.06252
G1 X140.727 Y157.409 E0.06252
G1 X138.807 Y157.948 E0.06252
G1 X136.869 Y158.417 E0.06252
G1 X134.915 Y158.815 E0.06252
G1 X132.948 Y159.142 E0.06252
G1 X130.970 Y159.396 E0.06252
G1 X128.985 Y159.578 E0.06252
G1 X127.027 Y159.685 E0.06148
G1 X125.000 Y159.723 E0.06355
G1 X123.006 Y159.687 E0.06253
G1 X121.015 Y159.578 E0.06252
G1 X119.030 Y159.396 E0.06252
G1 X117.052 Y159.142 E0.06252
G1 X115.085 Y158.815 E0.06252
G1 X113.131 Y158.417 E0.06252
G1 X111.193 Y157.948 E0.06252
G1 X109.273 Y157.409 E0.06252
G1 X107.375 Y156.800 E0.06252
G1 X105.531 Y156.133 E0.06148
G1 X103.651 Y155.375 E0.06355
G1 X101.830 Y154.562 E0.06252
G1 X100.070 Y153.697 E0.06148
G1 X98.284 Y152.739 E0.06355
G1 X96.563 Y151.731 E0.06253
G1 X94.881 Y150.662 E0.06252
G1 X93.238 Y149.531 E0.06252
G1 X91.664 Y148.361 E0.06148
G1 X90.082 Y147.095 E0.06355
G1 X88.573 Y145.791 E0.06252
G1 X87.112 Y144.434 E0.06252
G1 X85.726 Y143.047 E0.06148
G1 X84.345 Y141.563 E0.06355
G1 X83.042 Y140.054 E0.06253
G1 X81.794 Y138.498 E0.06252
G1 X80.625 Y136.925 E0.06148
G1 X79.475 Y135.256 E0.06355
G1 X78.405 Y133.573 E0.06252
G1 X77.397 Y131.852 E0.06252
G1 X76.453 Y130.096 E0.06252
G1 X75.574 Y128.306 E0.06252
G1 X74.761 Y126.485 E0.06252
G1 X74.015 Y124.636 E0.06252
G1 X73.337 Y122.761 E0.06252
G1 X72.727 Y120.863 E0.06252
G1 X72.188 Y118.943 E0.06252
G1 X71.719 Y117.005 E0.06252
G1 X71.327 Y115.084 E0.06148
G1 X70.995 Y113.084 E0.06355
G1 X70.740 Y111.106 E0.06253
G1 X70.558 Y109.121 E0.06252
G1 X70.449 Y107.130 E0.06252
G1 X70.413 Y105.136 E0.06252
G1 X70.449 Y103.143 E0.06252
G1 X70.558 Y101.152 E0.06252
G1 X70.740 Y99.166 E0.06252
G1 X70.995 Y97.188 E0.06252
G1 X71.321 Y95.221 E0.06252
G1 X71.719 Y93.267 E0.06252
G1 X72.188 Y91.329 E0.06252
G1 X72.718 Y89.441 E0.06148
G1 X73.336 Y87.511 E0.06355
G1 X74.015 Y85.636 E0.06252
G1 X74.761 Y83.787 E0.06252
G1 X75.561 Y81.996 E0.06148
G1 X76.453 Y80.177 E0.06355
G1 X77.397 Y78.420 E0.06252
G1 X78.405 Y76.699 E0.06252
G1 X79.474 Y75.017 E0.06252
G1 X80.529 Y73.485 E0.05832
G1 X80.839 Y73.698 F10800.000
G1 F1800
G1 X82.093 Y72.004 E0.06607
G1 X83.332 Y70.459 E0.06209
G1 X84.604 Y68.986 E0.06105
G1 X85.974 Y67.510 E0.06312
G1 X87.374 Y66.110 E0.06209
G1 X88.825 Y64.762 E0.06209
G1 X90.323 Y63.468 E0.06209
G1 X91.843 Y62.250 E0.06105
G1 X93.457 Y61.048 E0.06312
G1 X95.089 Y59.925 E0.06209
G1 X96.760 Y58.863 E0.06209
G1 X98.469 Y57.862 E0.06209
G1 X100.213 Y56.925 E0.06209
G1 X101.961 Y56.066 E0.06105
G1 X103.798 Y55.244 E0.06312
G1 X105.635 Y54.503 E0.06209
G1 X107.497 Y53.830 E0.06209
G1 X109.382 Y53.225 E0.06209
G1 X111.288 Y52.689 E0.06209
G1 X113.213 Y52.223 E0.06209
G1 X115.153 Y51.828 E0.06209
G1 X117.107 Y51.504 E0.06209
G1 X119.071 Y51.251 E0.06209
G1 X121.043 Y51.071 E0.06209
G1 X123.020 Y50.962 E0.06209
G1 X124.967 Y50.927 E0.06105
G1 X126.980 Y50.962 E0.06312
G1 X128.957 Y51.071 E0.06209
G1 X130.929 Y51.251 E0.06209
G1 X132.893 Y51.504 E0.06209
G1 X134.847 Y51.828 E0.06209
G1 X136.787 Y52.223 E0.06209
G1 X138.712 Y52.689 E0.06209
G1 X140.618 Y53.225 E0.06209
G1 X142.503 Y53.830 E0.06209
G1 X144.365 Y54.503 E0.06209
G1 X146.202 Y55.244 E0.06209
G1 X148.010 Y56.052 E0.06209
G1 X149.787 Y56.925 E0.06209
G1 X151.531 Y57.862 E0.06209
G1 X153.240 Y58.863 E0.06209
G1 X154.884 Y59.907 E0.06105
G1 X156.543 Y61.048 E0.06312
G1 X158.132 Y62.229 E0.06209
G1 X159.677 Y63.468 E0.06209
G1 X161.150 Y64.740 E0.06105
G1 X162.626 Y66.110 E0.06312
G1 X164.026 Y67.510 E0.06209
G1 X165.374 Y68.961 E0.06209
G1 X166.668 Y70.459 E0.06209
G1 X167.907 Y72.004 E0.06209
G1 X169.088 Y73.594 E0.06209
G1 X170.211 Y75.225 E0.06209
G1 X171.273 Y76.896 E0.06209
G1 X172.274 Y78.605 E0.06209
G1 X173.211 Y80.349 E0.06209
G1 X174.084 Y82.126 E0.06209
G1 X174.892 Y83.934 E0.06209
G1 X175.633 Y85.771 E0.06209
G1 X176.307 Y87.633 E0.06209
G1 X176.912 Y89.518 E0.06209
G1 X177.447 Y91.425 E0.06209
G1 X177.913 Y93.349 E0.06209
G1 X178.308 Y95.290 E0.06209
G1 X178.627 Y97.211 E0.06105
G1 X178.885 Y99.207 E0.06312
G1 X179.065 Y101.179 E0.06209
G1 X179.172 Y103.123 E0.06105
G1 X179.210 Y105.136 E0.06312
G1 X179.174 Y107.116 E0.06209
G1 X179.065 Y109.093 E0.06209
G1 X178.885 Y111.065 E0.06209
G1 X178.632 Y113.029 E0.06209
G1 X178.308 Y114.983 E0.06209
G1 X177.913 Y116.923 E0.06209
G1 X177.447 Y118.848 E0.06209
G1 X176.912 Y120.754 E0.06209
G1 X176.317 Y122.608 E0.06105
G1 X175.633 Y124.502 E0.06312
G1 X174.892 Y126.338 E0.06209
G1 X174.084 Y128.146 E0.06209
G1 X173.226 Y129.894 E0.06105
G1 X172.274 Y131.667 E0.06312
G1 X171.273 Y133.376 E0.06209
G1 X170.211 Y135.047 E0.06209
G1 X169.107 Y136.652 E0.06105
G1 X167.907 Y138.268 E0.06312
G1 X166.668 Y139.813 E0.06209
G1 X165.374 Y141.312 E0.06209
G1 X164.048 Y142.738 E0.06105
G1 X162.626 Y144.162 E0.06312
G1 X161.175 Y145.510 E0.06209
G1 X159.677 Y146.805 E0.06209
G1 X158.132 Y148.043 E0.06209
G1 X156.543 Y149.225 E0.06209
G1 X154.911 Y150.347 E0.06209
G1 X153.268 Y151.392 E0.06105
G1 X151.531 Y152.410 E0.06312
G1 X149.787 Y153.347 E0.06209
G1 X148.010 Y154.221 E0.06209
G1 X146.202 Y155.028 E0.06209
G1 X144.365 Y155.769 E0.06209
G1 X142.503 Y156.443 E0.06209
G1 X140.618 Y157.048 E0.06209
G1 X138.712 Y157.583 E0.06209
G1 X136.787 Y158.049 E0.06209
G1 X134.847 Y158.444 E0.06209
G1 X132.893 Y158.768 E0.06209
G1 X130.929 Y159.021 E0.06209
G1 X128.957 Y159.202 E0.06209
G1 X127.013 Y159.308 E0.06105
G1 X125.000 Y159.346 E0.06312
G1 X123.020 Y159.310 E0.06209
G1 X121.043 Y159.202 E0.06209
G1 X119.071 Y159.021 E0.06209
G1 X117.107 Y158.768 E0.06209
G1 X115.153 Y158.444 E0.06209
G1 X113.213 Y158.049 E0.06209
G1 X111.288 Y157.583 E0.06209
G1 X109.382 Y157.048 E0.06209
G1 X107.497 Y156.443 E0.06209
G1 X105.665 Y155.780 E0.06105
G1 X103.798 Y155.028 E0.06312
G1 X101.990 Y154.221 E0.06209
G1 X100.242 Y153.362 E0.06105
G1 X98.469 Y152.410 E0.06312
G1 X96.760 Y151.409 E0.06209
G1 X95.089 Y150.347 E0.06209
G1 X93.457 Y149.225 E0.06209
G1 X91.895 Y148.063 E0.06105
G1 X90.323 Y146.805 E0.06312
G1 X88.825 Y145.510 E0.06209
G1 X87.374 Y144.162 E0.06209
G1 X85.997 Y142.785 E0.06105
G1 X84.626 Y141.312 E0.06312
G1 X83.332 Y139.813 E0.06209
G1 X82.093 Y138.268 E0.06209
G1 X80.931 Y136.705 E0.06105
G1 X79.789 Y135.048 E0.06312
G1 X78.727 Y133.376 E0.06209
G1 X77.726 Y131.668 E0.06209
G1 X76.789 Y129.923 E0.06209
G1 X75.916 Y128.146 E0.06209
G1 X75.108 Y126.338 E0.06209
G1 X74.367 Y124.502 E0.06209
G1 X73.693 Y122.640 E0.06209
G1 X73.088 Y120.754 E0.06209
G1 X72.553 Y118.848 E0.06209
G1 X72.087 Y116.923 E0.06209
G1 X71.698 Y115.015 E0.06105
G1 X71.368 Y113.029 E0.06312
G1 X71.115 Y111.065 E0.06209
G1 X70.935 Y109.093 E0.06209
G1 X70.826 Y107.116 E0.06209
G1 X70.790 Y105.136 E0.06209
G1 X70.826 Y103.156 E0.06209
G1 X70.935 Y101.179 E0.06209
G1 X71.115 Y99.207 E0.06209
G1 X71.368 Y97.243 E0.06209
G1 X71.692 Y95.290 E0.06209
G1 X72.087 Y93.349 E0.06209
G1 X72.553 Y91.425 E0.06209
G1 X73.080 Y89.550 E0.06105
G1 X73.693 Y87.633 E0.06312
G1 X74.367 Y85.771 E0.06209
G1 X75.108 Y83.934 E0.06209
G1 X75.902 Y82.156 E0.06105
G1 X76.789 Y80.349 E0.06312
G1 X77.726 Y78.605 E0.06209
G1 X78.727 Y76.896 E0.06209
G1 X79.789 Y75.225 E0.06209
G1 X80.805 Y73.748 E0.05622
G1 X80.673 Y73.334 F10800.000
G1 F8640
G1 X82.093 Y72.004 E-0.50042
G1 X82.796 Y71.127 E-0.25957
G1 E-0.04000 F2100.00000
G1 Z0.800 F10800.000
G1 X73.713 Y68.011
G1 Z0.200
G1 E0.80000 F2100.00000
G1 F1800
G1 X73.639 Y67.957 E0.00289
G1 X74.550 Y66.717 E0.04824
G1 X75.863 Y65.051 E0.06651
G1 X77.232 Y63.430 E0.06651
G1 X78.653 Y61.856 E0.06651
G1 X80.127 Y60.330 E0.06651
G1 X81.650 Y58.854 E0.06651
G1 X83.223 Y57.430 E0.06651
G1 X84.842 Y56.060 E0.06651
G1 X86.506 Y54.744 E0.06651
G1 X88.213 Y53.485 E0.06651
G1 X89.961 Y52.283 E0.06651
G1 X91.748 Y51.141 E0.06651
G1 X93.542 Y50.077 E0.06540
G1 X95.433 Y49.038 E0.06763
G1 X97.325 Y48.081 E0.06651
G1 X99.249 Y47.187 E0.06651
G1 X101.202 Y46.358 E0.06651
G1 X103.181 Y45.595 E0.06651
G1 X105.185 Y44.899 E0.06651
G1 X107.177 Y44.280 E0.06540
G1 X109.256 Y43.709 E0.06763
G1 X111.320 Y43.217 E0.06651
G1 X113.398 Y42.794 E0.06651
G1 X115.490 Y42.440 E0.06651
