; generated by Slic3r Prusa Edition 1.41.0+ on 2018-11-24 at 14:38:13

; 

; external perimeters extrusion width = 0.60mm
; perimeters extrusion width = 0.43mm
; infill extrusion width = 0.45mm
; solid infill extrusion width = 0.70mm
; top infill extrusion width = 0.43mm
; support material extrusion width = 0.35mm
; first layer extrusion width = 0.42mm

M201 X9000 Y9000 Z500 E10000 ; sets maximum accelerations, mm/sec^2
M203 X500 Y500 Z12 E120 ; sets maximum feedrates, mm/sec
M204 P2000 R1500 T2000 ; sets acceleration (P, T) and retract acceleration (R), mm/sec^2
M205 X10.00 Y10.00 Z0.20 E2.50 ; sets the jerk limits, mm/sec
M205 S0 T0 ; sets the minimum extruding and travel feed rate, mm/sec
M107
M115 U3.1.0 ; tell printer latest fw version
M83  ; extruder relative mode
M204 S2000 T1500 ; MK2 firmware only supports the old M204 format
M104 S210 ; set extruder temp
M140 S55 ; set bed temp
M190 S55 ; wait for bed temp
M109 S210 ; wait for extruder temp
G28 W ; home all without mesh bed level
G80 ; mesh bed leveling
G1 Y-3.0 F1000.0 ; go outside print area
G92 E0.0
G1 X60.0 E9.0  F1000.0 ; intro line
G1 X100.0 E12.5  F1000.0 ; intro line
G92 E0.0
M900 K30; Filament gcode
G21 ; set units to millimeters
G90 ; use absolute coordinates
M83 ; use relative distances for extrusion
;BEFORE_LAYER_CHANGE
G92 E0.0
;0.2


G1 E-0.80000 F2100.00000
G1 Z0.600 F10800.000
;AFTER_LAYER_CHANGE
;0.2
G1 X71.473 Y67.060
G1 Z0.200
G1 E0.80000 F2100.00000
M204 S1000
G1 F1800
G1 X74.106 Y63.608 E0.13613
G1 X75.546 Y61.902 E0.06999
G1 X78.519 Y58.721 E0.13652
G1 X80.131 Y57.161 E0.07033
G1 X83.399 Y54.301 E0.13618
G1 X85.151 Y52.917 E0.06999
G1 X86.948 Y51.593 E0.06999
G1 X90.548 Y49.209 E0.13538
G1 X92.500 Y48.052 E0.07114
G1 X96.320 Y46.041 E0.13538
G1 X100.400 Y44.229 E0.13996
G1 X104.454 Y42.745 E0.13538
G1 X106.586 Y42.082 E0.06999
G1 X110.804 Y41.001 E0.13652
G1 X112.991 Y40.556 E0.06999
G1 X117.261 Y39.907 E0.13541
G1 X119.517 Y39.678 E0.07110
G1 X121.744 Y39.530 E0.06999
G1 X126.065 Y39.458 E0.13549
G1 X128.329 Y39.533 E0.07102
G1 X132.668 Y39.898 E0.13652
G1 X136.938 Y40.544 E0.13541
G1 X139.161 Y40.993 E0.07110
G1 X143.379 Y42.073 E0.13652
G1 X145.511 Y42.733 E0.06999
G1 X149.567 Y44.217 E0.13541
G1 X151.656 Y45.100 E0.07110
G1 X153.680 Y46.041 E0.06999
G1 X157.532 Y48.070 E0.13652
G1 X159.452 Y49.209 E0.06999
G1 X163.082 Y51.614 E0.13652
G1 X164.878 Y52.939 E0.06999
G1 X168.249 Y55.695 E0.13653
G1 X169.904 Y57.194 E0.06999
G1 X172.971 Y60.263 E0.13606
G1 X175.874 Y63.582 E0.13825
G1 X178.609 Y67.183 E0.14178
G1 X184.675 Y77.689 E0.38037
G1 X186.430 Y81.871 E0.14220
G1 X187.833 Y85.981 E0.13618
G1 X188.448 Y88.127 E0.06999
G1 X189.435 Y92.368 E0.13652
G1 X189.832 Y94.564 E0.06999
G1 X190.154 Y96.773 E0.06999
G1 X190.565 Y101.108 E0.13652
G1 X190.687 Y105.461 E0.13652
G1 X190.637 Y107.725 E0.07102
G1 X190.325 Y112.035 E0.13549
G1 X190.053 Y114.251 E0.06999
G1 X189.706 Y116.456 E0.06999
G1 X188.814 Y120.718 E0.13652
G1 X187.652 Y124.877 E0.13541
G1 X186.934 Y127.028 E0.07110
G1 X185.361 Y131.050 E0.13541
G1 X184.431 Y133.118 E0.07110
G1 X183.446 Y135.122 E0.06999
G1 X181.331 Y138.928 E0.13653
G1 X178.988 Y142.556 E0.13541
G1 X177.665 Y144.397 E0.07110
G1 X176.301 Y146.164 E0.06999
G1 X173.470 Y149.473 E0.13652
G1 X170.426 Y152.586 E0.13652
G1 X168.772 Y154.117 E0.07068
G1 X165.448 Y156.896 E0.13584
G1 X163.666 Y158.240 E0.07000
G1 X160.063 Y160.685 E0.13652
G1 X158.155 Y161.844 E0.06999
G1 X156.209 Y162.938 E0.06999
G1 X152.312 Y164.879 E0.13653
G1 X148.294 Y166.557 E0.13652
G1 X146.173 Y167.320 E0.07068
G1 X142.028 Y168.580 E0.13583
G1 X139.862 Y169.122 E0.07000
G1 X135.591 Y169.966 E0.13652
G1 X133.360 Y170.292 E0.07068
G1 X131.032 Y170.542 E0.07341
G1 X118.886 Y170.539 E0.38083
G1 X114.409 Y169.966 E0.14151
G1 X110.173 Y169.130 E0.13538
G1 X107.972 Y168.580 E0.07114
G1 X103.841 Y167.325 E0.13538
G1 X101.740 Y166.570 E0.06999
G1 X97.722 Y164.894 E0.13652
G1 X95.678 Y163.918 E0.07102
G1 X91.876 Y161.863 E0.13549
G1 X89.968 Y160.705 E0.06999
G1 X86.393 Y158.282 E0.13541
G1 X84.581 Y156.918 E0.07110
G1 X82.845 Y155.515 E0.06999
G1 X79.600 Y152.612 E0.13652
G1 X78.013 Y151.042 E0.06999
G1 X75.078 Y147.831 E0.13641
G1 X73.654 Y146.107 E0.07011
G1 X71.052 Y142.615 E0.13652
G1 X69.810 Y140.761 E0.06999
G1 X67.589 Y137.058 E0.13538
G1 X65.554 Y133.085 E0.13996
G1 X63.846 Y129.120 E0.13538
G1 X63.054 Y126.993 E0.07114
G1 X61.752 Y122.877 E0.13538
G1 X61.186 Y120.718 E0.06999
G1 X60.301 Y116.491 E0.13541
G1 X59.947 Y114.251 E0.07110
G1 X59.675 Y112.035 E0.06999
G1 X59.361 Y107.692 E0.13652
G1 X59.313 Y105.461 E0.06999
G1 X59.434 Y101.123 E0.13606
G1 X59.610 Y98.883 E0.07045
G1 X60.168 Y94.564 E0.13652
G1 X60.565 Y92.368 E0.06999
G1 X61.543 Y88.162 E0.13538
G1 X62.842 Y83.892 E0.13996
G1 X64.372 Y79.854 E0.13538
G1 X65.277 Y77.786 E0.07079
G1 X71.443 Y67.112 E0.38649
; PURGING FINISHED
G1 F8640
G1 X73.434 Y64.491 E-0.76000
G1 E-0.04000 F2100.00000
G1 Z0.800 F10800.000
G1 X80.997 Y73.687
G1 Z0.200
G1 E0.80000 F2100.00000
G1 F1800
G1 X82.190 Y72.081 E0.06274
G1 X83.426 Y70.539 E0.06195
G1 X84.717 Y69.044 E0.06195
G1 X86.062 Y67.597 E0.06195
G1 X87.459 Y66.200 E0.06195
G1 X88.907 Y64.855 E0.06195
G1 X90.402 Y63.563 E0.06195
G1 X91.943 Y62.327 E0.06195
G1 X93.529 Y61.149 E0.06195
G1 X95.156 Y60.029 E0.06195
G1 X96.824 Y58.969 E0.06195
G1 X98.529 Y57.971 E0.06195
G1 X100.269 Y57.035 E0.06195
G1 X102.042 Y56.164 E0.06195
G1 X103.846 Y55.358 E0.06195
G1 X105.678 Y54.619 E0.06195
G1 X107.536 Y53.947 E0.06195
G1 X109.418 Y53.343 E0.06195
G1 X111.320 Y52.809 E0.06195
G1 X113.240 Y52.344 E0.06195
G1 X115.176 Y51.950 E0.06195
G1 X117.125 Y51.627 E0.06195
G1 X119.084 Y51.375 E0.06195
G1 X121.052 Y51.194 E0.06195
G1 X123.025 Y51.086 E0.06195
G1 X124.967 Y51.051 E0.06092
G1 X126.975 Y51.086 E0.06297
G1 X128.948 Y51.194 E0.06195
G1 X130.916 Y51.375 E0.06195
G1 X132.875 Y51.627 E0.06195
G1 X134.824 Y51.950 E0.06195
G1 X136.760 Y52.344 E0.06195
G1 X138.680 Y52.809 E0.06195
G1 X140.582 Y53.343 E0.06195
G1 X142.464 Y53.947 E0.06195
G1 X144.322 Y54.619 E0.06195
G1 X146.154 Y55.358 E0.06195
G1 X147.928 Y56.151 E0.06092
G1 X149.731 Y57.035 E0.06297
G1 X151.471 Y57.971 E0.06195
G1 X153.176 Y58.969 E0.06195
G1 X154.844 Y60.029 E0.06195
G1 X156.471 Y61.149 E0.06195
G1 X158.057 Y62.327 E0.06195
G1 X159.598 Y63.563 E0.06195
G1 X161.069 Y64.833 E0.06092
G1 X162.540 Y66.200 E0.06297
G1 X163.938 Y67.597 E0.06195
G1 X165.283 Y69.044 E0.06195
G1 X166.574 Y70.539 E0.06195
G1 X167.810 Y72.081 E0.06195
G1 X168.989 Y73.666 E0.06195
G1 X170.109 Y75.294 E0.06195
G1 X171.168 Y76.961 E0.06195
G1 X172.167 Y78.666 E0.06195
G1 X173.102 Y80.406 E0.06195
G1 X173.959 Y82.150 E0.06092
G1 X174.779 Y83.983 E0.06297
G1 X175.518 Y85.816 E0.06195
G1 X176.190 Y87.674 E0.06195
G1 X176.794 Y89.555 E0.06195
G1 X177.328 Y91.457 E0.06195
G1 X177.793 Y93.377 E0.06195
G1 X178.181 Y95.281 E0.06092
G1 X178.511 Y97.262 E0.06297
G1 X178.763 Y99.222 E0.06195
G1 X178.943 Y101.189 E0.06195
G1 X179.051 Y103.162 E0.06195
G1 X179.087 Y105.137 E0.06195
G1 X179.051 Y107.113 E0.06195
G1 X178.943 Y109.085 E0.06195
G1 X178.763 Y111.053 E0.06195
G1 X178.511 Y113.012 E0.06195
G1 X178.187 Y114.962 E0.06195
G1 X177.793 Y116.897 E0.06195
G1 X177.328 Y118.818 E0.06195
G1 X176.794 Y120.720 E0.06195
G1 X176.190 Y122.601 E0.06195
G1 X175.518 Y124.459 E0.06195
G1 X174.779 Y126.291 E0.06195
G1 X173.973 Y128.095 E0.06195
G1 X173.102 Y129.868 E0.06195
G1 X172.167 Y131.609 E0.06195
G1 X171.168 Y133.313 E0.06195
G1 X170.109 Y134.981 E0.06195
G1 X168.989 Y136.608 E0.06195
G1 X167.810 Y138.194 E0.06195
G1 X166.574 Y139.735 E0.06195
G1 X165.283 Y141.231 E0.06195
G1 X163.960 Y142.654 E0.06092
G1 X162.541 Y144.075 E0.06297
G1 X161.093 Y145.420 E0.06195
G1 X159.598 Y146.711 E0.06195
G1 X158.057 Y147.947 E0.06195
G1 X156.471 Y149.126 E0.06195
G1 X154.844 Y150.246 E0.06195
G1 X153.176 Y151.306 E0.06195
G1 X151.471 Y152.304 E0.06195
G1 X149.760 Y153.224 E0.06092
G1 X147.958 Y154.110 E0.06297
G1 X146.154 Y154.916 E0.06195
G1 X144.322 Y155.656 E0.06195
G1 X142.464 Y156.328 E0.06195
G1 X140.582 Y156.931 E0.06195
G1 X138.680 Y157.466 E0.06195
G1 X136.760 Y157.930 E0.06195
G1 X134.856 Y158.318 E0.06092
G1 X132.875 Y158.648 E0.06297
G1 X130.916 Y158.900 E0.06195
G1 X128.948 Y159.080 E0.06195
G1 X126.975 Y159.188 E0.06195
G1 X125.000 Y159.224 E0.06195
G1 X123.025 Y159.188 E0.06195
G1 X121.052 Y159.080 E0.06195
G1 X119.084 Y158.900 E0.06195
G1 X117.125 Y158.648 E0.06195
G1 X115.176 Y158.325 E0.06195
G1 X113.240 Y157.930 E0.06195
G1 X111.351 Y157.473 E0.06092
G1 X109.418 Y156.931 E0.06297
G1 X107.536 Y156.328 E0.06195
G1 X105.678 Y155.656 E0.06195
G1 X103.877 Y154.928 E0.06092
G1 X102.042 Y154.111 E0.06297
G1 X100.269 Y153.239 E0.06195
G1 X98.529 Y152.304 E0.06195
G1 X96.824 Y151.306 E0.06195
G1 X95.156 Y150.246 E0.06195
G1 X93.529 Y149.126 E0.06195
G1 X91.943 Y147.947 E0.06195
G1 X90.402 Y146.711 E0.06195
G1 X88.907 Y145.420 E0.06195
G1 X87.459 Y144.075 E0.06195
G1 X86.062 Y142.678 E0.06195
G1 X84.717 Y141.231 E0.06195
G1 X83.426 Y139.735 E0.06195
G1 X82.190 Y138.194 E0.06195
G1 X81.011 Y136.608 E0.06195
G1 X79.891 Y134.981 E0.06195
G1 X78.832 Y133.313 E0.06195
G1 X77.833 Y131.609 E0.06195
G1 X76.898 Y129.868 E0.06195
G1 X76.027 Y128.095 E0.06195
G1 X75.221 Y126.291 E0.06195
G1 X74.482 Y124.459 E0.06195
G1 X73.821 Y122.632 E0.06092
G1 X73.206 Y120.720 E0.06297
G1 X72.672 Y118.818 E0.06195
G1 X72.207 Y116.897 E0.06195
G1 X71.813 Y114.962 E0.06195
G1 X71.489 Y113.012 E0.06195
G1 X71.237 Y111.053 E0.06195
G1 X71.057 Y109.085 E0.06195
G1 X70.949 Y107.113 E0.06195
G1 X70.913 Y105.137 E0.06195
G1 X70.949 Y103.162 E0.06195
G1 X71.057 Y101.189 E0.06195
G1 X71.237 Y99.222 E0.06195
G1 X71.489 Y97.262 E0.06195
G1 X71.813 Y95.313 E0.06195
G1 X72.207 Y93.377 E0.06195
G1 X72.672 Y91.457 E0.06195
G1 X73.206 Y89.555 E0.06195
G1 X73.810 Y87.674 E0.06195
G1 X74.482 Y85.816 E0.06195
G1 X75.221 Y83.984 E0.06195
G1 X76.027 Y82.180 E0.06195
G1 X76.898 Y80.406 E0.06195
G1 X77.818 Y78.695 E0.06092
G1 X78.831 Y76.961 E0.06297
G1 X79.891 Y75.294 E0.06195
G1 X80.963 Y73.737 E0.05927
G1 X81.274 Y73.950 F10800.000
G1 F1800
G1 X82.489 Y72.311 E0.06397
G1 X83.716 Y70.780 E0.06151
G1 X84.998 Y69.296 E0.06151
G1 X86.334 Y67.859 E0.06151
G1 X87.721 Y66.471 E0.06151
G1 X89.158 Y65.136 E0.06151
G1 X90.643 Y63.853 E0.06151
G1 X92.174 Y62.626 E0.06151
G1 X93.748 Y61.455 E0.06151
G1 X95.365 Y60.343 E0.06151
G1 X97.020 Y59.291 E0.06151
G1 X98.713 Y58.299 E0.06151
G1 X100.442 Y57.371 E0.06151
G1 X102.202 Y56.506 E0.06151
G1 X103.994 Y55.705 E0.06151
G1 X105.813 Y54.971 E0.06151
G1 X107.658 Y54.304 E0.06151
G1 X109.526 Y53.705 E0.06151
G1 X111.415 Y53.174 E0.06151
G1 X113.322 Y52.712 E0.06151
G1 X115.244 Y52.321 E0.06151
G1 X117.180 Y52.000 E0.06151
G1 X119.126 Y51.749 E0.06151
G1 X121.079 Y51.571 E0.06151
G1 X123.038 Y51.463 E0.06151
G1 X124.967 Y51.428 E0.06049
G1 X126.962 Y51.463 E0.06254
G1 X128.921 Y51.571 E0.06152
G1 X130.874 Y51.749 E0.06151
G1 X132.820 Y52.000 E0.06151
G1 X134.756 Y52.321 E0.06151
G1 X136.678 Y52.712 E0.06151
G1 X138.585 Y53.174 E0.06151
G1 X140.474 Y53.705 E0.06151
G1 X142.342 Y54.304 E0.06151
G1 X144.187 Y54.971 E0.06151
G1 X146.006 Y55.705 E0.06151
G1 X147.768 Y56.492 E0.06049
G1 X149.558 Y57.371 E0.06254
G1 X151.287 Y58.299 E0.06152
G1 X152.980 Y59.291 E0.06151
G1 X154.635 Y60.343 E0.06151
G1 X156.252 Y61.455 E0.06151
G1 X157.826 Y62.626 E0.06151
G1 X159.357 Y63.853 E0.06151
G1 X160.817 Y65.114 E0.06049
G1 X162.279 Y66.471 E0.06254
G1 X163.666 Y67.859 E0.06152
G1 X165.002 Y69.296 E0.06151
G1 X166.284 Y70.780 E0.06151
G1 X167.511 Y72.311 E0.06152
G1 X168.682 Y73.886 E0.06151
G1 X169.794 Y75.502 E0.06151
G1 X170.847 Y77.158 E0.06151
G1 X171.838 Y78.851 E0.06151
G1 X172.767 Y80.579 E0.06151
G1 X173.617 Y82.310 E0.06049
G1 X174.432 Y84.131 E0.06254
G1 X175.166 Y85.950 E0.06152
G1 X175.833 Y87.795 E0.06151
G1 X176.433 Y89.663 E0.06151
G1 X176.964 Y91.552 E0.06152
G1 X177.425 Y93.459 E0.06151
G1 X177.810 Y95.350 E0.06049
G1 X178.138 Y97.317 E0.06254
G1 X178.388 Y99.263 E0.06152
G1 X178.567 Y101.217 E0.06151
G1 X178.674 Y103.176 E0.06151
G1 X178.710 Y105.137 E0.06151
G1 X178.674 Y107.099 E0.06151
G1 X178.567 Y109.058 E0.06151
G1 X178.388 Y111.012 E0.06151
G1 X178.138 Y112.958 E0.06151
G1 X177.817 Y114.893 E0.06151
G1 X177.425 Y116.815 E0.06151
G1 X176.964 Y118.722 E0.06152
G1 X176.433 Y120.611 E0.06151
G1 X175.833 Y122.479 E0.06151
G1 X175.166 Y124.324 E0.06151
G1 X174.432 Y126.144 E0.06151
G1 X173.632 Y127.935 E0.06151
G1 X172.767 Y129.696 E0.06152
G1 X171.838 Y131.424 E0.06151
G1 X170.847 Y133.117 E0.06151
G1 X169.794 Y134.773 E0.06151
G1 X168.682 Y136.389 E0.06151
G1 X167.511 Y137.963 E0.06151
G1 X166.284 Y139.494 E0.06152
G1 X165.002 Y140.979 E0.06151
G1 X163.688 Y142.392 E0.06049
G1 X162.279 Y143.803 E0.06254
G1 X160.842 Y145.139 E0.06152
G1 X159.357 Y146.421 E0.06151
G1 X157.826 Y147.649 E0.06151
G1 X156.252 Y148.819 E0.06151
G1 X154.635 Y149.931 E0.06151
G1 X152.980 Y150.984 E0.06151
G1 X151.287 Y151.975 E0.06151
G1 X149.587 Y152.888 E0.06049
G1 X147.798 Y153.769 E0.06254
G1 X146.006 Y154.569 E0.06152
G1 X144.187 Y155.303 E0.06151
G1 X142.342 Y155.971 E0.06151
G1 X140.474 Y156.570 E0.06151
G1 X138.585 Y157.101 E0.06151
G1 X136.678 Y157.562 E0.06151
G1 X134.788 Y157.947 E0.06049
G1 X132.820 Y158.275 E0.06254
G1 X130.874 Y158.525 E0.06152
G1 X128.921 Y158.704 E0.06151
G1 X126.962 Y158.812 E0.06151
G1 X125.000 Y158.847 E0.06151
G1 X123.038 Y158.812 E0.06151
G1 X121.079 Y158.704 E0.06151
G1 X119.126 Y158.525 E0.06151
G1 X117.180 Y158.275 E0.06151
G1 X115.244 Y157.954 E0.06151
G1 X113.322 Y157.562 E0.06151
G1 X111.447 Y157.109 E0.06049
G1 X109.526 Y156.570 E0.06254
G1 X107.658 Y155.971 E0.06152
G1 X105.813 Y155.303 E0.06151
G1 X104.024 Y154.581 E0.06049
G1 X102.202 Y153.769 E0.06254
G1 X100.442 Y152.904 E0.06152
G1 X98.713 Y151.975 E0.06151
G1 X97.020 Y150.984 E0.06151
G1 X95.365 Y149.931 E0.06151
G1 X93.748 Y148.819 E0.06151
G1 X92.174 Y147.649 E0.06151
G1 X90.643 Y146.421 E0.06152
G1 X89.158 Y145.139 E0.06151
G1 X87.721 Y143.803 E0.06151
G1 X86.334 Y142.416 E0.06151
G1 X84.998 Y140.979 E0.06151
G1 X83.716 Y139.494 E0.06151
G1 X82.489 Y137.963 E0.06151
G1 X81.318 Y136.389 E0.06151
G1 X80.206 Y134.773 E0.06151
G1 X79.153 Y133.117 E0.06151
G1 X78.162 Y131.424 E0.06151
G1 X77.233 Y129.696 E0.06151
G1 X76.368 Y127.935 E0.06152
G1 X75.568 Y126.144 E0.06151
G1 X74.834 Y124.324 E0.06151
G1 X74.178 Y122.510 E0.06049
G1 X73.567 Y120.611 E0.06254
G1 X73.036 Y118.722 E0.06152
G1 X72.575 Y116.815 E0.06152
G1 X72.183 Y114.893 E0.06151
G1 X71.862 Y112.958 E0.06151
G1 X71.612 Y111.012 E0.06151
G1 X71.433 Y109.058 E0.06151
G1 X71.326 Y107.099 E0.06151
G1 X71.290 Y105.137 E0.06151
G1 X71.326 Y103.176 E0.06151
G1 X71.433 Y101.217 E0.06151
G1 X71.612 Y99.263 E0.06151
G1 X71.862 Y97.317 E0.06151
G1 X72.183 Y95.382 E0.06151
G1 X72.575 Y93.459 E0.06151
G1 X73.036 Y91.552 E0.06151
G1 X73.567 Y89.663 E0.06151
G1 X74.167 Y87.795 E0.06151
G1 X74.834 Y85.950 E0.06151
G1 X75.568 Y84.131 E0.06151
G1 X76.368 Y82.340 E0.06151
G1 X77.233 Y80.579 E0.06152
G1 X78.147 Y78.879 E0.06049
G1 X79.153 Y77.158 E0.06254
G1 X80.206 Y75.502 E0.06152
G1 X81.240 Y74.000 E0.05717
G1 X81.108 Y73.586 F10800.000
G1 F8640
G1 X82.489 Y72.311 E-0.48497
G1 X83.234 Y71.382 E-0.27504
G1 E-0.04000 F2100.00000
G1 Z0.800 F10800.000
G1 X74.148 Y68.263
G1 Z0.200
G1 E0.80000 F2100.00000
G1 F1800
G1 X74.074 Y68.210 E0.00288
G1 X74.975 Y66.986 E0.04766
G1 X76.278 Y65.335 E0.06594
G1 X77.636 Y63.729 E0.06594
G1 X79.046 Y62.169 E0.06593
G1 X80.508 Y60.657 E0.06593
G1 X82.019 Y59.195 E0.06593
G1 X83.579 Y57.785 E0.06593
G1 X85.184 Y56.427 E0.06593
G1 X86.807 Y55.145 E0.06483
G1 X88.527 Y53.875 E0.06704
G1 X90.261 Y52.685 E0.06593
G1 X92.033 Y51.554 E0.06594
G1 X93.812 Y50.500 E0.06483
G1 X95.687 Y49.471 E0.06704
G1 X97.563 Y48.522 E0.06593
G1 X99.471 Y47.637 E0.06593
G1 X101.407 Y46.816 E0.06593
G1 X103.369 Y46.060 E0.06593
G1 X105.356 Y45.370 E0.06594
G1 X107.330 Y44.757 E0.06483
G1 X109.392 Y44.191 E0.06704
G1 X111.438 Y43.704 E0.06593
G1 X113.464 Y43.292 E0.06483
G1 X115.572 Y42.935 E0.06704
