; generated by Slic3r Prusa Edition 1.41.0+ on 2018-11-24 at 11:50:31

; 

; external perimeters extrusion width = 0.60mm
; perimeters extrusion width = 0.43mm
; infill extrusion width = 0.45mm
; solid infill extrusion width = 0.70mm
; top infill extrusion width = 0.43mm
; support material extrusion width = 0.35mm
; first layer extrusion width = 0.42mm

M201 X9000 Y9000 Z500 E10000 ; sets maximum accelerations, mm/sec^2
M203 X500 Y500 Z12 E120 ; sets maximum feedrates, mm/sec
M204 P2000 R1500 T2000 ; sets acceleration (P, T) and retract acceleration (R), mm/sec^2
M205 X10.00 Y10.00 Z0.20 E2.50 ; sets the jerk limits, mm/sec
M205 S0 T0 ; sets the minimum extruding and travel feed rate, mm/sec
M107
M115 U3.1.0 ; tell printer latest fw version
M83  ; extruder relative mode
M204 S2000 T1500 ; MK2 firmware only supports the old M204 format
M104 S210 ; set extruder temp
M140 S55 ; set bed temp
M190 S55 ; wait for bed temp
M109 S210 ; wait for extruder temp
G28 W ; home all without mesh bed level
G80 ; mesh bed leveling
G1 Y-3.0 F1000.0 ; go outside print area
G92 E0.0
G1 X60.0 E9.0  F1000.0 ; intro line
G1 X100.0 E12.5  F1000.0 ; intro line
G92 E0.0
M900 K30; Filament gcode
G21 ; set units to millimeters
G90 ; use absolute coordinates
M83 ; use relative distances for extrusion
;BEFORE_LAYER_CHANGE
G92 E0.0
;0.2


G1 E-0.80000 F2100.00000
G1 Z0.600 F10800.000
;AFTER_LAYER_CHANGE
;0.2
G1 X74.518 Y68.828
G1 Z0.200
G1 E0.80000 F2100.00000
M204 S1000
G1 F1800
G1 X77.019 Y65.584 E0.12843
G1 X78.384 Y63.984 E0.06594
G1 X79.802 Y62.431 E0.06593
G1 X82.710 Y59.550 E0.12833
G1 X84.278 Y58.145 E0.06605
G1 X87.461 Y55.565 E0.12845
G1 X89.159 Y54.325 E0.06593
G1 X92.551 Y52.094 E0.12730
G1 X96.211 Y50.023 E0.13186
G1 X99.869 Y48.262 E0.12730
G1 X101.841 Y47.431 E0.06708
G1 X105.656 Y46.043 E0.12730
G1 X107.666 Y45.422 E0.06594
G1 X111.603 Y44.418 E0.12739
G1 X113.696 Y43.993 E0.06699
G1 X117.714 Y43.386 E0.12739
G1 X119.839 Y43.172 E0.06699
G1 X121.938 Y43.033 E0.06593
G1 X126.001 Y42.966 E0.12741
G1 X128.135 Y43.037 E0.06696
G1 X132.218 Y43.378 E0.12844
G1 X136.268 Y43.987 E0.12843
G1 X138.330 Y44.403 E0.06594
G1 X142.300 Y45.412 E0.12843
G1 X144.310 Y46.031 E0.06594
G1 X148.159 Y47.431 E0.12843
G1 X150.098 Y48.247 E0.06594
G1 X153.759 Y50.008 E0.12739
G1 X155.637 Y51.027 E0.06699
G1 X159.105 Y53.144 E0.12739
G1 X160.871 Y54.346 E0.06699
G1 X164.138 Y56.817 E0.12843
G1 X165.750 Y58.168 E0.06594
G1 X168.754 Y60.953 E0.12843
G1 X170.223 Y62.458 E0.06594
G1 X172.961 Y65.558 E0.12970
G1 X175.563 Y68.950 E0.13403
G1 X181.629 Y79.455 E0.38035
G1 X183.266 Y83.408 E0.13415
G1 X184.560 Y87.259 E0.12739
G1 X185.140 Y89.316 E0.06699
G1 X186.051 Y93.309 E0.12843
G1 X186.417 Y95.380 E0.06595
G1 X186.923 Y99.412 E0.12739
G1 X187.084 Y101.542 E0.06698
G1 X187.186 Y105.637 E0.12843
G1 X187.133 Y107.772 E0.06697
G1 X186.829 Y111.824 E0.12741
G1 X186.568 Y113.911 E0.06594
G1 X185.863 Y117.912 E0.12739
G1 X185.390 Y119.996 E0.06699
G1 X184.290 Y123.907 E0.12739
G1 X183.612 Y125.933 E0.06699
G1 X182.128 Y129.715 E0.12739
G1 X181.251 Y131.664 E0.06699
G1 X179.383 Y135.309 E0.12843
G1 X178.333 Y137.131 E0.06595
G1 X176.130 Y140.545 E0.12739
G1 X174.884 Y142.281 E0.06699
G1 X172.331 Y145.484 E0.12843
G1 X170.940 Y147.061 E0.06594
G1 X168.081 Y149.995 E0.12843
G1 X166.513 Y151.450 E0.06708
G1 X163.403 Y154.060 E0.12730
G1 X161.727 Y155.331 E0.06594
G1 X158.371 Y157.621 E0.12739
G1 X156.550 Y158.737 E0.06699
G1 X152.982 Y160.682 E0.12739
G1 X151.059 Y161.611 E0.06699
G1 X147.285 Y163.204 E0.12844
G1 X145.275 Y163.936 E0.06707
G1 X141.395 Y165.134 E0.12730
G1 X139.358 Y165.654 E0.06594
G1 X135.343 Y166.468 E0.12844
G1 X133.228 Y166.787 E0.06707
G1 X131.028 Y167.034 E0.06939
G1 X118.883 Y167.031 E0.38080
G1 X114.657 Y166.468 E0.13368
G1 X110.678 Y165.662 E0.12730
G1 X108.605 Y165.134 E0.06707
G1 X104.725 Y163.936 E0.12730
G1 X102.749 Y163.217 E0.06595
G1 X98.974 Y161.626 E0.12843
G1 X97.050 Y160.699 E0.06697
G1 X93.482 Y158.755 E0.12741
G1 X91.687 Y157.659 E0.06594
G1 X88.302 Y155.352 E0.12843
G1 X86.625 Y154.082 E0.06595
G1 X83.512 Y151.472 E0.12738
G1 X81.945 Y150.020 E0.06699
G1 X80.453 Y148.538 E0.06593
G1 X77.694 Y145.514 E0.12833
G1 X76.355 Y143.889 E0.06604
G1 X73.909 Y140.602 E0.12845
G1 X72.740 Y138.854 E0.06593
G1 X70.652 Y135.373 E0.12730
G1 X68.733 Y131.630 E0.13186
G1 X67.125 Y127.902 E0.12730
G1 X66.377 Y125.898 E0.06708
G1 X65.147 Y122.029 E0.12730
G1 X64.610 Y119.995 E0.06595
G1 X63.764 Y115.988 E0.12843
G1 X63.432 Y113.911 E0.06594
G1 X62.992 Y109.872 E0.12739
G1 X62.866 Y107.739 E0.06699
G1 X62.814 Y105.637 E0.06593
G1 X62.916 Y101.545 E0.12833
G1 X63.074 Y99.445 E0.06605
G1 X63.583 Y95.380 E0.12844
G1 X63.949 Y93.309 E0.06593
G1 X64.851 Y89.351 E0.12730
G1 X65.429 Y87.294 E0.06697
G1 X66.722 Y83.442 E0.12740
G1 X68.322 Y79.553 E0.13187
G1 X74.488 Y68.880 E0.38647
; PURGING FINISHED
G1 F8640
G1 X76.492 Y66.269 E-0.76000
G1 E-0.04000 F2100.00000
G1 Z0.800 F10800.000
G1 X83.965 Y75.562
G1 Z0.200
G1 E0.80000 F2100.00000
G1 F1800
G1 X85.080 Y74.075 E0.05828
G1 X86.248 Y72.629 E0.05828
G1 X87.469 Y71.227 E0.05828
G1 X88.740 Y69.872 E0.05828
G1 X90.060 Y68.563 E0.05828
G1 X91.428 Y67.305 E0.05828
G1 X92.841 Y66.097 E0.05828
G1 X94.297 Y64.942 E0.05828
G1 X95.794 Y63.841 E0.05828
G1 X97.331 Y62.796 E0.05828
G1 X98.906 Y61.808 E0.05828
G1 X100.516 Y60.879 E0.05828
G1 X102.158 Y60.009 E0.05828
G1 X103.832 Y59.201 E0.05828
G1 X105.534 Y58.454 E0.05828
G1 X107.262 Y57.770 E0.05828
G1 X108.986 Y57.161 E0.05731
G1 X110.788 Y56.596 E0.05924
G1 X112.582 Y56.107 E0.05828
G1 X114.391 Y55.684 E0.05828
G1 X116.216 Y55.327 E0.05828
G1 X118.052 Y55.038 E0.05828
G1 X119.897 Y54.817 E0.05828
G1 X121.749 Y54.663 E0.05828
G1 X123.606 Y54.578 E0.05828
G1 X125.434 Y54.561 E0.05731
G1 X127.322 Y54.612 E0.05924
G1 X129.177 Y54.731 E0.05828
G1 X131.027 Y54.919 E0.05828
G1 X132.868 Y55.174 E0.05828
G1 X134.698 Y55.497 E0.05828
G1 X136.515 Y55.887 E0.05828
G1 X138.317 Y56.343 E0.05828
G1 X140.101 Y56.865 E0.05828
G1 X141.864 Y57.453 E0.05828
G1 X143.605 Y58.104 E0.05828
G1 X145.321 Y58.819 E0.05828
G1 X147.009 Y59.597 E0.05828
G1 X148.667 Y60.436 E0.05828
G1 X150.294 Y61.336 E0.05828
G1 X151.886 Y62.295 E0.05828
G1 X153.442 Y63.311 E0.05828
G1 X154.960 Y64.384 E0.05828
G1 X156.437 Y65.513 E0.05828
G1 X157.848 Y66.675 E0.05731
G1 X159.262 Y67.928 E0.05924
G1 X160.606 Y69.211 E0.05828
G1 X161.902 Y70.544 E0.05828
G1 X163.148 Y71.923 E0.05828
G1 X164.343 Y73.346 E0.05828
G1 X165.484 Y74.813 E0.05828
G1 X166.571 Y76.321 E0.05828
G1 X167.602 Y77.867 E0.05828
G1 X168.576 Y79.451 E0.05828
G1 X169.490 Y81.069 E0.05828
G1 X170.345 Y82.720 E0.05828
G1 X171.138 Y84.401 E0.05828
G1 X171.857 Y86.081 E0.05731
G1 X172.536 Y87.844 E0.05924
G1 X173.140 Y89.602 E0.05828
G1 X173.678 Y91.381 E0.05828
G1 X174.151 Y93.178 E0.05828
G1 X174.558 Y94.992 E0.05828
G1 X174.897 Y96.819 E0.05828
G1 X175.169 Y98.658 E0.05828
G1 X175.374 Y100.505 E0.05828
G1 X175.510 Y102.359 E0.05828
G1 X175.579 Y104.217 E0.05828
G1 X175.579 Y106.075 E0.05828
G1 X175.511 Y107.902 E0.05731
G1 X175.374 Y109.786 E0.05924
G1 X175.169 Y111.634 E0.05828
G1 X174.897 Y113.472 E0.05828
G1 X174.558 Y115.300 E0.05828
G1 X174.151 Y117.113 E0.05828
G1 X173.678 Y118.911 E0.05828
G1 X173.140 Y120.690 E0.05828
G1 X172.546 Y122.419 E0.05731
G1 X171.869 Y124.182 E0.05924
G1 X171.138 Y125.891 E0.05828
G1 X170.345 Y127.572 E0.05828
G1 X169.490 Y129.223 E0.05828
G1 X168.576 Y130.841 E0.05828
G1 X167.602 Y132.424 E0.05828
G1 X166.571 Y133.971 E0.05828
G1 X165.484 Y135.479 E0.05828
G1 X164.343 Y136.945 E0.05828
G1 X163.148 Y138.369 E0.05828
G1 X161.902 Y139.748 E0.05828
G1 X160.606 Y141.080 E0.05828
G1 X159.262 Y142.364 E0.05828
G1 X157.871 Y143.598 E0.05828
G1 X156.437 Y144.779 E0.05828
G1 X154.984 Y145.889 E0.05731
G1 X153.442 Y146.980 E0.05924
G1 X151.886 Y147.997 E0.05828
G1 X150.294 Y148.956 E0.05828
G1 X148.694 Y149.840 E0.05731
G1 X147.009 Y150.694 E0.05924
G1 X145.321 Y151.472 E0.05828
G1 X143.605 Y152.187 E0.05828
G1 X141.864 Y152.839 E0.05828
G1 X140.101 Y153.427 E0.05828
G1 X138.317 Y153.949 E0.05828
G1 X136.515 Y154.405 E0.05828
G1 X134.698 Y154.795 E0.05828
G1 X132.868 Y155.117 E0.05828
G1 X131.027 Y155.373 E0.05828
G1 X129.177 Y155.560 E0.05828
G1 X127.323 Y155.680 E0.05828
G1 X125.465 Y155.731 E0.05828
G1 X123.606 Y155.714 E0.05828
G1 X121.749 Y155.628 E0.05828
G1 X119.897 Y155.475 E0.05828
G1 X118.052 Y155.254 E0.05828
G1 X116.216 Y154.965 E0.05828
G1 X114.391 Y154.608 E0.05828
G1 X112.582 Y154.185 E0.05828
G1 X110.788 Y153.696 E0.05828
G1 X109.015 Y153.141 E0.05828
G1 X107.291 Y152.532 E0.05731
G1 X105.534 Y151.838 E0.05924
G1 X103.832 Y151.091 E0.05828
G1 X102.158 Y150.282 E0.05828
G1 X100.543 Y149.427 E0.05731
G1 X98.906 Y148.484 E0.05924
G1 X97.331 Y147.496 E0.05828
G1 X95.794 Y146.451 E0.05828
G1 X94.297 Y145.350 E0.05828
G1 X92.841 Y144.195 E0.05828
G1 X91.428 Y142.987 E0.05828
G1 X90.060 Y141.728 E0.05828
G1 X88.762 Y140.442 E0.05731
G1 X87.469 Y139.064 E0.05924
G1 X86.248 Y137.663 E0.05828
G1 X85.080 Y136.217 E0.05828
G1 X83.984 Y134.754 E0.05731
G1 X82.906 Y133.202 E0.05924
G1 X81.904 Y131.637 E0.05828
G1 X80.960 Y130.036 E0.05828
G1 X80.075 Y128.401 E0.05828
G1 X79.251 Y126.735 E0.05828
G1 X78.489 Y125.040 E0.05828
G1 X77.789 Y123.318 E0.05828
G1 X77.154 Y121.571 E0.05828
G1 X76.583 Y119.803 E0.05828
G1 X76.085 Y118.044 E0.05731
G1 X75.637 Y116.208 E0.05924
G1 X75.264 Y114.387 E0.05828
G1 X74.958 Y112.554 E0.05828
G1 X74.720 Y110.711 E0.05828
G1 X74.549 Y108.860 E0.05828
G1 X74.447 Y107.004 E0.05828
G1 X74.413 Y105.146 E0.05828
G1 X74.447 Y103.288 E0.05828
G1 X74.549 Y101.432 E0.05828
G1 X74.720 Y99.581 E0.05828
G1 X74.958 Y97.738 E0.05828
G1 X75.264 Y95.904 E0.05828
G1 X75.637 Y94.083 E0.05828
G1 X76.077 Y92.278 E0.05828
G1 X76.583 Y90.489 E0.05828
G1 X77.154 Y88.720 E0.05828
G1 X77.789 Y86.974 E0.05828
G1 X78.489 Y85.252 E0.05828
G1 X79.251 Y83.556 E0.05828
G1 X80.075 Y81.890 E0.05828
G1 X80.960 Y80.256 E0.05828
G1 X81.904 Y78.655 E0.05828
G1 X82.906 Y77.089 E0.05828
G1 X83.931 Y75.611 E0.05640
G1 X84.241 Y75.826 F10800.000
G1 F1800
G1 X85.377 Y74.306 E0.05951
G1 X86.537 Y72.871 E0.05784
G1 X87.748 Y71.480 E0.05784
G1 X89.010 Y70.135 E0.05784
G1 X90.321 Y68.836 E0.05784
G1 X91.678 Y67.587 E0.05784
G1 X93.080 Y66.388 E0.05784
G1 X94.526 Y65.241 E0.05784
G1 X96.012 Y64.149 E0.05784
G1 X97.538 Y63.112 E0.05784
G1 X99.100 Y62.131 E0.05784
G1 X100.698 Y61.209 E0.05784
G1 X102.328 Y60.346 E0.05784
G1 X103.990 Y59.543 E0.05784
G1 X105.679 Y58.802 E0.05784
G1 X107.394 Y58.124 E0.05784
G1 X109.105 Y57.519 E0.05688
G1 X110.894 Y56.958 E0.05880
G1 X112.674 Y56.472 E0.05784
G1 X114.471 Y56.052 E0.05784
G1 X116.281 Y55.699 E0.05784
G1 X118.103 Y55.412 E0.05784
G1 X119.935 Y55.192 E0.05784
G1 X121.774 Y55.040 E0.05784
G1 X123.616 Y54.955 E0.05784
G1 X125.431 Y54.938 E0.05688
G1 X127.305 Y54.989 E0.05880
G1 X129.146 Y55.107 E0.05784
G1 X130.982 Y55.293 E0.05784
G1 X132.809 Y55.547 E0.05784
G1 X134.626 Y55.867 E0.05784
G1 X136.430 Y56.254 E0.05784
G1 X138.218 Y56.707 E0.05784
G1 X139.988 Y57.225 E0.05784
G1 X141.739 Y57.808 E0.05784
G1 X143.466 Y58.455 E0.05784
G1 X145.169 Y59.165 E0.05784
G1 X146.845 Y59.937 E0.05784
G1 X148.491 Y60.770 E0.05784
G1 X150.105 Y61.663 E0.05784
G1 X151.685 Y62.614 E0.05784
G1 X153.230 Y63.623 E0.05784
G1 X154.736 Y64.688 E0.05784
G1 X156.202 Y65.808 E0.05784
G1 X157.603 Y66.961 E0.05688
G1 X159.006 Y68.205 E0.05880
G1 X160.340 Y69.479 E0.05784
G1 X161.627 Y70.802 E0.05784
G1 X162.864 Y72.170 E0.05784
G1 X164.050 Y73.584 E0.05784
G1 X165.183 Y75.039 E0.05784
G1 X166.261 Y76.536 E0.05784
G1 X167.285 Y78.071 E0.05784
G1 X168.251 Y79.642 E0.05784
G1 X169.158 Y81.249 E0.05784
G1 X170.006 Y82.887 E0.05784
G1 X170.794 Y84.555 E0.05784
G1 X171.507 Y86.223 E0.05688
G1 X172.182 Y87.973 E0.05880
G1 X172.781 Y89.718 E0.05784
G1 X173.316 Y91.484 E0.05784
G1 X173.785 Y93.268 E0.05784
G1 X174.188 Y95.068 E0.05784
G1 X174.525 Y96.882 E0.05784
G1 X174.795 Y98.706 E0.05784
G1 X174.998 Y100.540 E0.05784
G1 X175.134 Y102.380 E0.05784
G1 X175.202 Y104.223 E0.05784
G1 X175.202 Y106.068 E0.05784
G1 X175.135 Y107.881 E0.05688
G1 X174.998 Y109.752 E0.05880
G1 X174.795 Y111.585 E0.05784
G1 X174.525 Y113.410 E0.05784
G1 X174.188 Y115.224 E0.05784
G1 X173.785 Y117.024 E0.05784
G1 X173.316 Y118.808 E0.05784
G1 X172.781 Y120.574 E0.05784
G1 X172.192 Y122.290 E0.05688
G1 X171.519 Y124.040 E0.05880
G1 X170.794 Y125.737 E0.05784
G1 X170.006 Y127.405 E0.05784
G1 X169.158 Y129.043 E0.05784
G1 X168.251 Y130.649 E0.05784
G1 X167.285 Y132.221 E0.05784
G1 X166.261 Y133.756 E0.05784
G1 X165.183 Y135.252 E0.05784
G1 X164.050 Y136.708 E0.05784
G1 X162.864 Y138.121 E0.05784
G1 X161.627 Y139.490 E0.05784
G1 X160.340 Y140.812 E0.05784
G1 X159.006 Y142.087 E0.05784
G1 X157.626 Y143.311 E0.05784
G1 X156.202 Y144.484 E0.05784
G1 X154.761 Y145.585 E0.05688
G1 X153.230 Y146.668 E0.05880
G1 X151.685 Y147.677 E0.05784
G1 X150.105 Y148.629 E0.05784
G1 X148.518 Y149.507 E0.05688
G1 X146.845 Y150.355 E0.05880
G1 X145.169 Y151.127 E0.05784
G1 X143.466 Y151.837 E0.05784
G1 X141.739 Y152.484 E0.05784
G1 X139.988 Y153.067 E0.05784
G1 X138.218 Y153.585 E0.05784
G1 X136.430 Y154.038 E0.05784
G1 X134.626 Y154.425 E0.05784
G1 X132.809 Y154.745 E0.05784
G1 X130.982 Y154.998 E0.05784
G1 X129.146 Y155.184 E0.05784
G1 X127.305 Y155.303 E0.05784
G1 X125.461 Y155.354 E0.05784
G1 X123.616 Y155.337 E0.05784
G1 X121.774 Y155.252 E0.05784
G1 X119.935 Y155.100 E0.05784
G1 X118.103 Y154.880 E0.05784
G1 X116.281 Y154.593 E0.05784
G1 X114.471 Y154.239 E0.05784
G1 X112.674 Y153.819 E0.05784
G1 X110.894 Y153.334 E0.05784
G1 X109.134 Y152.783 E0.05784
G1 X107.423 Y152.178 E0.05688
G1 X105.679 Y151.490 E0.05880
G1 X103.990 Y150.749 E0.05784
G1 X102.328 Y149.946 E0.05784
G1 X100.725 Y149.097 E0.05688
G1 X99.100 Y148.161 E0.05880
G1 X97.538 Y147.180 E0.05784
G1 X96.012 Y146.143 E0.05784
G1 X94.526 Y145.050 E0.05784
G1 X93.080 Y143.904 E0.05784
G1 X91.678 Y142.705 E0.05784
G1 X90.321 Y141.456 E0.05784
G1 X89.032 Y140.179 E0.05688
G1 X87.749 Y138.811 E0.05880
G1 X86.537 Y137.420 E0.05784
G1 X85.377 Y135.985 E0.05784
G1 X84.289 Y134.534 E0.05688
G1 X83.220 Y132.993 E0.05880
G1 X82.225 Y131.439 E0.05784
G1 X81.288 Y129.850 E0.05784
G1 X80.410 Y128.228 E0.05784
G1 X79.592 Y126.574 E0.05784
G1 X78.836 Y124.892 E0.05784
G1 X78.141 Y123.183 E0.05784
G1 X77.510 Y121.449 E0.05784
G1 X76.944 Y119.693 E0.05784
G1 X76.450 Y117.948 E0.05688
G1 X76.005 Y116.126 E0.05880
G1 X75.635 Y114.319 E0.05784
G1 X75.331 Y112.499 E0.05784
G1 X75.095 Y110.669 E0.05784
G1 X74.925 Y108.832 E0.05784
G1 X74.824 Y106.990 E0.05784
G1 X74.790 Y105.146 E0.05784
G1 X74.824 Y103.301 E0.05784
G1 X74.925 Y101.459 E0.05784
G1 X75.095 Y99.622 E0.05784
G1 X75.331 Y97.793 E0.05784
G1 X75.635 Y95.973 E0.05784
G1 X76.005 Y94.166 E0.05784
G1 X76.442 Y92.373 E0.05784
G1 X76.944 Y90.598 E0.05784
G1 X77.510 Y88.843 E0.05784
G1 X78.141 Y87.109 E0.05784
G1 X78.836 Y85.400 E0.05784
G1 X79.592 Y83.717 E0.05784
G1 X80.410 Y82.064 E0.05784
G1 X81.288 Y80.441 E0.05784
G1 X82.225 Y78.852 E0.05784
G1 X83.220 Y77.299 E0.05784
G1 X84.207 Y75.876 E0.05430
G1 X84.077 Y75.462 F10800.000
G1 F8640
G1 X85.377 Y74.306 E-0.45206
G1 X86.216 Y73.269 E-0.30794
G1 E-0.04000 F2100.00000
G1 Z0.800 F10800.000
G1 X77.173 Y70.017
G1 Z0.200
G1 E0.80000 F2100.00000
G1 F1800
G1 X77.121 Y69.979 E0.00202
G1 X77.951 Y68.866 E0.04354
G1 X79.182 Y67.322 E0.06191
G1 X80.464 Y65.821 E0.06191
G1 X81.795 Y64.363 E0.06191
G1 X83.174 Y62.950 E0.06191
G1 X84.600 Y61.583 E0.06191
G1 X86.069 Y60.265 E0.06191
G1 X87.582 Y58.996 E0.06191
G1 X89.136 Y57.778 E0.06191
G1 X90.730 Y56.613 E0.06191
G1 X92.334 Y55.520 E0.06087
G1 X94.029 Y54.444 E0.06295
G1 X95.731 Y53.443 E0.06190
G1 X97.436 Y52.515 E0.06087
G1 X99.230 Y51.613 E0.06295
G1 X101.023 Y50.786 E0.06190
G1 X102.842 Y50.020 E0.06191
G1 X104.686 Y49.314 E0.06191
G1 X106.552 Y48.670 E0.06191
G1 X108.439 Y48.088 E0.06191
G1 X110.344 Y47.569 E0.06191
G1 X112.265 Y47.114 E0.06191
G1 X114.201 Y46.723 E0.06191
G1 X116.148 Y46.396 E0.06191
G1 X118.105 Y46.134 E0.06191
G1 X120.069 Y45.938 E0.06191
