; G-Code generated by Simplify3D(R) Version 4.0.0
; Dec 14, 2017 at 11:04:58 AM
; Settings Summary
;   processName,Fast
;   applyToModels,reflex-tampoon,reflex-tampoon(2),reflex-tampoon(3),reflex-tampoon(4)
;   profileName,Prusa Research Original Prusa i3 MK2 (modified)
;   profileVersion,2017-07-23 22:27:18
;   baseProfile,
;   printMaterial,PLA
;   printQuality,Fast
;   printExtruders,
;   extruderName,Primary Extruder
;   extruderToolheadNumber,0
;   extruderDiameter,0.4
;   extruderAutoWidth,1
;   extruderWidth,0.48
;   extrusionMultiplier,1
;   extruderUseRetract,1
;   extruderRetractionDistance,1.5
;   extruderExtraRestartDistance,0
;   extruderRetractionZLift,0
;   extruderRetractionSpeed,1800
;   extruderUseCoasting,1
;   extruderCoastingDistance,0.2
;   extruderUseWipe,1
;   extruderWipeDistance,2
;   primaryExtruder,0
;   layerHeight,0.35
;   topSolidLayers,2
;   bottomSolidLayers,2
;   perimeterOutlines,2
;   printPerimetersInsideOut,1
;   startPointOption,2
;   startPointOriginX,0
;   startPointOriginY,0
;   sequentialIslands,0
;   spiralVaseMode,0
;   firstLayerHeightPercentage,120
;   firstLayerWidthPercentage,100
;   firstLayerUnderspeed,0.5
;   useRaft,0
;   raftExtruder,0
;   raftTopLayers,3
;   raftBaseLayers,2
;   raftOffset,3
;   raftSeparationDistance,0.14
;   raftTopInfill,100
;   aboveRaftSpeedMultiplier,0.3
;   useSkirt,1
;   skirtExtruder,0
;   skirtLayers,1
;   skirtOutlines,1
;   skirtOffset,4
;   usePrimePillar,0
;   primePillarExtruder,999
;   primePillarWidth,12
;   primePillarLocation,7
;   primePillarSpeedMultiplier,1
;   useOozeShield,0
;   oozeShieldExtruder,999
;   oozeShieldOffset,2
;   oozeShieldOutlines,1
;   oozeShieldSidewallShape,1
;   oozeShieldSidewallAngle,30
;   oozeShieldSpeedMultiplier,1
;   infillExtruder,0
;   internalInfillPattern,Rectilinear
;   externalInfillPattern,Rectilinear
;   infillPercentage,10
;   outlineOverlapPercentage,20
;   infillExtrusionWidthPercentage,100
;   minInfillLength,5
;   infillLayerInterval,1
;   internalInfillAngles,45,-45
;   overlapInternalInfillAngles,0
;   externalInfillAngles,45,-45
;   generateSupport,0
;   supportExtruder,0
;   supportInfillPercentage,25
;   supportExtraInflation,0
;   supportBaseLayers,0
;   denseSupportExtruder,0
;   denseSupportLayers,0
;   denseSupportInfillPercentage,70
;   supportLayerInterval,1
;   supportHorizontalPartOffset,0.3
;   supportUpperSeparationLayers,1
;   supportLowerSeparationLayers,1
;   supportType,0
;   supportGridSpacing,4
;   maxOverhangAngle,45
;   supportAngles,0
;   temperatureName,Primary Extruder,Heated Bed
;   temperatureNumber,0,0
;   temperatureSetpointCount,1,1
;   temperatureSetpointLayers,1,1
;   temperatureSetpointTemperatures,200,60
;   temperatureStabilizeAtStartup,1,1
;   temperatureHeatedBed,0,1
;   temperatureRelayBetweenLayers,0,0
;   temperatureRelayBetweenLoops,0,0
;   fanLayers,1,2
;   fanSpeeds,0,100
;   blipFanToFullPower,0
;   adjustSpeedForCooling,1
;   minSpeedLayerTime,15
;   minCoolingSpeedSlowdown,20
;   increaseFanForCooling,0
;   minFanLayerTime,45
;   maxCoolingFanSpeed,100
;   increaseFanForBridging,0
;   bridgingFanSpeed,100
;   use5D,1
;   relativeEdistances,0
;   allowEaxisZeroing,1
;   independentExtruderAxes,0
;   includeM10123,0
;   stickySupport,1
;   applyToolheadOffsets,0
;   gcodeXoffset,0
;   gcodeYoffset,0
;   gcodeZoffset,0
;   overrideMachineDefinition,1
;   machineTypeOverride,0
;   strokeXoverride,250
;   strokeYoverride,210
;   strokeZoverride,200
;   originOffsetXoverride,0
;   originOffsetYoverride,0
;   originOffsetZoverride,0
;   homeXdirOverride,-1
;   homeYdirOverride,-1
;   homeZdirOverride,-1
;   flipXoverride,1
;   flipYoverride,-1
;   flipZoverride,1
;   toolheadOffsets,0,0|0,0|0,0|0,0|0,0|0,0
;   overrideFirmwareConfiguration,1
;   firmwareTypeOverride,RepRap (Marlin/Repetier/Sprinter)
;   GPXconfigOverride,r2
;   baudRateOverride,250000
;   overridePrinterModels,1
;   printerModelsOverride
;   startingGcode,M115 U3.0.7 ; use the latest firmware version,G28 W ; home all axes without mesh bed leveling,G80 ; run mesh bed leveling routine,G1 Y-3.0 F1000.0 ; prepare to prime,G92 E0 ; reset extrusion distance,G1 X60.0 E9.0  F1000.0 ; priming,G1 X100.0 E12.5  F1000.0 ; priming
;   layerChangeGcode,
;   retractionGcode,
;   toolChangeGcode,
;   endingGcode,M106 S0 ; turn off cooling fan,M104 S0 ; turn off extruder,M140 S0 ; turn off bed,G1 X0 Y200 ; part removal,M84 ; disable motors
;   exportFileFormat,gcode
;   celebration,0
;   celebrationSong,Random Song
;   postProcessing,
;   defaultSpeed,2400
;   outlineUnderspeed,0.8
;   solidInfillUnderspeed,0.8
;   supportUnderspeed,0.8
;   rapidXYspeed,4800
;   rapidZspeed,1002
;   minBridgingArea,50
;   bridgingExtraInflation,0
;   bridgingExtrusionMultiplier,1
;   bridgingSpeedMultiplier,1
;   useFixedBridgingAngle,0
;   fixedBridgingAngle,0
;   applyBridgingToPerimeters,0
;   filamentDiameters,1.75|1.75|1.75|1.75|1.75|1.75
;   filamentPricesPerKg,199|46|46|46|46|46
;   filamentDensities,1.25|1.25|1.25|1.25|1.25|1.25
;   useMinPrintHeight,0
;   minPrintHeight,0
;   useMaxPrintHeight,1
;   maxPrintHeight,235
;   useDiaphragm,0
;   diaphragmLayerInterval,20
;   robustSlicing,1
;   mergeAllIntoSolid,0
;   onlyRetractWhenCrossingOutline,1
;   retractBetweenLayers,1
;   useRetractionMinTravel,0
;   retractionMinTravel,3
;   retractWhileWiping,1
;   onlyWipeOutlines,1
;   avoidCrossingOutline,0
;   maxMovementDetourFactor,3
;   toolChangeRetractionDistance,12
;   toolChangeExtraRestartDistance,-0.5
;   toolChangeRetractionSpeed,600
;   externalThinWallType,0
;   internalThinWallType,2
;   thinWallAllowedOverlapPercentage,25
;   singleExtrusionMinLength,1
;   singleExtrusionMinPrintingWidthPercentage,50
;   singleExtrusionMaxPrintingWidthPercentage,200
;   singleExtrusionEndpointExtension,0.2
;   horizontalSizeCompensation,0
G90
M82
M106 S0
M140 S60
M190 S60
M104 S200 T0
M109 S200 T0
M115 U3.0.7 ; use the latest firmware version
G28 W ; home all axes without mesh bed leveling
G80 ; run mesh bed leveling routine
G1 Y-3.0 F1000.0 ; prepare to prime
G92 E0 ; reset extrusion distance
G1 X60.0 E9.0  F1000.0 ; priming
G1 X100.0 E12.5  F1000.0 ; priming
G92 E0
G1 E-1.5000 F1800
G1 Z0.420 F1002
; process Fast
; layer 1, Z = 0.420
T0
; tool H0.420 W0.480
; skirt
G1 X107.481 Y89.599 F4800
G1 E0.0000 F540
G92 E0
G1 X108.345 Y88.587 E0.1115 F1200
G1 X108.352 Y88.580 E0.1123
G1 X108.580 Y88.352 E0.1394
G1 X108.587 Y88.345 E0.1402
G1 X109.599 Y87.481 E0.2518
G1 X109.606 Y87.475 E0.2525
G1 X109.869 Y87.284 E0.2798
G1 X109.877 Y87.279 E0.2806
G1 X111.012 Y86.584 E0.3921
G1 X111.020 Y86.579 E0.3929
G1 X111.308 Y86.433 E0.4200
G1 X111.317 Y86.429 E0.4208
G1 X112.545 Y85.920 E0.5322
G1 X112.553 Y85.917 E0.5329
G1 X112.860 Y85.817 E0.5600
G1 X112.869 Y85.815 E0.5608
G1 X114.163 Y85.503 E0.6723
G1 X114.172 Y85.502 E0.6731
G1 X114.494 Y85.451 E0.7004
G1 X114.503 Y85.450 E0.7012
G1 X115.830 Y85.346 E0.8127
G1 X115.839 Y85.345 E0.8135
G1 X116.161 Y85.345 E0.8405
G1 X116.170 Y85.346 E0.8413
G1 X117.497 Y85.450 E0.9528
G1 X117.506 Y85.451 E0.9536
G1 X117.828 Y85.502 E0.9809
G1 X117.837 Y85.503 E0.9817
G1 X119.131 Y85.815 E1.0932
G1 X119.140 Y85.817 E1.0940
G1 X119.447 Y85.917 E1.1210
G1 X119.455 Y85.920 E1.1218
G1 X120.683 Y86.429 E1.2332
G1 X120.692 Y86.433 E1.2340
G1 X120.980 Y86.579 E1.2611
G1 X120.988 Y86.584 E1.2619
G1 X122.123 Y87.279 E1.3734
G1 X122.131 Y87.284 E1.3742
G1 X122.394 Y87.475 E1.4014
G1 X122.401 Y87.481 E1.4022
G1 X123.413 Y88.345 E1.5137
G1 X123.420 Y88.352 E1.5145
G1 X123.648 Y88.580 E1.5416
G1 X123.655 Y88.587 E1.5424
G1 X124.519 Y89.599 E1.6540
G1 X124.525 Y89.606 E1.6547
G1 X124.716 Y89.869 E1.6820
G1 X124.721 Y89.877 E1.6828
G1 X125.000 Y90.332 E1.7275
G1 X125.279 Y89.877 E1.7722
G1 X125.284 Y89.869 E1.7730
G1 X125.475 Y89.606 E1.8003
G1 X125.481 Y89.599 E1.8011
G1 X126.345 Y88.587 E1.9126
G1 X126.352 Y88.580 E1.9134
G1 X126.580 Y88.352 E1.9405
G1 X126.587 Y88.345 E1.9413
G1 X127.599 Y87.481 E2.0528
G1 X127.606 Y87.475 E2.0536
G1 X127.869 Y87.284 E2.0808
G1 X127.877 Y87.279 E2.0816
G1 X129.012 Y86.584 E2.1931
G1 X129.020 Y86.579 E2.1939
G1 X129.308 Y86.433 E2.2210
G1 X129.317 Y86.429 E2.2218
G1 X130.544 Y85.920 E2.3332
G1 X130.553 Y85.917 E2.3340
G1 X130.860 Y85.817 E2.3610
G1 X130.869 Y85.815 E2.3618
G1 X132.163 Y85.503 E2.4733
G1 X132.172 Y85.502 E2.4741
G1 X132.494 Y85.451 E2.5014
G1 X132.503 Y85.450 E2.5022
G1 X133.830 Y85.346 E2.6137
G1 X133.839 Y85.345 E2.6145
G1 X134.161 Y85.345 E2.6415
G1 X134.170 Y85.346 E2.6423
G1 X135.497 Y85.450 E2.7538
G1 X135.506 Y85.451 E2.7546
G1 X135.828 Y85.502 E2.7819
G1 X135.837 Y85.503 E2.7827
G1 X137.131 Y85.815 E2.8942
G1 X137.140 Y85.817 E2.8950
G1 X137.447 Y85.917 E2.9221
G1 X137.455 Y85.920 E2.9228
G1 X138.683 Y86.429 E3.0342
G1 X138.692 Y86.433 E3.0350
G1 X138.980 Y86.579 E3.0621
G1 X138.988 Y86.584 E3.0629
G1 X140.123 Y87.279 E3.1744
G1 X140.131 Y87.284 E3.1752
G1 X140.394 Y87.475 E3.2024
G1 X140.401 Y87.481 E3.2032
G1 X141.413 Y88.345 E3.3148
G1 X141.420 Y88.352 E3.3156
G1 X141.648 Y88.580 E3.3427
G1 X141.655 Y88.587 E3.3435
G1 X142.519 Y89.599 E3.4550
G1 X142.525 Y89.606 E3.4558
G1 X142.716 Y89.869 E3.4830
G1 X142.721 Y89.877 E3.4838
G1 X143.416 Y91.012 E3.5953
G1 X143.421 Y91.020 E3.5961
G1 X143.567 Y91.308 E3.6232
G1 X143.571 Y91.317 E3.6240
G1 X144.080 Y92.544 E3.7354
G1 X144.083 Y92.553 E3.7362
G1 X144.183 Y92.860 E3.7632
G1 X144.185 Y92.869 E3.7640
G1 X144.497 Y94.163 E3.8755
G1 X144.498 Y94.172 E3.8763
G1 X144.549 Y94.494 E3.9036
G1 X144.550 Y94.503 E3.9044
G1 X144.654 Y95.830 E4.0159
G1 X144.655 Y95.839 E4.0167
G1 X144.655 Y96.161 E4.0437
G1 X144.654 Y96.170 E4.0445
G1 X144.550 Y97.497 E4.1560
G1 X144.549 Y97.506 E4.1568
G1 X144.498 Y97.828 E4.1841
G1 X144.497 Y97.837 E4.1849
G1 X144.185 Y99.131 E4.2964
G1 X144.183 Y99.140 E4.2972
G1 X144.083 Y99.447 E4.3243
G1 X144.080 Y99.456 E4.3250
G1 X143.571 Y100.683 E4.4364
G1 X143.567 Y100.692 E4.4372
G1 X143.421 Y100.980 E4.4643
G1 X143.416 Y100.988 E4.4651
G1 X142.721 Y102.123 E4.5766
G1 X142.716 Y102.131 E4.5774
G1 X142.525 Y102.394 E4.6047
G1 X142.519 Y102.401 E4.6054
G1 X141.655 Y103.413 E4.7170
G1 X141.648 Y103.420 E4.7178
G1 X141.420 Y103.648 E4.7449
G1 X141.413 Y103.655 E4.7457
G1 X140.401 Y104.519 E4.8572
G1 X140.394 Y104.525 E4.8580
G1 X140.131 Y104.716 E4.8852
G1 X140.123 Y104.721 E4.8860
G1 X139.668 Y105.000 E4.9307
G1 X140.123 Y105.279 E4.9755
G1 X140.131 Y105.284 E4.9763
G1 X140.394 Y105.475 E5.0035
G1 X140.401 Y105.481 E5.0043
G1 X141.413 Y106.345 E5.1158
G1 X141.420 Y106.352 E5.1166
G1 X141.648 Y106.580 E5.1437
G1 X141.655 Y106.587 E5.1445
G1 X142.519 Y107.599 E5.2561
G1 X142.525 Y107.606 E5.2568
G1 X142.716 Y107.869 E5.2841
G1 X142.721 Y107.877 E5.2849
G1 X143.416 Y109.012 E5.3964
G1 X143.421 Y109.020 E5.3972
G1 X143.567 Y109.308 E5.4243
G1 X143.571 Y109.317 E5.4251
G1 X144.080 Y110.544 E5.5365
G1 X144.083 Y110.553 E5.5372
G1 X144.183 Y110.860 E5.5643
G1 X144.185 Y110.869 E5.5651
G1 X144.497 Y112.163 E5.6766
G1 X144.498 Y112.172 E5.6774
G1 X144.549 Y112.494 E5.7047
G1 X144.550 Y112.503 E5.7055
G1 X144.654 Y113.830 E5.8170
G1 X144.655 Y113.839 E5.8178
G1 X144.655 Y114.161 E5.8448
G1 X144.654 Y114.170 E5.8456
G1 X144.550 Y115.497 E5.9571
G1 X144.549 Y115.506 E5.9579
G1 X144.498 Y115.828 E5.9852
G1 X144.497 Y115.837 E5.9860
G1 X144.185 Y117.131 E6.0975
G1 X144.183 Y117.140 E6.0983
G1 X144.083 Y117.447 E6.1253
G1 X144.080 Y117.456 E6.1261
G1 X143.571 Y118.683 E6.2375
G1 X143.567 Y118.692 E6.2383
G1 X143.421 Y118.980 E6.2654
G1 X143.416 Y118.988 E6.2662
G1 X142.721 Y120.123 E6.3777
G1 X142.716 Y120.131 E6.3785
G1 X142.525 Y120.394 E6.4057
G1 X142.519 Y120.401 E6.4065
G1 X141.655 Y121.413 E6.5180
G1 X141.648 Y121.420 E6.5188
G1 X141.420 Y121.648 E6.5459
G1 X141.413 Y121.655 E6.5467
G1 X140.401 Y122.519 E6.6583
G1 X140.394 Y122.525 E6.6590
G1 X140.131 Y122.716 E6.6863
G1 X140.123 Y122.721 E6.6871
G1 X138.988 Y123.416 E6.7986
G1 X138.980 Y123.421 E6.7994
G1 X138.692 Y123.567 E6.8265
G1 X138.683 Y123.571 E6.8273
G1 X137.455 Y124.080 E6.9387
G1 X137.447 Y124.083 E6.9394
G1 X137.140 Y124.183 E6.9665
G1 X137.131 Y124.185 E6.9673
G1 X135.837 Y124.497 E7.0788
G1 X135.828 Y124.498 E7.0796
G1 X135.506 Y124.549 E7.1069
G1 X135.497 Y124.550 E7.1077
G1 X134.170 Y124.654 E7.2192
G1 X134.161 Y124.655 E7.2200
G1 X133.839 Y124.655 E7.2470
G1 X133.830 Y124.654 E7.2478
G1 X132.503 Y124.550 E7.3593
G1 X132.494 Y124.549 E7.3601
G1 X132.172 Y124.498 E7.3874
G1 X132.163 Y124.497 E7.3882
G1 X130.869 Y124.185 E7.4997
G1 X130.860 Y124.183 E7.5005
G1 X130.553 Y124.083 E7.5275
G1 X130.544 Y124.080 E7.5283
G1 X129.317 Y123.571 E7.6397
G1 X129.308 Y123.567 E7.6405
G1 X129.020 Y123.421 E7.6676
G1 X129.012 Y123.416 E7.6684
G1 X127.877 Y122.721 E7.7799
G1 X127.869 Y122.716 E7.7807
G1 X127.606 Y122.525 E7.8079
G1 X127.599 Y122.519 E7.8087
G1 X126.587 Y121.655 E7.9202
G1 X126.580 Y121.648 E7.9210
G1 X126.352 Y121.420 E7.9481
G1 X126.345 Y121.413 E7.9489
G1 X125.481 Y120.401 E8.0604
G1 X125.475 Y120.394 E8.0612
G1 X125.284 Y120.131 E8.0885
G1 X125.279 Y120.123 E8.0893
G1 X125.000 Y119.668 E8.1340
G1 X124.721 Y120.123 E8.1787
G1 X124.716 Y120.131 E8.1795
G1 X124.525 Y120.394 E8.2068
G1 X124.519 Y120.401 E8.2075
G1 X123.655 Y121.413 E8.3191
G1 X123.648 Y121.420 E8.3199
G1 X123.420 Y121.648 E8.3470
G1 X123.413 Y121.655 E8.3478
G1 X122.401 Y122.519 E8.4593
G1 X122.394 Y122.525 E8.4601
G1 X122.131 Y122.716 E8.4873
G1 X122.123 Y122.721 E8.4881
G1 X120.988 Y123.416 E8.5996
G1 X120.980 Y123.421 E8.6004
G1 X120.692 Y123.567 E8.6275
G1 X120.683 Y123.571 E8.6283
G1 X119.455 Y124.080 E8.7397
G1 X119.447 Y124.083 E8.7405
G1 X119.140 Y124.183 E8.7675
G1 X119.131 Y124.185 E8.7683
G1 X117.837 Y124.497 E8.8798
G1 X117.828 Y124.498 E8.8806
G1 X117.506 Y124.549 E8.9079
G1 X117.497 Y124.550 E8.9087
G1 X116.170 Y124.654 E9.0202
G1 X116.161 Y124.655 E9.0210
G1 X115.839 Y124.655 E9.0480
G1 X115.830 Y124.654 E9.0488
G1 X114.503 Y124.550 E9.1603
G1 X114.494 Y124.549 E9.1611
G1 X114.172 Y124.498 E9.1884
G1 X114.163 Y124.497 E9.1892
G1 X112.869 Y124.185 E9.3007
G1 X112.860 Y124.183 E9.3015
G1 X112.553 Y124.083 E9.3286
G1 X112.545 Y124.080 E9.3293
G1 X111.317 Y123.571 E9.4407
G1 X111.308 Y123.567 E9.4415
G1 X111.020 Y123.421 E9.4686
G1 X111.012 Y123.416 E9.4694
G1 X109.877 Y122.721 E9.5809
G1 X109.869 Y122.716 E9.5817
G1 X109.606 Y122.525 E9.6090
G1 X109.599 Y122.519 E9.6097
G1 X108.587 Y121.655 E9.7213
G1 X108.580 Y121.648 E9.7221
G1 X108.352 Y121.420 E9.7492
G1 X108.345 Y121.413 E9.7500
G1 X107.481 Y120.401 E9.8615
G1 X107.475 Y120.394 E9.8623
G1 X107.284 Y120.131 E9.8895
G1 X107.279 Y120.123 E9.8903
G1 X106.584 Y118.988 E10.0018
G1 X106.579 Y118.980 E10.0026
G1 X106.433 Y118.692 E10.0297
G1 X106.429 Y118.683 E10.0305
G1 X105.920 Y117.455 E10.1419
G1 X105.917 Y117.447 E10.1427
G1 X105.817 Y117.140 E10.1697
G1 X105.815 Y117.131 E10.1705
G1 X105.503 Y115.837 E10.2820
G1 X105.502 Y115.828 E10.2828
G1 X105.451 Y115.506 E10.3101
G1 X105.450 Y115.497 E10.3109
G1 X105.346 Y114.170 E10.4224
G1 X105.345 Y114.161 E10.4232
G1 X105.345 Y113.839 E10.4502
G1 X105.346 Y113.830 E10.4510
G1 X105.450 Y112.503 E10.5625
G1 X105.451 Y112.494 E10.5633
G1 X105.502 Y112.172 E10.5906
G1 X105.503 Y112.163 E10.5914
G1 X105.815 Y110.869 E10.7029
G1 X105.817 Y110.860 E10.7037
G1 X105.917 Y110.553 E10.7308
G1 X105.920 Y110.545 E10.7315
G1 X106.429 Y109.317 E10.8429
G1 X106.433 Y109.308 E10.8437
G1 X106.579 Y109.020 E10.8708
G1 X106.584 Y109.012 E10.8716
G1 X107.279 Y107.877 E10.9831
G1 X107.284 Y107.869 E10.9839
G1 X107.475 Y107.606 E11.0112
G1 X107.481 Y107.599 E11.0119
G1 X108.345 Y106.587 E11.1235
G1 X108.352 Y106.580 E11.1243
G1 X108.580 Y106.352 E11.1514
G1 X108.587 Y106.345 E11.1522
G1 X109.599 Y105.481 E11.2637
G1 X109.606 Y105.475 E11.2645
G1 X109.869 Y105.284 E11.2917
G1 X109.877 Y105.279 E11.2925
G1 X110.332 Y105.000 E11.3372
G1 X109.877 Y104.721 E11.3820
G1 X109.869 Y104.716 E11.3828
G1 X109.606 Y104.525 E11.4100
G1 X109.599 Y104.519 E11.4108
G1 X108.587 Y103.655 E11.5223
G1 X108.580 Y103.648 E11.5231
G1 X108.352 Y103.420 E11.5502
