; G-Code generated by Simplify3D(R) Version 4.0.0
; Aug 2, 2017 at 5:27:52 PM
; Settings Summary
;   processName,Process1
;   applyToModels,DesignerFredsWindVane
;   profileName,Prusa Research Original Prusa i3 MK2 (modified)
;   profileVersion,2017-07-23 22:27:18
;   baseProfile,
;   printMaterial,PLA
;   printQuality,Medium
;   printExtruders,
;   extruderName,Primary Extruder
;   extruderToolheadNumber,0
;   extruderDiameter,0.4
;   extruderAutoWidth,1
;   extruderWidth,0.48
;   extrusionMultiplier,1
;   extruderUseRetract,1
;   extruderRetractionDistance,1.5
;   extruderExtraRestartDistance,0
;   extruderRetractionZLift,0
;   extruderRetractionSpeed,1800
;   extruderUseCoasting,1
;   extruderCoastingDistance,0.2
;   extruderUseWipe,1
;   extruderWipeDistance,2
;   primaryExtruder,0
;   layerHeight,0.15
;   topSolidLayers,3
;   bottomSolidLayers,3
;   perimeterOutlines,3
;   printPerimetersInsideOut,1
;   startPointOption,2
;   startPointOriginX,0
;   startPointOriginY,0
;   sequentialIslands,0
;   spiralVaseMode,0
;   firstLayerHeightPercentage,130
;   firstLayerWidthPercentage,100
;   firstLayerUnderspeed,0.5
;   useRaft,0
;   raftExtruder,0
;   raftTopLayers,3
;   raftBaseLayers,2
;   raftOffset,3
;   raftSeparationDistance,0.14
;   raftTopInfill,100
;   aboveRaftSpeedMultiplier,0.3
;   useSkirt,1
;   skirtExtruder,0
;   skirtLayers,1
;   skirtOutlines,1
;   skirtOffset,4
;   usePrimePillar,0
;   primePillarExtruder,999
;   primePillarWidth,12
;   primePillarLocation,7
;   primePillarSpeedMultiplier,1
;   useOozeShield,0
;   oozeShieldExtruder,999
;   oozeShieldOffset,2
;   oozeShieldOutlines,1
;   oozeShieldSidewallShape,1
;   oozeShieldSidewallAngle,30
;   oozeShieldSpeedMultiplier,1
;   infillExtruder,0
;   internalInfillPattern,Rectilinear
;   externalInfillPattern,Rectilinear
;   infillPercentage,10
;   outlineOverlapPercentage,20
;   infillExtrusionWidthPercentage,100
;   minInfillLength,5
;   infillLayerInterval,1
;   internalInfillAngles,45,-45
;   overlapInternalInfillAngles,0
;   externalInfillAngles,45,-45
;   generateSupport,1
;   supportExtruder,0
;   supportInfillPercentage,30
;   supportExtraInflation,0
;   supportBaseLayers,0
;   denseSupportExtruder,0
;   denseSupportLayers,0
;   denseSupportInfillPercentage,70
;   supportLayerInterval,1
;   supportHorizontalPartOffset,0.3
;   supportUpperSeparationLayers,1
;   supportLowerSeparationLayers,1
;   supportType,1
;   supportGridSpacing,4
;   maxOverhangAngle,45
;   supportAngles,0
;   temperatureName,Primary Extruder,Heated Bed
;   temperatureNumber,0,0
;   temperatureSetpointCount,1,1
;   temperatureSetpointLayers,1,1
;   temperatureSetpointTemperatures,210,60
;   temperatureStabilizeAtStartup,1,1
;   temperatureHeatedBed,0,1
;   temperatureRelayBetweenLayers,0,0
;   temperatureRelayBetweenLoops,0,0
;   fanLayers,1,2
;   fanSpeeds,0,100
;   blipFanToFullPower,0
;   adjustSpeedForCooling,1
;   minSpeedLayerTime,15
;   minCoolingSpeedSlowdown,20
;   increaseFanForCooling,0
;   minFanLayerTime,45
;   maxCoolingFanSpeed,100
;   increaseFanForBridging,0
;   bridgingFanSpeed,100
;   use5D,1
;   relativeEdistances,0
;   allowEaxisZeroing,1
;   independentExtruderAxes,0
;   includeM10123,0
;   stickySupport,1
;   applyToolheadOffsets,0
;   gcodeXoffset,0
;   gcodeYoffset,0
;   gcodeZoffset,0
;   overrideMachineDefinition,1
;   machineTypeOverride,0
;   strokeXoverride,250
;   strokeYoverride,210
;   strokeZoverride,200
;   originOffsetXoverride,0
;   originOffsetYoverride,0
;   originOffsetZoverride,0
;   homeXdirOverride,-1
;   homeYdirOverride,-1
;   homeZdirOverride,-1
;   flipXoverride,1
;   flipYoverride,-1
;   flipZoverride,1
;   toolheadOffsets,0,0|0,0|0,0|0,0|0,0|0,0
;   overrideFirmwareConfiguration,1
;   firmwareTypeOverride,RepRap (Marlin/Repetier/Sprinter)
;   GPXconfigOverride,r2
;   baudRateOverride,250000
;   overridePrinterModels,1
;   printerModelsOverride
;   startingGcode,M115 U3.0.7 ; use the latest firmware version,G28 W ; home all axes without mesh bed leveling,G80 ; run mesh bed leveling routine,G1 Y-3.0 F1000.0 ; prepare to prime,G92 E0 ; reset extrusion distance,G1 X60.0 E9.0  F1000.0 ; priming,G1 X100.0 E12.5  F1000.0 ; priming
;   layerChangeGcode,
;   retractionGcode,
;   toolChangeGcode,
;   endingGcode,M106 S0 ; turn off cooling fan,M104 S0 ; turn off extruder,M140 S0 ; turn off bed,G1 X0 Y200 ; part removal,M84 ; disable motors
;   exportFileFormat,gcode
;   celebration,0
;   celebrationSong,Random Song
;   postProcessing,
;   defaultSpeed,2400
;   outlineUnderspeed,0.8
;   solidInfillUnderspeed,0.8
;   supportUnderspeed,0.8
;   rapidXYspeed,4800
;   rapidZspeed,1000
;   minBridgingArea,50
;   bridgingExtraInflation,0
;   bridgingExtrusionMultiplier,1
;   bridgingSpeedMultiplier,1
;   useFixedBridgingAngle,0
;   fixedBridgingAngle,0
;   applyBridgingToPerimeters,0
;   filamentDiameters,1.75|1.75|1.75|1.75|1.75|1.75
;   filamentPricesPerKg,46|46|46|46|46|46
;   filamentDensities,1.25|1.25|1.25|1.25|1.25|1.25
;   useMinPrintHeight,1
;   minPrintHeight,0
;   useMaxPrintHeight,1
;   maxPrintHeight,235
;   useDiaphragm,0
;   diaphragmLayerInterval,20
;   robustSlicing,1
;   mergeAllIntoSolid,0
;   onlyRetractWhenCrossingOutline,1
;   retractBetweenLayers,1
;   useRetractionMinTravel,0
;   retractionMinTravel,3
;   retractWhileWiping,1
;   onlyWipeOutlines,1
;   avoidCrossingOutline,0
;   maxMovementDetourFactor,3
;   toolChangeRetractionDistance,12
;   toolChangeExtraRestartDistance,-0.5
;   toolChangeRetractionSpeed,600
;   externalThinWallType,0
;   internalThinWallType,2
;   thinWallAllowedOverlapPercentage,25
;   singleExtrusionMinLength,1
;   singleExtrusionMinPrintingWidthPercentage,50
;   singleExtrusionMaxPrintingWidthPercentage,200
;   singleExtrusionEndpointExtension,0.2
;   horizontalSizeCompensation,0
G90
M82
M106 S0
M140 S60
M190 S60
M104 S210 T0
M109 S210 T0
M115 U3.0.7 ; use the latest firmware version
G28 W ; home all axes without mesh bed leveling
G80 ; run mesh bed leveling routine
G1 Y-3.0 F1000.0 ; prepare to prime
G92 E0 ; reset extrusion distance
G1 X60.0 E9.0  F1000.0 ; priming
G1 X100.0 E12.5  F1000.0 ; priming
G92 E0
G1 E-1.5000 F1800
G1 Z0.195 F1000
; process Process1
; layer 1, Z = 0.195
T0
; tool H0.195 W0.480
; skirt
G1 X41.327 Y100.680 F4800
G1 E0.0000 F540
G92 E0
G1 X41.620 Y100.560 E0.0123 F1200
G1 X41.629 Y100.557 E0.0127
G1 X42.427 Y100.299 E0.0453
G1 X42.440 Y100.296 E0.0458
G1 X42.885 Y100.205 E0.0635
G1 X42.898 Y100.203 E0.0640
G1 X44.461 Y100.058 E0.1251
G1 X44.464 Y100.058 E0.1252
G1 X44.559 Y100.051 E0.1289
G1 X44.562 Y100.051 E0.1290
G1 X45.865 Y99.991 E0.1798
G1 X45.868 Y99.991 E0.1799
G1 X45.955 Y99.989 E0.1833
G1 X45.958 Y99.989 E0.1834
G1 X62.429 Y99.933 E0.8244
G1 X62.437 Y99.933 E0.8247
G1 X68.540 Y99.934 E1.0622
G1 X68.540 Y99.075 E1.0956
G1 X68.577 Y98.987 E1.0993
G1 X70.987 Y96.577 E1.2320
G1 X71.075 Y96.540 E1.2357
G1 X76.083 Y96.540 E1.4305
G1 X76.333 Y96.171 E1.4479
G1 X76.340 Y96.163 E1.4483
G1 X76.540 Y95.916 E1.4607
G1 X76.540 Y95.075 E1.4934
G1 X76.577 Y94.987 E1.4971
G1 X78.987 Y92.577 E1.6298
G1 X79.075 Y92.540 E1.6335
G1 X80.677 Y92.540 E1.6958
G1 X82.065 Y91.846 E1.7562
G1 X82.075 Y91.842 E1.7566
G1 X82.401 Y91.713 E1.7703
G1 X82.410 Y91.709 E1.7706
G1 X84.370 Y91.117 E1.8503
G1 X84.380 Y91.115 E1.8507
G1 X84.723 Y91.042 E1.8644
G1 X84.733 Y91.041 E1.8648
G1 X86.765 Y90.789 E1.9444
G1 X86.775 Y90.788 E1.9448
G1 X87.126 Y90.775 E1.9585
G1 X87.136 Y90.775 E1.9589
G1 X89.181 Y90.871 E2.0386
G1 X89.191 Y90.872 E2.0390
G1 X89.539 Y90.918 E2.0526
G1 X89.549 Y90.920 E2.0530
G1 X91.549 Y91.361 E2.1327
G1 X91.559 Y91.363 E2.1331
G1 X91.894 Y91.468 E2.1467
G1 X91.903 Y91.471 E2.1471
G1 X93.800 Y92.244 E2.2268
G1 X93.809 Y92.249 E2.2272
G1 X94.121 Y92.408 E2.2409
G1 X94.130 Y92.413 E2.2413
G1 X95.868 Y93.496 E2.3210
G1 X95.877 Y93.502 E2.3214
G1 X96.158 Y93.712 E2.3350
G1 X96.166 Y93.719 E2.3354
G1 X97.695 Y95.081 E2.4151
G1 X97.703 Y95.088 E2.4155
G1 X97.944 Y95.343 E2.4292
G1 X97.951 Y95.350 E2.4296
G1 X98.899 Y96.540 E2.4888
G1 X102.925 Y96.540 E2.6454
G1 X103.000 Y96.571 E2.6486
G1 X103.075 Y96.540 E2.6518
G1 X114.925 Y96.540 E3.1129
G1 X115.013 Y96.577 E3.1166
G1 X117.423 Y98.987 E3.2493
G1 X117.460 Y99.075 E3.2530
G1 X117.460 Y99.438 E3.2671
G1 X120.540 Y99.396 E3.3869
G1 X120.540 Y99.075 E3.3994
G1 X120.577 Y98.987 E3.4031
G1 X122.987 Y96.577 E3.5358
G1 X123.075 Y96.540 E3.5395
G1 X130.925 Y96.540 E3.8450
G1 X131.013 Y96.577 E3.8487
G1 X133.423 Y98.987 E3.9814
G1 X133.460 Y99.075 E3.9851
G1 X133.460 Y99.424 E3.9986
G1 X144.258 Y99.466 E4.4188
G1 X144.270 Y99.466 E4.4193
G1 X172.889 Y99.739 E5.5330
G1 X193.531 Y99.867 E6.3363
G1 X221.967 Y99.870 E7.4429
G1 X221.978 Y99.871 E7.4433
G1 X222.348 Y99.904 E7.4578
G1 X222.359 Y99.906 E7.4582
G1 X223.334 Y100.084 E7.4968
G1 X223.356 Y100.090 E7.4976
G1 X224.076 Y100.367 E7.5277
G1 X224.096 Y100.377 E7.5285
G1 X225.076 Y100.984 E7.5734
G1 X225.093 Y100.997 E7.5742
G1 X225.654 Y101.506 E7.6037
G1 X225.669 Y101.522 E7.6046
G1 X226.223 Y102.250 E7.6402
G1 X226.231 Y102.263 E7.6408
G1 X226.488 Y102.706 E7.6607
G1 X226.495 Y102.719 E7.6613
G1 X226.747 Y103.313 E7.6864
G1 X226.752 Y103.326 E7.6869
G1 X226.889 Y103.799 E7.7061
G1 X226.892 Y103.813 E7.7066
G1 X227.027 Y104.636 E7.7391
G1 X227.029 Y104.655 E7.7398
G1 X227.030 Y105.319 E7.7657
G1 X227.028 Y105.338 E7.7664
G1 X226.895 Y106.173 E7.7993
G1 X226.891 Y106.188 E7.7999
G1 X226.752 Y106.670 E7.8194
G1 X226.748 Y106.684 E7.8200
G1 X226.493 Y107.282 E7.8453
G1 X226.487 Y107.295 E7.8459
G1 X226.229 Y107.738 E7.8658
G1 X226.221 Y107.750 E7.8664
G1 X225.667 Y108.478 E7.9020
G1 X225.652 Y108.495 E7.9028
G1 X225.091 Y109.004 E7.9323
G1 X225.073 Y109.017 E7.9332
G1 X224.091 Y109.624 E7.9781
G1 X224.070 Y109.634 E7.9790
G1 X223.345 Y109.911 E8.0092
G1 X223.324 Y109.917 E8.0101
G1 X222.349 Y110.092 E8.0486
G1 X222.338 Y110.094 E8.0491
G1 X221.972 Y110.126 E8.0634
G1 X221.961 Y110.127 E8.0638
G1 X193.700 Y110.113 E9.1635
G1 X165.205 Y110.299 E10.2724
G1 X140.998 Y110.574 E11.2145
G1 X140.979 Y110.574 E11.2152
G1 X133.460 Y110.596 E11.5078
G1 X133.460 Y110.925 E11.5206
G1 X133.423 Y111.013 E11.5243
G1 X131.013 Y113.423 E11.6570
G1 X130.925 Y113.460 E11.6607
G1 X119.075 Y113.460 E12.1218
G1 X118.987 Y113.423 E12.1255
G1 X117.000 Y111.436 E12.2349
G1 X115.013 Y113.423 E12.3442
G1 X114.925 Y113.460 E12.3479
G1 X103.075 Y113.460 E12.8091
G1 X103.000 Y113.429 E12.8122
G1 X102.925 Y113.460 E12.8154
G1 X98.899 Y113.460 E12.9720
G1 X97.955 Y114.645 E13.0310
G1 X97.948 Y114.653 E13.0314
G1 X97.708 Y114.907 E13.0450
G1 X97.701 Y114.914 E13.0454
G1 X96.169 Y116.279 E13.1253
G1 X96.161 Y116.286 E13.1257
G1 X95.880 Y116.497 E13.1393
G1 X95.871 Y116.502 E13.1397
G1 X94.132 Y117.587 E13.2195
G1 X94.123 Y117.592 E13.2199
G1 X93.810 Y117.752 E13.2336
G1 X93.801 Y117.756 E13.2340
G1 X91.904 Y118.529 E13.3137
G1 X91.895 Y118.533 E13.3141
G1 X91.560 Y118.637 E13.3277
G1 X91.550 Y118.640 E13.3281
G1 X89.550 Y119.081 E13.4078
G1 X89.540 Y119.082 E13.4082
G1 X89.192 Y119.129 E13.4219
G1 X89.182 Y119.129 E13.4223
G1 X87.137 Y119.226 E13.5019
G1 X87.127 Y119.226 E13.5023
G1 X86.776 Y119.212 E13.5160
G1 X86.766 Y119.211 E13.5164
G1 X84.734 Y118.960 E13.5961
G1 X84.724 Y118.958 E13.5965
G1 X84.381 Y118.886 E13.6101
G1 X84.371 Y118.883 E13.6105
G1 X82.411 Y118.291 E13.6902
G1 X82.401 Y118.288 E13.6906
G1 X82.076 Y118.159 E13.7042
G1 X82.066 Y118.154 E13.7046
G1 X80.676 Y117.460 E13.7651
G1 X79.075 Y117.460 E13.8274
G1 X78.987 Y117.423 E13.8311
G1 X76.577 Y115.013 E13.9637
G1 X76.540 Y114.925 E13.9675
G1 X76.540 Y114.084 E14.0002
G1 X76.340 Y113.838 E14.0125
G1 X76.334 Y113.830 E14.0129
G1 X75.183 Y112.138 E14.0925
G1 X75.178 Y112.129 E14.0929
G1 X75.006 Y111.823 E14.1066
G1 X75.001 Y111.814 E14.1070
G1 X74.204 Y110.064 E14.1818
G1 X50.511 Y110.048 E15.1038
G1 X50.498 Y110.048 E15.1043
G1 X46.071 Y110.018 E15.2766
G1 X46.069 Y110.018 E15.2767
G1 X45.989 Y110.016 E15.2798
G1 X45.986 Y110.016 E15.2799
G1 X44.243 Y109.937 E15.3478
G1 X44.237 Y109.936 E15.3480
G1 X44.058 Y109.920 E15.3550
G1 X44.053 Y109.920 E15.3552
G1 X42.341 Y109.691 E15.4224
G1 X42.322 Y109.687 E15.4232
G1 X41.686 Y109.494 E15.4491
G1 X41.668 Y109.487 E15.4498
G1 X40.627 Y108.978 E15.4949
G1 X40.610 Y108.967 E15.4957
G1 X40.055 Y108.571 E15.5222
G1 X40.039 Y108.558 E15.5230
G1 X39.362 Y107.880 E15.5603
G1 X39.347 Y107.862 E15.5612
G1 X38.894 Y107.183 E15.5930
G1 X38.883 Y107.162 E15.5939
G1 X38.347 Y105.859 E15.6487
G1 X38.338 Y105.813 E15.6505
G1 X38.329 Y104.210 E15.7129
G1 X38.338 Y104.165 E15.7147
G1 X38.876 Y102.810 E15.7715
G1 X38.890 Y102.785 E15.7726
G1 X39.455 Y101.985 E15.8107
G1 X39.474 Y101.964 E15.8118
G1 X40.209 Y101.321 E15.8498
G1 X40.221 Y101.312 E15.8503
G1 X40.653 Y101.020 E15.8707
G1 X40.667 Y101.013 E15.8712
G1 X41.151 Y100.769 E15.8924
G1 X41.319 Y100.684 F1200
G1 X41.327 Y100.680 F1200
G92 E0
G1 E-1.5000 F1800
; inner perimeter
G1 X96.635 Y104.434 F4800
G1 E0.0000 F1800
G92 E0
G1 X96.855 Y104.325 E0.0096 F1080
G1 X97.182 Y104.622 E0.0267
G1 X97.782 Y105.006 E0.0544
G1 X97.249 Y105.328 E0.0787
G1 X96.852 Y105.670 E0.0991
G1 X96.636 Y105.560 E0.1085
G1 X96.685 Y105.009 E0.1301
G1 X96.653 Y104.634 E0.1447
G1 X96.635 Y104.434 F1080
G1 X97.118 Y103.915 F4800
G92 E0
G1 X97.475 Y104.239 E0.0188 F1080
G1 X97.844 Y104.475 E0.0358
G1 X98.242 Y104.648 E0.0527
G1 X98.725 Y104.765 E0.0721
G1 X99.141 Y104.792 E0.0883
G1 X104.930 Y104.693 E0.3136
G1 X109.228 Y104.565 E0.4809
G1 X112.478 Y104.506 E0.6074
G1 X113.166 Y104.466 E0.6342
G1 X115.685 Y104.455 E0.7322
G1 X117.132 Y104.403 E0.7886
G1 X121.840 Y104.339 E0.9718
G1 X128.763 Y104.348 E1.2412
G1 X131.571 Y104.379 E1.3505
G1 X136.577 Y104.378 E1.5453
G1 X141.852 Y104.427 E1.7506
G1 X144.232 Y104.426 E1.8432
G1 X150.122 Y104.477 E2.0724
G1 X151.976 Y104.517 E2.1446
G1 X157.739 Y104.549 E2.3689
G1 X172.848 Y104.699 E2.9568
G1 X190.985 Y104.811 E3.6626
G1 X190.985 Y105.169 E3.6766
G1 X179.355 Y105.236 E4.1291
G1 X165.161 Y105.339 E4.6815
G1 X157.858 Y105.434 E4.9657
G1 X151.949 Y105.480 E5.1957
G1 X150.119 Y105.523 E5.2669
G1 X144.049 Y105.563 E5.5031
G1 X140.952 Y105.614 E5.6236
G1 X136.565 Y105.613 E5.7944
G1 X134.979 Y105.635 E5.8561
G1 X129.201 Y105.633 E6.0809
G1 X128.366 Y105.650 E6.1134
G1 X120.580 Y105.643 E6.4164
G1 X117.239 Y105.594 E6.5465
G1 X115.681 Y105.539 E6.6071
G1 X113.141 Y105.527 E6.7060
G1 X102.692 Y105.266 E7.1127
G1 X99.141 Y105.207 E7.2509
G1 X98.734 Y105.233 E7.2668
G1 X98.306 Y105.330 E7.2839
G1 X97.903 Y105.494 E7.3008
G1 X97.532 Y105.718 E7.3177
G1 X97.164 Y106.035 E7.3366
G1 X96.886 Y106.373 E7.3536
G1 X96.641 Y106.799 E7.3727
G1 X95.962 Y108.760 E7.4535
G1 X95.203 Y110.140 E7.5148
G1 X94.223 Y111.369 E7.5759
G1 X93.046 Y112.419 E7.6373
G1 X91.709 Y113.252 E7.6986
G1 X90.251 Y113.847 E7.7599
G1 X88.713 Y114.186 E7.8212
G1 X87.140 Y114.260 E7.8824
G1 X85.578 Y114.067 E7.9437
G1 X84.071 Y113.612 E8.0049
G1 X82.663 Y112.908 E8.0662
G1 X81.395 Y111.977 E8.1274
G1 X80.302 Y110.844 E8.1887
G1 X79.417 Y109.543 E8.2499
G1 X78.765 Y108.111 E8.3111
G1 X78.292 Y106.312 E8.3835
G1 X78.177 Y106.052 E8.3946
G1 X78.003 Y105.787 E8.4069
G1 X77.859 Y105.628 E8.4153
G1 X77.587 Y105.401 E8.4290
G1 X77.362 Y105.266 E8.4392
G1 X77.003 Y105.122 E8.4543
G1 X77.003 Y104.879 E8.4638
G1 X77.359 Y104.736 E8.4787
G1 X77.561 Y104.618 E8.4878
G1 X77.787 Y104.445 E8.4989
G1 X77.997 Y104.220 E8.5109
G1 X78.177 Y103.950 E8.5235
G1 X78.292 Y103.688 E8.5347
G1 X78.764 Y101.890 E8.6070
G1 X79.416 Y100.458 E8.6682
G1 X80.302 Y99.157 E8.7295
G1 X81.394 Y98.024 E8.7907
G1 X82.663 Y97.092 E8.8520
G1 X84.071 Y96.389 E8.9132
G1 X85.577 Y95.934 E8.9745
G1 X87.140 Y95.741 E9.0357
G1 X88.712 Y95.814 E9.0970
G1 X90.250 Y96.153 E9.1583
G1 X91.708 Y96.748 E9.2195
G1 X93.044 Y97.581 E9.2808
G1 X94.220 Y98.628 E9.3421
G1 X95.202 Y99.859 E9.4034
G1 X95.961 Y101.239 E9.4646
G1 X96.617 Y103.145 E9.5431
G1 X96.839 Y103.557 E9.5613
G1 X96.995 Y103.757 E9.5712
G1 X97.118 Y103.915 F1080
; outer perimeter
G1 X97.471 Y103.588 F4800
G92 E0
G1 X97.767 Y103.857 E0.0156 F960
G1 X98.070 Y104.050 E0.0296
