; G-Code generated by Simplify3D(R) Version 4.0.0
; Jan 21, 2018 at 7:33:06 PM
; Settings Summary
;   processName,Process1
;   applyToModels,Kazoo_body,Kazoo_cap,Kazoo_valve
;   profileName,Prusa Research Original Prusa i3 MK2 (modified)
;   profileVersion,2017-07-23 22:27:18
;   baseProfile,
;   printMaterial,PLA
;   printQuality,Fast
;   printExtruders,
;   extruderName,Primary Extruder
;   extruderToolheadNumber,0
;   extruderDiameter,0.4
;   extruderAutoWidth,1
;   extruderWidth,0.48
;   extrusionMultiplier,1
;   extruderUseRetract,1
;   extruderRetractionDistance,1.5
;   extruderExtraRestartDistance,0
;   extruderRetractionZLift,0
;   extruderRetractionSpeed,1800
;   extruderUseCoasting,1
;   extruderCoastingDistance,0.2
;   extruderUseWipe,1
;   extruderWipeDistance,2
;   primaryExtruder,0
;   layerHeight,0.35
;   topSolidLayers,3
;   bottomSolidLayers,3
;   perimeterOutlines,2
;   printPerimetersInsideOut,1
;   startPointOption,2
;   startPointOriginX,0
;   startPointOriginY,0
;   sequentialIslands,0
;   spiralVaseMode,0
;   firstLayerHeightPercentage,120
;   firstLayerWidthPercentage,100
;   firstLayerUnderspeed,0.5
;   useRaft,0
;   raftExtruder,0
;   raftTopLayers,3
;   raftBaseLayers,2
;   raftOffset,3
;   raftSeparationDistance,0.14
;   raftTopInfill,100
;   aboveRaftSpeedMultiplier,0.3
;   useSkirt,1
;   skirtExtruder,0
;   skirtLayers,1
;   skirtOutlines,1
;   skirtOffset,4
;   usePrimePillar,0
;   primePillarExtruder,999
;   primePillarWidth,12
;   primePillarLocation,7
;   primePillarSpeedMultiplier,1
;   useOozeShield,0
;   oozeShieldExtruder,999
;   oozeShieldOffset,2
;   oozeShieldOutlines,1
;   oozeShieldSidewallShape,1
;   oozeShieldSidewallAngle,30
;   oozeShieldSpeedMultiplier,1
;   infillExtruder,0
;   internalInfillPattern,Rectilinear
;   externalInfillPattern,Rectilinear
;   infillPercentage,10
;   outlineOverlapPercentage,20
;   infillExtrusionWidthPercentage,100
;   minInfillLength,5
;   infillLayerInterval,1
;   internalInfillAngles,45,-45
;   overlapInternalInfillAngles,0
;   externalInfillAngles,45,-45
;   generateSupport,1
;   supportExtruder,0
;   supportInfillPercentage,25
;   supportExtraInflation,0
;   supportBaseLayers,0
;   denseSupportExtruder,0
;   denseSupportLayers,0
;   denseSupportInfillPercentage,70
;   supportLayerInterval,1
;   supportHorizontalPartOffset,0.3
;   supportUpperSeparationLayers,1
;   supportLowerSeparationLayers,1
;   supportType,0
;   supportGridSpacing,4
;   maxOverhangAngle,45
;   supportAngles,0
;   temperatureName,Primary Extruder,Heated Bed
;   temperatureNumber,0,0
;   temperatureSetpointCount,1,1
;   temperatureSetpointLayers,1,1
;   temperatureSetpointTemperatures,210,60
;   temperatureStabilizeAtStartup,1,1
;   temperatureHeatedBed,0,1
;   temperatureRelayBetweenLayers,0,0
;   temperatureRelayBetweenLoops,0,0
;   fanLayers,1,2
;   fanSpeeds,0,100
;   blipFanToFullPower,0
;   adjustSpeedForCooling,1
;   minSpeedLayerTime,15
;   minCoolingSpeedSlowdown,20
;   increaseFanForCooling,0
;   minFanLayerTime,45
;   maxCoolingFanSpeed,100
;   increaseFanForBridging,0
;   bridgingFanSpeed,100
;   use5D,1
;   relativeEdistances,0
;   allowEaxisZeroing,1
;   independentExtruderAxes,0
;   includeM10123,0
;   stickySupport,1
;   applyToolheadOffsets,0
;   gcodeXoffset,0
;   gcodeYoffset,0
;   gcodeZoffset,0
;   overrideMachineDefinition,1
;   machineTypeOverride,0
;   strokeXoverride,250
;   strokeYoverride,210
;   strokeZoverride,200
;   originOffsetXoverride,0
;   originOffsetYoverride,0
;   originOffsetZoverride,0
;   homeXdirOverride,-1
;   homeYdirOverride,-1
;   homeZdirOverride,-1
;   flipXoverride,1
;   flipYoverride,-1
;   flipZoverride,1
;   toolheadOffsets,0,0|0,0|0,0|0,0|0,0|0,0
;   overrideFirmwareConfiguration,1
;   firmwareTypeOverride,RepRap (Marlin/Repetier/Sprinter)
;   GPXconfigOverride,r2
;   baudRateOverride,250000
;   overridePrinterModels,1
;   printerModelsOverride
;   startingGcode,M115 U3.0.7 ; use the latest firmware version,G28 W ; home all axes without mesh bed leveling,G80 ; run mesh bed leveling routine,G1 Y-3.0 F1000.0 ; prepare to prime,G92 E0 ; reset extrusion distance,G1 X60.0 E9.0  F1000.0 ; priming,G1 X100.0 E12.5  F1000.0 ; priming
;   layerChangeGcode,
;   retractionGcode,
;   toolChangeGcode,
;   endingGcode,M106 S0 ; turn off cooling fan,M104 S0 ; turn off extruder,M140 S0 ; turn off bed,G1 X0 Y200 ; part removal,M84 ; disable motors
;   exportFileFormat,gcode
;   celebration,0
;   celebrationSong,Random Song
;   postProcessing,
;   defaultSpeed,2400
;   outlineUnderspeed,0.8
;   solidInfillUnderspeed,0.8
;   supportUnderspeed,0.8
;   rapidXYspeed,4800
;   rapidZspeed,1002
;   minBridgingArea,50
;   bridgingExtraInflation,0
;   bridgingExtrusionMultiplier,1
;   bridgingSpeedMultiplier,1
;   useFixedBridgingAngle,0
;   fixedBridgingAngle,0
;   applyBridgingToPerimeters,0
;   filamentDiameters,1.75|1.75|1.75|1.75|1.75|1.75
;   filamentPricesPerKg,199|46|46|46|46|46
;   filamentDensities,1.25|1.25|1.25|1.25|1.25|1.25
;   useMinPrintHeight,0
;   minPrintHeight,0
;   useMaxPrintHeight,1
;   maxPrintHeight,235
;   useDiaphragm,0
;   diaphragmLayerInterval,20
;   robustSlicing,1
;   mergeAllIntoSolid,0
;   onlyRetractWhenCrossingOutline,1
;   retractBetweenLayers,1
;   useRetractionMinTravel,0
;   retractionMinTravel,3
;   retractWhileWiping,1
;   onlyWipeOutlines,1
;   avoidCrossingOutline,0
;   maxMovementDetourFactor,3
;   toolChangeRetractionDistance,12
;   toolChangeExtraRestartDistance,-0.5
;   toolChangeRetractionSpeed,600
;   externalThinWallType,0
;   internalThinWallType,2
;   thinWallAllowedOverlapPercentage,25
;   singleExtrusionMinLength,1
;   singleExtrusionMinPrintingWidthPercentage,50
;   singleExtrusionMaxPrintingWidthPercentage,200
;   singleExtrusionEndpointExtension,0.2
;   horizontalSizeCompensation,0
G90
M82
M106 S0
M140 S60
M190 S60
M104 S210 T0
M109 S210 T0
M115 U3.0.7 ; use the latest firmware version
G28 W ; home all axes without mesh bed leveling
G80 ; run mesh bed leveling routine
G1 Y-3.0 F1000.0 ; prepare to prime
G92 E0 ; reset extrusion distance
G1 X60.0 E9.0  F1000.0 ; priming
G1 X100.0 E12.5  F1000.0 ; priming
G92 E0
G1 E-1.5000 F1800
G1 Z0.420 F1002
; process Process1
; layer 1, Z = 0.420
T0
; tool H0.420 W0.480
; skirt
G1 X87.155 Y68.648 F4800
G1 E0.0000 F540
G92 E0
G1 X87.251 Y68.530 E0.0128 F1200
G1 X87.254 Y68.526 E0.0131
G1 X87.933 Y67.753 E0.0994
G1 X87.936 Y67.750 E0.0997
G1 X88.041 Y67.639 E0.1125
G1 X88.044 Y67.636 E0.1129
G1 X88.778 Y66.916 E0.1991
G1 X88.781 Y66.913 E0.1995
G1 X88.894 Y66.810 E0.2122
G1 X88.897 Y66.807 E0.2126
G1 X89.682 Y66.143 E0.2988
G1 X89.686 Y66.140 E0.2992
G1 X89.806 Y66.046 E0.3119
G1 X89.809 Y66.043 E0.3123
G1 X90.641 Y65.439 E0.3985
G1 X90.645 Y65.436 E0.3989
G1 X90.771 Y65.351 E0.4117
G1 X90.775 Y65.349 E0.4120
G1 X91.650 Y64.807 E0.4983
G1 X91.653 Y64.805 E0.4986
G1 X91.786 Y64.730 E0.5114
G1 X91.790 Y64.727 E0.5118
G1 X92.702 Y64.252 E0.5980
G1 X92.706 Y64.250 E0.5984
G1 X92.843 Y64.185 E0.6111
G1 X92.847 Y64.183 E0.6115
G1 X93.792 Y63.776 E0.6977
G1 X93.796 Y63.774 E0.6981
G1 X93.938 Y63.719 E0.7109
G1 X93.943 Y63.718 E0.7112
G1 X94.915 Y63.382 E0.7974
G1 X94.919 Y63.381 E0.7978
G1 X95.065 Y63.336 E0.8106
G1 X95.069 Y63.335 E0.8110
G1 X96.064 Y63.072 E0.8972
G1 X96.068 Y63.071 E0.8975
G1 X96.216 Y63.037 E0.9103
G1 X96.221 Y63.036 E0.9107
G1 X97.232 Y62.847 E0.9969
G1 X97.236 Y62.847 E0.9973
G1 X97.387 Y62.824 E1.0100
G1 X97.391 Y62.824 E1.0104
G1 X98.414 Y62.710 E1.0966
G1 X98.418 Y62.709 E1.0970
G1 X98.570 Y62.698 E1.1098
G1 X98.574 Y62.698 E1.1101
G1 X99.602 Y62.660 E1.1964
G1 X99.607 Y62.660 E1.1967
G1 X99.759 Y62.660 E1.2095
G1 X99.763 Y62.660 E1.2099
G1 X100.791 Y62.698 E1.2961
G1 X100.796 Y62.698 E1.2965
G1 X100.948 Y62.709 E1.3092
G1 X100.952 Y62.710 E1.3096
G1 X101.975 Y62.824 E1.3958
G1 X101.979 Y62.824 E1.3962
G1 X102.130 Y62.847 E1.4089
G1 X102.134 Y62.847 E1.4093
G1 X103.145 Y63.036 E1.4955
G1 X103.149 Y63.037 E1.4959
G1 X103.298 Y63.071 E1.5087
G1 X103.302 Y63.072 E1.5090
G1 X104.297 Y63.335 E1.5953
G1 X104.301 Y63.336 E1.5956
G1 X104.447 Y63.381 E1.6084
G1 X104.451 Y63.382 E1.6088
G1 X105.423 Y63.718 E1.6950
G1 X105.427 Y63.719 E1.6954
G1 X105.569 Y63.774 E1.7081
G1 X105.574 Y63.776 E1.7085
G1 X106.518 Y64.183 E1.7947
G1 X106.522 Y64.185 E1.7951
G1 X106.660 Y64.250 E1.8078
G1 X106.664 Y64.252 E1.8082
G1 X107.576 Y64.727 E1.8944
G1 X107.580 Y64.730 E1.8948
G1 X107.712 Y64.805 E1.9076
G1 X107.716 Y64.807 E1.9079
G1 X108.591 Y65.349 E1.9942
G1 X108.594 Y65.351 E1.9945
G1 X108.721 Y65.436 E2.0073
G1 X108.725 Y65.439 E2.0077
G1 X109.557 Y66.043 E2.0939
G1 X109.560 Y66.046 E2.0943
G1 X109.680 Y66.140 E2.1070
G1 X109.684 Y66.143 E2.1074
G1 X110.469 Y66.807 E2.1936
G1 X110.472 Y66.810 E2.1940
G1 X110.585 Y66.913 E2.2068
G1 X110.588 Y66.916 E2.2071
G1 X111.322 Y67.636 E2.2933
G1 X111.325 Y67.640 E2.2937
G1 X111.430 Y67.750 E2.3065
G1 X111.433 Y67.753 E2.3069
G1 X112.112 Y68.526 E2.3931
G1 X112.114 Y68.530 E2.3934
G1 X112.211 Y68.648 E2.4062
G1 X112.213 Y68.651 E2.4066
G1 X112.833 Y69.472 E2.4928
G1 X112.836 Y69.476 E2.4932
G1 X112.923 Y69.601 E2.5059
G1 X112.926 Y69.604 E2.5063
G1 X113.471 Y70.449 E2.5906
G1 X113.471 Y69.584 E2.6632
G1 X113.507 Y69.496 E2.6712
G1 X115.918 Y67.085 E2.9569
G1 X116.006 Y67.048 E2.9649
G1 X117.471 Y67.048 E3.0877
G1 X117.471 Y65.584 E3.2104
G1 X117.507 Y65.496 E3.2184
G1 X119.918 Y63.085 E3.5042
G1 X120.006 Y63.048 E3.5122
G1 X135.855 Y63.048 E4.8406
G1 X135.944 Y63.085 E4.8486
G1 X138.354 Y65.496 E5.1343
G1 X138.391 Y65.584 E5.1423
G1 X138.391 Y67.048 E5.2651
G1 X139.855 Y67.048 E5.3878
G1 X139.944 Y67.085 E5.3958
G1 X142.354 Y69.496 E5.6816
G1 X142.391 Y69.584 E5.6896
G1 X142.391 Y85.433 E7.0180
G1 X142.354 Y85.521 E7.0260
G1 X139.944 Y87.932 E7.3117
G1 X139.855 Y87.968 E7.3197
G1 X138.391 Y87.968 E7.4425
G1 X138.391 Y89.433 E7.5653
G1 X138.354 Y89.521 E7.5733
G1 X135.944 Y91.932 E7.8590
G1 X135.855 Y91.968 E7.8670
G1 X120.006 Y91.968 E9.1954
G1 X119.918 Y91.932 E9.2034
G1 X117.507 Y89.521 E9.4892
G1 X117.471 Y89.433 E9.4972
G1 X117.471 Y87.968 E9.6199
G1 X116.006 Y87.968 E9.7427
G1 X115.918 Y87.932 E9.7507
G1 X114.030 Y86.044 E9.9745
G1 X113.857 Y86.391 E10.0070
G1 X113.855 Y86.395 E10.0073
G1 X113.782 Y86.529 E10.0201
G1 X113.780 Y86.532 E10.0205
G1 X113.255 Y87.417 E10.1067
G1 X113.253 Y87.421 E10.1071
G1 X113.170 Y87.549 E10.1198
G1 X113.168 Y87.552 E10.1202
G1 X112.578 Y88.396 E10.2064
G1 X112.576 Y88.399 E10.2068
G1 X112.484 Y88.521 E10.2195
G1 X112.481 Y88.524 E10.2199
G1 X111.831 Y89.322 E10.3061
G1 X111.829 Y89.325 E10.3065
G1 X111.728 Y89.439 E10.3193
G1 X111.725 Y89.443 E10.3196
G1 X111.018 Y90.190 E10.4059
G1 X111.015 Y90.193 E10.4062
G1 X110.906 Y90.300 E10.4190
G1 X110.903 Y90.303 E10.4194
G1 X110.143 Y90.996 E10.5056
G1 X110.140 Y90.999 E10.5060
G1 X110.023 Y91.097 E10.5187
G1 X110.020 Y91.100 E10.5191
G1 X109.211 Y91.735 E10.6053
G1 X109.207 Y91.738 E10.6057
G1 X109.084 Y91.827 E10.6185
G1 X109.080 Y91.830 E10.6188
G1 X108.226 Y92.403 E10.7050
G1 X108.222 Y92.406 E10.7054
G1 X108.093 Y92.486 E10.7182
G1 X108.089 Y92.488 E10.7186
G1 X107.195 Y92.997 E10.8048
G1 X107.191 Y92.999 E10.8051
G1 X107.056 Y93.069 E10.8179
G1 X107.052 Y93.071 E10.8183
G1 X106.123 Y93.513 E10.9045
G1 X106.119 Y93.515 E10.9049
G1 X105.979 Y93.575 E10.9176
G1 X105.975 Y93.576 E10.9180
G1 X105.016 Y93.948 E11.0042
G1 X105.012 Y93.950 E11.0046
G1 X104.868 Y93.999 E11.0174
G1 X104.864 Y94.001 E11.0177
G1 X103.879 Y94.300 E11.1040
G1 X103.875 Y94.302 E11.1043
G1 X103.728 Y94.341 E11.1171
G1 X103.724 Y94.342 E11.1175
G1 X102.720 Y94.568 E11.2037
G1 X102.716 Y94.569 E11.2041
G1 X102.566 Y94.597 E11.2168
G1 X102.562 Y94.598 E11.2172
G1 X101.544 Y94.749 E11.3034
G1 X101.540 Y94.750 E11.3038
G1 X101.389 Y94.767 E11.3165
G1 X101.384 Y94.767 E11.3169
G1 X100.358 Y94.843 E11.4031
G1 X100.354 Y94.843 E11.4035
G1 X100.202 Y94.849 E11.4163
G1 X100.197 Y94.849 E11.4166
G1 X99.169 Y94.849 E11.5029
G1 X99.164 Y94.849 E11.5032
G1 X99.012 Y94.843 E11.5160
G1 X99.008 Y94.843 E11.5164
G1 X97.982 Y94.767 E11.6026
G1 X97.977 Y94.767 E11.6030
G1 X97.826 Y94.750 E11.6157
G1 X97.821 Y94.749 E11.6161
G1 X96.804 Y94.598 E11.7023
G1 X96.800 Y94.597 E11.7027
G1 X96.650 Y94.569 E11.7155
G1 X96.646 Y94.568 E11.7158
G1 X95.642 Y94.342 E11.8020
G1 X95.638 Y94.341 E11.8024
G1 X95.491 Y94.302 E11.8152
G1 X95.486 Y94.300 E11.8156
G1 X94.502 Y94.001 E11.9018
G1 X94.498 Y93.999 E11.9021
G1 X94.354 Y93.950 E11.9149
G1 X94.350 Y93.948 E11.9153
G1 X93.391 Y93.576 E12.0015
G1 X93.387 Y93.575 E12.0019
G1 X93.247 Y93.515 E12.0146
G1 X93.243 Y93.513 E12.0150
G1 X92.314 Y93.071 E12.1012
G1 X92.310 Y93.069 E12.1016
G1 X92.175 Y92.999 E12.1144
G1 X92.171 Y92.997 E12.1147
G1 X91.277 Y92.488 E12.2009
G1 X91.273 Y92.486 E12.2013
G1 X91.143 Y92.406 E12.2141
G1 X91.140 Y92.403 E12.2145
G1 X90.286 Y91.830 E12.3007
G1 X90.282 Y91.827 E12.3011
G1 X90.159 Y91.738 E12.3138
G1 X90.155 Y91.735 E12.3142
G1 X89.346 Y91.100 E12.4004
G1 X89.342 Y91.097 E12.4008
G1 X89.226 Y90.999 E12.4135
G1 X89.223 Y90.996 E12.4139
G1 X88.463 Y90.303 E12.5001
G1 X88.460 Y90.300 E12.5005
G1 X88.351 Y90.193 E12.5133
G1 X88.348 Y90.190 E12.5136
G1 X87.641 Y89.443 E12.5999
G1 X87.638 Y89.439 E12.6002
G1 X87.537 Y89.325 E12.6130
G1 X87.534 Y89.322 E12.6134
G1 X86.885 Y88.524 E12.6996
G1 X86.882 Y88.521 E12.7000
G1 X86.790 Y88.399 E12.7127
G1 X86.787 Y88.396 E12.7131
G1 X86.198 Y87.552 E12.7993
G1 X86.196 Y87.549 E12.7997
G1 X86.113 Y87.421 E12.8124
G1 X86.111 Y87.417 E12.8128
G1 X85.586 Y86.532 E12.8990
G1 X85.584 Y86.529 E12.8994
G1 X85.511 Y86.395 E12.9122
G1 X85.509 Y86.391 E12.9125
G1 X85.050 Y85.470 E12.9988
G1 X85.048 Y85.466 E12.9991
G1 X84.985 Y85.327 E13.0119
G1 X84.984 Y85.323 E13.0123
G1 X84.594 Y84.371 E13.0985
G1 X84.593 Y84.367 E13.0989
G1 X84.540 Y84.224 E13.1116
G1 X84.539 Y84.220 E13.1120
G1 X84.221 Y83.241 E13.1982
G1 X84.220 Y83.237 E13.1986
G1 X84.178 Y83.091 E13.2114
G1 X84.177 Y83.086 E13.2117
G1 X83.932 Y82.087 E13.2979
G1 X83.931 Y82.083 E13.2983
G1 X83.900 Y81.934 E13.3111
G1 X83.900 Y81.929 E13.3115
G1 X83.729 Y80.915 E13.3977
G1 X83.729 Y80.911 E13.3980
G1 X83.709 Y80.760 E13.4108
G1 X83.709 Y80.755 E13.4112
G1 X83.614 Y79.731 E13.4974
G1 X83.613 Y79.726 E13.4978
G1 X83.605 Y79.574 E13.5105
G1 X83.605 Y79.570 E13.5109
G1 X83.586 Y78.541 E13.5971
G1 X83.586 Y78.537 E13.5975
G1 X83.588 Y78.385 E13.6103
G1 X83.589 Y78.380 E13.6106
G1 X83.646 Y77.353 E13.6969
G1 X83.646 Y77.349 E13.6972
G1 X83.660 Y77.197 E13.7100
G1 X83.661 Y77.193 E13.7104
G1 X83.793 Y76.173 E13.7966
G1 X83.794 Y76.168 E13.7970
G1 X83.819 Y76.018 E13.8097
G1 X83.820 Y76.014 E13.8101
G1 X84.028 Y75.006 E13.8963
G1 X84.029 Y75.002 E13.8967
G1 X84.065 Y74.854 E13.9094
G1 X84.066 Y74.850 E13.9098
G1 X84.347 Y73.860 E13.9960
G1 X84.349 Y73.856 E13.9964
G1 X84.396 Y73.711 E14.0092
G1 X84.397 Y73.707 E14.0095
G1 X84.751 Y72.741 E14.0958
G1 X84.753 Y72.737 E14.0961
G1 X84.810 Y72.596 E14.1089
G1 X84.812 Y72.592 E14.1093
G1 X85.236 Y71.655 E14.1955
G1 X85.238 Y71.651 E14.1959
G1 X85.306 Y71.514 E14.2086
G1 X85.308 Y71.510 E14.2090
G1 X85.800 Y70.607 E14.2952
G1 X85.802 Y70.603 E14.2956
G1 X85.880 Y70.472 E14.3084
G1 X85.883 Y70.469 E14.3087
G1 X86.440 Y69.604 E14.3949
G1 X86.443 Y69.601 E14.3953
G1 X86.530 Y69.476 E14.4081
G1 X86.532 Y69.472 E14.4085
G1 X87.035 Y68.807 E14.4783
G1 X87.152 Y68.651 F1200
G1 X87.155 Y68.648 F1200
G92 E0
G1 E-1.5000 F1800
G1 X92.713 Y121.296 F4800
G1 E0.0000 F1800
G92 E0
G1 X92.720 Y121.296 E0.0006 F1200
G1 X93.449 Y121.262 E0.0618
G1 X93.452 Y121.262 E0.0621
G1 X93.548 Y121.260 E0.0701
G1 X93.550 Y121.260 E0.0703
G1 X105.681 Y121.259 E1.0871
G1 X105.686 Y121.259 E1.0875
G1 X105.853 Y121.266 E1.1015
G1 X105.858 Y121.266 E1.1019
G1 X107.086 Y121.366 E1.2051
G1 X107.095 Y121.367 E1.2059
G1 X107.419 Y121.419 E1.2334
G1 X107.428 Y121.421 E1.2342
G1 X108.637 Y121.717 E1.3385
G1 X108.646 Y121.720 E1.3393
G1 X108.950 Y121.820 E1.3661
G1 X108.959 Y121.823 E1.3669
G1 X110.132 Y122.312 E1.4734
G1 X110.141 Y122.316 E1.4742
G1 X110.432 Y122.466 E1.5017
G1 X110.440 Y122.471 E1.5025
