; generated by Slic3r Prusa Edition 1.41.0+ on 2019-02-12 at 08:41:49

; 

; external perimeters extrusion width = 0.60mm
; perimeters extrusion width = 0.43mm
; infill extrusion width = 0.45mm
; solid infill extrusion width = 0.70mm
; top infill extrusion width = 0.43mm
; support material extrusion width = 0.35mm
; first layer extrusion width = 0.42mm

M201 X9000 Y9000 Z500 E10000 ; sets maximum accelerations, mm/sec^2
M203 X500 Y500 Z12 E120 ; sets maximum feedrates, mm/sec
M204 P2000 R1500 T2000 ; sets acceleration (P, T) and retract acceleration (R), mm/sec^2
M205 X10.00 Y10.00 Z0.20 E2.50 ; sets the jerk limits, mm/sec
M205 S0 T0 ; sets the minimum extruding and travel feed rate, mm/sec
M107
M115 U3.1.0 ; tell printer latest fw version
M83  ; extruder relative mode
M204 S2000 T1500 ; MK2 firmware only supports the old M204 format
M104 S210 ; set extruder temp
M140 S55 ; set bed temp
M190 S55 ; wait for bed temp
M109 S210 ; wait for extruder temp
G28 W ; home all without mesh bed level
G80 ; mesh bed leveling
G1 Y-3.0 F1000.0 ; go outside print area
G92 E0.0
G1 X60.0 E9.0  F1000.0 ; intro line
G1 X100.0 E12.5  F1000.0 ; intro line
G92 E0.0
M900 K30; Filament gcode
G21 ; set units to millimeters
G90 ; use absolute coordinates
M83 ; use relative distances for extrusion
;BEFORE_LAYER_CHANGE
G92 E0.0
;0.32


G1 E-0.80000 F2100.00000
G1 Z0.600 F10800.000
;AFTER_LAYER_CHANGE
;0.32
G1 X56.310 Y17.008
G1 Z0.320
G1 E0.80000 F2100.00000
M204 S1000
G1 F1800
G1 X56.599 Y16.558 E0.02497
G1 X56.937 Y16.233 E0.02193
G1 X57.340 Y15.985 E0.02210
G1 X57.787 Y15.831 E0.02210
G1 X58.256 Y15.776 E0.02210
G1 X191.734 Y15.776 E6.23884
G1 X192.452 Y15.900 E0.03407
G1 X193.090 Y16.253 E0.03407
G1 X193.572 Y16.795 E0.03391
G1 X193.851 Y17.468 E0.03407
G1 X208.168 Y87.773 E3.35356
G1 X208.175 Y184.047 E4.49992
G1 X208.075 Y184.653 E0.02869
G1 X206.770 Y188.497 E0.18976
G1 X206.320 Y189.406 E0.04743
G1 X205.924 Y189.953 E0.03155
G1 X205.385 Y190.488 E0.03545
G1 X204.503 Y191.072 E0.04946
G1 X198.210 Y194.037 E0.32515
G1 X197.373 Y194.223 E0.04010
G1 X64.500 Y194.224 E6.21056
G1 X45.036 Y193.709 E0.91009
G1 X44.351 Y193.563 E0.03273
G1 X43.748 Y193.207 E0.03273
G1 X43.278 Y192.660 E0.03374
G1 X43.012 Y191.985 E0.03391
G1 X41.825 Y184.039 E0.37552
G1 X41.830 Y87.795 E4.49850
G1 X56.140 Y17.510 E3.35258
G1 X56.291 Y17.064 E0.02200
; PURGING FINISHED
G1 F8640
G1 X56.599 Y16.558 E-0.13686
G1 X56.937 Y16.233 E-0.10833
G1 X57.340 Y15.985 E-0.10917
G1 X57.787 Y15.831 E-0.10917
G1 X58.256 Y15.776 E-0.10917
G1 X59.067 Y15.776 E-0.18730
G1 E-0.04000 F2100.00000
G1 Z0.920 F10800.000
G1 X46.226 Y97.246
G1 Z0.320
G1 E0.80000 F2100.00000
G1 F1800
G1 X48.624 Y97.246 E0.11209
G1 X49.126 Y97.271 E0.02349
G1 X49.365 Y97.304 E0.01129
G1 X49.783 Y97.407 E0.02011
G1 X50.144 Y97.570 E0.01850
G1 X50.436 Y97.789 E0.01708
G1 X50.568 Y97.936 E0.00921
G1 X50.749 Y98.241 E0.01659
G1 X50.818 Y98.430 E0.00943
G1 X50.889 Y98.815 E0.01826
G1 X50.889 Y99.227 E0.01928
G1 X50.857 Y99.438 E0.00995
G1 X50.744 Y99.777 E0.01670
G1 X50.545 Y100.072 E0.01664
G1 X50.270 Y100.299 E0.01667
G1 X49.937 Y100.462 E0.01734
G1 X49.549 Y100.574 E0.01890
G1 X48.876 Y100.655 E0.03167
G1 X46.226 Y100.660 E0.12387
G1 X46.226 Y97.306 E0.15679
G1 X46.139 Y96.856 F10800.000
G1 X46.226 Y96.656
G1 F1800
G1 X46.226 Y93.742 E0.13620
G1 X51.248 Y93.742 E0.23473
G1 X51.411 Y94.302 E0.02724
G1 X51.448 Y94.753 E0.02116
G1 X51.407 Y95.192 E0.02059
G1 X51.280 Y95.583 E0.01925
G1 X51.064 Y95.921 E0.01869
G1 X50.765 Y96.194 E0.01894
G1 X50.391 Y96.401 E0.01999
G1 X49.948 Y96.545 E0.02178
G1 X49.437 Y96.629 E0.02420
G1 X48.862 Y96.656 E0.02690
G1 X46.286 Y96.656 E0.12040
G1 X45.826 Y96.657 F10800.000
G1 F8640
G1 X46.226 Y93.742 E-0.67299
G1 X46.603 Y93.742 E-0.08701
G1 E-0.04000 F2100.00000
G1 Z0.920 F10800.000
G1 X49.498 Y96.975
G1 Z0.320
G1 E0.80000 F2100.00000
G1 F1800
G1 X49.807 Y96.924 E0.01465
G1 X49.796 Y97.049 E0.00586
G1 X49.556 Y96.989 E0.01157
G1 F8640
G1 X49.807 Y96.924 E-0.05988
G1 X49.796 Y97.049 E-0.02895
G1 X49.556 Y96.989 E-0.05714
G1 E-0.65403 F2100.00000
G1 Z0.920 F10800.000
G1 X51.086 Y98.138
G1 Z0.320
G1 E0.80000 F2100.00000
G1 F1800
G1 X51.229 Y98.347 E0.01183
G1 X51.341 Y98.601 E0.01298
G1 X51.422 Y99.031 E0.02043
G1 X51.427 Y99.167 E0.00637
G1 X51.384 Y99.605 E0.02060
G1 X51.270 Y99.943 E0.01663
G1 X51.089 Y100.215 E0.01531
G1 X50.825 Y100.447 E0.01641
G1 X50.456 Y100.644 E0.01956
G1 X50.206 Y100.721 E0.01221
G1 X50.462 Y100.596 E0.01331
G1 X50.808 Y100.310 E0.02099
G1 X51.063 Y99.933 E0.02127
G1 X51.200 Y99.520 E0.02036
G1 X51.240 Y99.253 E0.01258
G1 X51.240 Y98.782 E0.02201
G1 X51.158 Y98.338 E0.02113
G1 X51.106 Y98.195 E0.00713
G1 F8640
G1 X51.229 Y98.347 E-0.04517
G1 X51.341 Y98.601 E-0.06414
G1 X51.422 Y99.031 E-0.10093
G1 X51.427 Y99.167 E-0.03147
G1 X51.384 Y99.605 E-0.10177
G1 X51.270 Y99.943 E-0.08217
G1 X51.089 Y100.215 E-0.07564
G1 X50.825 Y100.447 E-0.08105
G1 X50.456 Y100.644 E-0.09662
G1 X50.206 Y100.721 E-0.06033
G1 X50.287 Y100.682 E-0.02071
G1 E-0.04000 F2100.00000
G1 Z0.920 F10800.000
G1 X54.087 Y93.742
G1 Z0.320
G1 E0.80000 F2100.00000
G1 F1800
G1 X57.951 Y93.742 E0.18063
G1 X58.105 Y94.290 E0.02659
G1 X58.160 Y94.597 E0.01459
G1 X58.221 Y95.267 E0.03143
G1 X58.221 Y96.015 E0.03499
G1 X58.163 Y96.693 E0.03179
G1 X58.044 Y97.274 E0.02772
G1 X57.862 Y97.754 E0.02398
G1 X57.741 Y97.965 E0.01139
G1 X57.601 Y98.149 E0.01082
G1 X57.437 Y98.311 E0.01073
G1 X57.252 Y98.447 E0.01075
G1 X57.046 Y98.557 E0.01091
G1 X56.822 Y98.642 E0.01122
G1 X56.575 Y98.703 E0.01189
G1 X56.044 Y98.749 E0.02488
G1 X55.509 Y98.702 E0.02512
G1 X55.259 Y98.640 E0.01205
G1 X55.030 Y98.554 E0.01140
G1 X54.821 Y98.442 E0.01112
G1 X54.630 Y98.304 E0.01098
G1 X54.461 Y98.141 E0.01098
G1 X54.311 Y97.950 E0.01137
G1 X54.083 Y97.514 E0.02298
G1 X53.924 Y96.984 E0.02587
G1 X53.866 Y96.664 E0.01520
G1 X53.806 Y96.010 E0.03071
G1 X53.806 Y95.280 E0.03411
G1 X53.829 Y94.935 E0.01616
G1 X53.921 Y94.322 E0.02897
G1 X54.070 Y93.800 E0.02540
G1 X54.115 Y93.343 F10800.000
G1 F8640
G1 X57.361 Y93.751 E-0.76000
G1 E-0.04000 F2100.00000
G1 Z0.920 F10800.000
G1 X60.822 Y93.742
G1 Z0.320
G1 E0.80000 F2100.00000
G1 F1800
G1 X64.428 Y93.742 E0.16857
G1 X64.603 Y94.361 E0.03005
G1 X64.695 Y94.991 E0.02976
G1 X64.718 Y95.347 E0.01669
G1 X64.718 Y96.083 E0.03437
G1 X64.657 Y96.738 E0.03075
G1 X64.533 Y97.302 E0.02702
G1 X64.344 Y97.771 E0.02364
G1 X64.218 Y97.979 E0.01135
G1 X64.074 Y98.160 E0.01078
G1 X63.910 Y98.318 E0.01065
G1 X63.726 Y98.451 E0.01065
G1 X63.523 Y98.560 E0.01076
G1 X63.302 Y98.643 E0.01101
G1 X63.061 Y98.703 E0.01162
G1 X62.546 Y98.749 E0.02417
G1 X62.077 Y98.702 E0.02201
G1 X61.855 Y98.640 E0.01078
G1 X61.654 Y98.555 E0.01024
G1 X61.469 Y98.443 E0.01009
G1 X61.302 Y98.307 E0.01006
G1 X61.156 Y98.146 E0.01016
G1 X61.026 Y97.959 E0.01064
G1 X60.832 Y97.535 E0.02182
G1 X60.753 Y97.273 E0.01277
G1 X60.647 Y96.700 E0.02727
G1 X60.613 Y96.367 E0.01562
G1 X60.587 Y95.639 E0.03405
G1 X60.613 Y94.906 E0.03427
G1 X60.692 Y94.279 E0.02956
G1 X60.808 Y93.800 E0.02301
G1 X60.845 Y93.343 F10800.000
G1 F8640
G1 X64.099 Y93.747 E-0.76000
G1 E-0.04000 F2100.00000
G1 Z0.920 F10800.000
G1 X67.373 Y96.094
G1 Z0.320
G1 E0.80000 F2100.00000
G1 F1800
G1 X71.823 Y96.094 E0.20798
G1 X71.713 Y96.889 E0.03750
G1 X71.581 Y97.382 E0.02385
G1 X71.393 Y97.802 E0.02153
G1 X71.144 Y98.146 E0.01983
G1 X70.835 Y98.412 E0.01909
G1 X70.467 Y98.601 E0.01933
G1 X70.048 Y98.712 E0.02029
G1 X69.579 Y98.749 E0.02199
G1 X69.118 Y98.708 E0.02162
G1 X68.699 Y98.584 E0.02044
G1 X68.327 Y98.374 E0.01995
G1 X68.009 Y98.081 E0.02018
G1 X67.754 Y97.721 E0.02066
G1 X67.567 Y97.304 E0.02135
G1 X67.449 Y96.834 E0.02265
G1 X67.379 Y96.154 E0.03195
G1 X67.352 Y95.695 F10800.000
G1 F8640
G1 X70.670 Y96.109 E-0.76000
G1 E-0.04000 F2100.00000
G1 Z0.920 F10800.000
G1 X71.747 Y97.871
G1 Z0.320
G1 E0.80000 F2100.00000
G1 F1800
G1 X71.913 Y97.500 E0.01901
G1 X72.058 Y96.958 E0.02618
G1 X72.200 Y95.929 E0.04856
G1 X72.255 Y95.929 E0.00257
G1 X72.234 Y96.381 E0.02113
G1 X72.099 Y97.088 E0.03366
G1 X71.884 Y97.659 E0.02851
G1 X71.779 Y97.820 E0.00898
G1 F8640
G1 X71.913 Y97.500 E-0.08025
G1 X72.058 Y96.958 E-0.12933
G1 X72.200 Y95.929 E-0.23989
G1 X72.255 Y95.929 E-0.01272
G1 X72.234 Y96.381 E-0.10439
G1 X72.099 Y97.088 E-0.16629
G1 X72.057 Y97.198 E-0.02713
G1 E-0.04000 F2100.00000
G1 Z0.920 F10800.000
G1 X77.554 Y94.928
G1 Z0.320
G1 E0.80000 F2100.00000
G1 F1800
G1 X77.082 Y93.742 E0.05966
G1 X82.674 Y93.742 E0.26136
G1 X82.205 Y94.928 E0.05962
G1 X77.614 Y94.928 E0.21455
G1 X77.176 Y95.057 F10800.000
G1 X77.785 Y95.518
G1 F1800
G1 X81.982 Y95.518 E0.19619
G1 X80.546 Y99.201 E0.18477
G1 X80.067 Y100.609 E0.06952
G1 X79.692 Y100.607 E0.01754
G1 X79.409 Y99.746 E0.04238
G1 X79.119 Y98.948 E0.03968
G1 X77.807 Y95.574 E0.16922
G1 X77.736 Y95.121 F10800.000
G1 F8640
G1 X81.098 Y95.530 E-0.76000
G1 E-0.04000 F2100.00000
G1 Z0.920 F10800.000
G1 X85.335 Y93.742
G1 Z0.320
G1 E0.80000 F2100.00000
G1 F1800
G1 X88.792 Y93.742 E0.16158
G1 X88.792 Y96.620 E0.13452
G1 X88.750 Y97.348 E0.03409
G1 X88.671 Y97.749 E0.01908
G1 X88.545 Y98.077 E0.01643
G1 X88.362 Y98.333 E0.01473
G1 X88.108 Y98.523 E0.01481
G1 X87.797 Y98.643 E0.01559
G1 X87.436 Y98.701 E0.01709
G1 X87.024 Y98.697 E0.01926
G1 X86.634 Y98.614 E0.01860
G1 X86.439 Y98.534 E0.00986
G1 X86.113 Y98.323 E0.01817
G1 X85.836 Y98.031 E0.01882
G1 X85.713 Y97.851 E0.01019
G1 X85.609 Y97.655 E0.01036
G1 X85.456 Y97.234 E0.02094
G1 X85.365 Y96.752 E0.02295
G1 X85.335 Y96.219 E0.02495
G1 X85.335 Y93.802 E0.11296
G1 X85.334 Y93.342 F10800.000
G1 F8640
G1 X88.626 Y93.745 E-0.76000
G1 E-0.04000 F2100.00000
G1 Z0.920 F10800.000
G1 X89.579 Y93.802
G1 Z0.320
G1 E0.80000 F2100.00000
G1 F1800
G1 X89.579 Y93.742 E0.00280
G1 X93.037 Y93.742 E0.16163
G1 X93.037 Y96.620 E0.13452
G1 X92.995 Y97.348 E0.03409
G1 X92.916 Y97.749 E0.01908
G1 X92.790 Y98.077 E0.01643
G1 X92.607 Y98.333 E0.01474
G1 X92.353 Y98.523 E0.01481
G1 X92.041 Y98.644 E0.01560
G1 X91.680 Y98.701 E0.01711
G1 X91.264 Y98.698 E0.01945
G1 X90.862 Y98.614 E0.01917
G1 X90.510 Y98.446 E0.01826
G1 X90.344 Y98.324 E0.00961
G1 X90.194 Y98.182 E0.00968
G1 X89.949 Y97.854 E0.01913
G1 X89.766 Y97.461 E0.02022
G1 X89.696 Y97.233 E0.01118
G1 X89.608 Y96.754 E0.02276
G1 X89.579 Y96.219 E0.02506
G1 X89.579 Y93.862 E0.11015
G1 X89.527 Y93.772 F10800.000
G1 F8640
G1 X89.579 Y93.742 E-0.02771
G1 X92.751 Y93.742 E-0.73229
G1 E-0.04000 F2100.00000
G1 Z0.920 F10800.000
G1 X95.189 Y96.094
G1 Z0.320
G1 E0.80000 F2100.00000
G1 F1800
G1 X99.639 Y96.094 E0.20799
G1 X99.529 Y96.889 E0.03750
G1 X99.397 Y97.382 E0.02385
G1 X99.209 Y97.802 E0.02153
G1 X98.961 Y98.146 E0.01983
G1 X98.651 Y98.412 E0.01909
G1 X98.284 Y98.601 E0.01933
G1 X97.864 Y98.712 E0.02029
G1 X97.395 Y98.749 E0.02199
G1 X96.934 Y98.708 E0.02162
G1 X96.515 Y98.584 E0.02044
G1 X96.143 Y98.374 E0.01995
G1 X95.826 Y98.081 E0.02018
G1 X95.570 Y97.721 E0.02066
G1 X95.384 Y97.304 E0.02135
G1 X95.265 Y96.834 E0.02265
G1 X95.196 Y96.154 E0.03195
G1 X95.168 Y95.695 F10800.000
G1 F8640
G1 X98.487 Y96.109 E-0.76000
G1 E-0.04000 F2100.00000
G1 Z0.920 F10800.000
G1 X99.563 Y97.871
G1 Z0.320
G1 E0.80000 F2100.00000
G1 F1800
G1 X99.730 Y97.500 E0.01901
G1 X99.874 Y96.958 E0.02618
G1 X100.017 Y95.929 E0.04856
G1 X100.072 Y95.929 E0.00258
G1 X100.051 Y96.381 E0.02113
G1 X99.915 Y97.088 E0.03366
G1 X99.700 Y97.659 E0.02851
G1 X99.596 Y97.820 E0.00898
G1 F8640
G1 X99.730 Y97.500 E-0.08025
G1 X99.874 Y96.958 E-0.12933
G1 X100.017 Y95.929 E-0.23989
G1 X100.072 Y95.929 E-0.01273
G1 X100.051 Y96.381 E-0.10438
G1 X99.915 Y97.088 E-0.16630
G1 X99.874 Y97.198 E-0.02712
G1 E-0.04000 F2100.00000
G1 Z0.920 F10800.000
G1 X106.043 Y96.094
G1 Z0.320
G1 E0.80000 F2100.00000
G1 F1800
G1 X110.493 Y96.094 E0.20798
G1 X110.383 Y96.889 E0.03750
G1 X110.251 Y97.382 E0.02385
G1 X110.063 Y97.802 E0.02153
G1 X109.815 Y98.146 E0.01983
G1 X109.505 Y98.412 E0.01909
G1 X109.137 Y98.601 E0.01933
G1 X108.718 Y98.712 E0.02029
G1 X108.249 Y98.749 E0.02199
G1 X107.788 Y98.708 E0.02162
G1 X107.369 Y98.584 E0.02044
G1 X106.997 Y98.374 E0.01995
G1 X106.679 Y98.081 E0.02018
G1 X106.424 Y97.721 E0.02066
G1 X106.238 Y97.304 E0.02135
G1 X106.119 Y96.834 E0.02265
G1 X106.049 Y96.154 E0.03195
G1 X106.022 Y95.695 F10800.000
G1 F8640
G1 X109.340 Y96.109 E-0.76000
G1 E-0.04000 F2100.00000
G1 Z0.920 F10800.000
G1 X110.417 Y97.871
G1 Z0.320
G1 E0.80000 F2100.00000
G1 F1800
G1 X110.583 Y97.500 E0.01901
G1 X110.728 Y96.958 E0.02618
G1 X110.870 Y95.929 E0.04856
G1 X110.925 Y95.929 E0.00257
G1 X110.904 Y96.381 E0.02113
G1 X110.769 Y97.088 E0.03366
G1 X110.554 Y97.659 E0.02851
G1 X110.449 Y97.820 E0.00898
G1 F8640
G1 X110.583 Y97.500 E-0.08024
G1 X110.728 Y96.958 E-0.12934
G1 X110.870 Y95.929 E-0.23990
G1 X110.925 Y95.929 E-0.01271
G1 X110.904 Y96.381 E-0.10438
G1 X110.769 Y97.088 E-0.16630
G1 X110.727 Y97.198 E-0.02713
G1 E-0.04000 F2100.00000
G1 Z0.920 F10800.000
G1 X115.834 Y93.742
G1 Z0.320
G1 E0.80000 F2100.00000
G1 F1800
G1 X119.699 Y93.742 E0.18064
G1 X119.853 Y94.290 E0.02659
G1 X119.908 Y94.597 E0.01459
G1 X119.968 Y95.267 E0.03143
G1 X119.969 Y96.015 E0.03499
G1 X119.910 Y96.693 E0.03179
G1 X119.791 Y97.274 E0.02772
G1 X119.609 Y97.754 E0.02398
G1 X119.488 Y97.965 E0.01139
G1 X119.348 Y98.149 E0.01082
G1 X119.185 Y98.311 E0.01073
G1 X118.999 Y98.447 E0.01075
G1 X118.794 Y98.557 E0.01092
G1 X118.569 Y98.642 E0.01122
G1 X118.322 Y98.703 E0.01189
G1 X117.792 Y98.749 E0.02488
G1 X117.257 Y98.702 E0.02512
G1 X117.006 Y98.640 E0.01205
G1 X116.787 Y98.557 E0.01097
G1 X116.569 Y98.442 E0.01153
G1 X116.378 Y98.304 E0.01101
G1 X116.209 Y98.141 E0.01098
G1 X116.059 Y97.950 E0.01137
G1 X115.833 Y97.518 E0.02276
G1 X115.741 Y97.254 E0.01306
G1 X115.615 Y96.680 E0.02746
G1 X115.553 Y96.010 E0.03147
G1 X115.553 Y95.280 E0.03411
G1 X115.576 Y94.935 E0.01616
G1 X115.668 Y94.322 E0.02897
G1 X115.818 Y93.800 E0.02540
G1 X115.863 Y93.343 F10800.000
G1 F8640
G1 X119.109 Y93.751 E-0.76000
G1 E-0.04000 F2100.00000
G1 Z0.920 F10800.000
G1 X120.117 Y93.391
G1 Z0.320
G1 E0.80000 F2100.00000
G1 F1800
G1 X120.378 Y94.445 E0.05075
G1 X120.438 Y94.808 E0.01719
G1 X120.474 Y95.206 E0.01870
G1 X120.486 Y95.640 E0.02027
G1 X120.440 Y96.483 E0.03948
G1 X120.384 Y96.850 E0.01737
G1 X120.308 Y97.181 E0.01585
G1 X120.212 Y97.474 E0.01443
G1 X120.099 Y97.732 E0.01315
G1 X119.970 Y97.955 E0.01205
G1 X119.825 Y98.146 E0.01120
G1 X119.676 Y98.299 E0.00997
G1 X119.782 Y98.160 E0.00817
G1 X119.928 Y97.904 E0.01376
G1 X120.130 Y97.372 E0.02660
G1 X120.259 Y96.743 E0.02999
G1 X120.320 Y96.030 E0.03346
G1 X120.320 Y95.251 E0.03644
G1 X120.256 Y94.550 E0.03288
G1 X120.195 Y94.211 E0.01609
G1 X119.965 Y93.391 E0.03983
G1 X115.569 Y93.391 E0.20548
G1 X115.324 Y94.247 E0.04165
G1 X115.227 Y94.897 E0.03070
G1 X115.202 Y95.268 E0.01739
G1 X115.202 Y96.026 E0.03542
G1 X115.268 Y96.734 E0.03324
G1 X115.402 Y97.350 E0.02945
G1 X115.509 Y97.658 E0.01526
G1 X115.792 Y98.179 E0.02769
G1 X115.725 Y98.118 E0.00424
G1 X115.437 Y97.692 E0.02402
G1 X115.220 Y97.143 E0.02761
G1 X115.084 Y96.458 E0.03262
G1 X115.036 Y95.631 E0.03874
G1 X115.082 Y94.838 E0.03714
G1 X115.140 Y94.484 E0.01675
G1 X115.407 Y93.391 E0.05260
G1 X112.768 Y93.391 E0.12336
G1 X112.768 Y101.439 E0.37617
G1 X112.671 Y101.439 E0.00455
G1 X112.671 Y93.391 E0.37617
G1 X106.092 Y93.391 E0.30751
G1 X105.853 Y94.100 E0.03496
G1 X105.785 Y94.399 E0.01437
G1 X105.737 Y94.716 E0.01498
G1 X105.680 Y95.743 E0.04805
G1 X105.654 Y95.743 E0.00121
G1 X105.772 Y96.895 E0.05414
G1 X105.904 Y97.419 E0.02527
G1 X106.117 Y97.895 E0.02438
G1 X106.271 Y98.113 E0.01248
G1 X106.096 Y97.893 E0.01319
G1 X105.955 Y97.663 E0.01259
G1 X105.833 Y97.407 E0.01326
G1 X105.731 Y97.122 E0.01414
G1 X105.650 Y96.807 E0.01519
G1 X105.591 Y96.462 E0.01637
G1 X105.555 Y96.086 E0.01765
G1 X105.555 Y95.250 E0.03909
G1 X105.591 Y94.853 E0.01863
G1 X105.651 Y94.490 E0.01719
G1 X105.924 Y93.391 E0.05294
G1 X101.942 Y93.391 E0.18610
G1 X101.942 Y95.798 E0.11253
G1 X101.969 Y96.415 E0.02887
G1 X102.053 Y96.986 E0.02697
G1 X102.186 Y97.449 E0.02252
G1 X101.901 Y97.491 E0.01345
G1 X101.854 Y98.751 E0.05891
