; generated by Slic3r Prusa Edition 1.41.0+ on 2019-02-12 at 08:41:34

; 

; external perimeters extrusion width = 0.60mm
; perimeters extrusion width = 0.43mm
; infill extrusion width = 0.45mm
; solid infill extrusion width = 0.70mm
; top infill extrusion width = 0.43mm
; support material extrusion width = 0.35mm
; first layer extrusion width = 0.42mm

M201 X9000 Y9000 Z500 E10000 ; sets maximum accelerations, mm/sec^2
M203 X500 Y500 Z12 E120 ; sets maximum feedrates, mm/sec
M204 P2000 R1500 T2000 ; sets acceleration (P, T) and retract acceleration (R), mm/sec^2
M205 X10.00 Y10.00 Z0.20 E2.50 ; sets the jerk limits, mm/sec
M205 S0 T0 ; sets the minimum extruding and travel feed rate, mm/sec
M107
M115 U3.1.0 ; tell printer latest fw version
M83  ; extruder relative mode
M204 S2000 T1500 ; MK2 firmware only supports the old M204 format
M104 S210 ; set extruder temp
M140 S55 ; set bed temp
M190 S55 ; wait for bed temp
M109 S210 ; wait for extruder temp
G28 W ; home all without mesh bed level
G80 ; mesh bed leveling
G1 Y-3.0 F1000.0 ; go outside print area
G92 E0.0
G1 X60.0 E9.0  F1000.0 ; intro line
G1 X100.0 E12.5  F1000.0 ; intro line
G92 E0.0
M900 K30; Filament gcode
G21 ; set units to millimeters
G90 ; use absolute coordinates
M83 ; use relative distances for extrusion
;BEFORE_LAYER_CHANGE
G92 E0.0
;0.32


G1 E-0.80000 F2100.00000
G1 Z0.600 F10800.000
;AFTER_LAYER_CHANGE
;0.32
G1 X98.512 Y61.694
G1 Z0.320
G1 E0.80000 F2100.00000
M204 S1000
G1 F1800
G1 X98.849 Y61.328 E0.02328
G1 X99.265 Y61.047 E0.02345
G1 X99.733 Y60.868 E0.02345
G1 X100.231 Y60.801 E0.02345
G1 X149.734 Y60.800 E2.31380
G1 X150.452 Y60.924 E0.03407
G1 X151.090 Y61.277 E0.03407
G1 X151.572 Y61.819 E0.03391
G1 X151.851 Y62.492 E0.03407
G1 X166.144 Y132.606 E3.34456
G1 X166.148 Y139.324 E0.31403
G1 X164.776 Y143.456 E0.20348
G1 X164.196 Y144.572 E0.05877
G1 X163.478 Y145.387 E0.05078
G1 X162.545 Y146.026 E0.05285
G1 X156.214 Y149.012 E0.32719
G1 X155.431 Y149.197 E0.03760
G1 X106.486 Y149.199 E2.28774
G1 X87.043 Y148.685 E0.90907
G1 X86.420 Y148.565 E0.02970
G1 X85.857 Y148.269 E0.02970
G1 X85.321 Y147.704 E0.03642
G1 X85.018 Y146.986 E0.03642
G1 X83.842 Y139.255 E0.36550
G1 X83.847 Y132.660 E0.30824
G1 X98.139 Y62.538 E3.34495
G1 X98.488 Y61.749 E0.04030
; PURGING FINISHED
G1 F8640
G1 X98.849 Y61.328 E-0.12821
G1 X99.265 Y61.047 E-0.11586
G1 X99.733 Y60.868 E-0.11586
G1 X100.231 Y60.801 E-0.11586
G1 X101.462 Y60.801 E-0.28421
G1 E-0.04000 F2100.00000
G1 Z0.920 F10800.000
G1 X88.226 Y142.270
G1 Z0.320
G1 E0.80000 F2100.00000
G1 F1800
G1 X90.624 Y142.270 E0.11209
G1 X91.126 Y142.295 E0.02349
G1 X91.365 Y142.328 E0.01129
G1 X91.783 Y142.431 E0.02011
G1 X92.144 Y142.594 E0.01850
G1 X92.436 Y142.813 E0.01708
G1 X92.568 Y142.960 E0.00921
G1 X92.749 Y143.265 E0.01659
G1 X92.818 Y143.454 E0.00943
G1 X92.889 Y143.839 E0.01826
G1 X92.889 Y144.251 E0.01928
G1 X92.857 Y144.462 E0.00995
G1 X92.744 Y144.801 E0.01670
G1 X92.545 Y145.096 E0.01664
G1 X92.270 Y145.323 E0.01667
G1 X91.937 Y145.486 E0.01734
G1 X91.549 Y145.598 E0.01890
G1 X90.876 Y145.679 E0.03167
G1 X88.226 Y145.684 E0.12387
G1 X88.226 Y142.330 E0.15679
G1 X88.139 Y141.880 F10800.000
G1 X88.226 Y141.680
G1 F1800
G1 X88.226 Y138.766 E0.13620
G1 X93.248 Y138.766 E0.23473
G1 X93.411 Y139.326 E0.02724
G1 X93.448 Y139.777 E0.02116
G1 X93.407 Y140.216 E0.02059
G1 X93.280 Y140.607 E0.01925
G1 X93.064 Y140.945 E0.01869
G1 X92.765 Y141.218 E0.01894
G1 X92.391 Y141.425 E0.01999
G1 X91.948 Y141.569 E0.02178
G1 X91.437 Y141.653 E0.02420
G1 X90.862 Y141.680 E0.02690
G1 X88.286 Y141.680 E0.12040
G1 X87.826 Y141.681 F10800.000
G1 F8640
G1 X88.226 Y138.766 E-0.67299
G1 X88.603 Y138.766 E-0.08701
G1 E-0.04000 F2100.00000
G1 Z0.920 F10800.000
G1 X91.498 Y141.999
G1 Z0.320
G1 E0.80000 F2100.00000
G1 F1800
G1 X91.807 Y141.948 E0.01465
G1 X91.796 Y142.073 E0.00586
G1 X91.556 Y142.013 E0.01157
G1 F8640
G1 X91.807 Y141.948 E-0.05988
G1 X91.796 Y142.073 E-0.02895
G1 X91.556 Y142.013 E-0.05714
G1 E-0.65403 F2100.00000
G1 Z0.920 F10800.000
G1 X93.086 Y143.162
G1 Z0.320
G1 E0.80000 F2100.00000
G1 F1800
G1 X93.229 Y143.371 E0.01183
G1 X93.341 Y143.625 E0.01298
G1 X93.422 Y144.055 E0.02043
G1 X93.427 Y144.191 E0.00637
G1 X93.384 Y144.629 E0.02060
G1 X93.270 Y144.967 E0.01663
G1 X93.089 Y145.239 E0.01531
G1 X92.825 Y145.471 E0.01641
G1 X92.456 Y145.668 E0.01956
G1 X92.206 Y145.745 E0.01221
G1 X92.462 Y145.620 E0.01331
G1 X92.808 Y145.334 E0.02099
G1 X93.063 Y144.957 E0.02127
G1 X93.200 Y144.544 E0.02036
G1 X93.240 Y144.277 E0.01258
G1 X93.240 Y143.806 E0.02201
G1 X93.158 Y143.362 E0.02113
G1 X93.106 Y143.219 E0.00713
G1 F8640
G1 X93.229 Y143.371 E-0.04517
G1 X93.341 Y143.625 E-0.06414
G1 X93.422 Y144.055 E-0.10093
G1 X93.427 Y144.191 E-0.03147
G1 X93.384 Y144.629 E-0.10177
G1 X93.270 Y144.967 E-0.08217
G1 X93.089 Y145.239 E-0.07564
G1 X92.825 Y145.471 E-0.08105
G1 X92.456 Y145.668 E-0.09662
G1 X92.206 Y145.745 E-0.06033
G1 X92.287 Y145.706 E-0.02071
G1 E-0.04000 F2100.00000
G1 Z0.920 F10800.000
G1 X96.087 Y138.766
G1 Z0.320
G1 E0.80000 F2100.00000
G1 F1800
G1 X99.951 Y138.766 E0.18063
G1 X100.105 Y139.314 E0.02659
G1 X100.160 Y139.621 E0.01459
G1 X100.221 Y140.291 E0.03143
G1 X100.221 Y141.039 E0.03499
G1 X100.163 Y141.717 E0.03179
G1 X100.044 Y142.298 E0.02772
G1 X99.862 Y142.778 E0.02398
G1 X99.741 Y142.989 E0.01139
G1 X99.601 Y143.173 E0.01082
G1 X99.437 Y143.335 E0.01073
G1 X99.252 Y143.471 E0.01075
G1 X99.046 Y143.581 E0.01091
G1 X98.822 Y143.666 E0.01122
G1 X98.575 Y143.727 E0.01189
G1 X98.044 Y143.773 E0.02488
G1 X97.509 Y143.726 E0.02512
G1 X97.259 Y143.664 E0.01205
G1 X97.030 Y143.578 E0.01140
G1 X96.821 Y143.466 E0.01112
G1 X96.630 Y143.328 E0.01098
G1 X96.461 Y143.165 E0.01098
G1 X96.311 Y142.974 E0.01137
G1 X96.083 Y142.538 E0.02298
G1 X95.924 Y142.008 E0.02587
G1 X95.866 Y141.688 E0.01520
G1 X95.806 Y141.034 E0.03071
G1 X95.806 Y140.304 E0.03411
G1 X95.829 Y139.959 E0.01616
G1 X95.921 Y139.346 E0.02897
G1 X96.070 Y138.824 E0.02540
G1 X96.115 Y138.367 F10800.000
G1 F8640
G1 X99.361 Y138.775 E-0.76000
G1 E-0.04000 F2100.00000
G1 Z0.920 F10800.000
G1 X102.822 Y138.766
G1 Z0.320
G1 E0.80000 F2100.00000
G1 F1800
G1 X106.428 Y138.766 E0.16857
G1 X106.603 Y139.385 E0.03005
G1 X106.695 Y140.015 E0.02976
G1 X106.718 Y140.371 E0.01669
G1 X106.718 Y141.107 E0.03437
G1 X106.657 Y141.762 E0.03075
G1 X106.533 Y142.326 E0.02702
G1 X106.344 Y142.795 E0.02364
G1 X106.218 Y143.003 E0.01135
G1 X106.074 Y143.184 E0.01078
G1 X105.910 Y143.342 E0.01065
G1 X105.726 Y143.475 E0.01065
G1 X105.523 Y143.584 E0.01076
G1 X105.302 Y143.667 E0.01101
G1 X105.061 Y143.727 E0.01162
G1 X104.546 Y143.773 E0.02417
G1 X104.077 Y143.726 E0.02201
G1 X103.855 Y143.664 E0.01078
G1 X103.654 Y143.579 E0.01024
G1 X103.469 Y143.467 E0.01009
G1 X103.302 Y143.331 E0.01006
G1 X103.156 Y143.170 E0.01016
G1 X103.026 Y142.983 E0.01064
G1 X102.832 Y142.559 E0.02182
G1 X102.753 Y142.297 E0.01277
G1 X102.647 Y141.724 E0.02727
G1 X102.613 Y141.391 E0.01562
G1 X102.587 Y140.663 E0.03405
G1 X102.613 Y139.930 E0.03427
G1 X102.692 Y139.303 E0.02956
G1 X102.808 Y138.824 E0.02301
G1 X102.845 Y138.367 F10800.000
G1 F8640
G1 X106.099 Y138.771 E-0.76000
G1 E-0.04000 F2100.00000
G1 Z0.920 F10800.000
G1 X109.373 Y141.118
G1 Z0.320
G1 E0.80000 F2100.00000
G1 F1800
G1 X113.823 Y141.118 E0.20798
G1 X113.713 Y141.913 E0.03750
G1 X113.581 Y142.406 E0.02385
G1 X113.393 Y142.826 E0.02153
G1 X113.144 Y143.170 E0.01983
G1 X112.835 Y143.436 E0.01909
G1 X112.467 Y143.625 E0.01933
G1 X112.048 Y143.737 E0.02029
G1 X111.579 Y143.773 E0.02199
G1 X111.118 Y143.732 E0.02162
G1 X110.699 Y143.608 E0.02044
G1 X110.327 Y143.398 E0.01995
G1 X110.009 Y143.105 E0.02018
G1 X109.754 Y142.745 E0.02066
G1 X109.567 Y142.328 E0.02135
G1 X109.449 Y141.858 E0.02265
G1 X109.379 Y141.178 E0.03195
G1 X109.352 Y140.719 F10800.000
G1 F8640
G1 X112.670 Y141.133 E-0.76000
G1 E-0.04000 F2100.00000
G1 Z0.920 F10800.000
G1 X113.747 Y142.895
G1 Z0.320
G1 E0.80000 F2100.00000
G1 F1800
G1 X113.913 Y142.524 E0.01901
G1 X114.058 Y141.982 E0.02618
G1 X114.200 Y140.953 E0.04856
G1 X114.255 Y140.953 E0.00257
G1 X114.234 Y141.405 E0.02113
G1 X114.099 Y142.112 E0.03366
G1 X113.884 Y142.683 E0.02851
G1 X113.779 Y142.844 E0.00898
G1 F8640
G1 X113.913 Y142.524 E-0.08025
G1 X114.058 Y141.982 E-0.12933
G1 X114.200 Y140.953 E-0.23989
G1 X114.255 Y140.953 E-0.01272
G1 X114.234 Y141.405 E-0.10439
G1 X114.099 Y142.112 E-0.16629
G1 X114.057 Y142.222 E-0.02713
G1 E-0.04000 F2100.00000
G1 Z0.920 F10800.000
G1 X119.554 Y139.952
G1 Z0.320
G1 E0.80000 F2100.00000
G1 F1800
G1 X119.082 Y138.766 E0.05966
G1 X124.674 Y138.766 E0.26136
G1 X124.205 Y139.952 E0.05962
G1 X119.614 Y139.952 E0.21455
G1 X119.176 Y140.081 F10800.000
G1 X119.785 Y140.542
G1 F1800
G1 X123.982 Y140.542 E0.19619
G1 X122.546 Y144.225 E0.18477
G1 X122.067 Y145.633 E0.06952
G1 X121.692 Y145.631 E0.01754
G1 X121.409 Y144.770 E0.04238
G1 X121.119 Y143.972 E0.03968
G1 X119.807 Y140.598 E0.16922
G1 X119.736 Y140.145 F10800.000
G1 F8640
G1 X123.098 Y140.554 E-0.76000
G1 E-0.04000 F2100.00000
G1 Z0.920 F10800.000
G1 X127.335 Y138.766
G1 Z0.320
G1 E0.80000 F2100.00000
G1 F1800
G1 X130.792 Y138.766 E0.16158
G1 X130.792 Y141.644 E0.13452
G1 X130.750 Y142.372 E0.03409
G1 X130.671 Y142.773 E0.01908
G1 X130.545 Y143.101 E0.01643
G1 X130.362 Y143.357 E0.01473
G1 X130.108 Y143.547 E0.01481
G1 X129.797 Y143.668 E0.01559
G1 X129.436 Y143.725 E0.01709
G1 X129.024 Y143.721 E0.01926
G1 X128.634 Y143.638 E0.01860
G1 X128.439 Y143.558 E0.00986
G1 X128.113 Y143.347 E0.01817
G1 X127.836 Y143.055 E0.01882
G1 X127.713 Y142.875 E0.01019
G1 X127.609 Y142.679 E0.01036
G1 X127.456 Y142.258 E0.02094
G1 X127.365 Y141.776 E0.02295
G1 X127.335 Y141.243 E0.02495
G1 X127.335 Y138.826 E0.11296
G1 X127.334 Y138.366 F10800.000
G1 F8640
G1 X130.626 Y138.769 E-0.76000
G1 E-0.04000 F2100.00000
G1 Z0.920 F10800.000
G1 X131.579 Y138.826
G1 Z0.320
G1 E0.80000 F2100.00000
G1 F1800
G1 X131.579 Y138.766 E0.00280
G1 X135.037 Y138.766 E0.16163
G1 X135.037 Y141.644 E0.13452
G1 X134.995 Y142.372 E0.03409
G1 X134.916 Y142.773 E0.01908
G1 X134.790 Y143.101 E0.01643
G1 X134.607 Y143.357 E0.01474
G1 X134.353 Y143.547 E0.01481
G1 X134.041 Y143.668 E0.01560
G1 X133.680 Y143.725 E0.01711
G1 X133.264 Y143.722 E0.01945
G1 X132.862 Y143.638 E0.01917
G1 X132.510 Y143.470 E0.01826
G1 X132.344 Y143.348 E0.00961
G1 X132.194 Y143.206 E0.00968
G1 X131.949 Y142.878 E0.01913
G1 X131.766 Y142.485 E0.02022
G1 X131.696 Y142.257 E0.01118
G1 X131.608 Y141.778 E0.02276
G1 X131.579 Y141.243 E0.02506
G1 X131.579 Y138.886 E0.11015
G1 X131.527 Y138.796 F10800.000
G1 F8640
G1 X131.579 Y138.766 E-0.02771
G1 X134.751 Y138.766 E-0.73229
G1 E-0.04000 F2100.00000
G1 Z0.920 F10800.000
G1 X137.189 Y141.118
G1 Z0.320
G1 E0.80000 F2100.00000
G1 F1800
G1 X141.639 Y141.118 E0.20799
G1 X141.529 Y141.913 E0.03750
G1 X141.397 Y142.406 E0.02385
G1 X141.209 Y142.826 E0.02153
G1 X140.961 Y143.170 E0.01983
G1 X140.651 Y143.436 E0.01909
G1 X140.284 Y143.625 E0.01933
G1 X139.864 Y143.737 E0.02029
G1 X139.395 Y143.773 E0.02199
G1 X138.934 Y143.732 E0.02162
G1 X138.515 Y143.608 E0.02044
G1 X138.143 Y143.398 E0.01995
G1 X137.826 Y143.105 E0.02018
G1 X137.570 Y142.745 E0.02066
G1 X137.384 Y142.328 E0.02135
G1 X137.265 Y141.858 E0.02265
G1 X137.196 Y141.178 E0.03195
G1 X137.168 Y140.719 F10800.000
G1 F8640
G1 X140.487 Y141.133 E-0.76000
G1 E-0.04000 F2100.00000
G1 Z0.920 F10800.000
G1 X141.563 Y142.895
G1 Z0.320
G1 E0.80000 F2100.00000
G1 F1800
G1 X141.730 Y142.524 E0.01901
G1 X141.874 Y141.982 E0.02618
G1 X142.017 Y140.953 E0.04856
G1 X142.072 Y140.953 E0.00258
G1 X142.051 Y141.405 E0.02113
G1 X141.915 Y142.112 E0.03366
G1 X141.700 Y142.683 E0.02851
G1 X141.596 Y142.844 E0.00898
G1 F8640
G1 X141.730 Y142.524 E-0.08025
G1 X141.874 Y141.982 E-0.12933
G1 X142.017 Y140.953 E-0.23989
G1 X142.072 Y140.953 E-0.01273
G1 X142.051 Y141.405 E-0.10438
G1 X141.915 Y142.112 E-0.16630
G1 X141.874 Y142.222 E-0.02712
G1 E-0.04000 F2100.00000
G1 Z0.920 F10800.000
G1 X148.043 Y141.118
G1 Z0.320
G1 E0.80000 F2100.00000
G1 F1800
G1 X152.493 Y141.118 E0.20798
G1 X152.383 Y141.913 E0.03750
G1 X152.251 Y142.406 E0.02385
G1 X152.063 Y142.826 E0.02153
G1 X151.815 Y143.170 E0.01983
G1 X151.505 Y143.436 E0.01909
G1 X151.137 Y143.625 E0.01933
G1 X150.718 Y143.737 E0.02029
G1 X150.249 Y143.773 E0.02199
G1 X149.788 Y143.732 E0.02162
G1 X149.369 Y143.608 E0.02044
G1 X148.997 Y143.398 E0.01995
G1 X148.679 Y143.105 E0.02018
G1 X148.424 Y142.745 E0.02066
G1 X148.238 Y142.328 E0.02135
G1 X148.119 Y141.858 E0.02265
G1 X148.049 Y141.178 E0.03195
G1 X148.022 Y140.719 F10800.000
G1 F8640
G1 X151.340 Y141.133 E-0.76000
G1 E-0.04000 F2100.00000
G1 Z0.920 F10800.000
G1 X152.417 Y142.895
G1 Z0.320
G1 E0.80000 F2100.00000
G1 F1800
G1 X152.583 Y142.524 E0.01901
G1 X152.728 Y141.982 E0.02618
G1 X152.870 Y140.953 E0.04856
G1 X152.925 Y140.953 E0.00257
G1 X152.904 Y141.405 E0.02113
G1 X152.769 Y142.112 E0.03366
G1 X152.554 Y142.683 E0.02851
G1 X152.449 Y142.844 E0.00898
G1 F8640
G1 X152.583 Y142.524 E-0.08024
G1 X152.728 Y141.982 E-0.12934
G1 X152.870 Y140.953 E-0.23990
G1 X152.925 Y140.953 E-0.01271
G1 X152.904 Y141.405 E-0.10438
G1 X152.769 Y142.112 E-0.16630
G1 X152.727 Y142.222 E-0.02713
G1 E-0.04000 F2100.00000
G1 Z0.920 F10800.000
G1 X157.834 Y138.766
G1 Z0.320
G1 E0.80000 F2100.00000
G1 F1800
G1 X161.699 Y138.766 E0.18064
G1 X161.853 Y139.314 E0.02659
G1 X161.908 Y139.621 E0.01459
G1 X161.968 Y140.291 E0.03143
G1 X161.969 Y141.039 E0.03499
G1 X161.910 Y141.717 E0.03179
G1 X161.791 Y142.298 E0.02772
G1 X161.609 Y142.778 E0.02398
G1 X161.488 Y142.989 E0.01139
G1 X161.348 Y143.173 E0.01082
G1 X161.185 Y143.335 E0.01073
G1 X160.999 Y143.471 E0.01075
G1 X160.794 Y143.581 E0.01092
G1 X160.569 Y143.666 E0.01122
G1 X160.322 Y143.727 E0.01189
G1 X159.792 Y143.773 E0.02488
G1 X159.257 Y143.726 E0.02512
G1 X159.006 Y143.664 E0.01205
G1 X158.787 Y143.581 E0.01097
G1 X158.569 Y143.466 E0.01153
G1 X158.378 Y143.328 E0.01101
G1 X158.209 Y143.165 E0.01098
G1 X158.059 Y142.974 E0.01137
G1 X157.833 Y142.542 E0.02276
G1 X157.741 Y142.278 E0.01306
G1 X157.615 Y141.704 E0.02746
G1 X157.553 Y141.034 E0.03147
G1 X157.553 Y140.304 E0.03411
G1 X157.576 Y139.959 E0.01616
G1 X157.668 Y139.346 E0.02897
G1 X157.818 Y138.824 E0.02540
G1 X157.863 Y138.367 F10800.000
G1 F8640
G1 X161.109 Y138.775 E-0.76000
G1 E-0.04000 F2100.00000
G1 Z0.920 F10800.000
G1 X162.117 Y138.415
G1 Z0.320
G1 E0.80000 F2100.00000
G1 F1800
G1 X162.378 Y139.469 E0.05075
G1 X162.438 Y139.832 E0.01719
G1 X162.474 Y140.230 E0.01870
G1 X162.486 Y140.664 E0.02027
G1 X162.440 Y141.507 E0.03948
G1 X162.384 Y141.874 E0.01737
G1 X162.308 Y142.205 E0.01585
G1 X162.212 Y142.498 E0.01443
G1 X162.099 Y142.756 E0.01315
G1 X161.970 Y142.979 E0.01205
G1 X161.825 Y143.170 E0.01120
G1 X161.676 Y143.323 E0.00997
G1 X161.782 Y143.184 E0.00817
G1 X161.928 Y142.928 E0.01376
G1 X162.130 Y142.396 E0.02660
G1 X162.259 Y141.767 E0.02999
G1 X162.320 Y141.054 E0.03346
G1 X162.320 Y140.275 E0.03644
G1 X162.256 Y139.574 E0.03288
G1 X162.195 Y139.235 E0.01609
G1 X161.965 Y138.415 E0.03983
G1 X157.569 Y138.415 E0.20548
G1 X157.324 Y139.271 E0.04165
G1 X157.227 Y139.921 E0.03070
G1 X157.202 Y140.292 E0.01739
G1 X157.202 Y141.050 E0.03542
G1 X157.268 Y141.758 E0.03324
G1 X157.402 Y142.374 E0.02945
G1 X157.509 Y142.682 E0.01526
G1 X157.792 Y143.203 E0.02769
G1 X157.725 Y143.142 E0.00424
G1 X157.437 Y142.716 E0.02402
G1 X157.220 Y142.167 E0.02761
G1 X157.084 Y141.482 E0.03262
G1 X157.036 Y140.655 E0.03874
G1 X157.082 Y139.862 E0.03714
G1 X157.140 Y139.508 E0.01675
G1 X157.407 Y138.415 E0.05260
G1 X154.768 Y138.415 E0.12336
G1 X154.768 Y146.463 E0.37617
G1 X154.671 Y146.463 E0.00455
G1 X154.671 Y138.415 E0.37617
G1 X148.092 Y138.415 E0.30751
G1 X147.853 Y139.124 E0.03496
G1 X147.785 Y139.423 E0.01437
G1 X147.736 Y139.740 E0.01498
G1 X147.680 Y140.767 E0.04805
G1 X147.654 Y140.767 E0.00121
G1 X147.772 Y141.919 E0.05414
G1 X147.904 Y142.443 E0.02527
G1 X148.117 Y142.919 E0.02438
G1 X148.271 Y143.137 E0.01248
G1 X148.096 Y142.917 E0.01319
G1 X147.955 Y142.687 E0.01259
G1 X147.833 Y142.431 E0.01326
