; generated by Slic3r Prusa Edition 1.41.0+ on 2019-02-12 at 08:40:18

; 

; external perimeters extrusion width = 0.60mm
; perimeters extrusion width = 0.43mm
; infill extrusion width = 0.45mm
; solid infill extrusion width = 0.70mm
; top infill extrusion width = 0.43mm
; support material extrusion width = 0.35mm
; first layer extrusion width = 0.42mm

M201 X9000 Y9000 Z500 E10000 ; sets maximum accelerations, mm/sec^2
M203 X500 Y500 Z12 E120 ; sets maximum feedrates, mm/sec
M204 P2000 R1500 T2000 ; sets acceleration (P, T) and retract acceleration (R), mm/sec^2
M205 X10.00 Y10.00 Z0.20 E2.50 ; sets the jerk limits, mm/sec
M205 S0 T0 ; sets the minimum extruding and travel feed rate, mm/sec
M107
M115 U3.1.0 ; tell printer latest fw version
M83  ; extruder relative mode
M204 S2000 T1500 ; MK2 firmware only supports the old M204 format
M104 S210 ; set extruder temp
M140 S55 ; set bed temp
M190 S55 ; wait for bed temp
M109 S210 ; wait for extruder temp
G28 W ; home all without mesh bed level
G80 ; mesh bed leveling
G1 Y-3.0 F1000.0 ; go outside print area
G92 E0.0
G1 X60.0 E9.0  F1000.0 ; intro line
G1 X100.0 E12.5  F1000.0 ; intro line
G92 E0.0
M900 K30; Filament gcode
G21 ; set units to millimeters
G90 ; use absolute coordinates
M83 ; use relative distances for extrusion
;BEFORE_LAYER_CHANGE
G92 E0.0
;0.32


G1 E-0.80000 F2100.00000
G1 Z0.600 F10800.000
;AFTER_LAYER_CHANGE
;0.32
G1 X88.728 Y60.961
G1 Z0.320
G1 E0.80000 F2100.00000
M204 S1000
G1 F1800
G1 X89.531 Y60.800 E0.03826
G1 X160.454 Y60.800 E3.31498
G1 X161.134 Y60.911 E0.03223
G1 X161.746 Y61.228 E0.03223
G1 X162.228 Y61.722 E0.03223
G1 X162.532 Y62.344 E0.03239
G1 X182.128 Y132.522 E3.40561
G1 X182.129 Y139.425 E0.32265
G1 X180.802 Y145.130 E0.27380
G1 X180.506 Y145.655 E0.02818
G1 X178.940 Y147.570 E0.11558
G1 X178.324 Y147.985 E0.03475
G1 X177.600 Y148.169 E0.03491
G1 X157.676 Y149.200 E0.93250
G1 X95.994 Y149.199 E2.88309
G1 X71.045 Y148.686 E1.16636
G1 X70.245 Y148.495 E0.03843
G1 X69.571 Y148.018 E0.03860
G1 X69.211 Y147.517 E0.02886
G1 X69.007 Y146.934 E0.02886
G1 X67.838 Y139.215 E0.36491
G1 X67.872 Y132.524 E0.31275
G1 X87.456 Y62.384 E3.40380
G1 X87.684 Y61.857 E0.02683
G1 X88.042 Y61.408 E0.02683
G1 X88.678 Y60.994 E0.03546
; PURGING FINISHED
G1 F8640
G1 X89.531 Y60.800 E-0.20197
G1 X91.948 Y60.800 E-0.55803
G1 E-0.04000 F2100.00000
G1 Z0.920 F10800.000
G1 X72.226 Y142.270
G1 Z0.320
G1 E0.80000 F2100.00000
G1 F1800
G1 X74.624 Y142.270 E0.11209
G1 X75.126 Y142.295 E0.02349
G1 X75.365 Y142.328 E0.01129
G1 X75.783 Y142.431 E0.02011
G1 X76.144 Y142.594 E0.01850
G1 X76.436 Y142.813 E0.01708
G1 X76.568 Y142.960 E0.00921
G1 X76.749 Y143.265 E0.01659
G1 X76.818 Y143.454 E0.00943
G1 X76.889 Y143.839 E0.01826
G1 X76.889 Y144.251 E0.01928
G1 X76.857 Y144.462 E0.00995
G1 X76.744 Y144.801 E0.01670
G1 X76.545 Y145.096 E0.01664
G1 X76.270 Y145.323 E0.01667
G1 X75.937 Y145.486 E0.01734
G1 X75.549 Y145.598 E0.01890
G1 X74.876 Y145.679 E0.03167
G1 X72.226 Y145.684 E0.12387
G1 X72.226 Y142.330 E0.15679
G1 X72.139 Y141.880 F10800.000
G1 X72.226 Y141.680
G1 F1800
G1 X72.226 Y138.766 E0.13620
G1 X77.248 Y138.766 E0.23473
G1 X77.411 Y139.326 E0.02724
G1 X77.448 Y139.777 E0.02116
G1 X77.407 Y140.216 E0.02059
G1 X77.280 Y140.607 E0.01925
G1 X77.064 Y140.945 E0.01869
G1 X76.777 Y141.208 E0.01824
G1 X76.392 Y141.425 E0.02063
G1 X75.948 Y141.569 E0.02182
G1 X75.437 Y141.653 E0.02420
G1 X74.862 Y141.680 E0.02690
G1 X72.286 Y141.680 E0.12040
G1 X71.826 Y141.681 F10800.000
G1 F8640
G1 X72.226 Y138.766 E-0.67299
G1 X72.603 Y138.766 E-0.08701
G1 E-0.04000 F2100.00000
G1 Z0.920 F10800.000
G1 X75.498 Y141.999
G1 Z0.320
G1 E0.80000 F2100.00000
G1 F1800
G1 X75.807 Y141.948 E0.01465
G1 X75.796 Y142.073 E0.00586
G1 X75.556 Y142.013 E0.01157
G1 F8640
G1 X75.807 Y141.948 E-0.05988
G1 X75.796 Y142.073 E-0.02895
G1 X75.556 Y142.013 E-0.05714
G1 E-0.65403 F2100.00000
G1 Z0.920 F10800.000
G1 X77.091 Y143.177
G1 Z0.320
G1 E0.80000 F2100.00000
G1 F1800
G1 X77.224 Y143.359 E0.01054
G1 X77.341 Y143.625 E0.01360
G1 X77.422 Y144.055 E0.02043
G1 X77.427 Y144.191 E0.00637
G1 X77.384 Y144.629 E0.02060
G1 X77.270 Y144.967 E0.01663
G1 X77.089 Y145.239 E0.01531
G1 X76.825 Y145.471 E0.01641
G1 X76.456 Y145.668 E0.01956
G1 X76.206 Y145.745 E0.01221
G1 X76.462 Y145.620 E0.01331
G1 X76.808 Y145.334 E0.02099
G1 X77.063 Y144.957 E0.02127
G1 X77.200 Y144.544 E0.02036
G1 X77.240 Y144.277 E0.01258
G1 X77.240 Y143.806 E0.02201
G1 X77.158 Y143.362 E0.02113
G1 X77.111 Y143.233 E0.00641
G1 F8640
G1 X77.224 Y143.359 E-0.03895
G1 X77.341 Y143.625 E-0.06717
G1 X77.422 Y144.055 E-0.10093
G1 X77.427 Y144.191 E-0.03147
G1 X77.384 Y144.629 E-0.10177
G1 X77.270 Y144.967 E-0.08217
G1 X77.089 Y145.239 E-0.07564
G1 X76.825 Y145.471 E-0.08105
G1 X76.456 Y145.668 E-0.09662
G1 X76.206 Y145.745 E-0.06033
G1 X76.299 Y145.700 E-0.02390
G1 E-0.04000 F2100.00000
G1 Z0.920 F10800.000
G1 X83.870 Y142.964
G1 Z0.320
G1 E0.80000 F2100.00000
G1 F1800
G1 X83.965 Y142.955 E0.00444
G1 X84.135 Y143.301 E0.01801
G1 X84.210 Y143.392 E0.00554
G1 X84.096 Y143.296 E0.00702
G1 X83.895 Y143.018 E0.01600
G1 F8640
G1 X83.965 Y142.955 E-0.02167
G1 X84.135 Y143.301 E-0.08899
G1 X84.210 Y143.392 E-0.02736
G1 X84.096 Y143.296 E-0.03466
G1 X83.895 Y143.018 E-0.07902
G1 E-0.54830 F2100.00000
G1 Z0.920 F10800.000
G1 X83.824 Y138.766
G1 Z0.320
G1 E0.80000 F2100.00000
G1 F1800
G1 X87.500 Y138.766 E0.17180
G1 X87.710 Y139.241 E0.02425
G1 X87.818 Y139.688 E0.02151
G1 X87.838 Y139.992 E0.01424
G1 X87.838 Y140.816 E0.03854
G1 X86.068 Y140.779 E0.08275
G1 X85.674 Y140.752 E0.01846
G1 X85.177 Y140.675 E0.02353
G1 X84.786 Y140.549 E0.01917
G1 X84.560 Y140.430 E0.01197
G1 X84.362 Y140.286 E0.01144
G1 X84.192 Y140.114 E0.01130
G1 X84.052 Y139.914 E0.01141
G1 X83.948 Y139.685 E0.01175
G1 X83.879 Y139.428 E0.01243
G1 X83.829 Y138.826 E0.02826
G1 X83.806 Y138.366 F10800.000
G1 F8640
G1 X87.120 Y138.772 E-0.76000
G1 E-0.04000 F2100.00000
G1 Z0.920 F10800.000
G1 X104.850 Y138.766
G1 Z0.320
G1 E0.80000 F2100.00000
G1 F1800
G1 X108.526 Y138.766 E0.17180
G1 X108.736 Y139.241 E0.02425
G1 X108.844 Y139.688 E0.02151
G1 X108.864 Y139.992 E0.01424
G1 X108.864 Y140.816 E0.03854
G1 X107.094 Y140.779 E0.08275
G1 X106.700 Y140.752 E0.01846
G1 X106.203 Y140.675 E0.02353
G1 X105.813 Y140.549 E0.01917
G1 X105.586 Y140.430 E0.01197
G1 X105.388 Y140.286 E0.01144
G1 X105.218 Y140.114 E0.01129
G1 X105.078 Y139.914 E0.01141
G1 X104.974 Y139.685 E0.01175
G1 X104.905 Y139.428 E0.01243
G1 X104.855 Y138.826 E0.02826
G1 X104.832 Y138.366 F10800.000
G1 F8640
G1 X108.146 Y138.772 E-0.76000
G1 E-0.04000 F2100.00000
G1 Z0.920 F10800.000
G1 X104.990 Y142.955
G1 Z0.320
G1 E0.80000 F2100.00000
G1 F1800
G1 X105.161 Y143.300 E0.01798
G1 X105.236 Y143.392 E0.00558
G1 X105.122 Y143.296 E0.00702
G1 X104.936 Y143.051 E0.01436
G1 X104.896 Y142.964 E0.00448
G1 X104.931 Y142.961 E0.00162
G1 F8640
G1 X105.161 Y143.300 E-0.09471
G1 X105.236 Y143.392 E-0.02756
G1 X105.122 Y143.296 E-0.03467
G1 X104.936 Y143.051 E-0.07094
G1 X104.896 Y142.964 E-0.02211
G1 X104.931 Y142.961 E-0.00801
G1 E-0.54201 F2100.00000
G1 Z0.920 F10800.000
G1 X111.997 Y138.766
G1 Z0.320
G1 E0.80000 F2100.00000
G1 F1800
G1 X115.844 Y138.766 E0.17981
G1 X115.844 Y141.644 E0.13451
G1 X115.807 Y142.308 E0.03108
G1 X115.758 Y142.596 E0.01365
G1 X115.645 Y142.950 E0.01739
G1 X115.471 Y143.244 E0.01598
G1 X115.231 Y143.471 E0.01540
G1 X114.930 Y143.621 E0.01573
G1 X114.558 Y143.705 E0.01784
G1 X114.112 Y143.732 E0.02089
G1 X113.661 Y143.691 E0.02117
G1 X113.436 Y143.636 E0.01082
G1 X113.048 Y143.468 E0.01977
G1 X112.706 Y143.211 E0.01995
G1 X112.426 Y142.880 E0.02030
G1 X112.302 Y142.670 E0.01137
G1 X112.133 Y142.256 E0.02093
G1 X112.030 Y141.773 E0.02306
G1 X111.997 Y141.244 E0.02481
G1 X111.997 Y138.826 E0.11300
G1 X111.996 Y138.366 F10800.000
G1 F8640
G1 X115.288 Y138.775 E-0.76000
G1 E-0.04000 F2100.00000
G1 Z0.920 F10800.000
G1 X122.427 Y138.826
G1 Z0.320
G1 E0.80000 F2100.00000
G1 F1800
G1 X122.427 Y138.766 E0.00280
G1 X127.237 Y138.766 E0.22482
G1 X125.740 Y141.154 E0.13176
G1 X122.427 Y141.154 E0.15481
G1 X122.427 Y138.886 E0.10601
G1 X122.369 Y138.814 F10800.000
G1 F8640
G1 X122.427 Y138.766 E-0.02771
G1 X125.599 Y138.766 E-0.73229
G1 E-0.04000 F2100.00000
G1 Z0.920 F10800.000
G1 X127.577 Y141.912
G1 Z0.320
G1 E0.80000 F2100.00000
G1 F1800
G1 X127.759 Y142.009 E0.00967
G1 X128.058 Y142.247 E0.01783
G1 X128.167 Y142.362 E0.00741
G1 X128.385 Y142.670 E0.01763
G1 X128.536 Y142.999 E0.01692
G1 X128.631 Y143.381 E0.01839
G1 X128.652 Y143.560 E0.00843
G1 X128.649 Y144.060 E0.02339
G1 X128.562 Y144.507 E0.02125
G1 X128.489 Y144.705 E0.00990
G1 X128.282 Y145.055 E0.01899
G1 X127.988 Y145.357 E0.01971
G1 X127.806 Y145.489 E0.01052
G1 X127.603 Y145.606 E0.01096
G1 X127.246 Y145.751 E0.01799
G1 X127.699 Y145.486 E0.02452
G1 X128.044 Y145.149 E0.02255
G1 X128.295 Y144.739 E0.02248
G1 X128.435 Y144.289 E0.02204
G1 X128.474 Y144.016 E0.01289
G1 X128.474 Y143.516 E0.02336
G1 X128.383 Y143.025 E0.02334
G1 X128.200 Y142.590 E0.02206
G1 X128.050 Y142.357 E0.01294
G1 X127.726 Y142.012 E0.02210
G1 X127.626 Y141.945 E0.00562
G1 F8640
G1 X127.759 Y142.009 E-0.03404
G1 X128.058 Y142.247 E-0.08810
G1 X128.167 Y142.362 E-0.03660
G1 X128.385 Y142.670 E-0.08711
G1 X128.536 Y142.999 E-0.08361
G1 X128.631 Y143.381 E-0.09084
G1 X128.652 Y143.560 E-0.04165
G1 X128.649 Y144.060 E-0.11557
G1 X128.562 Y144.507 E-0.10499
G1 X128.489 Y144.705 E-0.04892
G1 X128.426 Y144.812 E-0.02858
G1 E-0.04000 F2100.00000
G1 Z0.920 F10800.000
G1 X130.670 Y141.118
G1 Z0.320
G1 E0.80000 F2100.00000
G1 F1800
G1 X135.120 Y141.118 E0.20798
G1 X135.010 Y141.913 E0.03750
G1 X134.878 Y142.406 E0.02385
G1 X134.690 Y142.826 E0.02153
G1 X134.442 Y143.170 E0.01983
G1 X134.132 Y143.436 E0.01909
G1 X133.764 Y143.625 E0.01933
G1 X133.345 Y143.737 E0.02029
G1 X132.876 Y143.773 E0.02199
G1 X132.415 Y143.732 E0.02162
G1 X131.996 Y143.608 E0.02044
G1 X131.624 Y143.398 E0.01995
G1 X131.306 Y143.105 E0.02018
G1 X131.051 Y142.745 E0.02066
G1 X130.865 Y142.328 E0.02135
G1 X130.746 Y141.858 E0.02265
G1 X130.676 Y141.178 E0.03195
G1 X130.649 Y140.719 F10800.000
G1 F8640
G1 X133.968 Y141.133 E-0.76000
G1 E-0.04000 F2100.00000
G1 Z0.920 F10800.000
G1 X135.044 Y142.895
G1 Z0.320
G1 E0.80000 F2100.00000
G1 F1800
G1 X135.210 Y142.524 E0.01901
G1 X135.355 Y141.982 E0.02618
G1 X135.498 Y140.953 E0.04856
G1 X135.553 Y140.953 E0.00257
G1 X135.531 Y141.405 E0.02113
G1 X135.396 Y142.112 E0.03366
G1 X135.181 Y142.683 E0.02851
G1 X135.077 Y142.844 E0.00897
G1 F8640
G1 X135.210 Y142.524 E-0.08025
G1 X135.355 Y141.982 E-0.12933
G1 X135.498 Y140.953 E-0.23989
G1 X135.553 Y140.953 E-0.01271
G1 X135.531 Y141.405 E-0.10438
G1 X135.396 Y142.112 E-0.16631
G1 X135.354 Y142.222 E-0.02714
G1 E-0.04000 F2100.00000
G1 Z0.920 F10800.000
G1 X137.696 Y138.766
G1 Z0.320
G1 E0.80000 F2100.00000
G1 F1800
G1 X141.303 Y138.766 E0.16857
G1 X141.478 Y139.385 E0.03005
G1 X141.569 Y140.015 E0.02976
G1 X141.592 Y140.371 E0.01669
G1 X141.592 Y141.107 E0.03437
G1 X141.531 Y141.762 E0.03075
G1 X141.407 Y142.326 E0.02702
G1 X141.218 Y142.795 E0.02364
G1 X141.092 Y143.003 E0.01135
G1 X140.949 Y143.184 E0.01078
G1 X140.785 Y143.342 E0.01066
G1 X140.600 Y143.475 E0.01065
G1 X140.397 Y143.584 E0.01076
G1 X140.177 Y143.667 E0.01101
G1 X139.935 Y143.727 E0.01162
G1 X139.421 Y143.773 E0.02417
G1 X138.952 Y143.726 E0.02201
G1 X138.730 Y143.664 E0.01078
G1 X138.528 Y143.579 E0.01024
G1 X138.343 Y143.467 E0.01009
G1 X138.177 Y143.331 E0.01006
G1 X138.030 Y143.170 E0.01016
G1 X137.900 Y142.983 E0.01064
G1 X137.706 Y142.559 E0.02182
G1 X137.628 Y142.297 E0.01277
G1 X137.521 Y141.724 E0.02727
G1 X137.488 Y141.391 E0.01562
G1 X137.461 Y140.663 E0.03405
G1 X137.488 Y139.930 E0.03427
G1 X137.567 Y139.303 E0.02956
G1 X137.682 Y138.824 E0.02301
G1 X137.720 Y138.367 F10800.000
G1 F8640
G1 X140.973 Y138.771 E-0.76000
G1 E-0.04000 F2100.00000
G1 Z0.920 F10800.000
G1 X122.427 Y145.684
G1 Z0.320
G1 E0.80000 F2100.00000
G1 F1800
G1 X122.427 Y141.758 E0.18353
G1 X126.032 Y141.765 E0.16848
G1 X126.288 Y141.790 E0.01203
G1 X126.736 Y141.883 E0.02136
G1 X127.149 Y142.048 E0.02083
G1 X127.497 Y142.282 E0.01959
G1 X127.772 Y142.575 E0.01876
G1 X127.889 Y142.755 E0.01003
G1 X128.045 Y143.126 E0.01882
G1 X128.123 Y143.548 E0.02005
G1 X128.122 Y143.991 E0.02071
G1 X128.091 Y144.211 E0.01040
G1 X127.972 Y144.593 E0.01869
G1 X127.767 Y144.929 E0.01839
G1 X127.483 Y145.206 E0.01859
G1 X127.133 Y145.417 E0.01908
G1 X126.925 Y145.503 E0.01055
G1 X126.491 Y145.619 E0.02097
G1 X126.242 Y145.656 E0.01177
G1 X125.724 Y145.684 E0.02424
G1 X122.487 Y145.684 E0.15129
G1 X122.027 Y145.685 F10800.000
G1 F8640
G1 X122.437 Y142.393 E-0.76000
G1 E-0.04000 F2100.00000
G1 Z0.920 F10800.000
G1 X153.068 Y145.937
G1 Z0.320
G1 E0.80000 F2100.00000
G1 F1800
G1 X153.445 Y145.774 E0.01921
G1 X153.678 Y145.639 E0.01257
G1 X154.063 Y145.347 E0.02260
G1 X154.406 Y144.984 E0.02335
G1 X154.573 Y144.742 E0.01377
G1 X154.714 Y144.784 E0.00688
G1 X154.481 Y145.094 E0.01814
G1 X154.141 Y145.417 E0.02195
G1 X153.754 Y145.673 E0.02166
G1 X153.302 Y145.872 E0.02309
G1 X153.126 Y145.921 E0.00856
G1 F8640
G1 X153.445 Y145.774 E-0.08119
G1 X153.678 Y145.639 E-0.06210
G1 X154.063 Y145.347 E-0.11163
G1 X154.406 Y144.984 E-0.11533
G1 X154.573 Y144.742 E-0.06803
G1 X154.714 Y144.784 E-0.03399
G1 X154.481 Y145.094 E-0.08959
G1 X154.141 Y145.417 E-0.10841
G1 X153.817 Y145.631 E-0.08972
G1 E-0.04000 F2100.00000
G1 Z0.920 F10800.000
G1 X157.456 Y138.766
G1 Z0.320
G1 E0.80000 F2100.00000
G1 F1800
G1 X161.303 Y138.766 E0.17981
G1 X161.303 Y141.644 E0.13450
G1 X161.266 Y142.339 E0.03257
G1 X161.186 Y142.747 E0.01942
G1 X161.100 Y142.976 E0.01142
G1 X160.922 Y143.255 E0.01548
G1 X160.676 Y143.473 E0.01537
G1 X160.370 Y143.621 E0.01588
G1 X160.003 Y143.705 E0.01763
G1 X159.571 Y143.732 E0.02022
G1 X159.122 Y143.691 E0.02107
G1 X158.716 Y143.567 E0.01983
G1 X158.516 Y143.467 E0.01046
G1 X158.179 Y143.218 E0.01957
G1 X157.895 Y142.892 E0.02019
G1 X157.772 Y142.696 E0.01084
G1 X157.596 Y142.287 E0.02084
G1 X157.490 Y141.823 E0.02222
G1 X157.456 Y141.319 E0.02361
G1 X157.456 Y138.826 E0.11653
G1 X157.454 Y138.366 F10800.000
G1 F8640
G1 X160.747 Y138.775 E-0.76000
G1 E-0.04000 F2100.00000
G1 Z0.920 F10800.000
G1 X164.214 Y138.766
G1 Z0.320
G1 E0.80000 F2100.00000
G1 F1800
G1 X168.079 Y138.766 E0.18064
G1 X168.232 Y139.314 E0.02659
G1 X168.287 Y139.621 E0.01459
G1 X168.348 Y140.291 E0.03143
G1 X168.348 Y141.039 E0.03499
G1 X168.290 Y141.717 E0.03179
G1 X168.171 Y142.298 E0.02772
G1 X167.989 Y142.778 E0.02398
G1 X167.868 Y142.989 E0.01139
G1 X167.728 Y143.173 E0.01081
G1 X167.564 Y143.335 E0.01073
G1 X167.379 Y143.471 E0.01075
G1 X167.173 Y143.581 E0.01092
G1 X166.949 Y143.666 E0.01122
G1 X166.702 Y143.727 E0.01189
G1 X166.171 Y143.773 E0.02489
G1 X165.636 Y143.726 E0.02511
G1 X165.386 Y143.664 E0.01205
G1 X165.166 Y143.581 E0.01097
G1 X164.948 Y143.466 E0.01152
G1 X164.757 Y143.328 E0.01101
G1 X164.589 Y143.165 E0.01097
G1 X164.438 Y142.974 E0.01137
G1 X164.210 Y142.538 E0.02297
G1 X164.051 Y142.008 E0.02586
G1 X163.995 Y141.701 E0.01461
G1 X163.933 Y141.034 E0.03131
G1 X163.933 Y140.304 E0.03411
G1 X163.956 Y139.959 E0.01616
G1 X164.048 Y139.346 E0.02897
G1 X164.197 Y138.824 E0.02540
G1 X164.242 Y138.367 F10800.000
G1 F8640
G1 X167.488 Y138.775 E-0.76000
G1 E-0.04000 F2100.00000
G1 Z0.920 F10800.000
G1 X171.064 Y141.250
G1 Z0.320
G1 E0.80000 F2100.00000
G1 F1800
G1 X171.090 Y141.240 E0.00128
G1 X170.794 Y141.455 E0.01707
G1 X170.576 Y141.707 E0.01560
G1 X170.423 Y142.030 E0.01672
G1 X170.359 Y142.466 E0.02061
G1 X170.399 Y142.840 E0.01758
G1 X170.504 Y143.130 E0.01443
G1 X170.379 Y142.876 E0.01324
G1 X170.308 Y142.528 E0.01663
G1 X170.312 Y142.167 E0.01685
G1 X170.340 Y142.023 E0.00685
G1 X170.429 Y141.804 E0.01107
G1 X170.599 Y141.585 E0.01295
G1 X170.809 Y141.406 E0.01289
G1 X171.013 Y141.281 E0.01119
G1 F8640
G1 X171.090 Y141.240 E-0.02014
G1 X170.794 Y141.455 E-0.08432
G1 X170.576 Y141.707 E-0.07705
G1 X170.423 Y142.030 E-0.08259
G1 X170.359 Y142.466 E-0.10182
G1 X170.399 Y142.840 E-0.08683
G1 X170.504 Y143.130 E-0.07130
