; generated by Slic3r Prusa Edition 1.41.0+ on 2019-02-12 at 08:39:35

; 

; external perimeters extrusion width = 0.60mm
; perimeters extrusion width = 0.43mm
; infill extrusion width = 0.45mm
; solid infill extrusion width = 0.70mm
; top infill extrusion width = 0.43mm
; support material extrusion width = 0.35mm
; first layer extrusion width = 0.42mm

M201 X9000 Y9000 Z500 E10000 ; sets maximum accelerations, mm/sec^2
M203 X500 Y500 Z12 E120 ; sets maximum feedrates, mm/sec
M204 P2000 R1500 T2000 ; sets acceleration (P, T) and retract acceleration (R), mm/sec^2
M205 X10.00 Y10.00 Z0.20 E2.50 ; sets the jerk limits, mm/sec
M205 S0 T0 ; sets the minimum extruding and travel feed rate, mm/sec
M107
M115 U3.1.0 ; tell printer latest fw version
M83  ; extruder relative mode
M204 S2000 T1500 ; MK2 firmware only supports the old M204 format
M104 S210 ; set extruder temp
M140 S55 ; set bed temp
M190 S55 ; wait for bed temp
M109 S210 ; wait for extruder temp
G28 W ; home all without mesh bed level
G80 ; mesh bed leveling
G1 Y-3.0 F1000.0 ; go outside print area
G92 E0.0
G1 X60.0 E9.0  F1000.0 ; intro line
G1 X100.0 E12.5  F1000.0 ; intro line
G92 E0.0
M900 K30; Filament gcode
G21 ; set units to millimeters
G90 ; use absolute coordinates
M83 ; use relative distances for extrusion
;BEFORE_LAYER_CHANGE
G92 E0.0
;0.32


G1 E-0.80000 F2100.00000
G1 Z0.600 F10800.000
;AFTER_LAYER_CHANGE
;0.32
G1 X30.789 Y15.914
G1 Z0.320
G1 E0.80000 F2100.00000
M204 S1000
G1 F1800
G1 X31.542 Y15.776 E0.03575
G1 X218.450 Y15.776 E8.73623
G1 X219.131 Y15.886 E0.03223
G1 X219.746 Y16.205 E0.03239
G1 X220.230 Y16.701 E0.03239
G1 X220.533 Y17.324 E0.03239
G1 X240.164 Y87.728 E3.41627
G1 X240.175 Y184.069 E4.50307
G1 X238.806 Y190.144 E0.29105
G1 X238.497 Y190.691 E0.02936
G1 X236.849 Y192.677 E0.12063
G1 X236.264 Y193.035 E0.03206
G1 X235.593 Y193.194 E0.03223
G1 X215.669 Y194.224 E0.93250
G1 X38.008 Y194.224 E8.30400
G1 X13.038 Y193.709 E1.16739
G1 X12.183 Y193.489 E0.04127
G1 X11.488 Y192.950 E0.04110
G1 X11.179 Y192.475 E0.02650
G1 X11.003 Y191.937 E0.02650
G1 X9.825 Y184.035 E0.37339
G1 X9.836 Y87.723 E4.50172
G1 X29.457 Y17.356 E3.41446
G1 X29.717 Y16.780 E0.02953
G1 X30.134 Y16.300 E0.02970
G1 X30.738 Y15.944 E0.03278
; PURGING FINISHED
G1 F8640
G1 X31.542 Y15.776 E-0.18968
G1 X34.012 Y15.776 E-0.57032
G1 E-0.04000 F2100.00000
G1 Z0.920 F10800.000
G1 X14.226 Y187.294
G1 Z0.320
G1 E0.80000 F2100.00000
G1 F1800
G1 X16.624 Y187.294 E0.11209
G1 X17.126 Y187.319 E0.02349
G1 X17.365 Y187.352 E0.01129
G1 X17.783 Y187.455 E0.02011
G1 X18.144 Y187.618 E0.01850
G1 X18.436 Y187.837 E0.01708
G1 X18.568 Y187.984 E0.00921
G1 X18.749 Y188.289 E0.01659
G1 X18.818 Y188.478 E0.00943
G1 X18.889 Y188.863 E0.01826
G1 X18.889 Y189.275 E0.01928
G1 X18.857 Y189.486 E0.00995
G1 X18.744 Y189.825 E0.01670
G1 X18.545 Y190.120 E0.01664
G1 X18.270 Y190.347 E0.01667
G1 X17.937 Y190.510 E0.01734
G1 X17.549 Y190.622 E0.01890
G1 X16.876 Y190.703 E0.03167
G1 X14.226 Y190.708 E0.12387
G1 X14.226 Y187.354 E0.15679
G1 X14.139 Y186.904 F10800.000
G1 X14.226 Y186.704
G1 F1800
G1 X14.226 Y183.790 E0.13620
G1 X19.248 Y183.790 E0.23473
G1 X19.411 Y184.350 E0.02724
G1 X19.448 Y184.801 E0.02116
G1 X19.407 Y185.240 E0.02059
G1 X19.280 Y185.631 E0.01925
G1 X19.064 Y185.969 E0.01869
G1 X18.777 Y186.232 E0.01824
G1 X18.392 Y186.449 E0.02063
G1 X17.948 Y186.593 E0.02182
G1 X17.437 Y186.677 E0.02420
G1 X16.862 Y186.704 E0.02690
G1 X14.286 Y186.704 E0.12040
G1 X13.826 Y186.705 F10800.000
G1 F8640
G1 X14.226 Y183.790 E-0.67299
G1 X14.603 Y183.790 E-0.08701
G1 E-0.04000 F2100.00000
G1 Z0.920 F10800.000
G1 X17.498 Y187.023
G1 Z0.320
G1 E0.80000 F2100.00000
G1 F1800
G1 X17.807 Y186.972 E0.01465
G1 X17.796 Y187.097 E0.00586
G1 X17.556 Y187.037 E0.01157
G1 F8640
G1 X17.807 Y186.972 E-0.05988
G1 X17.796 Y187.097 E-0.02895
G1 X17.556 Y187.037 E-0.05714
G1 E-0.65403 F2100.00000
G1 Z0.920 F10800.000
G1 X19.091 Y188.201
G1 Z0.320
G1 E0.80000 F2100.00000
G1 F1800
G1 X19.224 Y188.383 E0.01054
G1 X19.341 Y188.649 E0.01360
G1 X19.422 Y189.079 E0.02043
G1 X19.427 Y189.215 E0.00637
G1 X19.384 Y189.653 E0.02060
G1 X19.270 Y189.991 E0.01663
G1 X19.089 Y190.263 E0.01531
G1 X18.825 Y190.495 E0.01641
G1 X18.456 Y190.692 E0.01956
G1 X18.206 Y190.769 E0.01221
G1 X18.462 Y190.644 E0.01331
G1 X18.808 Y190.358 E0.02099
G1 X19.063 Y189.981 E0.02127
G1 X19.200 Y189.568 E0.02036
G1 X19.240 Y189.301 E0.01258
G1 X19.240 Y188.830 E0.02201
G1 X19.158 Y188.386 E0.02113
G1 X19.111 Y188.257 E0.00641
G1 F8640
G1 X19.224 Y188.383 E-0.03895
G1 X19.341 Y188.649 E-0.06717
G1 X19.422 Y189.079 E-0.10093
G1 X19.427 Y189.215 E-0.03147
G1 X19.384 Y189.653 E-0.10177
G1 X19.270 Y189.991 E-0.08217
G1 X19.089 Y190.263 E-0.07564
G1 X18.825 Y190.495 E-0.08105
G1 X18.456 Y190.692 E-0.09662
G1 X18.206 Y190.769 E-0.06033
G1 X18.299 Y190.724 E-0.02390
G1 E-0.04000 F2100.00000
G1 Z0.920 F10800.000
G1 X25.870 Y187.988
G1 Z0.320
G1 E0.80000 F2100.00000
G1 F1800
G1 X25.965 Y187.979 E0.00444
G1 X26.135 Y188.325 E0.01801
G1 X26.210 Y188.416 E0.00554
G1 X26.096 Y188.320 E0.00702
G1 X25.895 Y188.042 E0.01600
G1 F8640
G1 X25.965 Y187.979 E-0.02167
G1 X26.135 Y188.325 E-0.08899
G1 X26.210 Y188.416 E-0.02736
G1 X26.096 Y188.320 E-0.03466
G1 X25.895 Y188.042 E-0.07902
G1 E-0.54830 F2100.00000
G1 Z0.920 F10800.000
G1 X25.824 Y183.790
G1 Z0.320
G1 E0.80000 F2100.00000
G1 F1800
G1 X29.500 Y183.790 E0.17180
G1 X29.710 Y184.265 E0.02425
G1 X29.818 Y184.712 E0.02151
G1 X29.838 Y185.016 E0.01424
G1 X29.838 Y185.840 E0.03854
G1 X28.068 Y185.803 E0.08275
G1 X27.674 Y185.776 E0.01846
G1 X27.177 Y185.699 E0.02353
G1 X26.786 Y185.573 E0.01917
G1 X26.560 Y185.454 E0.01197
G1 X26.362 Y185.310 E0.01144
G1 X26.192 Y185.138 E0.01130
G1 X26.052 Y184.938 E0.01141
G1 X25.948 Y184.709 E0.01175
G1 X25.879 Y184.452 E0.01243
G1 X25.829 Y183.850 E0.02826
G1 X25.806 Y183.390 F10800.000
G1 F8640
G1 X29.120 Y183.796 E-0.76000
G1 E-0.04000 F2100.00000
G1 Z0.920 F10800.000
G1 X46.850 Y183.790
G1 Z0.320
G1 E0.80000 F2100.00000
G1 F1800
G1 X50.526 Y183.790 E0.17180
G1 X50.736 Y184.265 E0.02425
G1 X50.844 Y184.712 E0.02151
G1 X50.864 Y185.016 E0.01424
G1 X50.864 Y185.840 E0.03854
G1 X49.094 Y185.803 E0.08275
G1 X48.700 Y185.776 E0.01846
G1 X48.203 Y185.699 E0.02353
G1 X47.813 Y185.573 E0.01917
G1 X47.586 Y185.454 E0.01197
G1 X47.388 Y185.310 E0.01144
G1 X47.218 Y185.138 E0.01129
G1 X47.078 Y184.938 E0.01141
G1 X46.974 Y184.709 E0.01175
G1 X46.905 Y184.452 E0.01243
G1 X46.855 Y183.850 E0.02826
G1 X46.832 Y183.390 F10800.000
G1 F8640
G1 X50.146 Y183.796 E-0.76000
G1 E-0.04000 F2100.00000
G1 Z0.920 F10800.000
G1 X46.990 Y187.979
G1 Z0.320
G1 E0.80000 F2100.00000
G1 F1800
G1 X47.161 Y188.324 E0.01798
G1 X47.237 Y188.416 E0.00558
G1 X47.122 Y188.320 E0.00702
G1 X46.936 Y188.075 E0.01436
G1 X46.896 Y187.988 E0.00448
G1 X46.931 Y187.985 E0.00162
G1 F8640
G1 X47.161 Y188.324 E-0.09471
G1 X47.237 Y188.416 E-0.02756
G1 X47.122 Y188.320 E-0.03467
G1 X46.936 Y188.075 E-0.07094
G1 X46.896 Y187.988 E-0.02211
G1 X46.931 Y187.985 E-0.00801
G1 E-0.54201 F2100.00000
G1 Z0.920 F10800.000
G1 X53.997 Y183.790
G1 Z0.320
G1 E0.80000 F2100.00000
G1 F1800
G1 X57.844 Y183.790 E0.17981
G1 X57.844 Y186.668 E0.13451
G1 X57.807 Y187.332 E0.03108
G1 X57.758 Y187.620 E0.01365
G1 X57.645 Y187.974 E0.01739
G1 X57.471 Y188.268 E0.01598
G1 X57.231 Y188.495 E0.01540
G1 X56.930 Y188.645 E0.01573
G1 X56.558 Y188.729 E0.01784
G1 X56.112 Y188.756 E0.02089
G1 X55.661 Y188.715 E0.02117
G1 X55.436 Y188.660 E0.01082
G1 X55.048 Y188.492 E0.01977
G1 X54.706 Y188.235 E0.01995
G1 X54.426 Y187.904 E0.02030
G1 X54.302 Y187.694 E0.01137
G1 X54.133 Y187.280 E0.02093
G1 X54.030 Y186.797 E0.02306
G1 X53.997 Y186.268 E0.02481
G1 X53.997 Y183.850 E0.11300
G1 X53.996 Y183.390 F10800.000
G1 F8640
G1 X57.288 Y183.799 E-0.76000
G1 E-0.04000 F2100.00000
G1 Z0.920 F10800.000
G1 X64.427 Y183.850
G1 Z0.320
G1 E0.80000 F2100.00000
G1 F1800
G1 X64.427 Y183.790 E0.00280
G1 X69.237 Y183.790 E0.22482
G1 X67.740 Y186.178 E0.13176
G1 X64.427 Y186.178 E0.15481
G1 X64.427 Y183.910 E0.10601
G1 X64.369 Y183.838 F10800.000
G1 F8640
G1 X64.427 Y183.790 E-0.02771
G1 X67.599 Y183.790 E-0.73229
G1 E-0.04000 F2100.00000
G1 Z0.920 F10800.000
G1 X69.577 Y186.936
G1 Z0.320
G1 E0.80000 F2100.00000
G1 F1800
G1 X69.759 Y187.033 E0.00967
G1 X70.058 Y187.271 E0.01783
G1 X70.167 Y187.386 E0.00741
G1 X70.385 Y187.694 E0.01763
G1 X70.536 Y188.023 E0.01692
G1 X70.631 Y188.405 E0.01839
G1 X70.652 Y188.584 E0.00843
G1 X70.649 Y189.084 E0.02339
G1 X70.562 Y189.531 E0.02125
G1 X70.489 Y189.729 E0.00990
G1 X70.282 Y190.079 E0.01899
G1 X69.988 Y190.381 E0.01971
G1 X69.806 Y190.513 E0.01052
G1 X69.603 Y190.630 E0.01096
G1 X69.246 Y190.775 E0.01799
G1 X69.699 Y190.510 E0.02452
G1 X70.044 Y190.173 E0.02255
G1 X70.295 Y189.763 E0.02248
G1 X70.435 Y189.313 E0.02204
G1 X70.474 Y189.040 E0.01289
G1 X70.474 Y188.540 E0.02336
G1 X70.383 Y188.049 E0.02334
G1 X70.200 Y187.614 E0.02206
G1 X70.050 Y187.381 E0.01294
G1 X69.726 Y187.036 E0.02210
G1 X69.626 Y186.969 E0.00562
G1 F8640
G1 X69.759 Y187.033 E-0.03404
G1 X70.058 Y187.271 E-0.08810
G1 X70.167 Y187.386 E-0.03660
G1 X70.385 Y187.694 E-0.08711
G1 X70.536 Y188.023 E-0.08361
G1 X70.631 Y188.405 E-0.09084
G1 X70.652 Y188.584 E-0.04165
G1 X70.649 Y189.084 E-0.11557
G1 X70.562 Y189.531 E-0.10499
G1 X70.489 Y189.729 E-0.04892
G1 X70.426 Y189.836 E-0.02858
G1 E-0.04000 F2100.00000
G1 Z0.920 F10800.000
G1 X72.670 Y186.142
G1 Z0.320
G1 E0.80000 F2100.00000
G1 F1800
G1 X77.120 Y186.142 E0.20798
G1 X77.010 Y186.937 E0.03750
G1 X76.878 Y187.430 E0.02385
G1 X76.690 Y187.850 E0.02153
G1 X76.442 Y188.194 E0.01983
G1 X76.132 Y188.460 E0.01909
G1 X75.764 Y188.649 E0.01933
G1 X75.345 Y188.760 E0.02029
G1 X74.876 Y188.797 E0.02199
G1 X74.415 Y188.756 E0.02162
G1 X73.996 Y188.632 E0.02044
G1 X73.624 Y188.422 E0.01995
G1 X73.306 Y188.129 E0.02018
G1 X73.051 Y187.769 E0.02066
G1 X72.865 Y187.352 E0.02135
G1 X72.746 Y186.882 E0.02265
G1 X72.676 Y186.202 E0.03195
G1 X72.649 Y185.743 F10800.000
G1 F8640
G1 X75.968 Y186.157 E-0.76000
G1 E-0.04000 F2100.00000
G1 Z0.920 F10800.000
G1 X77.044 Y187.919
G1 Z0.320
G1 E0.80000 F2100.00000
G1 F1800
G1 X77.210 Y187.548 E0.01901
G1 X77.355 Y187.006 E0.02618
G1 X77.498 Y185.977 E0.04856
G1 X77.553 Y185.977 E0.00257
G1 X77.531 Y186.429 E0.02113
G1 X77.396 Y187.136 E0.03366
G1 X77.181 Y187.707 E0.02851
G1 X77.077 Y187.868 E0.00897
G1 F8640
G1 X77.210 Y187.548 E-0.08025
G1 X77.355 Y187.006 E-0.12933
G1 X77.498 Y185.977 E-0.23989
G1 X77.553 Y185.977 E-0.01271
G1 X77.531 Y186.429 E-0.10438
G1 X77.396 Y187.136 E-0.16631
G1 X77.354 Y187.246 E-0.02714
G1 E-0.04000 F2100.00000
G1 Z0.920 F10800.000
G1 X79.696 Y183.790
G1 Z0.320
G1 E0.80000 F2100.00000
G1 F1800
G1 X83.303 Y183.790 E0.16857
G1 X83.478 Y184.409 E0.03005
G1 X83.569 Y185.039 E0.02976
G1 X83.592 Y185.395 E0.01669
G1 X83.592 Y186.131 E0.03437
G1 X83.531 Y186.786 E0.03075
G1 X83.407 Y187.350 E0.02702
G1 X83.218 Y187.819 E0.02364
G1 X83.092 Y188.027 E0.01135
G1 X82.949 Y188.208 E0.01078
G1 X82.785 Y188.366 E0.01066
G1 X82.600 Y188.499 E0.01065
G1 X82.397 Y188.608 E0.01076
G1 X82.177 Y188.691 E0.01101
G1 X81.936 Y188.751 E0.01162
G1 X81.421 Y188.797 E0.02417
G1 X80.952 Y188.750 E0.02201
G1 X80.730 Y188.688 E0.01078
G1 X80.528 Y188.603 E0.01024
G1 X80.343 Y188.491 E0.01009
G1 X80.177 Y188.355 E0.01006
G1 X80.030 Y188.194 E0.01016
G1 X79.900 Y188.007 E0.01064
G1 X79.706 Y187.583 E0.02182
G1 X79.628 Y187.321 E0.01277
G1 X79.521 Y186.748 E0.02727
G1 X79.488 Y186.415 E0.01562
G1 X79.461 Y185.687 E0.03405
G1 X79.488 Y184.954 E0.03427
G1 X79.567 Y184.327 E0.02956
G1 X79.682 Y183.848 E0.02301
G1 X79.720 Y183.391 F10800.000
G1 F8640
G1 X82.973 Y183.795 E-0.76000
G1 E-0.04000 F2100.00000
G1 Z0.920 F10800.000
G1 X64.427 Y190.708
G1 Z0.320
G1 E0.80000 F2100.00000
G1 F1800
G1 X64.427 Y186.782 E0.18353
G1 X68.032 Y186.789 E0.16848
G1 X68.288 Y186.814 E0.01203
G1 X68.736 Y186.907 E0.02136
G1 X69.149 Y187.072 E0.02083
G1 X69.497 Y187.306 E0.01959
G1 X69.772 Y187.599 E0.01876
G1 X69.889 Y187.779 E0.01003
G1 X70.045 Y188.150 E0.01882
G1 X70.123 Y188.572 E0.02005
G1 X70.122 Y189.015 E0.02071
G1 X70.091 Y189.235 E0.01040
G1 X69.972 Y189.617 E0.01869
G1 X69.767 Y189.953 E0.01839
G1 X69.483 Y190.230 E0.01859
G1 X69.133 Y190.441 E0.01908
G1 X68.925 Y190.527 E0.01055
G1 X68.491 Y190.643 E0.02097
G1 X68.242 Y190.680 E0.01177
G1 X67.724 Y190.708 E0.02424
G1 X64.487 Y190.708 E0.15129
G1 X64.027 Y190.709 F10800.000
G1 F8640
G1 X64.437 Y187.417 E-0.76000
G1 E-0.04000 F2100.00000
G1 Z0.920 F10800.000
G1 X95.068 Y190.961
G1 Z0.320
G1 E0.80000 F2100.00000
G1 F1800
G1 X95.445 Y190.798 E0.01921
G1 X95.678 Y190.663 E0.01257
G1 X96.063 Y190.371 E0.02260
G1 X96.406 Y190.008 E0.02335
G1 X96.573 Y189.766 E0.01377
G1 X96.714 Y189.808 E0.00688
G1 X96.481 Y190.118 E0.01814
G1 X96.141 Y190.441 E0.02195
G1 X95.754 Y190.697 E0.02166
G1 X95.302 Y190.896 E0.02309
G1 X95.126 Y190.945 E0.00856
G1 F8640
G1 X95.445 Y190.798 E-0.08119
G1 X95.678 Y190.663 E-0.06210
G1 X96.063 Y190.371 E-0.11163
G1 X96.406 Y190.008 E-0.11533
G1 X96.573 Y189.766 E-0.06803
G1 X96.714 Y189.808 E-0.03399
G1 X96.481 Y190.118 E-0.08959
G1 X96.141 Y190.441 E-0.10841
G1 X95.817 Y190.655 E-0.08972
G1 E-0.04000 F2100.00000
G1 Z0.920 F10800.000
G1 X99.456 Y183.790
G1 Z0.320
G1 E0.80000 F2100.00000
G1 F1800
G1 X103.303 Y183.790 E0.17981
G1 X103.303 Y186.668 E0.13450
G1 X103.266 Y187.363 E0.03257
G1 X103.186 Y187.771 E0.01942
G1 X103.100 Y188.000 E0.01142
G1 X102.922 Y188.279 E0.01548
G1 X102.676 Y188.497 E0.01537
G1 X102.370 Y188.645 E0.01588
G1 X102.003 Y188.729 E0.01763
G1 X101.571 Y188.756 E0.02022
G1 X101.122 Y188.715 E0.02107
G1 X100.716 Y188.591 E0.01983
G1 X100.516 Y188.491 E0.01046
G1 X100.179 Y188.242 E0.01957
G1 X99.895 Y187.916 E0.02019
G1 X99.772 Y187.720 E0.01084
G1 X99.596 Y187.311 E0.02084
G1 X99.490 Y186.847 E0.02222
G1 X99.456 Y186.343 E0.02361
G1 X99.456 Y183.850 E0.11653
G1 X99.454 Y183.390 F10800.000
G1 F8640
G1 X102.747 Y183.799 E-0.76000
G1 E-0.04000 F2100.00000
G1 Z0.920 F10800.000
G1 X106.214 Y183.790
G1 Z0.320
G1 E0.80000 F2100.00000
G1 F1800
G1 X110.079 Y183.790 E0.18064
G1 X110.232 Y184.338 E0.02659
G1 X110.287 Y184.645 E0.01459
G1 X110.348 Y185.315 E0.03143
G1 X110.348 Y186.063 E0.03499
G1 X110.290 Y186.741 E0.03179
G1 X110.171 Y187.322 E0.02772
G1 X109.989 Y187.802 E0.02398
G1 X109.868 Y188.013 E0.01139
G1 X109.728 Y188.197 E0.01081
G1 X109.564 Y188.359 E0.01073
G1 X109.379 Y188.495 E0.01075
G1 X109.173 Y188.605 E0.01092
G1 X108.949 Y188.690 E0.01122
G1 X108.702 Y188.751 E0.01189
G1 X108.171 Y188.797 E0.02489
G1 X107.636 Y188.750 E0.02511
G1 X107.386 Y188.688 E0.01205
G1 X107.166 Y188.605 E0.01097
G1 X106.948 Y188.490 E0.01152
G1 X106.757 Y188.352 E0.01101
G1 X106.589 Y188.189 E0.01097
G1 X106.438 Y187.998 E0.01137
G1 X106.210 Y187.562 E0.02297
G1 X106.051 Y187.032 E0.02586
G1 X105.995 Y186.725 E0.01461
G1 X105.933 Y186.058 E0.03131
G1 X105.933 Y185.328 E0.03411
G1 X105.956 Y184.983 E0.01616
G1 X106.048 Y184.370 E0.02897
G1 X106.197 Y183.848 E0.02540
G1 X106.242 Y183.391 F10800.000
G1 F8640
G1 X109.488 Y183.799 E-0.76000
G1 E-0.04000 F2100.00000
G1 Z0.920 F10800.000
G1 X113.064 Y186.274
G1 Z0.320
G1 E0.80000 F2100.00000
G1 F1800
G1 X113.090 Y186.264 E0.00128
G1 X112.795 Y186.479 E0.01707
G1 X112.576 Y186.730 E0.01560
G1 X112.423 Y187.054 E0.01672
G1 X112.359 Y187.490 E0.02061
G1 X112.399 Y187.864 E0.01758
G1 X112.504 Y188.154 E0.01443
G1 X112.379 Y187.900 E0.01324
G1 X112.308 Y187.552 E0.01663
G1 X112.312 Y187.191 E0.01685
G1 X112.340 Y187.047 E0.00685
G1 X112.429 Y186.828 E0.01107
G1 X112.599 Y186.609 E0.01295
G1 X112.809 Y186.430 E0.01289
G1 X113.013 Y186.305 E0.01119
G1 F8640
G1 X113.090 Y186.264 E-0.02014
G1 X112.795 Y186.479 E-0.08432
G1 X112.576 Y186.730 E-0.07705
G1 X112.423 Y187.054 E-0.08259
G1 X112.359 Y187.490 E-0.10182
G1 X112.399 Y187.864 E-0.08683
G1 X112.504 Y188.154 E-0.07130
G1 X112.379 Y187.900 E-0.06540
G1 X112.308 Y187.552 E-0.08214
G1 X112.312 Y187.191 E-0.08325
G1 X112.316 Y187.169 E-0.00516
G1 E-0.04000 F2100.00000
G1 Z0.920 F10800.000
G1 X115.959 Y185.350
G1 Z0.320
G1 E0.80000 F2100.00000
