; G-Code generated by Simplify3D(R) Version 4.0.0
; Oct 6, 2017 at 8:59:28 PM
; Settings Summary
;   processName,Process1
;   applyToModels,c-reaper
;   profileName,Prusa Research Original Prusa i3 MK2 (modified)
;   profileVersion,2017-07-23 22:27:18
;   baseProfile,
;   printMaterial,PLA
;   printQuality,Medium
;   printExtruders,
;   extruderName,Primary Extruder
;   extruderToolheadNumber,0
;   extruderDiameter,0.4
;   extruderAutoWidth,1
;   extruderWidth,0.48
;   extrusionMultiplier,1
;   extruderUseRetract,1
;   extruderRetractionDistance,1.5
;   extruderExtraRestartDistance,0
;   extruderRetractionZLift,0
;   extruderRetractionSpeed,1800
;   extruderUseCoasting,1
;   extruderCoastingDistance,0.2
;   extruderUseWipe,1
;   extruderWipeDistance,2
;   primaryExtruder,0
;   layerHeight,0.095
;   topSolidLayers,3
;   bottomSolidLayers,3
;   perimeterOutlines,3
;   printPerimetersInsideOut,1
;   startPointOption,2
;   startPointOriginX,0
;   startPointOriginY,0
;   sequentialIslands,0
;   spiralVaseMode,0
;   firstLayerHeightPercentage,120
;   firstLayerWidthPercentage,100
;   firstLayerUnderspeed,0.5
;   useRaft,0
;   raftExtruder,0
;   raftTopLayers,3
;   raftBaseLayers,2
;   raftOffset,3
;   raftSeparationDistance,0.14
;   raftTopInfill,100
;   aboveRaftSpeedMultiplier,0.3
;   useSkirt,1
;   skirtExtruder,0
;   skirtLayers,1
;   skirtOutlines,1
;   skirtOffset,4
;   usePrimePillar,0
;   primePillarExtruder,999
;   primePillarWidth,12
;   primePillarLocation,7
;   primePillarSpeedMultiplier,1
;   useOozeShield,0
;   oozeShieldExtruder,999
;   oozeShieldOffset,2
;   oozeShieldOutlines,1
;   oozeShieldSidewallShape,1
;   oozeShieldSidewallAngle,30
;   oozeShieldSpeedMultiplier,1
;   infillExtruder,0
;   internalInfillPattern,Rectilinear
;   externalInfillPattern,Rectilinear
;   infillPercentage,10
;   outlineOverlapPercentage,20
;   infillExtrusionWidthPercentage,100
;   minInfillLength,5
;   infillLayerInterval,1
;   internalInfillAngles,45,-45
;   overlapInternalInfillAngles,0
;   externalInfillAngles,45,-45
;   generateSupport,1
;   supportExtruder,0
;   supportInfillPercentage,30
;   supportExtraInflation,0
;   supportBaseLayers,0
;   denseSupportExtruder,0
;   denseSupportLayers,0
;   denseSupportInfillPercentage,70
;   supportLayerInterval,1
;   supportHorizontalPartOffset,0.3
;   supportUpperSeparationLayers,1
;   supportLowerSeparationLayers,1
;   supportType,0
;   supportGridSpacing,4
;   maxOverhangAngle,45
;   supportAngles,0
;   temperatureName,Primary Extruder,Heated Bed
;   temperatureNumber,0,0
;   temperatureSetpointCount,1,1
;   temperatureSetpointLayers,1,1
;   temperatureSetpointTemperatures,200,60
;   temperatureStabilizeAtStartup,1,1
;   temperatureHeatedBed,0,1
;   temperatureRelayBetweenLayers,0,0
;   temperatureRelayBetweenLoops,0,0
;   fanLayers,1,2
;   fanSpeeds,0,100
;   blipFanToFullPower,0
;   adjustSpeedForCooling,1
;   minSpeedLayerTime,15
;   minCoolingSpeedSlowdown,20
;   increaseFanForCooling,0
;   minFanLayerTime,45
;   maxCoolingFanSpeed,100
;   increaseFanForBridging,0
;   bridgingFanSpeed,100
;   use5D,1
;   relativeEdistances,0
;   allowEaxisZeroing,1
;   independentExtruderAxes,0
;   includeM10123,0
;   stickySupport,1
;   applyToolheadOffsets,0
;   gcodeXoffset,0
;   gcodeYoffset,0
;   gcodeZoffset,0
;   overrideMachineDefinition,1
;   machineTypeOverride,0
;   strokeXoverride,250
;   strokeYoverride,210
;   strokeZoverride,200
;   originOffsetXoverride,0
;   originOffsetYoverride,0
;   originOffsetZoverride,0
;   homeXdirOverride,-1
;   homeYdirOverride,-1
;   homeZdirOverride,-1
;   flipXoverride,1
;   flipYoverride,-1
;   flipZoverride,1
;   toolheadOffsets,0,0|0,0|0,0|0,0|0,0|0,0
;   overrideFirmwareConfiguration,1
;   firmwareTypeOverride,RepRap (Marlin/Repetier/Sprinter)
;   GPXconfigOverride,r2
;   baudRateOverride,250000
;   overridePrinterModels,1
;   printerModelsOverride
;   startingGcode,M115 U3.0.7 ; use the latest firmware version,G28 W ; home all axes without mesh bed leveling,G80 ; run mesh bed leveling routine,G1 Y-3.0 F1000.0 ; prepare to prime,G92 E0 ; reset extrusion distance,G1 X60.0 E9.0  F1000.0 ; priming,G1 X100.0 E12.5  F1000.0 ; priming
;   layerChangeGcode,
;   retractionGcode,
;   toolChangeGcode,
;   endingGcode,M106 S0 ; turn off cooling fan,M104 S0 ; turn off extruder,M140 S0 ; turn off bed,G1 X0 Y200 ; part removal,M84 ; disable motors
;   exportFileFormat,gcode
;   celebration,0
;   celebrationSong,Random Song
;   postProcessing,
;   defaultSpeed,2400
;   outlineUnderspeed,0.8
;   solidInfillUnderspeed,0.8
;   supportUnderspeed,0.8
;   rapidXYspeed,4800
;   rapidZspeed,1002
;   minBridgingArea,50
;   bridgingExtraInflation,0
;   bridgingExtrusionMultiplier,1
;   bridgingSpeedMultiplier,1
;   useFixedBridgingAngle,0
;   fixedBridgingAngle,0
;   applyBridgingToPerimeters,0
;   filamentDiameters,1.75|1.75|1.75|1.75|1.75|1.75
;   filamentPricesPerKg,46|46|46|46|46|46
;   filamentDensities,1.25|1.25|1.25|1.25|1.25|1.25
;   useMinPrintHeight,1
;   minPrintHeight,0
;   useMaxPrintHeight,1
;   maxPrintHeight,235
;   useDiaphragm,0
;   diaphragmLayerInterval,20
;   robustSlicing,1
;   mergeAllIntoSolid,0
;   onlyRetractWhenCrossingOutline,1
;   retractBetweenLayers,1
;   useRetractionMinTravel,0
;   retractionMinTravel,3
;   retractWhileWiping,1
;   onlyWipeOutlines,1
;   avoidCrossingOutline,0
;   maxMovementDetourFactor,3
;   toolChangeRetractionDistance,12
;   toolChangeExtraRestartDistance,-0.5
;   toolChangeRetractionSpeed,600
;   externalThinWallType,0
;   internalThinWallType,2
;   thinWallAllowedOverlapPercentage,25
;   singleExtrusionMinLength,1
;   singleExtrusionMinPrintingWidthPercentage,50
;   singleExtrusionMaxPrintingWidthPercentage,200
;   singleExtrusionEndpointExtension,0.2
;   horizontalSizeCompensation,0
G90
M82
M106 S0
M140 S60
M190 S60
M104 S200 T0
M109 S200 T0
M115 U3.0.7 ; use the latest firmware version
G28 W ; home all axes without mesh bed leveling
G80 ; run mesh bed leveling routine
G1 Y-3.0 F1000.0 ; prepare to prime
G92 E0 ; reset extrusion distance
G1 X60.0 E9.0  F1000.0 ; priming
G1 X100.0 E12.5  F1000.0 ; priming
G92 E0
G1 E-1.5000 F1800
G1 Z0.114 F1002
; process Process1
; layer 1, Z = 0.114
T0
; tool H0.114 W0.480
; skirt
G1 X98.723 Y70.102 F4800
G1 E0.0000 F540
G92 E0
G1 X98.765 Y70.029 E0.0019 F1200
G1 X101.061 Y68.103 E0.0701
G1 X101.140 Y68.074 E0.0720
G1 X105.070 Y68.074 E0.1614
G1 X105.149 Y68.103 E0.1633
G1 X107.445 Y70.029 E0.2315
G1 X107.487 Y70.102 E0.2334
G1 X108.867 Y77.930 E0.4143
G1 X108.869 Y77.941 E0.4145
G1 X108.900 Y78.299 E0.4227
G1 X108.901 Y78.309 E0.4229
G1 X108.901 Y122.520 E1.4287
G1 X141.099 Y122.520 E2.1612
G1 X141.099 Y78.309 E3.1670
G1 X141.100 Y78.299 E3.1673
G1 X141.131 Y77.941 E3.1754
G1 X141.133 Y77.930 E3.1757
G1 X142.513 Y70.102 E3.3565
G1 X142.555 Y70.029 E3.3584
G1 X144.851 Y68.103 E3.4266
G1 X144.930 Y68.074 E3.4285
G1 X148.860 Y68.074 E3.5179
G1 X148.939 Y68.103 E3.5199
G1 X151.235 Y70.029 E3.5880
G1 X151.277 Y70.102 E3.5900
G1 X152.657 Y77.930 E3.7708
G1 X152.659 Y77.941 E3.7710
G1 X152.690 Y78.299 E3.7792
G1 X152.691 Y78.309 E3.7795
G1 X152.691 Y122.514 E4.7851
G1 X161.708 Y122.521 E4.9902
G1 X161.796 Y122.558 E4.9924
G1 X164.204 Y124.968 E5.0699
G1 X164.241 Y125.056 E5.0721
G1 X164.241 Y133.131 E5.2558
G1 X164.204 Y133.219 E5.2580
G1 X163.617 Y133.807 E5.2769
G1 X163.613 Y137.149 E5.3529
G1 X163.584 Y137.229 E5.3549
G1 X161.646 Y139.525 E5.4232
G1 X161.572 Y139.568 E5.4252
G1 X159.590 Y139.907 E5.4709
G1 X159.577 Y139.909 E5.4712
G1 X159.146 Y139.937 E5.4810
G1 X159.134 Y139.937 E5.4813
G1 X158.379 Y139.907 E5.4985
G1 X158.368 Y139.906 E5.4987
G1 X157.990 Y139.856 E5.5074
G1 X157.979 Y139.854 E5.5077
G1 X157.899 Y139.836 E5.5095
G1 X154.967 Y139.836 E5.5762
G1 X154.845 Y139.857 E5.5791
G1 X154.833 Y139.859 E5.5793
G1 X153.873 Y139.935 E5.6012
G1 X153.863 Y139.935 E5.6015
G1 X153.530 Y139.935 E5.6091
G1 X153.520 Y139.934 E5.6093
G1 X152.578 Y139.856 E5.6308
G1 X152.567 Y139.855 E5.6310
G1 X152.181 Y139.785 E5.6400
G1 X152.170 Y139.783 E5.6402
G1 X151.309 Y139.541 E5.6606
G1 X151.299 Y139.538 E5.6608
G1 X151.222 Y139.510 E5.6627
G1 X151.144 Y139.544 E5.6646
G1 X151.134 Y139.548 E5.6648
G1 X150.789 Y139.667 E5.6732
G1 X150.778 Y139.670 E5.6734
G1 X150.224 Y139.806 E5.6864
G1 X150.215 Y139.808 E5.6866
G1 X149.902 Y139.860 E5.6938
G1 X149.893 Y139.861 E5.6940
G1 X149.048 Y139.936 E5.7133
G1 X149.036 Y139.936 E5.7136
G1 X148.648 Y139.934 E5.7224
G1 X148.637 Y139.933 E5.7227
G1 X147.668 Y139.836 E5.7448
G1 X144.413 Y139.836 E5.8189
G1 X144.096 Y139.885 E5.8262
G1 X144.085 Y139.886 E5.8264
G1 X143.265 Y139.934 E5.8451
G1 X143.259 Y139.934 E5.8453
G1 X143.030 Y139.935 E5.8504
G1 X143.024 Y139.935 E5.8506
G1 X142.306 Y139.898 E5.8669
G1 X142.299 Y139.897 E5.8671
G1 X142.061 Y139.871 E5.8726
G1 X142.054 Y139.870 E5.8727
G1 X141.366 Y139.753 E5.8886
G1 X141.358 Y139.751 E5.8888
G1 X141.064 Y139.678 E5.8957
G1 X141.055 Y139.676 E5.8959
G1 X140.454 Y139.480 E5.9103
G1 X140.350 Y139.522 E5.9128
G1 X140.337 Y139.526 E5.9131
G1 X139.405 Y139.786 E5.9351
G1 X139.394 Y139.788 E5.9354
G1 X139.004 Y139.857 E5.9444
G1 X138.993 Y139.859 E5.9447
G1 X138.032 Y139.935 E5.9666
G1 X138.023 Y139.935 E5.9668
G1 X137.689 Y139.935 E5.9744
G1 X137.679 Y139.934 E5.9746
G1 X137.140 Y139.889 E5.9869
G1 X136.645 Y140.291 E6.0014
G1 X136.635 Y140.299 E6.0017
G1 X136.263 Y140.540 E6.0118
G1 X136.252 Y140.546 E6.0121
G1 X135.507 Y140.922 E6.0311
G1 X135.499 Y140.926 E6.0313
G1 X135.225 Y141.041 E6.0380
G1 X135.217 Y141.044 E6.0382
G1 X134.718 Y141.211 E6.0502
G1 X134.711 Y141.213 E6.0504
G1 X134.460 Y141.280 E6.0563
G1 X134.453 Y141.281 E6.0564
G1 X133.663 Y141.439 E6.0748
G1 X133.655 Y141.441 E6.0750
G1 X133.371 Y141.477 E6.0815
G1 X133.363 Y141.478 E6.0816
G1 X132.572 Y141.524 E6.0997
G1 X132.569 Y141.524 E6.0997
G1 X132.448 Y141.528 E6.1025
G1 X132.445 Y141.528 E6.1026
G1 X127.176 Y141.528 E6.2224
G1 X127.088 Y141.491 E6.2246
G1 X125.221 Y139.624 E6.2847
G1 X124.440 Y139.822 E6.3030
G1 X124.429 Y139.825 E6.3033
G1 X124.042 Y139.885 E6.3122
G1 X124.030 Y139.886 E6.3124
G1 X123.211 Y139.934 E6.3311
G1 X123.204 Y139.934 E6.3313
G1 X122.976 Y139.935 E6.3365
G1 X122.969 Y139.935 E6.3366
G1 X122.252 Y139.898 E6.3529
G1 X122.245 Y139.897 E6.3531
G1 X122.007 Y139.871 E6.3586
G1 X122.000 Y139.870 E6.3587
G1 X121.312 Y139.753 E6.3746
G1 X121.303 Y139.751 E6.3748
G1 X121.009 Y139.678 E6.3817
G1 X121.001 Y139.676 E6.3819
G1 X120.578 Y139.538 E6.3920
G1 X120.235 Y139.675 E6.4004
G1 X120.219 Y139.680 E6.4008
G1 X119.665 Y139.816 E6.4138
G1 X119.648 Y139.819 E6.4141
G1 X118.517 Y139.935 E6.4400
G1 X118.505 Y139.935 E6.4403
G1 X118.103 Y139.935 E6.4494
G1 X116.148 Y141.890 E6.5123
G1 X116.060 Y141.926 E6.5145
G1 X109.597 Y141.926 E6.6615
G1 X109.509 Y141.890 E6.6637
G1 X107.505 Y139.885 E6.7282
G1 X107.202 Y139.862 E6.7351
G1 X107.191 Y139.861 E6.7354
G1 X106.818 Y139.797 E6.7440
G1 X106.808 Y139.795 E6.7442
G1 X106.692 Y139.764 E6.7469
G1 X105.446 Y139.935 E6.7755
G1 X105.429 Y139.936 E6.7759
G1 X104.855 Y139.934 E6.7890
G1 X104.839 Y139.933 E6.7894
G1 X104.159 Y139.836 E6.8050
G1 X101.138 Y139.836 E6.8737
G1 X100.821 Y139.885 E6.8810
G1 X100.810 Y139.886 E6.8812
G1 X99.990 Y139.934 E6.8999
G1 X99.984 Y139.934 E6.9001
G1 X99.756 Y139.935 E6.9053
G1 X99.749 Y139.935 E6.9054
G1 X99.330 Y139.913 E6.9150
G1 X98.987 Y140.184 E6.9249
G1 X98.977 Y140.191 E6.9252
G1 X98.042 Y140.780 E6.9503
G1 X98.032 Y140.786 E6.9506
G1 X97.670 Y140.968 E6.9598
G1 X97.660 Y140.972 E6.9601
G1 X96.888 Y141.269 E6.9789
G1 X96.880 Y141.271 E6.9791
G1 X96.604 Y141.356 E6.9856
G1 X96.595 Y141.358 E6.9858
G1 X95.835 Y141.533 E7.0036
G1 X95.828 Y141.535 E7.0038
G1 X95.579 Y141.576 E7.0095
G1 X95.572 Y141.577 E7.0097
G1 X94.779 Y141.660 E7.0278
G1 X94.772 Y141.660 E7.0279
G1 X94.530 Y141.671 E7.0335
G1 X94.523 Y141.672 E7.0336
G1 X93.537 Y141.658 E7.0561
G1 X93.528 Y141.658 E7.0563
G1 X93.214 Y141.629 E7.0634
G1 X93.204 Y141.628 E7.0636
G1 X92.090 Y141.441 E7.0893
G1 X92.079 Y141.438 E7.0896
G1 X91.686 Y141.331 E7.0989
G1 X91.674 Y141.327 E7.0992
G1 X90.660 Y140.940 E7.1239
G1 X90.651 Y140.936 E7.1241
G1 X90.345 Y140.790 E7.1318
G1 X90.336 Y140.785 E7.1320
G1 X89.741 Y140.437 E7.1477
G1 X89.733 Y140.432 E7.1479
G1 X89.448 Y140.231 E7.1559
G1 X89.440 Y140.225 E7.1561
G1 X88.609 Y139.527 E7.1808
G1 X88.599 Y139.518 E7.1811
G1 X88.283 Y139.186 E7.1915
G1 X88.274 Y139.176 E7.1918
G1 X87.579 Y138.263 E7.2179
G1 X87.572 Y138.252 E7.2182
G1 X87.341 Y137.869 E7.2284
G1 X87.335 Y137.857 E7.2287
G1 X86.856 Y136.821 E7.2547
G1 X86.852 Y136.810 E7.2549
G1 X86.719 Y136.428 E7.2641
G1 X86.715 Y136.417 E7.2644
G1 X86.457 Y135.347 E7.2894
G1 X86.455 Y135.340 E7.2896
G1 X86.410 Y135.081 E7.2956
G1 X86.409 Y135.073 E7.2958
G1 X86.341 Y134.457 E7.3099
G1 X86.341 Y134.452 E7.3100
G1 X86.329 Y134.298 E7.3135
G1 X86.329 Y134.294 E7.3136
G1 X86.310 Y133.734 E7.3263
G1 X85.796 Y133.219 E7.3429
G1 X85.759 Y133.131 E7.3451
G1 X85.759 Y125.056 E7.5288
G1 X85.795 Y124.968 E7.5309
G1 X88.204 Y122.558 E7.6084
G1 X88.292 Y122.521 E7.6106
G1 X97.309 Y122.513 E7.8158
G1 X97.309 Y78.309 E8.8214
G1 X97.310 Y78.299 E8.8216
G1 X97.341 Y77.941 E8.8298
G1 X97.343 Y77.930 E8.8301
G1 X98.688 Y70.299 E9.0064
G1 X98.723 Y70.102 F1200
G92 E0
G1 E-1.5000 F1800
; inner perimeter
G1 X102.954 Y77.434 F4800
G1 E0.0000 F1800
G92 E0
G1 X103.256 Y77.434 E0.0069 F1080
G1 X103.461 Y78.594 E0.0337
G1 X103.461 Y125.267 E1.0955
G1 X103.511 Y125.747 E1.1065
G1 X103.602 Y126.087 E1.1145
G1 X103.811 Y126.556 E1.1262
G1 X104.003 Y126.851 E1.1342
G1 X104.368 Y127.257 E1.1466
G1 X104.809 Y127.578 E1.1590
G1 X105.123 Y127.737 E1.1670
G1 X105.642 Y127.906 E1.1794
G1 X106.153 Y127.960 E1.1911
G1 X143.850 Y127.960 E2.0487
G1 X144.362 Y127.905 E2.0604
G1 X144.911 Y127.726 E2.0736
G1 X145.384 Y127.452 E2.0860
G1 X145.657 Y127.230 E2.0940
G1 X146.021 Y126.824 E2.1064
G1 X146.309 Y126.323 E2.1195
G1 X146.486 Y125.774 E2.1327
G1 X146.539 Y125.267 E2.1443
G1 X146.539 Y78.594 E3.2061
G1 X146.744 Y77.434 E3.2329
G1 X147.046 Y77.434 E3.2397
G1 X147.251 Y78.594 E3.2665
G1 X147.251 Y125.267 E4.3283
G1 X147.304 Y125.778 E4.3400
G1 X147.473 Y126.297 E4.3525
G1 X147.633 Y126.611 E4.3605
G1 X147.935 Y127.027 E4.3721
G1 X148.184 Y127.275 E4.3801
G1 X148.600 Y127.578 E4.3918
G1 X148.885 Y127.723 E4.3991
G1 X149.184 Y127.838 E4.4064
G1 X149.717 Y127.951 E4.4188
G1 X158.801 Y127.959 E4.6255
G1 X158.801 Y130.227 E4.6771
G1 X98.246 Y130.227 E6.0547
G1 X98.201 Y130.002 E6.0599
G1 X97.755 Y130.227 E6.0713
G1 X91.199 Y130.227 E6.2204
G1 X91.199 Y127.959 E6.2720
G1 X100.254 Y127.951 E6.4780
G1 X100.602 Y127.895 E6.4860
G1 X101.121 Y127.726 E6.4984
G1 X101.594 Y127.452 E6.5108
G1 X101.842 Y127.250 E6.5181
G1 X102.068 Y127.023 E6.5254
G1 X102.370 Y126.606 E6.5371
G1 X102.529 Y126.293 E6.5451
G1 X102.696 Y125.774 E6.5575
G1 X102.749 Y125.267 E6.5691
G1 X102.749 Y78.594 E7.6309
G1 X102.919 Y77.631 E7.6532
G1 X102.954 Y77.434 F1080
G1 X102.269 Y78.552 F4800
G92 E0
G1 X102.954 Y74.670 E0.0897 F1080
G1 X103.256 Y74.670 E0.0966
G1 X103.941 Y78.552 E0.1862
G1 X103.941 Y125.242 E1.2484
G1 X103.984 Y125.659 E1.2580
G1 X104.056 Y125.926 E1.2643
G1 X104.234 Y126.327 E1.2742
G1 X104.385 Y126.558 E1.2805
G1 X104.691 Y126.898 E1.2909
G1 X105.061 Y127.167 E1.3013
G1 X105.307 Y127.293 E1.3076
G1 X105.742 Y127.434 E1.3180
G1 X106.178 Y127.480 E1.3280
G1 X143.824 Y127.480 E2.1844
G1 X144.261 Y127.433 E2.1944
G1 X144.714 Y127.285 E2.2053
G1 X145.110 Y127.056 E2.2157
G1 X145.325 Y126.881 E2.2220
G1 X145.630 Y126.541 E2.2324
G1 X145.868 Y126.127 E2.2432
G1 X146.014 Y125.674 E2.2541
G1 X146.059 Y125.242 E2.2640
G1 X146.059 Y78.552 E3.3261
G1 X146.744 Y74.670 E3.4158
G1 X147.046 Y74.670 E3.4227
G1 X147.731 Y78.552 E3.5124
G1 X147.731 Y125.242 E4.5746
G1 X147.776 Y125.678 E4.5846
G1 X147.918 Y126.113 E4.5950
G1 X148.043 Y126.359 E4.6012
G1 X148.301 Y126.714 E4.6112
G1 X148.496 Y126.909 E4.6175
G1 X148.851 Y127.167 E4.6275
G1 X149.080 Y127.284 E4.6333
G1 X149.320 Y127.376 E4.6392
G1 X149.768 Y127.471 E4.6496
G1 X159.281 Y127.479 E4.8660
