; G-Code generated by Simplify3D(R) Version 4.0.0
; Feb 11, 2018 at 12:05:25 PM
; Settings Summary
;   processName,Process1
;   applyToModels,fatalii
;   profileName,Prusa Research Original Prusa i3 MK2 (modified)
;   profileVersion,2017-07-23 22:27:18
;   baseProfile,
;   printMaterial,PLA
;   printQuality,Medium
;   printExtruders,
;   extruderName,Primary Extruder
;   extruderToolheadNumber,0
;   extruderDiameter,0.4
;   extruderAutoWidth,1
;   extruderWidth,0.48
;   extrusionMultiplier,1
;   extruderUseRetract,1
;   extruderRetractionDistance,1.5
;   extruderExtraRestartDistance,0
;   extruderRetractionZLift,0
;   extruderRetractionSpeed,1800
;   extruderUseCoasting,1
;   extruderCoastingDistance,0.2
;   extruderUseWipe,1
;   extruderWipeDistance,2
;   primaryExtruder,0
;   layerHeight,0.095
;   topSolidLayers,3
;   bottomSolidLayers,3
;   perimeterOutlines,3
;   printPerimetersInsideOut,1
;   startPointOption,2
;   startPointOriginX,0
;   startPointOriginY,0
;   sequentialIslands,0
;   spiralVaseMode,0
;   firstLayerHeightPercentage,120
;   firstLayerWidthPercentage,100
;   firstLayerUnderspeed,0.5
;   useRaft,0
;   raftExtruder,0
;   raftTopLayers,3
;   raftBaseLayers,2
;   raftOffset,3
;   raftSeparationDistance,0.14
;   raftTopInfill,100
;   aboveRaftSpeedMultiplier,0.3
;   useSkirt,1
;   skirtExtruder,0
;   skirtLayers,1
;   skirtOutlines,1
;   skirtOffset,4
;   usePrimePillar,0
;   primePillarExtruder,999
;   primePillarWidth,12
;   primePillarLocation,7
;   primePillarSpeedMultiplier,1
;   useOozeShield,0
;   oozeShieldExtruder,999
;   oozeShieldOffset,2
;   oozeShieldOutlines,1
;   oozeShieldSidewallShape,1
;   oozeShieldSidewallAngle,30
;   oozeShieldSpeedMultiplier,1
;   infillExtruder,0
;   internalInfillPattern,Rectilinear
;   externalInfillPattern,Rectilinear
;   infillPercentage,10
;   outlineOverlapPercentage,20
;   infillExtrusionWidthPercentage,100
;   minInfillLength,5
;   infillLayerInterval,1
;   internalInfillAngles,45,-45
;   overlapInternalInfillAngles,0
;   externalInfillAngles,45,-45
;   generateSupport,1
;   supportExtruder,0
;   supportInfillPercentage,30
;   supportExtraInflation,0
;   supportBaseLayers,0
;   denseSupportExtruder,0
;   denseSupportLayers,0
;   denseSupportInfillPercentage,70
;   supportLayerInterval,1
;   supportHorizontalPartOffset,0.3
;   supportUpperSeparationLayers,1
;   supportLowerSeparationLayers,1
;   supportType,0
;   supportGridSpacing,4
;   maxOverhangAngle,45
;   supportAngles,0
;   temperatureName,Primary Extruder,Heated Bed
;   temperatureNumber,0,0
;   temperatureSetpointCount,1,1
;   temperatureSetpointLayers,1,1
;   temperatureSetpointTemperatures,200,60
;   temperatureStabilizeAtStartup,1,1
;   temperatureHeatedBed,0,1
;   temperatureRelayBetweenLayers,0,0
;   temperatureRelayBetweenLoops,0,0
;   fanLayers,1,2
;   fanSpeeds,0,100
;   blipFanToFullPower,0
;   adjustSpeedForCooling,1
;   minSpeedLayerTime,15
;   minCoolingSpeedSlowdown,20
;   increaseFanForCooling,0
;   minFanLayerTime,45
;   maxCoolingFanSpeed,100
;   increaseFanForBridging,0
;   bridgingFanSpeed,100
;   use5D,1
;   relativeEdistances,0
;   allowEaxisZeroing,1
;   independentExtruderAxes,0
;   includeM10123,0
;   stickySupport,1
;   applyToolheadOffsets,0
;   gcodeXoffset,0
;   gcodeYoffset,0
;   gcodeZoffset,0
;   overrideMachineDefinition,1
;   machineTypeOverride,0
;   strokeXoverride,250
;   strokeYoverride,210
;   strokeZoverride,200
;   originOffsetXoverride,0
;   originOffsetYoverride,0
;   originOffsetZoverride,0
;   homeXdirOverride,-1
;   homeYdirOverride,-1
;   homeZdirOverride,-1
;   flipXoverride,1
;   flipYoverride,-1
;   flipZoverride,1
;   toolheadOffsets,0,0|0,0|0,0|0,0|0,0|0,0
;   overrideFirmwareConfiguration,1
;   firmwareTypeOverride,RepRap (Marlin/Repetier/Sprinter)
;   GPXconfigOverride,r2
;   baudRateOverride,250000
;   overridePrinterModels,1
;   printerModelsOverride
;   startingGcode,M115 U3.0.7 ; use the latest firmware version,G28 W ; home all axes without mesh bed leveling,G80 ; run mesh bed leveling routine,G1 Y-3.0 F1000.0 ; prepare to prime,G92 E0 ; reset extrusion distance,G1 X60.0 E9.0  F1000.0 ; priming,G1 X100.0 E12.5  F1000.0 ; priming
;   layerChangeGcode,
;   retractionGcode,
;   toolChangeGcode,
;   endingGcode,M106 S0 ; turn off cooling fan,M104 S0 ; turn off extruder,M140 S0 ; turn off bed,G1 X0 Y200 ; part removal,M84 ; disable motors
;   exportFileFormat,gcode
;   celebration,0
;   celebrationSong,Random Song
;   postProcessing,
;   defaultSpeed,2400
;   outlineUnderspeed,0.8
;   solidInfillUnderspeed,0.8
;   supportUnderspeed,0.8
;   rapidXYspeed,4800
;   rapidZspeed,1002
;   minBridgingArea,50
;   bridgingExtraInflation,0
;   bridgingExtrusionMultiplier,1
;   bridgingSpeedMultiplier,1
;   useFixedBridgingAngle,0
;   fixedBridgingAngle,0
;   applyBridgingToPerimeters,0
;   filamentDiameters,1.75|1.75|1.75|1.75|1.75|1.75
;   filamentPricesPerKg,46|46|46|46|46|46
;   filamentDensities,1.25|1.25|1.25|1.25|1.25|1.25
;   useMinPrintHeight,1
;   minPrintHeight,0
;   useMaxPrintHeight,1
;   maxPrintHeight,235
;   useDiaphragm,0
;   diaphragmLayerInterval,20
;   robustSlicing,1
;   mergeAllIntoSolid,0
;   onlyRetractWhenCrossingOutline,1
;   retractBetweenLayers,1
;   useRetractionMinTravel,0
;   retractionMinTravel,3
;   retractWhileWiping,1
;   onlyWipeOutlines,1
;   avoidCrossingOutline,0
;   maxMovementDetourFactor,3
;   toolChangeRetractionDistance,12
;   toolChangeExtraRestartDistance,-0.5
;   toolChangeRetractionSpeed,600
;   externalThinWallType,0
;   internalThinWallType,2
;   thinWallAllowedOverlapPercentage,25
;   singleExtrusionMinLength,1
;   singleExtrusionMinPrintingWidthPercentage,50
;   singleExtrusionMaxPrintingWidthPercentage,200
;   singleExtrusionEndpointExtension,0.2
;   horizontalSizeCompensation,0
G90
M82
M106 S0
M140 S60
M190 S60
M104 S200 T0
M109 S200 T0
M115 U3.0.7 ; use the latest firmware version
G28 W ; home all axes without mesh bed leveling
G80 ; run mesh bed leveling routine
G1 Y-3.0 F1000.0 ; prepare to prime
G92 E0 ; reset extrusion distance
G1 X60.0 E9.0  F1000.0 ; priming
G1 X100.0 E12.5  F1000.0 ; priming
G92 E0
G1 E-1.5000 F1800
G1 Z0.114 F1002
; process Process1
; layer 1, Z = 0.114
T0
; tool H0.114 W0.480
; skirt
G1 X111.430 Y60.764 F4800
G1 E0.0000 F540
G92 E0
G1 X111.472 Y60.691 E0.0019 F1200
G1 X113.767 Y58.765 E0.0701
G1 X113.847 Y58.736 E0.0720
G1 X118.043 Y58.736 E0.1675
G1 X118.123 Y58.765 E0.1694
G1 X120.418 Y60.691 E0.2376
G1 X120.460 Y60.764 E0.2395
G1 X122.152 Y70.357 E0.4611
G1 X122.153 Y70.367 E0.4613
G1 X122.185 Y70.725 E0.4695
G1 X122.185 Y70.736 E0.4698
G1 X122.185 Y128.728 E1.7891
G1 X127.815 Y128.734 E1.9171
G1 X127.815 Y70.736 E3.2366
G1 X127.815 Y70.725 E3.2368
G1 X127.847 Y70.367 E3.2450
G1 X127.848 Y70.357 E3.2453
G1 X129.540 Y60.764 E3.4668
G1 X129.582 Y60.691 E3.4688
G1 X131.877 Y58.765 E3.5369
G1 X131.957 Y58.736 E3.5389
G1 X136.153 Y58.736 E3.6343
G1 X136.233 Y58.765 E3.6363
G1 X138.528 Y60.691 E3.7044
G1 X138.570 Y60.764 E3.7063
G1 X140.262 Y70.356 E3.9279
G1 X140.263 Y70.367 E3.9282
G1 X140.294 Y70.725 E3.9364
G1 X140.295 Y70.735 E3.9366
G1 X140.306 Y128.736 E5.2561
G1 X143.205 Y128.736 E5.3221
G1 X143.293 Y128.773 E5.3242
G1 X145.703 Y131.183 E5.4018
G1 X145.740 Y131.271 E5.4040
G1 X145.740 Y140.681 E5.6180
G1 X145.703 Y140.769 E5.6202
G1 X144.734 Y141.739 E5.6514
G1 X144.734 Y148.729 E5.8104
G1 X144.697 Y148.817 E5.8126
G1 X142.286 Y151.227 E5.8901
G1 X142.198 Y151.264 E5.8923
G1 X132.152 Y151.264 E6.1209
G1 X132.064 Y151.227 E6.1230
G1 X129.653 Y148.817 E6.2006
G1 X129.617 Y148.729 E6.2028
G1 X129.617 Y148.690 E6.2037
G1 X129.035 Y148.660 E6.2169
G1 X129.028 Y148.659 E6.2171
G1 X128.789 Y148.633 E6.2225
G1 X128.782 Y148.632 E6.2227
G1 X128.441 Y148.574 E6.2306
G1 X126.811 Y150.203 E6.2830
G1 X126.723 Y150.240 E6.2852
G1 X122.751 Y150.240 E6.3755
G1 X122.673 Y150.213 E6.3774
G1 X120.744 Y148.656 E6.4338
G1 X120.279 Y148.684 E6.4444
G1 X118.247 Y150.715 E6.5098
G1 X118.159 Y150.752 E6.5120
G1 X107.938 Y150.752 E6.7445
G1 X107.850 Y150.715 E6.7466
G1 X105.440 Y148.305 E6.8242
G1 X105.403 Y148.217 E6.8264
G1 X105.403 Y141.875 E6.9706
G1 X104.297 Y140.769 E7.0062
G1 X104.260 Y140.681 E7.0084
G1 X104.260 Y131.271 E7.2225
G1 X104.297 Y131.183 E7.2246
G1 X106.707 Y128.773 E7.3022
G1 X106.795 Y128.736 E7.3044
G1 X109.695 Y128.736 E7.3703
G1 X109.705 Y70.735 E8.6898
G1 X109.705 Y70.725 E8.6901
G1 X109.737 Y70.367 E8.6982
G1 X109.738 Y70.356 E8.6985
G1 X111.395 Y60.961 E8.9155
G1 X111.430 Y60.764 F1200
G92 E0
G1 E-1.5000 F1800
; inner perimeter
G1 X115.794 Y67.340 F4800
G1 E0.0000 F1800
G92 E0
G1 X116.096 Y67.340 E0.0069 F1080
G1 X116.745 Y71.021 E0.0919
G1 X116.745 Y131.007 E1.4566
G1 X116.761 Y131.311 E1.4635
G1 X116.813 Y131.642 E1.4711
G1 X116.900 Y131.965 E1.4787
G1 X117.020 Y132.278 E1.4864
G1 X117.172 Y132.577 E1.4940
G1 X117.355 Y132.858 E1.5016
G1 X117.566 Y133.118 E1.5092
G1 X117.803 Y133.355 E1.5169
G1 X118.063 Y133.566 E1.5245
G1 X118.344 Y133.749 E1.5321
G1 X118.643 Y133.901 E1.5397
G1 X118.956 Y134.021 E1.5474
G1 X119.279 Y134.108 E1.5550
G1 X119.610 Y134.160 E1.5626
G1 X119.913 Y134.176 E1.5695
G1 X130.089 Y134.176 E1.8010
G1 X130.393 Y134.160 E1.8079
G1 X130.724 Y134.107 E1.8156
G1 X131.048 Y134.020 E1.8232
G1 X131.361 Y133.899 E1.8308
G1 X131.659 Y133.747 E1.8384
G1 X131.940 Y133.564 E1.8461
G1 X132.200 Y133.352 E1.8537
G1 X132.437 Y133.115 E1.8613
G1 X132.648 Y132.854 E1.8689
G1 X132.830 Y132.573 E1.8766
G1 X132.982 Y132.274 E1.8842
G1 X133.101 Y131.961 E1.8918
G1 X133.188 Y131.637 E1.8994
G1 X133.239 Y131.307 E1.9071
G1 X133.255 Y131.008 E1.9139
G1 X133.255 Y71.021 E3.2786
G1 X133.904 Y67.340 E3.3636
G1 X134.206 Y67.340 E3.3705
G1 X134.855 Y71.021 E3.4555
G1 X134.855 Y131.008 E4.8202
G1 X134.871 Y131.311 E4.8271
G1 X134.923 Y131.642 E4.8347
G1 X135.010 Y131.965 E4.8423
G1 X135.130 Y132.278 E4.8499
G1 X135.282 Y132.577 E4.8576
G1 X135.465 Y132.858 E4.8652
G1 X135.676 Y133.118 E4.8728
G1 X135.913 Y133.355 E4.8804
G1 X136.173 Y133.566 E4.8881
G1 X136.454 Y133.749 E4.8957
G1 X136.753 Y133.901 E4.9033
G1 X137.066 Y134.021 E4.9109
G1 X137.389 Y134.108 E4.9186
G1 X137.720 Y134.160 E4.9262
G1 X138.023 Y134.176 E4.9331
G1 X140.300 Y134.176 E4.9849
G1 X140.300 Y137.776 E5.0668
G1 X109.700 Y137.776 E5.7629
G1 X109.700 Y134.176 E5.8448
G1 X111.979 Y134.176 E5.8967
G1 X112.283 Y134.160 E5.9036
G1 X112.614 Y134.107 E5.9112
G1 X112.938 Y134.020 E5.9189
G1 X113.251 Y133.899 E5.9265
G1 X113.549 Y133.747 E5.9341
G1 X113.830 Y133.564 E5.9417
G1 X114.090 Y133.352 E5.9494
G1 X114.327 Y133.115 E5.9570
G1 X114.538 Y132.854 E5.9646
G1 X114.720 Y132.573 E5.9722
G1 X114.872 Y132.274 E5.9799
G1 X114.991 Y131.961 E5.9875
G1 X115.078 Y131.637 E5.9951
G1 X115.129 Y131.307 E6.0027
G1 X115.145 Y131.007 E6.0095
G1 X115.145 Y71.021 E7.3742
G1 X115.759 Y67.537 E7.4547
G1 X115.794 Y67.340 F1080
G1 X115.794 Y64.576 F4800
G92 E0
G1 X116.096 Y64.576 E0.0069 F1080
G1 X117.225 Y70.979 E0.1548
G1 X117.225 Y130.995 E1.5201
G1 X117.239 Y131.260 E1.5262
G1 X117.283 Y131.542 E1.5327
G1 X117.357 Y131.817 E1.5391
G1 X117.459 Y132.083 E1.5456
G1 X117.589 Y132.337 E1.5521
G1 X117.744 Y132.575 E1.5586
G1 X117.923 Y132.797 E1.5651
G1 X118.124 Y132.998 E1.5715
G1 X118.346 Y133.177 E1.5780
G1 X118.584 Y133.332 E1.5845
G1 X118.838 Y133.462 E1.5910
G1 X119.104 Y133.564 E1.5975
G1 X119.379 Y133.638 E1.6039
G1 X119.661 Y133.682 E1.6104
G1 X119.926 Y133.696 E1.6165
G1 X130.076 Y133.696 E1.8474
G1 X130.342 Y133.682 E1.8534
G1 X130.624 Y133.637 E1.8599
G1 X130.899 Y133.563 E1.8664
G1 X131.165 Y133.460 E1.8729
G1 X131.418 Y133.331 E1.8794
G1 X131.657 Y133.175 E1.8859
G1 X131.878 Y132.996 E1.8923
G1 X132.080 Y132.794 E1.8988
G1 X132.258 Y132.572 E1.9053
G1 X132.413 Y132.333 E1.9118
G1 X132.542 Y132.079 E1.9183
G1 X132.644 Y131.813 E1.9247
G1 X132.717 Y131.538 E1.9312
G1 X132.761 Y131.257 E1.9377
G1 X132.775 Y130.995 E1.9437
G1 X132.775 Y70.979 E3.3090
G1 X133.904 Y64.576 E3.4569
G1 X134.206 Y64.576 E3.4638
G1 X135.335 Y70.979 E3.6117
G1 X135.335 Y130.995 E4.9771
G1 X135.349 Y131.260 E4.9831
G1 X135.393 Y131.542 E4.9896
G1 X135.467 Y131.817 E4.9961
G1 X135.569 Y132.083 E5.0026
G1 X135.699 Y132.337 E5.0090
G1 X135.854 Y132.575 E5.0155
G1 X136.033 Y132.797 E5.0220
G1 X136.234 Y132.998 E5.0285
G1 X136.456 Y133.177 E5.0350
G1 X136.695 Y133.332 E5.0414
G1 X136.948 Y133.462 E5.0479
G1 X137.214 Y133.564 E5.0544
G1 X137.489 Y133.638 E5.0609
G1 X137.771 Y133.682 E5.0673
G1 X138.036 Y133.696 E5.0734
G1 X140.780 Y133.696 E5.1358
G1 X140.780 Y138.256 E5.2396
G1 X132.074 Y138.256 E5.4376
G1 X132.074 Y138.332 E5.4393
G1 X131.802 Y138.399 E5.4457
G1 X131.726 Y138.256 E5.4494
G1 X121.892 Y138.256 E5.6731
G1 X121.892 Y138.328 E5.6748
G1 X121.619 Y138.396 E5.6811
G1 X121.545 Y138.256 E5.6847
G1 X109.220 Y138.256 E5.9651
G1 X109.220 Y133.696 E6.0689
G1 X111.966 Y133.696 E6.1314
G1 X112.232 Y133.682 E6.1374
G1 X112.514 Y133.637 E6.1439
G1 X112.789 Y133.563 E6.1504
G1 X113.055 Y133.460 E6.1569
G1 X113.308 Y133.331 E6.1633
G1 X113.547 Y133.175 E6.1698
G1 X113.768 Y132.996 E6.1763
G1 X113.969 Y132.794 E6.1828
G1 X114.148 Y132.572 E6.1893
G1 X114.303 Y132.333 E6.1957
G1 X114.432 Y132.079 E6.2022
G1 X114.534 Y131.813 E6.2087
G1 X114.607 Y131.538 E6.2152
G1 X114.651 Y131.257 E6.2217
G1 X114.665 Y130.995 E6.2276
G1 X114.665 Y70.979 E7.5930
G1 X115.759 Y64.773 E7.7363
G1 X115.794 Y64.576 F1080
; outer perimeter
G1 X115.546 Y63.216 F4800
G92 E0
G1 X116.344 Y63.216 E0.0181 F960
G1 X117.705 Y70.937 E0.1965
G1 X117.705 Y130.982 E1.5625
G1 X117.717 Y131.210 E1.5677
G1 X117.754 Y131.442 E1.5731
G1 X117.814 Y131.668 E1.5784
G1 X117.898 Y131.887 E1.5837
G1 X118.005 Y132.096 E1.5891
G1 X118.133 Y132.293 E1.5944
G1 X118.280 Y132.475 E1.5997
G1 X118.446 Y132.641 E1.6051
G1 X118.628 Y132.788 E1.6104
G1 X118.825 Y132.916 E1.6157
G1 X119.034 Y133.023 E1.6211
G1 X119.253 Y133.107 E1.6264
G1 X119.479 Y133.167 E1.6317
G1 X119.711 Y133.204 E1.6371
G1 X119.939 Y133.216 E1.6423
G1 X130.063 Y133.216 E1.8726
G1 X130.292 Y133.204 E1.8778
G1 X130.523 Y133.167 E1.8831
G1 X130.750 Y133.106 E1.8885
G1 X130.969 Y133.021 E1.8938
G1 X131.177 Y132.915 E1.8991
G1 X131.374 Y132.787 E1.9045
G1 X131.556 Y132.639 E1.9098
G1 X131.722 Y132.473 E1.9152
G1 X131.869 Y132.290 E1.9205
G1 X131.997 Y132.093 E1.9258
G1 X132.103 Y131.884 E1.9312
G1 X132.187 Y131.665 E1.9365
G1 X132.247 Y131.438 E1.9418
G1 X132.283 Y131.207 E1.9472
G1 X132.295 Y130.982 E1.9523
G1 X132.295 Y70.937 E3.3183
G1 X133.656 Y63.216 E3.4967
G1 X134.454 Y63.216 E3.5148
G1 X135.815 Y70.937 E3.6932
G1 X135.815 Y130.982 E5.0592
G1 X135.827 Y131.210 E5.0644
G1 X135.864 Y131.442 E5.0697
G1 X135.924 Y131.668 E5.0751
G1 X136.008 Y131.887 E5.0804
G1 X136.115 Y132.096 E5.0857
G1 X136.243 Y132.293 E5.0911
G1 X136.390 Y132.475 E5.0964
G1 X136.556 Y132.641 E5.1017
G1 X136.738 Y132.788 E5.1071
G1 X136.935 Y132.916 E5.1124
G1 X137.144 Y133.023 E5.1177
G1 X137.363 Y133.107 E5.1231
G1 X137.589 Y133.167 E5.1284
G1 X137.821 Y133.204 E5.1337
G1 X138.049 Y133.216 E5.1389
G1 X141.260 Y133.216 E5.2120
G1 X141.260 Y138.736 E5.3376
G1 X140.254 Y138.736 E5.3605
G1 X140.254 Y144.096 E5.4824
G1 X139.513 Y144.096 E5.4993
G1 X139.513 Y138.736 E5.6212
G1 X137.542 Y138.736 E5.6660
G1 X137.542 Y144.096 E5.7880
G1 X136.801 Y144.096 E5.8048
G1 X136.801 Y138.736 E5.9268
G1 X134.837 Y138.736 E5.9715
G1 X134.837 Y146.784 E6.1545
G1 X134.097 Y146.784 E6.1714
G1 X134.097 Y138.736 E6.3545
G1 X132.553 Y138.736 E6.3896
G1 X132.541 Y142.269 E6.4700
G1 X132.511 Y142.518 E6.4757
G1 X132.461 Y142.752 E6.4811
G1 X132.392 Y142.966 E6.4862
G1 X132.305 Y143.162 E6.4911
G1 X132.199 Y143.341 E6.4959
G1 X132.074 Y143.504 E6.5005
G1 X131.927 Y143.653 E6.5053
G1 X131.764 Y143.783 E6.5100
G1 X131.580 Y143.897 E6.5150
G1 X131.374 Y143.995 E6.5201
G1 X131.146 Y144.076 E6.5257
G1 X130.894 Y144.140 E6.5316
G1 X130.620 Y144.187 E6.5379
G1 X130.322 Y144.215 E6.5447
G1 X129.999 Y144.223 E6.5520
G1 X129.401 Y144.192 E6.5657
G1 X128.889 Y144.106 E6.5775
G1 X128.449 Y143.962 E6.5880
G1 X128.084 Y143.766 E6.5974
G1 X127.791 Y143.518 E6.6062
G1 X127.563 Y143.217 E6.6148
