; G-Code generated by Simplify3D(R) Version 4.0.0
; Jan 24, 2018 at 11:17:30 AM
; Settings Summary
;   processName,Process1
;   applyToModels,fg-aji-fantasy
;   profileName,Prusa Research Original Prusa i3 MK2 (modified)
;   profileVersion,2017-07-23 22:27:18
;   baseProfile,
;   printMaterial,PLA
;   printQuality,Medium
;   printExtruders,
;   extruderName,Primary Extruder
;   extruderToolheadNumber,0
;   extruderDiameter,0.4
;   extruderAutoWidth,1
;   extruderWidth,0.48
;   extrusionMultiplier,1
;   extruderUseRetract,1
;   extruderRetractionDistance,1.5
;   extruderExtraRestartDistance,0
;   extruderRetractionZLift,0
;   extruderRetractionSpeed,1800
;   extruderUseCoasting,1
;   extruderCoastingDistance,0.2
;   extruderUseWipe,1
;   extruderWipeDistance,2
;   primaryExtruder,0
;   layerHeight,0.095
;   topSolidLayers,3
;   bottomSolidLayers,3
;   perimeterOutlines,3
;   printPerimetersInsideOut,1
;   startPointOption,2
;   startPointOriginX,0
;   startPointOriginY,0
;   sequentialIslands,0
;   spiralVaseMode,0
;   firstLayerHeightPercentage,120
;   firstLayerWidthPercentage,100
;   firstLayerUnderspeed,0.5
;   useRaft,0
;   raftExtruder,0
;   raftTopLayers,3
;   raftBaseLayers,2
;   raftOffset,3
;   raftSeparationDistance,0.14
;   raftTopInfill,100
;   aboveRaftSpeedMultiplier,0.3
;   useSkirt,1
;   skirtExtruder,0
;   skirtLayers,1
;   skirtOutlines,1
;   skirtOffset,4
;   usePrimePillar,0
;   primePillarExtruder,999
;   primePillarWidth,12
;   primePillarLocation,7
;   primePillarSpeedMultiplier,1
;   useOozeShield,0
;   oozeShieldExtruder,999
;   oozeShieldOffset,2
;   oozeShieldOutlines,1
;   oozeShieldSidewallShape,1
;   oozeShieldSidewallAngle,30
;   oozeShieldSpeedMultiplier,1
;   infillExtruder,0
;   internalInfillPattern,Rectilinear
;   externalInfillPattern,Rectilinear
;   infillPercentage,10
;   outlineOverlapPercentage,20
;   infillExtrusionWidthPercentage,100
;   minInfillLength,5
;   infillLayerInterval,1
;   internalInfillAngles,45,-45
;   overlapInternalInfillAngles,0
;   externalInfillAngles,45,-45
;   generateSupport,1
;   supportExtruder,0
;   supportInfillPercentage,30
;   supportExtraInflation,0
;   supportBaseLayers,0
;   denseSupportExtruder,0
;   denseSupportLayers,0
;   denseSupportInfillPercentage,70
;   supportLayerInterval,1
;   supportHorizontalPartOffset,0.3
;   supportUpperSeparationLayers,1
;   supportLowerSeparationLayers,1
;   supportType,0
;   supportGridSpacing,4
;   maxOverhangAngle,45
;   supportAngles,0
;   temperatureName,Primary Extruder,Heated Bed
;   temperatureNumber,0,0
;   temperatureSetpointCount,1,1
;   temperatureSetpointLayers,1,1
;   temperatureSetpointTemperatures,200,60
;   temperatureStabilizeAtStartup,1,1
;   temperatureHeatedBed,0,1
;   temperatureRelayBetweenLayers,0,0
;   temperatureRelayBetweenLoops,0,0
;   fanLayers,1,2
;   fanSpeeds,0,100
;   blipFanToFullPower,0
;   adjustSpeedForCooling,1
;   minSpeedLayerTime,15
;   minCoolingSpeedSlowdown,20
;   increaseFanForCooling,0
;   minFanLayerTime,45
;   maxCoolingFanSpeed,100
;   increaseFanForBridging,0
;   bridgingFanSpeed,100
;   use5D,1
;   relativeEdistances,0
;   allowEaxisZeroing,1
;   independentExtruderAxes,0
;   includeM10123,0
;   stickySupport,1
;   applyToolheadOffsets,0
;   gcodeXoffset,0
;   gcodeYoffset,0
;   gcodeZoffset,0
;   overrideMachineDefinition,1
;   machineTypeOverride,0
;   strokeXoverride,250
;   strokeYoverride,210
;   strokeZoverride,200
;   originOffsetXoverride,0
;   originOffsetYoverride,0
;   originOffsetZoverride,0
;   homeXdirOverride,-1
;   homeYdirOverride,-1
;   homeZdirOverride,-1
;   flipXoverride,1
;   flipYoverride,-1
;   flipZoverride,1
;   toolheadOffsets,0,0|0,0|0,0|0,0|0,0|0,0
;   overrideFirmwareConfiguration,1
;   firmwareTypeOverride,RepRap (Marlin/Repetier/Sprinter)
;   GPXconfigOverride,r2
;   baudRateOverride,250000
;   overridePrinterModels,1
;   printerModelsOverride
;   startingGcode,M115 U3.0.7 ; use the latest firmware version,G28 W ; home all axes without mesh bed leveling,G80 ; run mesh bed leveling routine,G1 Y-3.0 F1000.0 ; prepare to prime,G92 E0 ; reset extrusion distance,G1 X60.0 E9.0  F1000.0 ; priming,G1 X100.0 E12.5  F1000.0 ; priming
;   layerChangeGcode,
;   retractionGcode,
;   toolChangeGcode,
;   endingGcode,M106 S0 ; turn off cooling fan,M104 S0 ; turn off extruder,M140 S0 ; turn off bed,G1 X0 Y200 ; part removal,M84 ; disable motors
;   exportFileFormat,gcode
;   celebration,0
;   celebrationSong,Random Song
;   postProcessing,
;   defaultSpeed,2400
;   outlineUnderspeed,0.8
;   solidInfillUnderspeed,0.8
;   supportUnderspeed,0.8
;   rapidXYspeed,4800
;   rapidZspeed,1002
;   minBridgingArea,50
;   bridgingExtraInflation,0
;   bridgingExtrusionMultiplier,1
;   bridgingSpeedMultiplier,1
;   useFixedBridgingAngle,0
;   fixedBridgingAngle,0
;   applyBridgingToPerimeters,0
;   filamentDiameters,1.75|1.75|1.75|1.75|1.75|1.75
;   filamentPricesPerKg,46|46|46|46|46|46
;   filamentDensities,1.25|1.25|1.25|1.25|1.25|1.25
;   useMinPrintHeight,1
;   minPrintHeight,0
;   useMaxPrintHeight,1
;   maxPrintHeight,235
;   useDiaphragm,0
;   diaphragmLayerInterval,20
;   robustSlicing,1
;   mergeAllIntoSolid,0
;   onlyRetractWhenCrossingOutline,1
;   retractBetweenLayers,1
;   useRetractionMinTravel,0
;   retractionMinTravel,3
;   retractWhileWiping,1
;   onlyWipeOutlines,1
;   avoidCrossingOutline,0
;   maxMovementDetourFactor,3
;   toolChangeRetractionDistance,12
;   toolChangeExtraRestartDistance,-0.5
;   toolChangeRetractionSpeed,600
;   externalThinWallType,0
;   internalThinWallType,2
;   thinWallAllowedOverlapPercentage,25
;   singleExtrusionMinLength,1
;   singleExtrusionMinPrintingWidthPercentage,50
;   singleExtrusionMaxPrintingWidthPercentage,200
;   singleExtrusionEndpointExtension,0.2
;   horizontalSizeCompensation,0
G90
M82
M106 S0
M140 S60
M190 S60
M104 S200 T0
M109 S200 T0
M115 U3.0.7 ; use the latest firmware version
G28 W ; home all axes without mesh bed leveling
G80 ; run mesh bed leveling routine
G1 Y-3.0 F1000.0 ; prepare to prime
G92 E0 ; reset extrusion distance
G1 X60.0 E9.0  F1000.0 ; priming
G1 X100.0 E12.5  F1000.0 ; priming
G92 E0
G1 E-1.5000 F1800
G1 Z0.114 F1002
; process Process1
; layer 1, Z = 0.114
T0
; tool H0.114 W0.480
; skirt
G1 X98.887 Y66.398 F4800
G1 E0.0000 F540
G92 E0
G1 X101.182 Y64.472 E0.0682 F1200
G1 X101.262 Y64.443 E0.0701
G1 X105.295 Y64.443 E0.1619
G1 X105.375 Y64.472 E0.1638
G1 X107.670 Y66.398 E0.2319
G1 X107.712 Y66.471 E0.2339
G1 X109.214 Y74.985 E0.4306
G1 X109.215 Y74.996 E0.4308
G1 X109.246 Y75.354 E0.4390
G1 X109.247 Y75.365 E0.4392
G1 X109.247 Y124.937 E1.5670
G1 X140.753 Y124.937 E2.2838
G1 X140.753 Y75.365 E3.4115
G1 X140.754 Y75.354 E3.4118
G1 X140.785 Y74.996 E3.4199
G1 X140.786 Y74.985 E3.4202
G1 X142.288 Y66.471 E3.6169
G1 X142.330 Y66.398 E3.6188
G1 X144.625 Y64.472 E3.6870
G1 X144.705 Y64.443 E3.6889
G1 X148.738 Y64.443 E3.7806
G1 X148.818 Y64.472 E3.7826
G1 X151.113 Y66.398 E3.8507
G1 X151.156 Y66.471 E3.8527
G1 X152.657 Y74.985 E4.0493
G1 X152.658 Y74.996 E4.0496
G1 X152.690 Y75.354 E4.0578
G1 X152.690 Y75.365 E4.0580
G1 X152.690 Y124.930 E5.1856
G1 X161.708 Y124.938 E5.3908
G1 X161.796 Y124.975 E5.3929
G1 X164.204 Y127.385 E5.4704
G1 X164.240 Y127.473 E5.4726
G1 X164.240 Y136.067 E5.6681
G1 X164.204 Y136.155 E5.6703
G1 X163.591 Y136.767 E5.6900
G1 X164.641 Y139.490 E5.7564
G1 X164.627 Y139.608 E5.7591
G1 X162.176 Y143.179 E5.8576
G1 X162.071 Y143.234 E5.8603
G1 X157.476 Y143.234 E5.9648
G1 X157.405 Y143.211 E5.9665
G1 X156.914 Y142.862 E5.9803
G1 X156.404 Y143.213 E5.9943
G1 X156.334 Y143.234 E5.9960
G1 X152.676 Y143.234 E6.0792
G1 X152.672 Y143.235 E6.0793
G1 X152.451 Y143.257 E6.0844
G1 X152.445 Y143.257 E6.0845
G1 X151.733 Y143.290 E6.1007
G1 X151.728 Y143.290 E6.1008
G1 X151.528 Y143.289 E6.1054
G1 X151.522 Y143.289 E6.1055
G1 X150.739 Y143.249 E6.1233
G1 X150.732 Y143.248 E6.1235
G1 X150.483 Y143.220 E6.1292
G1 X150.475 Y143.219 E6.1294
G1 X149.707 Y143.085 E6.1471
G1 X149.698 Y143.083 E6.1473
G1 X149.389 Y143.004 E6.1546
G1 X149.380 Y143.001 E6.1548
G1 X148.909 Y142.841 E6.1661
G1 X148.750 Y142.902 E6.1700
G1 X148.741 Y142.905 E6.1702
G1 X148.016 Y143.124 E6.1874
G1 X148.009 Y143.126 E6.1876
G1 X147.753 Y143.186 E6.1936
G1 X147.746 Y143.188 E6.1938
G1 X147.253 Y143.271 E6.2051
G1 X147.247 Y143.272 E6.2053
G1 X147.027 Y143.296 E6.2103
G1 X147.021 Y143.297 E6.2105
G1 X146.230 Y143.344 E6.2285
G1 X146.223 Y143.344 E6.2286
G1 X145.995 Y143.345 E6.2338
G1 X145.988 Y143.345 E6.2340
G1 X145.217 Y143.305 E6.2515
G1 X145.210 Y143.304 E6.2517
G1 X144.971 Y143.278 E6.2572
G1 X144.964 Y143.277 E6.2573
G1 X144.948 Y143.274 E6.2577
G1 X143.586 Y144.636 E6.3015
G1 X143.498 Y144.672 E6.3037
G1 X139.636 Y144.672 E6.3915
G1 X139.559 Y144.645 E6.3934
G1 X137.947 Y143.345 E6.4405
G1 X137.633 Y143.344 E6.4477
G1 X137.620 Y143.344 E6.4480
G1 X136.581 Y143.234 E6.4717
G1 X133.008 Y143.234 E6.5530
G1 X132.951 Y143.210 E6.5544
G1 X132.589 Y143.271 E6.5628
G1 X132.582 Y143.272 E6.5629
G1 X132.362 Y143.296 E6.5680
G1 X132.356 Y143.297 E6.5681
G1 X132.083 Y143.313 E6.5743
G1 X130.318 Y145.078 E6.6311
G1 X130.230 Y145.115 E6.6333
G1 X120.934 Y145.115 E6.8448
G1 X120.846 Y145.078 E6.8469
G1 X120.656 Y144.888 E6.8530
G1 X120.024 Y145.521 E6.8734
G1 X119.936 Y145.557 E6.8755
G1 X113.128 Y145.557 E7.0304
G1 X113.040 Y145.521 E7.0326
G1 X112.634 Y145.115 E7.0457
G1 X109.145 Y145.115 E7.1250
G1 X109.077 Y145.094 E7.1267
G1 X106.996 Y143.697 E7.1837
G1 X106.950 Y143.642 E7.1853
G1 X106.808 Y143.295 E7.1938
G1 X106.608 Y143.484 E7.2001
G1 X106.602 Y143.489 E7.2003
G1 X106.393 Y143.662 E7.2065
G1 X106.387 Y143.667 E7.2066
G1 X105.972 Y143.968 E7.2183
G1 X105.965 Y143.972 E7.2185
G1 X105.738 Y144.115 E7.2246
G1 X105.731 Y144.119 E7.2248
G1 X105.039 Y144.493 E7.2427
G1 X105.030 Y144.498 E7.2429
G1 X104.733 Y144.629 E7.2503
G1 X104.725 Y144.633 E7.2505
G1 X103.948 Y144.906 E7.2692
G1 X103.940 Y144.908 E7.2694
G1 X103.674 Y144.982 E7.2757
G1 X103.666 Y144.984 E7.2759
G1 X102.860 Y145.151 E7.2946
G1 X102.853 Y145.152 E7.2948
G1 X102.625 Y145.187 E7.3000
G1 X102.618 Y145.187 E7.3002
G1 X101.772 Y145.265 E7.3195
G1 X101.766 Y145.266 E7.3196
G1 X101.548 Y145.274 E7.3246
G1 X101.542 Y145.275 E7.3247
G1 X100.515 Y145.261 E7.3481
G1 X100.509 Y145.260 E7.3482
G1 X100.297 Y145.247 E7.3531
G1 X100.291 Y145.246 E7.3532
G1 X99.649 Y145.171 E7.3679
G1 X99.644 Y145.170 E7.3680
G1 X99.466 Y145.141 E7.3721
G1 X99.461 Y145.140 E7.3723
G1 X98.856 Y145.015 E7.3863
G1 X98.850 Y145.014 E7.3864
G1 X98.755 Y144.990 E7.3887
G1 X98.667 Y145.078 E7.3915
G1 X98.578 Y145.115 E7.3937
G1 X89.283 Y145.115 E7.6052
G1 X89.195 Y145.078 E7.6073
G1 X86.784 Y142.667 E7.6849
G1 X86.748 Y142.579 E7.6871
G1 X86.748 Y137.106 E7.8116
G1 X85.796 Y136.155 E7.8422
G1 X85.760 Y136.067 E7.8444
G1 X85.760 Y127.473 E8.0398
G1 X85.796 Y127.385 E8.0420
G1 X88.204 Y124.975 E8.1195
G1 X88.292 Y124.939 E8.1217
G1 X97.310 Y124.930 E8.3268
G1 X97.310 Y75.365 E9.4544
G1 X97.310 Y75.354 E9.4547
G1 X97.342 Y74.996 E9.4629
G1 X97.343 Y74.985 E9.4631
G1 X98.824 Y66.585 E9.6572
G1 X98.844 Y66.471 F1200
G1 X98.887 Y66.398 F1200
G92 E0
G1 E-1.5000 F1800
; inner perimeter
G1 X103.127 Y73.509 F4800
G1 E0.0000 F1800
G92 E0
G1 X103.429 Y73.509 E0.0069 F1080
G1 X103.807 Y75.649 E0.0563
G1 X103.807 Y127.511 E1.2362
G1 X103.861 Y128.027 E1.2480
G1 X103.957 Y128.384 E1.2564
G1 X104.180 Y128.887 E1.2689
G1 X104.382 Y129.197 E1.2773
G1 X104.771 Y129.630 E1.2905
G1 X105.242 Y129.972 E1.3038
G1 X105.572 Y130.140 E1.3122
G1 X106.125 Y130.319 E1.3254
G1 X106.672 Y130.377 E1.3380
G1 X143.331 Y130.377 E2.1719
G1 X143.879 Y130.318 E2.1845
G1 X144.462 Y130.128 E2.1984
G1 X144.994 Y129.820 E2.2124
G1 X145.449 Y129.409 E2.2264
G1 X145.790 Y128.937 E2.2396
G1 X145.958 Y128.607 E2.2480
G1 X146.136 Y128.054 E2.2612
G1 X146.193 Y127.511 E2.2737
G1 X146.193 Y75.649 E3.4535
G1 X146.571 Y73.509 E3.5030
G1 X146.873 Y73.509 E3.5098
G1 X147.250 Y75.649 E3.5593
G1 X147.250 Y127.511 E4.7391
G1 X147.304 Y128.027 E4.7509
G1 X147.400 Y128.384 E4.7593
G1 X147.637 Y128.916 E4.7726
G1 X147.979 Y129.387 E4.7858
G1 X148.218 Y129.626 E4.7935
G1 X148.481 Y129.839 E4.8012
G1 X148.985 Y130.130 E4.8145
G1 X149.538 Y130.310 E4.8277
G1 X149.903 Y130.367 E4.8361
G1 X158.800 Y130.376 E5.0385
G1 X158.800 Y133.162 E5.1019
G1 X91.200 Y133.162 E6.6398
G1 X91.200 Y130.376 E6.7032
G1 X100.100 Y130.367 E6.9057
G1 X100.465 Y130.309 E6.9141
G1 X100.989 Y130.138 E6.9266
G1 X101.318 Y129.969 E6.9350
G1 X101.763 Y129.645 E6.9475
G1 X102.024 Y129.383 E6.9560
G1 X102.347 Y128.937 E6.9685
G1 X102.514 Y128.608 E6.9769
G1 X102.693 Y128.054 E6.9901
G1 X102.750 Y127.511 E7.0025
G1 X102.750 Y75.649 E8.1824
G1 X103.093 Y73.706 E8.2273
G1 X103.127 Y73.509 F1080
G1 X102.270 Y75.607 F4800
G92 E0
G1 X103.127 Y70.745 E0.1123 F1080
G1 X103.429 Y70.745 E0.1192
G1 X104.287 Y75.607 E0.2315
G1 X104.287 Y127.486 E1.4118
G1 X104.334 Y127.939 E1.4221
G1 X104.411 Y128.224 E1.4288
G1 X104.604 Y128.657 E1.4396
G1 X104.764 Y128.904 E1.4463
G1 X105.094 Y129.271 E1.4575
G1 X105.494 Y129.561 E1.4688
G1 X105.756 Y129.695 E1.4755
G1 X106.225 Y129.847 E1.4867
G1 X106.697 Y129.897 E1.4975
G1 X143.305 Y129.897 E2.3303
G1 X143.778 Y129.846 E2.3411
G1 X144.265 Y129.687 E2.3528
G1 X144.709 Y129.430 E2.3645
G1 X145.090 Y129.086 E2.3761
G1 X145.379 Y128.686 E2.3874
G1 X145.513 Y128.424 E2.3941
G1 X145.664 Y127.955 E2.4053
G1 X145.713 Y127.486 E2.4160
G1 X145.713 Y75.607 E3.5962
G1 X146.571 Y70.745 E3.7086
G1 X146.873 Y70.745 E3.7154
G1 X147.730 Y75.607 E3.8278
G1 X147.730 Y127.486 E5.0080
G1 X147.778 Y127.939 E5.0184
G1 X147.854 Y128.224 E5.0251
G1 X148.055 Y128.675 E5.0363
G1 X148.345 Y129.074 E5.0475
G1 X148.539 Y129.269 E5.0538
G1 X148.753 Y129.442 E5.0601
G1 X149.181 Y129.689 E5.0713
G1 X149.650 Y129.841 E5.0825
G1 X149.941 Y129.887 E5.0892
G1 X159.280 Y129.896 E5.3017
G1 X159.280 Y133.642 E5.3869
G1 X90.720 Y133.642 E6.9466
G1 X90.720 Y129.896 E7.0319
G1 X100.062 Y129.887 E7.2444
G1 X100.352 Y129.841 E7.2511
G1 X100.804 Y129.693 E7.2619
G1 X101.066 Y129.559 E7.2686
G1 X101.450 Y129.280 E7.2794
G1 X101.658 Y129.071 E7.2861
G1 X101.936 Y128.686 E7.2969
G1 X102.069 Y128.424 E7.3036
G1 X102.221 Y127.955 E7.3148
G1 X102.270 Y127.486 E7.3255
G1 X102.270 Y75.807 E8.5012
G1 X102.270 Y75.607 F1080
; outer perimeter
G1 X101.790 Y75.565 F4800
G92 E0
G1 X102.961 Y68.923 E0.1534 F960
G1 X103.595 Y68.923 E0.1679
G1 X104.767 Y75.565 E0.3213
G1 X104.767 Y127.461 E1.5019
G1 X104.808 Y127.852 E1.5109
G1 X104.864 Y128.063 E1.5159
G1 X105.027 Y128.428 E1.5249
G1 X105.146 Y128.611 E1.5299
G1 X105.417 Y128.912 E1.5391
G1 X105.745 Y129.151 E1.5484
G1 X105.940 Y129.250 E1.5533
G1 X106.326 Y129.375 E1.5626
G1 X106.723 Y129.417 E1.5716
G1 X143.280 Y129.417 E2.4033
G1 X143.677 Y129.375 E2.4124
G1 X144.068 Y129.247 E2.4218
G1 X144.425 Y129.040 E2.4311
G1 X144.731 Y128.764 E2.4405
G1 X144.969 Y128.436 E2.4497
G1 X145.067 Y128.240 E2.4547
G1 X145.192 Y127.855 E2.4639
G1 X145.233 Y127.461 E2.4729
G1 X145.233 Y75.565 E3.6536
G1 X146.405 Y68.923 E3.8070
G1 X147.039 Y68.923 E3.8214
G1 X148.210 Y75.565 E3.9749
G1 X148.210 Y127.461 E5.1555
G1 X148.251 Y127.852 E5.1645
G1 X148.308 Y128.063 E5.1694
G1 X148.473 Y128.433 E5.1787
G1 X148.711 Y128.761 E5.1879
G1 X148.861 Y128.912 E5.1927
G1 X149.026 Y129.045 E5.1975
G1 X149.377 Y129.248 E5.2068
G1 X149.763 Y129.373 E5.2160
G1 X149.979 Y129.407 E5.2210
G1 X159.760 Y129.417 E5.4435
G1 X159.760 Y134.122 E5.5505
G1 X157.770 Y134.122 E5.5958
G1 X159.556 Y138.754 E5.7087
G1 X158.962 Y138.754 E5.7222
G1 X157.357 Y134.122 E5.8338
G1 X156.618 Y134.122 E5.8506
G1 X156.176 Y135.393 E5.8812
G1 X154.890 Y138.754 E5.9631
G1 X154.284 Y138.754 E5.9769
G1 X156.133 Y134.122 E6.0903
G1 X153.985 Y134.122 E6.1392
G1 X153.972 Y134.537 E6.1486
G1 X153.938 Y134.752 E6.1536
G1 X153.902 Y134.874 E6.1565
G1 X153.822 Y135.055 E6.1610
G1 X153.760 Y135.158 E6.1637
G1 X153.642 Y135.310 E6.1681
G1 X153.495 Y135.449 E6.1727
G1 X153.382 Y135.532 E6.1759
G1 X153.076 Y135.704 E6.1839
G1 X152.754 Y135.832 E6.1918
G1 X152.290 Y135.975 E6.2028
G1 X151.161 Y136.271 E6.2294
