; G-Code generated by Simplify3D(R) Version 4.0.0
; Jan 23, 2018 at 7:20:43 PM
; Settings Summary
;   processName,Process1
;   applyToModels,goats-weed
;   profileName,Prusa Research Original Prusa i3 MK2 (modified)
;   profileVersion,2017-07-23 22:27:18
;   baseProfile,
;   printMaterial,PLA
;   printQuality,Medium
;   printExtruders,
;   extruderName,Primary Extruder
;   extruderToolheadNumber,0
;   extruderDiameter,0.4
;   extruderAutoWidth,1
;   extruderWidth,0.48
;   extrusionMultiplier,1
;   extruderUseRetract,1
;   extruderRetractionDistance,1.5
;   extruderExtraRestartDistance,0
;   extruderRetractionZLift,0
;   extruderRetractionSpeed,1800
;   extruderUseCoasting,1
;   extruderCoastingDistance,0.2
;   extruderUseWipe,1
;   extruderWipeDistance,2
;   primaryExtruder,0
;   layerHeight,0.095
;   topSolidLayers,3
;   bottomSolidLayers,3
;   perimeterOutlines,3
;   printPerimetersInsideOut,1
;   startPointOption,2
;   startPointOriginX,0
;   startPointOriginY,0
;   sequentialIslands,0
;   spiralVaseMode,0
;   firstLayerHeightPercentage,120
;   firstLayerWidthPercentage,100
;   firstLayerUnderspeed,0.5
;   useRaft,0
;   raftExtruder,0
;   raftTopLayers,3
;   raftBaseLayers,2
;   raftOffset,3
;   raftSeparationDistance,0.14
;   raftTopInfill,100
;   aboveRaftSpeedMultiplier,0.3
;   useSkirt,1
;   skirtExtruder,0
;   skirtLayers,1
;   skirtOutlines,1
;   skirtOffset,4
;   usePrimePillar,0
;   primePillarExtruder,999
;   primePillarWidth,12
;   primePillarLocation,7
;   primePillarSpeedMultiplier,1
;   useOozeShield,0
;   oozeShieldExtruder,999
;   oozeShieldOffset,2
;   oozeShieldOutlines,1
;   oozeShieldSidewallShape,1
;   oozeShieldSidewallAngle,30
;   oozeShieldSpeedMultiplier,1
;   infillExtruder,0
;   internalInfillPattern,Rectilinear
;   externalInfillPattern,Rectilinear
;   infillPercentage,10
;   outlineOverlapPercentage,20
;   infillExtrusionWidthPercentage,100
;   minInfillLength,5
;   infillLayerInterval,1
;   internalInfillAngles,45,-45
;   overlapInternalInfillAngles,0
;   externalInfillAngles,45,-45
;   generateSupport,1
;   supportExtruder,0
;   supportInfillPercentage,30
;   supportExtraInflation,0
;   supportBaseLayers,0
;   denseSupportExtruder,0
;   denseSupportLayers,0
;   denseSupportInfillPercentage,70
;   supportLayerInterval,1
;   supportHorizontalPartOffset,0.3
;   supportUpperSeparationLayers,1
;   supportLowerSeparationLayers,1
;   supportType,0
;   supportGridSpacing,4
;   maxOverhangAngle,45
;   supportAngles,0
;   temperatureName,Primary Extruder,Heated Bed
;   temperatureNumber,0,0
;   temperatureSetpointCount,1,1
;   temperatureSetpointLayers,1,1
;   temperatureSetpointTemperatures,200,60
;   temperatureStabilizeAtStartup,1,1
;   temperatureHeatedBed,0,1
;   temperatureRelayBetweenLayers,0,0
;   temperatureRelayBetweenLoops,0,0
;   fanLayers,1,2
;   fanSpeeds,0,100
;   blipFanToFullPower,0
;   adjustSpeedForCooling,1
;   minSpeedLayerTime,15
;   minCoolingSpeedSlowdown,20
;   increaseFanForCooling,0
;   minFanLayerTime,45
;   maxCoolingFanSpeed,100
;   increaseFanForBridging,0
;   bridgingFanSpeed,100
;   use5D,1
;   relativeEdistances,0
;   allowEaxisZeroing,1
;   independentExtruderAxes,0
;   includeM10123,0
;   stickySupport,1
;   applyToolheadOffsets,0
;   gcodeXoffset,0
;   gcodeYoffset,0
;   gcodeZoffset,0
;   overrideMachineDefinition,1
;   machineTypeOverride,0
;   strokeXoverride,250
;   strokeYoverride,210
;   strokeZoverride,200
;   originOffsetXoverride,0
;   originOffsetYoverride,0
;   originOffsetZoverride,0
;   homeXdirOverride,-1
;   homeYdirOverride,-1
;   homeZdirOverride,-1
;   flipXoverride,1
;   flipYoverride,-1
;   flipZoverride,1
;   toolheadOffsets,0,0|0,0|0,0|0,0|0,0|0,0
;   overrideFirmwareConfiguration,1
;   firmwareTypeOverride,RepRap (Marlin/Repetier/Sprinter)
;   GPXconfigOverride,r2
;   baudRateOverride,250000
;   overridePrinterModels,1
;   printerModelsOverride
;   startingGcode,M115 U3.0.7 ; use the latest firmware version,G28 W ; home all axes without mesh bed leveling,G80 ; run mesh bed leveling routine,G1 Y-3.0 F1000.0 ; prepare to prime,G92 E0 ; reset extrusion distance,G1 X60.0 E9.0  F1000.0 ; priming,G1 X100.0 E12.5  F1000.0 ; priming
;   layerChangeGcode,
;   retractionGcode,
;   toolChangeGcode,
;   endingGcode,M106 S0 ; turn off cooling fan,M104 S0 ; turn off extruder,M140 S0 ; turn off bed,G1 X0 Y200 ; part removal,M84 ; disable motors
;   exportFileFormat,gcode
;   celebration,0
;   celebrationSong,Random Song
;   postProcessing,
;   defaultSpeed,2400
;   outlineUnderspeed,0.8
;   solidInfillUnderspeed,0.8
;   supportUnderspeed,0.8
;   rapidXYspeed,4800
;   rapidZspeed,1002
;   minBridgingArea,50
;   bridgingExtraInflation,0
;   bridgingExtrusionMultiplier,1
;   bridgingSpeedMultiplier,1
;   useFixedBridgingAngle,0
;   fixedBridgingAngle,0
;   applyBridgingToPerimeters,0
;   filamentDiameters,1.75|1.75|1.75|1.75|1.75|1.75
;   filamentPricesPerKg,46|46|46|46|46|46
;   filamentDensities,1.25|1.25|1.25|1.25|1.25|1.25
;   useMinPrintHeight,1
;   minPrintHeight,0
;   useMaxPrintHeight,1
;   maxPrintHeight,235
;   useDiaphragm,0
;   diaphragmLayerInterval,20
;   robustSlicing,1
;   mergeAllIntoSolid,0
;   onlyRetractWhenCrossingOutline,1
;   retractBetweenLayers,1
;   useRetractionMinTravel,0
;   retractionMinTravel,3
;   retractWhileWiping,1
;   onlyWipeOutlines,1
;   avoidCrossingOutline,0
;   maxMovementDetourFactor,3
;   toolChangeRetractionDistance,12
;   toolChangeExtraRestartDistance,-0.5
;   toolChangeRetractionSpeed,600
;   externalThinWallType,0
;   internalThinWallType,2
;   thinWallAllowedOverlapPercentage,25
;   singleExtrusionMinLength,1
;   singleExtrusionMinPrintingWidthPercentage,50
;   singleExtrusionMaxPrintingWidthPercentage,200
;   singleExtrusionEndpointExtension,0.2
;   horizontalSizeCompensation,0
G90
M82
M106 S0
M140 S60
M190 S60
M104 S200 T0
M109 S200 T0
M115 U3.0.7 ; use the latest firmware version
G28 W ; home all axes without mesh bed leveling
G80 ; run mesh bed leveling routine
G1 Y-3.0 F1000.0 ; prepare to prime
G92 E0 ; reset extrusion distance
G1 X60.0 E9.0  F1000.0 ; priming
G1 X100.0 E12.5  F1000.0 ; priming
G92 E0
G1 E-1.5000 F1800
G1 Z0.114 F1002
; process Process1
; layer 1, Z = 0.114
T0
; tool H0.114 W0.480
; skirt
G1 X98.996 Y61.933 F4800
G1 E0.0000 F540
G92 E0
G1 X99.039 Y61.859 E0.0019 F1200
G1 X101.334 Y59.933 E0.0701
G1 X101.413 Y59.904 E0.0720
G1 X105.576 Y59.904 E0.1667
G1 X105.656 Y59.933 E0.1687
G1 X107.951 Y61.859 E0.2368
G1 X107.994 Y61.933 E0.2387
G1 X109.646 Y71.304 E0.4552
G1 X109.648 Y71.315 E0.4555
G1 X109.679 Y71.673 E0.4637
G1 X109.679 Y71.683 E0.4639
G1 X109.679 Y127.958 E1.7441
G1 X140.321 Y127.958 E2.4412
G1 X140.321 Y71.683 E3.7215
G1 X140.321 Y71.673 E3.7217
G1 X140.352 Y71.315 E3.7299
G1 X140.354 Y71.304 E3.7301
G1 X142.006 Y61.933 E3.9466
G1 X142.049 Y61.859 E3.9486
G1 X144.344 Y59.933 E4.0167
G1 X144.424 Y59.904 E4.0187
G1 X148.587 Y59.904 E4.1134
G1 X148.666 Y59.933 E4.1153
G1 X150.962 Y61.859 E4.1835
G1 X151.004 Y61.933 E4.1854
G1 X152.656 Y71.304 E4.4019
G1 X152.658 Y71.314 E4.4021
G1 X152.689 Y71.672 E4.4103
G1 X152.689 Y71.683 E4.4105
G1 X152.700 Y127.950 E5.6906
G1 X161.707 Y127.960 E5.8955
G1 X161.795 Y127.997 E5.8977
G1 X164.203 Y130.407 E5.9752
G1 X164.239 Y130.495 E5.9774
G1 X164.239 Y139.736 E6.1876
G1 X164.203 Y139.824 E6.1898
G1 X162.269 Y141.758 E6.2520
G1 X162.268 Y147.561 E6.3840
G1 X162.232 Y147.649 E6.3862
G1 X159.821 Y150.059 E6.4637
G1 X159.733 Y150.096 E6.4659
G1 X155.133 Y150.096 E6.5706
G1 X155.044 Y150.059 E6.5727
G1 X152.632 Y147.638 E6.6505
G1 X152.595 Y147.549 E6.6527
G1 X152.596 Y147.312 E6.6581
G1 X151.890 Y147.080 E6.6750
G1 X151.875 Y147.075 E6.6753
G1 X151.711 Y146.997 E6.6795
G1 X151.343 Y147.146 E6.6885
G1 X151.330 Y147.151 E6.6888
G1 X150.270 Y147.445 E6.7138
G1 X150.259 Y147.448 E6.7141
G1 X149.870 Y147.517 E6.7231
G1 X149.858 Y147.518 E6.7234
G1 X148.750 Y147.607 E6.7487
G1 X148.741 Y147.607 E6.7489
G1 X148.407 Y147.606 E6.7565
G1 X148.397 Y147.606 E6.7567
G1 X147.363 Y147.521 E6.7803
G1 X147.355 Y147.520 E6.7805
G1 X147.071 Y147.476 E6.7870
G1 X147.063 Y147.475 E6.7872
G1 X146.434 Y147.333 E6.8019
G1 X146.425 Y147.330 E6.8021
G1 X146.112 Y147.233 E6.8095
G1 X146.103 Y147.230 E6.8098
G1 X145.295 Y146.907 E6.8295
G1 X145.195 Y146.962 E6.8321
G1 X145.183 Y146.968 E6.8325
G1 X144.743 Y147.146 E6.8433
G1 X144.730 Y147.151 E6.8436
G1 X143.670 Y147.445 E6.8686
G1 X143.666 Y147.446 E6.8687
G1 X142.096 Y149.547 E6.9284
G1 X141.995 Y149.598 E6.9309
G1 X137.234 Y149.598 E7.0392
G1 X137.160 Y149.573 E7.0410
G1 X136.420 Y149.010 E7.0622
G1 X135.678 Y149.573 E7.0834
G1 X135.603 Y149.598 E7.0851
G1 X131.629 Y149.598 E7.1756
G1 X131.554 Y149.573 E7.1773
G1 X130.804 Y149.004 E7.1988
G1 X130.052 Y149.573 E7.2202
G1 X129.978 Y149.598 E7.2220
G1 X125.223 Y149.598 E7.3302
G1 X125.122 Y149.547 E7.3327
G1 X123.458 Y147.321 E7.3960
G1 X123.242 Y147.369 E7.4010
G1 X123.234 Y147.371 E7.4012
G1 X122.487 Y147.486 E7.4184
G1 X122.481 Y147.487 E7.4185
G1 X122.260 Y147.509 E7.4236
G1 X122.253 Y147.509 E7.4237
G1 X121.479 Y147.545 E7.4414
G1 X121.474 Y147.545 E7.4415
G1 X121.393 Y147.545 E7.4433
G1 X119.476 Y149.559 E7.5066
G1 X119.385 Y149.598 E7.5088
G1 X114.646 Y149.598 E7.6166
G1 X114.556 Y149.559 E7.6189
G1 X114.118 Y149.100 E7.6333
G1 X112.397 Y149.100 E7.6724
G1 X112.320 Y149.073 E7.6743
G1 X110.448 Y147.563 E7.7290
G1 X109.721 Y147.606 E7.7456
G1 X109.714 Y147.606 E7.7458
G1 X109.486 Y147.607 E7.7509
G1 X109.480 Y147.607 E7.7511
G1 X108.641 Y147.563 E7.7702
G1 X108.634 Y147.563 E7.7704
G1 X108.394 Y147.536 E7.7758
G1 X108.387 Y147.535 E7.7760
G1 X107.592 Y147.400 E7.7944
G1 X107.583 Y147.398 E7.7946
G1 X107.289 Y147.326 E7.8015
G1 X107.281 Y147.323 E7.8017
G1 X106.497 Y147.068 E7.8204
G1 X106.487 Y147.064 E7.8206
G1 X106.258 Y146.966 E7.8263
G1 X105.437 Y147.271 E7.8463
G1 X105.428 Y147.274 E7.8465
G1 X105.123 Y147.361 E7.8537
G1 X105.114 Y147.363 E7.8539
G1 X104.486 Y147.492 E7.8685
G1 X104.478 Y147.493 E7.8687
G1 X104.215 Y147.529 E7.8747
G1 X104.208 Y147.530 E7.8749
G1 X103.161 Y147.607 E7.8987
G1 X103.152 Y147.607 E7.8989
G1 X102.844 Y147.607 E7.9060
G1 X102.835 Y147.606 E7.9062
G1 X101.741 Y147.522 E7.9311
G1 X101.730 Y147.521 E7.9314
G1 X101.519 Y147.485 E7.9362
G1 X101.052 Y147.927 E7.9509
G1 X101.044 Y147.934 E7.9511
G1 X100.760 Y148.159 E7.9594
G1 X100.752 Y148.165 E7.9596
G1 X100.001 Y148.660 E7.9801
G1 X99.992 Y148.666 E7.9803
G1 X99.687 Y148.832 E7.9882
G1 X99.678 Y148.836 E7.9884
G1 X98.863 Y149.194 E8.0087
G1 X98.855 Y149.197 E8.0089
G1 X98.572 Y149.298 E8.0157
G1 X98.564 Y149.300 E8.0159
G1 X97.706 Y149.537 E8.0361
G1 X97.699 Y149.538 E8.0363
G1 X97.450 Y149.590 E8.0421
G1 X97.443 Y149.592 E8.0422
G1 X96.550 Y149.723 E8.0628
G1 X96.544 Y149.723 E8.0629
G1 X96.334 Y149.743 E8.0677
G1 X96.328 Y149.744 E8.0679
G1 X95.401 Y149.784 E8.0890
G1 X95.396 Y149.784 E8.0891
G1 X95.229 Y149.785 E8.0929
G1 X95.224 Y149.784 E8.0930
G1 X94.526 Y149.758 E8.1089
G1 X94.522 Y149.758 E8.1090
G1 X94.360 Y149.746 E8.1127
G1 X94.355 Y149.745 E8.1128
G1 X93.682 Y149.666 E8.1282
G1 X93.677 Y149.666 E8.1283
G1 X93.499 Y149.637 E8.1324
G1 X93.494 Y149.636 E8.1325
G1 X92.836 Y149.500 E8.1478
G1 X92.831 Y149.499 E8.1479
G1 X92.639 Y149.450 E8.1524
G1 X92.634 Y149.448 E8.1526
G1 X91.996 Y149.251 E8.1678
G1 X91.990 Y149.249 E8.1679
G1 X91.790 Y149.175 E8.1727
G1 X91.784 Y149.173 E8.1729
G1 X91.171 Y148.912 E8.1881
G1 X91.165 Y148.909 E8.1882
G1 X90.962 Y148.809 E8.1933
G1 X90.956 Y148.806 E8.1935
G1 X90.376 Y148.479 E8.2087
G1 X90.370 Y148.475 E8.2088
G1 X90.173 Y148.349 E8.2141
G1 X90.167 Y148.345 E8.2143
G1 X89.629 Y147.955 E8.2294
G1 X89.623 Y147.951 E8.2296
G1 X89.443 Y147.804 E8.2349
G1 X89.438 Y147.800 E8.2350
G1 X88.950 Y147.355 E8.2500
G1 X88.945 Y147.350 E8.2502
G1 X88.780 Y147.181 E8.2556
G1 X88.775 Y147.176 E8.2557
G1 X88.336 Y146.672 E8.2709
G1 X88.332 Y146.667 E8.2711
G1 X88.187 Y146.481 E8.2764
G1 X88.183 Y146.475 E8.2766
G1 X87.805 Y145.925 E8.2918
G1 X87.801 Y145.919 E8.2919
G1 X87.681 Y145.722 E8.2972
G1 X87.678 Y145.717 E8.2973
G1 X87.363 Y145.127 E8.3125
G1 X87.360 Y145.122 E8.3127
G1 X87.267 Y144.923 E8.3177
G1 X87.265 Y144.917 E8.3178
G1 X87.014 Y144.297 E8.3330
G1 X87.012 Y144.291 E8.3332
G1 X86.945 Y144.097 E8.3378
G1 X86.943 Y144.092 E8.3380
G1 X86.755 Y143.448 E8.3532
G1 X86.753 Y143.442 E8.3534
G1 X86.709 Y143.259 E8.3577
G1 X86.708 Y143.253 E8.3578
G1 X86.578 Y142.590 E8.3732
G1 X86.577 Y142.585 E8.3733
G1 X86.552 Y142.415 E8.3772
G1 X86.551 Y142.410 E8.3773
G1 X86.476 Y141.730 E8.3929
G1 X86.476 Y141.726 E8.3930
G1 X86.465 Y141.572 E8.3965
G1 X86.465 Y141.567 E8.3966
G1 X86.440 Y140.854 E8.4128
G1 X86.440 Y140.849 E8.4129
G1 X86.441 Y140.678 E8.4168
G1 X86.441 Y140.673 E8.4169
G1 X86.451 Y140.478 E8.4214
G1 X85.797 Y139.824 E8.4424
G1 X85.761 Y139.736 E8.4446
G1 X85.761 Y130.495 E8.6548
G1 X85.797 Y130.407 E8.6570
G1 X88.205 Y127.997 E8.7345
G1 X88.293 Y127.960 E8.7367
G1 X97.311 Y127.950 E8.9418
G1 X97.311 Y71.683 E10.2219
G1 X97.311 Y71.673 E10.2221
G1 X97.342 Y71.315 E10.2303
G1 X97.344 Y71.304 E10.2305
G1 X98.961 Y62.130 E10.4425
G1 X98.996 Y61.933 F1200
G92 E0
G1 E-1.5000 F1800
; inner perimeter
G1 X103.344 Y68.603 F4800
G1 E0.0000 F1800
G92 E0
G1 X103.646 Y68.603 E0.0069 F1080
G1 X104.239 Y71.968 E0.0846
G1 X104.239 Y130.285 E1.4113
G1 X104.255 Y130.583 E1.4181
G1 X104.306 Y130.908 E1.4256
G1 X104.392 Y131.226 E1.4331
G1 X104.510 Y131.533 E1.4406
G1 X104.659 Y131.827 E1.4481
G1 X104.839 Y132.103 E1.4556
G1 X105.046 Y132.359 E1.4630
G1 X105.279 Y132.592 E1.4705
G1 X105.534 Y132.799 E1.4780
G1 X105.811 Y132.978 E1.4855
G1 X106.104 Y133.128 E1.4930
G1 X106.412 Y133.246 E1.5005
G1 X106.730 Y133.331 E1.5080
G1 X107.055 Y133.383 E1.5155
G1 X107.352 Y133.398 E1.5223
G1 X142.650 Y133.398 E2.3253
G1 X142.949 Y133.382 E2.3321
G1 X143.274 Y133.330 E2.3396
G1 X143.592 Y133.245 E2.3471
G1 X143.899 Y133.126 E2.3546
G1 X144.193 Y132.976 E2.3621
G1 X144.469 Y132.797 E2.3696
G1 X144.725 Y132.589 E2.3771
G1 X144.957 Y132.355 E2.3845
G1 X145.164 Y132.099 E2.3920
G1 X145.343 Y131.823 E2.3995
G1 X145.492 Y131.529 E2.4070
G1 X145.610 Y131.221 E2.4145
G1 X145.694 Y130.903 E2.4220
G1 X145.745 Y130.579 E2.4295
G1 X145.761 Y130.285 E2.4362
G1 X145.761 Y71.968 E3.7629
G1 X146.354 Y68.603 E3.8406
G1 X146.656 Y68.603 E3.8475
G1 X147.249 Y71.968 E3.9252
G1 X147.249 Y130.285 E5.2519
G1 X147.265 Y130.583 E5.2587
G1 X147.317 Y130.908 E5.2662
G1 X147.402 Y131.226 E5.2737
G1 X147.520 Y131.534 E5.2812
G1 X147.669 Y131.827 E5.2887
G1 X147.849 Y132.103 E5.2962
G1 X148.056 Y132.359 E5.3036
G1 X148.289 Y132.592 E5.3111
G1 X148.545 Y132.799 E5.3186
G1 X148.821 Y132.978 E5.3261
G1 X149.114 Y133.128 E5.3336
G1 X149.422 Y133.246 E5.3411
G1 X149.740 Y133.331 E5.3486
G1 X150.065 Y133.383 E5.3561
G1 X150.362 Y133.398 E5.3629
G1 X158.799 Y133.398 E5.5548
G1 X158.799 Y136.831 E5.6329
G1 X91.201 Y136.831 E7.1708
G1 X91.201 Y133.398 E7.2489
G1 X99.640 Y133.398 E7.4409
G1 X99.939 Y133.382 E7.4477
G1 X100.264 Y133.330 E7.4552
G1 X100.582 Y133.245 E7.4627
G1 X100.889 Y133.126 E7.4701
G1 X101.183 Y132.976 E7.4776
G1 X101.459 Y132.797 E7.4851
G1 X101.714 Y132.589 E7.4926
G1 X101.947 Y132.356 E7.5001
G1 X102.154 Y132.099 E7.5076
G1 X102.333 Y131.823 E7.5151
G1 X102.482 Y131.529 E7.5226
G1 X102.600 Y131.221 E7.5301
G1 X102.684 Y130.903 E7.5376
G1 X102.735 Y130.579 E7.5451
G1 X102.751 Y130.285 E7.5517
G1 X102.751 Y71.968 E8.8785
G1 X103.309 Y68.800 E8.9516
G1 X103.344 Y68.603 F1080
G1 X103.344 Y65.839 F4800
G92 E0
G1 X103.646 Y65.839 E0.0069 F1080
G1 X104.719 Y71.926 E0.1475
G1 X104.719 Y130.273 E1.4749
G1 X104.733 Y130.532 E1.4808
G1 X104.777 Y130.808 E1.4871
G1 X104.849 Y131.077 E1.4935
G1 X104.949 Y131.338 E1.4998
G1 X105.075 Y131.587 E1.5062
G1 X105.228 Y131.821 E1.5125
G1 X105.403 Y132.037 E1.5189
G1 X105.600 Y132.235 E1.5252
G1 X105.817 Y132.410 E1.5316
G1 X106.051 Y132.562 E1.5379
G1 X106.300 Y132.689 E1.5443
G1 X106.560 Y132.789 E1.5506
G1 X106.830 Y132.861 E1.5570
G1 X107.105 Y132.905 E1.5633
G1 X107.365 Y132.918 E1.5692
G1 X142.638 Y132.918 E2.3717
