; G-Code generated by Simplify3D(R) Version 4.0.0
; Apr 10, 2018 at 9:33:35 AM
; Settings Summary
;   processName,Process1
;   applyToModels,hot-lemon
;   profileName,Original Prusa i3 MK2 RC4 (modified)
;   profileVersion,2016-08-30 14:21:19
;   baseProfile,Prusa Mendel (modified)
;   printMaterial,PLA
;   printQuality,FAST 0.3mm
;   printExtruders,
;   extruderName,Primary Extruder
;   extruderToolheadNumber,0
;   extruderDiameter,0.4
;   extruderAutoWidth,0
;   extruderWidth,0.45
;   extrusionMultiplier,1
;   extruderUseRetract,1
;   extruderRetractionDistance,0.8
;   extruderExtraRestartDistance,0
;   extruderRetractionZLift,0
;   extruderRetractionSpeed,1800
;   extruderUseCoasting,1
;   extruderCoastingDistance,0.2
;   extruderUseWipe,1
;   extruderWipeDistance,2
;   primaryExtruder,0
;   layerHeight,0.35
;   topSolidLayers,3
;   bottomSolidLayers,3
;   perimeterOutlines,2
;   printPerimetersInsideOut,1
;   startPointOption,2
;   startPointOriginX,0
;   startPointOriginY,0
;   sequentialIslands,0
;   spiralVaseMode,0
;   firstLayerHeightPercentage,66
;   firstLayerWidthPercentage,95
;   firstLayerUnderspeed,0.6
;   useRaft,0
;   raftExtruder,0
;   raftTopLayers,3
;   raftBaseLayers,2
;   raftOffset,3
;   raftSeparationDistance,0.14
;   raftTopInfill,100
;   aboveRaftSpeedMultiplier,0.3
;   useSkirt,1
;   skirtExtruder,0
;   skirtLayers,1
;   skirtOutlines,1
;   skirtOffset,1.8
;   usePrimePillar,0
;   primePillarExtruder,999
;   primePillarWidth,12
;   primePillarLocation,7
;   primePillarSpeedMultiplier,1
;   useOozeShield,0
;   oozeShieldExtruder,999
;   oozeShieldOffset,2
;   oozeShieldOutlines,1
;   oozeShieldSidewallShape,1
;   oozeShieldSidewallAngle,30
;   oozeShieldSpeedMultiplier,1
;   infillExtruder,0
;   internalInfillPattern,Rectilinear
;   externalInfillPattern,Rectilinear
;   infillPercentage,10
;   outlineOverlapPercentage,21
;   infillExtrusionWidthPercentage,100
;   minInfillLength,2
;   infillLayerInterval,1
;   internalInfillAngles,45,-45
;   overlapInternalInfillAngles,0
;   externalInfillAngles,45,-45
;   generateSupport,0
;   supportExtruder,0
;   supportInfillPercentage,30
;   supportExtraInflation,1.4
;   supportBaseLayers,0
;   denseSupportExtruder,0
;   denseSupportLayers,0
;   denseSupportInfillPercentage,70
;   supportLayerInterval,1
;   supportHorizontalPartOffset,0.2
;   supportUpperSeparationLayers,1
;   supportLowerSeparationLayers,1
;   supportType,0
;   supportGridSpacing,4
;   maxOverhangAngle,45
;   supportAngles,0
;   temperatureName,Primary Extruder,Heated Bed
;   temperatureNumber,0,1
;   temperatureSetpointCount,1,1
;   temperatureSetpointLayers,1,1
;   temperatureSetpointTemperatures,210,55
;   temperatureStabilizeAtStartup,1,1
;   temperatureHeatedBed,0,1
;   temperatureRelayBetweenLayers,0,0
;   temperatureRelayBetweenLoops,0,0
;   fanLayers,1,2
;   fanSpeeds,0,100
;   blipFanToFullPower,1
;   adjustSpeedForCooling,1
;   minSpeedLayerTime,15
;   minCoolingSpeedSlowdown,5
;   increaseFanForCooling,0
;   minFanLayerTime,45
;   maxCoolingFanSpeed,100
;   increaseFanForBridging,1
;   bridgingFanSpeed,100
;   use5D,1
;   relativeEdistances,1
;   allowEaxisZeroing,1
;   independentExtruderAxes,0
;   includeM10123,0
;   stickySupport,1
;   applyToolheadOffsets,0
;   gcodeXoffset,0
;   gcodeYoffset,0
;   gcodeZoffset,0
;   overrideMachineDefinition,1
;   machineTypeOverride,0
;   strokeXoverride,250
;   strokeYoverride,210
;   strokeZoverride,200
;   originOffsetXoverride,0
;   originOffsetYoverride,0
;   originOffsetZoverride,0
;   homeXdirOverride,-1
;   homeYdirOverride,-1
;   homeZdirOverride,-1
;   flipXoverride,1
;   flipYoverride,-1
;   flipZoverride,1
;   toolheadOffsets,0,0|0,0|0,0|0,0|0,0|0,0
;   overrideFirmwareConfiguration,0
;   firmwareTypeOverride,RepRap (Marlin/Repetier/Sprinter)
;   GPXconfigOverride,r2
;   baudRateOverride,250000
;   overridePrinterModels,1
;   printerModelsOverride
;   startingGcode,M115 U3.0.7 ; tell the printer latest firmware varsion available,G28 W ; home all without mesh bed level,G80 ; mesh bed leveling,G1 Y-3.0 F1000.0 ; go outside printing area,G1 X60.0 E9.0  F1000.0 ; intro line,G1 X100.0 E12.5  F1000.0 ; intro line
;   layerChangeGcode,
;   retractionGcode,
;   toolChangeGcode,
;   endingGcode,M104 S0 ; turn off temperature,M140 S0 ; turn off heatbed,M107 ; turn off fan,G1 X0 Y200; home X axis,M84 ; disable motors
;   exportFileFormat,gcode
;   celebration,0
;   celebrationSong,Random Song
;   postProcessing,{REPLACE "; outer perimeter\n" "; outer perimeter\nM204 S600\n"},{REPLACE "; inner perimeter\n" "; inner perimeter\nM204 S1200\n"},{REPLACE "; solid layer\n" "; solid layer\nM204 S1500\n"},{REPLACE "; infill\n" "; infill\nM204 S2000\n"},
;   defaultSpeed,2400
;   outlineUnderspeed,1
;   solidInfillUnderspeed,0.8
;   supportUnderspeed,0.8
;   rapidXYspeed,4800
;   rapidZspeed,1002
;   minBridgingArea,50
;   bridgingExtraInflation,1
;   bridgingExtrusionMultiplier,1
;   bridgingSpeedMultiplier,1
;   useFixedBridgingAngle,0
;   fixedBridgingAngle,0
;   applyBridgingToPerimeters,0
;   filamentDiameters,1.75|1.75|1.75|1.75|1.75|1.75
;   filamentPricesPerKg,215|215|215|215|215|215
;   filamentDensities,1.25|1.25|1.25|1.25|1.25|1.25
;   useMinPrintHeight,0
;   minPrintHeight,0
;   useMaxPrintHeight,0
;   maxPrintHeight,0
;   useDiaphragm,0
;   diaphragmLayerInterval,20
;   robustSlicing,1
;   mergeAllIntoSolid,0
;   onlyRetractWhenCrossingOutline,0
;   retractBetweenLayers,1
;   useRetractionMinTravel,1
;   retractionMinTravel,3
;   retractWhileWiping,1
;   onlyWipeOutlines,1
;   avoidCrossingOutline,0
;   maxMovementDetourFactor,3
;   toolChangeRetractionDistance,12
;   toolChangeExtraRestartDistance,-0.5
;   toolChangeRetractionSpeed,600
;   externalThinWallType,0
;   internalThinWallType,2
;   thinWallAllowedOverlapPercentage,25
;   singleExtrusionMinLength,1
;   singleExtrusionMinPrintingWidthPercentage,50
;   singleExtrusionMaxPrintingWidthPercentage,200
;   singleExtrusionEndpointExtension,0.2
;   horizontalSizeCompensation,0
G90
M83
M106 S255
G4 P500
M106 S0
M140 S55
M190 S55
M104 S210 T0
M109 S210 T0
M115 U3.0.7 ; tell the printer latest firmware varsion available
G28 W ; home all without mesh bed level
G80 ; mesh bed leveling
G1 Y-3.0 F1000.0 ; go outside printing area
G1 X60.0 E9.0  F1000.0 ; intro line
G1 X100.0 E12.5  F1000.0 ; intro line
G1 E-0.8000 F1800
G1 Z0.231 F1002
; process Process1
; layer 1, Z = 0.231
T0
; tool H0.350 W0.428
; skirt
G1 X104.131 Y62.127 F4800
G1 E0.8000 F540
G1 X105.196 Y61.234 E0.0864 F1440
G1 X105.270 Y61.207 E0.0049
G1 X107.860 Y61.207 E0.1611
G1 X107.934 Y61.234 E0.0049
G1 X108.999 Y62.127 E0.0864
G1 X109.039 Y62.196 E0.0049
G1 X110.574 Y70.902 E0.5499
G1 X110.575 Y70.912 E0.0006
G1 X110.590 Y71.078 E0.0104
G1 X110.590 Y71.088 E0.0006
G1 X110.590 Y131.126 E3.7347
G1 X110.598 Y131.199 E0.0046
G1 X110.671 Y131.207 E0.0046
G1 X139.331 Y131.207 E1.7828
G1 X139.402 Y131.199 E0.0045
G1 X139.410 Y131.127 E0.0045
G1 X139.410 Y71.088 E3.7348
G1 X139.410 Y71.078 E0.0006
G1 X139.425 Y70.912 E0.0104
G1 X139.426 Y70.902 E0.0006
G1 X140.961 Y62.196 E0.5499
G1 X141.001 Y62.127 E0.0049
G1 X142.066 Y61.234 E0.0864
G1 X142.140 Y61.207 E0.0049
G1 X144.730 Y61.207 E0.1611
G1 X144.804 Y61.234 E0.0049
G1 X145.869 Y62.127 E0.0864
G1 X145.909 Y62.196 E0.0049
G1 X147.444 Y70.902 E0.5499
G1 X147.445 Y70.912 E0.0006
G1 X147.460 Y71.078 E0.0104
G1 X147.460 Y71.088 E0.0006
G1 X147.471 Y131.200 E3.7394
G1 X147.541 Y131.207 E0.0044
G1 X156.290 Y131.207 E0.5443
G1 X156.373 Y131.241 E0.0056
G1 X157.491 Y132.359 E0.0983
G1 X157.525 Y132.442 E0.0056
G1 X157.525 Y140.022 E0.4716
G1 X157.491 Y140.105 E0.0056
G1 X156.373 Y141.223 E0.0983
G1 X156.290 Y141.257 E0.0056
G1 X156.286 Y141.257 E0.0003
G1 X156.286 Y142.172 E0.0569
G1 X156.286 Y142.176 E0.0003
G1 X156.282 Y142.257 E0.0050
G1 X156.282 Y142.262 E0.0003
G1 X156.192 Y143.323 E0.0662
G1 X156.190 Y143.333 E0.0007
G1 X156.158 Y143.513 E0.0114
G1 X156.155 Y143.523 E0.0007
G1 X155.962 Y144.205 E0.0441
G1 X155.958 Y144.216 E0.0007
G1 X155.883 Y144.403 E0.0125
G1 X155.879 Y144.414 E0.0007
G1 X155.576 Y144.986 E0.0402
G1 X155.570 Y144.996 E0.0007
G1 X155.465 Y145.154 E0.0118
G1 X155.459 Y145.163 E0.0007
G1 X155.201 Y145.478 E0.0253
G1 X155.194 Y145.487 E0.0007
G1 X155.056 Y145.624 E0.0121
G1 X155.048 Y145.631 E0.0007
G1 X154.558 Y146.030 E0.0393
G1 X154.546 Y146.038 E0.0009
G1 X154.344 Y146.165 E0.0148
G1 X154.332 Y146.171 E0.0009
G1 X153.730 Y146.450 E0.0413
G1 X153.719 Y146.455 E0.0007
G1 X153.532 Y146.519 E0.0123
G1 X153.520 Y146.522 E0.0007
G1 X152.852 Y146.676 E0.0426
G1 X152.842 Y146.678 E0.0006
G1 X152.666 Y146.702 E0.0111
G1 X152.656 Y146.703 E0.0007
G1 X151.719 Y146.741 E0.0583
G1 X151.709 Y146.741 E0.0006
G1 X151.541 Y146.733 E0.0104
G1 X151.531 Y146.733 E0.0006
G1 X150.818 Y146.636 E0.0447
G1 X150.810 Y146.635 E0.0006
G1 X150.660 Y146.602 E0.0095
G1 X150.651 Y146.600 E0.0006
G1 X150.407 Y146.526 E0.0159
G1 X150.345 Y146.585 E0.0053
G1 X150.264 Y146.617 E0.0054
G1 X147.533 Y146.617 E0.1699
G1 X147.448 Y146.581 E0.0057
G1 X147.094 Y146.213 E0.0318
G1 X147.087 Y146.216 E0.0005
G1 X146.278 Y146.516 E0.0537
G1 X146.269 Y146.519 E0.0005
G1 X146.127 Y146.559 E0.0092
G1 X146.119 Y146.561 E0.0005
G1 X145.634 Y146.660 E0.0308
G1 X145.627 Y146.661 E0.0004
G1 X145.506 Y146.678 E0.0076
G1 X145.499 Y146.679 E0.0004
G1 X144.590 Y146.745 E0.0567
G1 X144.582 Y146.745 E0.0005
G1 X144.439 Y146.745 E0.0089
G1 X144.430 Y146.745 E0.0005
G1 X143.499 Y146.673 E0.0581
G1 X143.488 Y146.672 E0.0006
G1 X143.315 Y146.642 E0.0109
G1 X143.305 Y146.640 E0.0006
G1 X142.448 Y146.412 E0.0552
G1 X142.436 Y146.408 E0.0008
G1 X142.238 Y146.331 E0.0133
G1 X142.226 Y146.326 E0.0008
G1 X141.561 Y145.977 E0.0467
G1 X141.201 Y146.224 E0.0272
G1 X141.189 Y146.231 E0.0009
G1 X140.980 Y146.339 E0.0146
G1 X140.967 Y146.345 E0.0009
G1 X140.381 Y146.561 E0.0389
G1 X140.373 Y146.564 E0.0005
G1 X140.230 Y146.604 E0.0092
G1 X140.222 Y146.606 E0.0005
G1 X139.858 Y146.680 E0.0231
G1 X139.850 Y146.681 E0.0004
G1 X139.729 Y146.698 E0.0076
G1 X139.722 Y146.699 E0.0004
G1 X139.069 Y146.745 E0.0407
G1 X139.060 Y146.745 E0.0005
G1 X138.910 Y146.744 E0.0093
G1 X138.901 Y146.744 E0.0005
G1 X138.207 Y146.684 E0.0433
G1 X138.198 Y146.683 E0.0006
G1 X138.046 Y146.657 E0.0096
G1 X138.037 Y146.656 E0.0006
G1 X137.569 Y146.538 E0.0300
G1 X137.561 Y146.536 E0.0005
G1 X137.430 Y146.492 E0.0086
G1 X137.423 Y146.490 E0.0005
G1 X136.973 Y146.304 E0.0303
G1 X136.963 Y146.299 E0.0007
G1 X136.891 Y146.261 E0.0051
G1 X136.849 Y146.284 E0.0030
G1 X136.839 Y146.289 E0.0007
G1 X136.397 Y146.480 E0.0300
G1 X136.388 Y146.484 E0.0006
G1 X136.240 Y146.534 E0.0098
G1 X136.231 Y146.537 E0.0006
G1 X135.747 Y146.658 E0.0310
G1 X135.738 Y146.660 E0.0006
G1 X135.582 Y146.685 E0.0099
G1 X135.572 Y146.686 E0.0006
G1 X134.838 Y146.745 E0.0458
G1 X134.829 Y146.745 E0.0006
G1 X134.672 Y146.745 E0.0098
G1 X134.663 Y146.744 E0.0006
G1 X133.991 Y146.687 E0.0420
G1 X133.982 Y146.686 E0.0006
G1 X133.832 Y146.661 E0.0095
G1 X133.823 Y146.660 E0.0006
G1 X133.408 Y146.557 E0.0266
G1 X133.378 Y146.585 E0.0026
G1 X133.298 Y146.617 E0.0054
G1 X130.575 Y146.617 E0.1694
G1 X130.491 Y146.581 E0.0057
G1 X130.096 Y146.171 E0.0354
G1 X129.853 Y146.304 E0.0173
G1 X129.841 Y146.310 E0.0008
G1 X129.637 Y146.393 E0.0137
G1 X129.625 Y146.397 E0.0008
G1 X128.772 Y146.634 E0.0551
G1 X128.761 Y146.637 E0.0007
G1 X128.581 Y146.669 E0.0114
G1 X128.571 Y146.670 E0.0007
G1 X127.642 Y146.745 E0.0580
G1 X127.633 Y146.745 E0.0006
G1 X127.476 Y146.745 E0.0097
G1 X127.467 Y146.745 E0.0006
G1 X126.543 Y146.668 E0.0577
G1 X126.533 Y146.666 E0.0007
G1 X126.355 Y146.634 E0.0112
G1 X126.344 Y146.632 E0.0007
G1 X125.537 Y146.407 E0.0522
G1 X125.528 Y146.404 E0.0006
G1 X125.381 Y146.350 E0.0097
G1 X125.372 Y146.346 E0.0006
G1 X124.931 Y146.141 E0.0303
G1 X124.922 Y146.136 E0.0006
G1 X124.776 Y146.051 E0.0105
G1 X124.767 Y146.046 E0.0006
G1 X124.087 Y145.568 E0.0517
G1 X124.077 Y145.559 E0.0008
G1 X123.908 Y145.408 E0.0141
G1 X123.899 Y145.398 E0.0008
G1 X123.345 Y144.768 E0.0521
G1 X123.339 Y144.761 E0.0006
G1 X123.243 Y144.630 E0.0101
G1 X123.237 Y144.622 E0.0006
G1 X122.982 Y144.206 E0.0304
G1 X122.977 Y144.198 E0.0006
G1 X122.909 Y144.063 E0.0094
G1 X122.905 Y144.055 E0.0006
G1 X122.584 Y143.279 E0.0522
G1 X122.581 Y143.272 E0.0005
G1 X122.539 Y143.145 E0.0083
G1 X122.536 Y143.137 E0.0005
G1 X122.412 Y142.655 E0.0310
G1 X122.410 Y142.648 E0.0004
G1 X122.388 Y142.535 E0.0072
G1 X122.387 Y142.528 E0.0004
G1 X122.265 Y141.605 E0.0579
G1 X122.264 Y141.598 E0.0005
G1 X122.256 Y141.472 E0.0078
G1 X122.256 Y141.465 E0.0005
G1 X122.256 Y141.257 E0.0129
G1 X121.349 Y141.257 E0.0564
G1 X121.349 Y147.558 E0.3920
G1 X121.314 Y147.641 E0.0056
G1 X120.197 Y148.759 E0.0983
G1 X120.114 Y148.793 E0.0056
G1 X117.238 Y148.793 E0.1789
G1 X117.156 Y148.759 E0.0056
G1 X116.038 Y147.641 E0.0983
G1 X116.004 Y147.558 E0.0056
G1 X116.004 Y141.257 E0.3920
G1 X114.402 Y141.257 E0.0996
G1 X114.402 Y141.679 E0.0263
G1 X114.510 Y141.679 E0.0067
G1 X114.592 Y141.713 E0.0056
G1 X115.710 Y142.831 E0.0983
G1 X115.744 Y142.914 E0.0056
G1 X115.744 Y145.382 E0.1536
G1 X115.710 Y145.465 E0.0056
G1 X114.592 Y146.583 E0.0983
G1 X114.510 Y146.617 E0.0056
G1 X114.402 Y146.617 E0.0067
G1 X114.402 Y147.046 E0.0267
G1 X114.368 Y147.129 E0.0056
G1 X113.250 Y148.247 E0.0983
G1 X113.168 Y148.281 E0.0056
G1 X110.889 Y148.281 E0.1417
G1 X110.816 Y148.255 E0.0048
G1 X109.767 Y147.409 E0.0839
G1 X109.727 Y147.343 E0.0048
G1 X109.569 Y146.617 E0.0462
G1 X109.518 Y146.617 E0.0032
G1 X109.435 Y146.583 E0.0056
G1 X109.258 Y146.406 E0.0156
G1 X108.960 Y146.516 E0.0198
G1 X108.952 Y146.519 E0.0005
G1 X108.810 Y146.559 E0.0092
G1 X108.801 Y146.561 E0.0005
G1 X108.316 Y146.660 E0.0308
G1 X108.309 Y146.661 E0.0004
G1 X108.188 Y146.678 E0.0076
G1 X108.181 Y146.679 E0.0004
G1 X107.273 Y146.745 E0.0567
G1 X107.264 Y146.745 E0.0005
G1 X107.121 Y146.745 E0.0089
G1 X107.113 Y146.745 E0.0005
G1 X106.181 Y146.673 E0.0581
G1 X106.171 Y146.672 E0.0006
G1 X105.998 Y146.642 E0.0109
G1 X105.988 Y146.640 E0.0006
G1 X105.438 Y146.494 E0.0354
G1 X105.438 Y147.558 E0.0662
G1 X105.404 Y147.641 E0.0056
G1 X104.286 Y148.759 E0.0983
G1 X104.203 Y148.793 E0.0056
G1 X101.328 Y148.793 E0.1789
G1 X101.245 Y148.759 E0.0056
G1 X100.127 Y147.641 E0.0983
G1 X100.093 Y147.558 E0.0056
G1 X100.093 Y144.761 E0.1740
G1 X98.961 Y144.761 E0.0704
G1 X98.961 Y147.558 E0.1740
G1 X98.927 Y147.641 E0.0056
G1 X97.809 Y148.759 E0.0983
G1 X97.726 Y148.793 E0.0056
G1 X94.851 Y148.793 E0.1789
G1 X94.768 Y148.759 E0.0056
G1 X93.650 Y147.641 E0.0983
G1 X93.616 Y147.558 E0.0056
G1 X93.616 Y141.212 E0.3948
G1 X92.509 Y140.105 E0.0974
G1 X92.475 Y140.022 E0.0056
G1 X92.475 Y132.442 E0.4716
G1 X92.509 Y132.359 E0.0056
G1 X93.627 Y131.241 E0.0983
G1 X93.710 Y131.207 E0.0056
G1 X102.461 Y131.207 E0.5444
G1 X102.529 Y131.199 E0.0043
G1 X102.540 Y71.088 E3.7393
G1 X102.540 Y71.078 E0.0006
G1 X102.555 Y70.912 E0.0104
G1 X102.556 Y70.902 E0.0006
G1 X104.070 Y62.315 E0.5424
G1 X104.091 Y62.196 F1440
G1 X104.131 Y62.127 F1440
G1 E-0.8000 F1800
; inner perimeter
M204 S1200
G1 X106.430 Y64.285 F4800
G1 E0.8000 F1800
G1 X106.700 Y64.285 E0.0167 F1440
G1 X107.924 Y71.228 E0.4386
G1 X107.924 Y131.249 E3.7337
G1 X107.937 Y131.508 E0.0162
G1 X107.981 Y131.781 E0.0172
G1 X108.052 Y132.048 E0.0172
G1 X108.151 Y132.307 E0.0172
G1 X108.277 Y132.553 E0.0172
G1 X108.428 Y132.785 E0.0172
G1 X108.601 Y133.000 E0.0172
G1 X108.797 Y133.195 E0.0172
G1 X109.012 Y133.370 E0.0172
G1 X109.244 Y133.520 E0.0172
G1 X109.490 Y133.646 E0.0172
G1 X109.749 Y133.745 E0.0172
G1 X110.016 Y133.816 E0.0172
G1 X110.289 Y133.860 E0.0172
G1 X110.548 Y133.873 E0.0162
G1 X139.457 Y133.873 E1.7983
G1 X139.717 Y133.859 E0.0162
G1 X139.990 Y133.815 E0.0172
G1 X140.257 Y133.743 E0.0172
G1 X140.515 Y133.643 E0.0172
G1 X140.762 Y133.517 E0.0172
G1 X140.993 Y133.365 E0.0172
G1 X141.208 Y133.191 E0.0172
G1 X141.403 Y132.994 E0.0172
G1 X141.577 Y132.779 E0.0172
G1 X141.727 Y132.546 E0.0172
G1 X141.852 Y132.300 E0.0172
