; G-Code generated by Simplify3D(R) Version 4.0.0
; Oct 29, 2017 at 4:28:23 PM
; Settings Summary
;   processName,Process1
;   applyToModels,irkutsk
;   profileName,Prusa Research Original Prusa i3 MK2 (modified)
;   profileVersion,2017-07-23 22:27:18
;   baseProfile,
;   printMaterial,PLA
;   printQuality,Medium
;   printExtruders,
;   extruderName,Primary Extruder
;   extruderToolheadNumber,0
;   extruderDiameter,0.4
;   extruderAutoWidth,1
;   extruderWidth,0.48
;   extrusionMultiplier,1
;   extruderUseRetract,1
;   extruderRetractionDistance,1.5
;   extruderExtraRestartDistance,0
;   extruderRetractionZLift,0
;   extruderRetractionSpeed,1800
;   extruderUseCoasting,1
;   extruderCoastingDistance,0.2
;   extruderUseWipe,1
;   extruderWipeDistance,2
;   primaryExtruder,0
;   layerHeight,0.095
;   topSolidLayers,3
;   bottomSolidLayers,3
;   perimeterOutlines,3
;   printPerimetersInsideOut,1
;   startPointOption,2
;   startPointOriginX,0
;   startPointOriginY,0
;   sequentialIslands,0
;   spiralVaseMode,0
;   firstLayerHeightPercentage,120
;   firstLayerWidthPercentage,100
;   firstLayerUnderspeed,0.5
;   useRaft,0
;   raftExtruder,0
;   raftTopLayers,3
;   raftBaseLayers,2
;   raftOffset,3
;   raftSeparationDistance,0.14
;   raftTopInfill,100
;   aboveRaftSpeedMultiplier,0.3
;   useSkirt,1
;   skirtExtruder,0
;   skirtLayers,1
;   skirtOutlines,1
;   skirtOffset,4
;   usePrimePillar,0
;   primePillarExtruder,999
;   primePillarWidth,12
;   primePillarLocation,7
;   primePillarSpeedMultiplier,1
;   useOozeShield,0
;   oozeShieldExtruder,999
;   oozeShieldOffset,2
;   oozeShieldOutlines,1
;   oozeShieldSidewallShape,1
;   oozeShieldSidewallAngle,30
;   oozeShieldSpeedMultiplier,1
;   infillExtruder,0
;   internalInfillPattern,Rectilinear
;   externalInfillPattern,Rectilinear
;   infillPercentage,10
;   outlineOverlapPercentage,20
;   infillExtrusionWidthPercentage,100
;   minInfillLength,5
;   infillLayerInterval,1
;   internalInfillAngles,45,-45
;   overlapInternalInfillAngles,0
;   externalInfillAngles,45,-45
;   generateSupport,1
;   supportExtruder,0
;   supportInfillPercentage,30
;   supportExtraInflation,0
;   supportBaseLayers,0
;   denseSupportExtruder,0
;   denseSupportLayers,0
;   denseSupportInfillPercentage,70
;   supportLayerInterval,1
;   supportHorizontalPartOffset,0.3
;   supportUpperSeparationLayers,1
;   supportLowerSeparationLayers,1
;   supportType,0
;   supportGridSpacing,4
;   maxOverhangAngle,45
;   supportAngles,0
;   temperatureName,Primary Extruder,Heated Bed
;   temperatureNumber,0,0
;   temperatureSetpointCount,1,1
;   temperatureSetpointLayers,1,1
;   temperatureSetpointTemperatures,200,60
;   temperatureStabilizeAtStartup,1,1
;   temperatureHeatedBed,0,1
;   temperatureRelayBetweenLayers,0,0
;   temperatureRelayBetweenLoops,0,0
;   fanLayers,1,2
;   fanSpeeds,0,100
;   blipFanToFullPower,0
;   adjustSpeedForCooling,1
;   minSpeedLayerTime,15
;   minCoolingSpeedSlowdown,20
;   increaseFanForCooling,0
;   minFanLayerTime,45
;   maxCoolingFanSpeed,100
;   increaseFanForBridging,0
;   bridgingFanSpeed,100
;   use5D,1
;   relativeEdistances,0
;   allowEaxisZeroing,1
;   independentExtruderAxes,0
;   includeM10123,0
;   stickySupport,1
;   applyToolheadOffsets,0
;   gcodeXoffset,0
;   gcodeYoffset,0
;   gcodeZoffset,0
;   overrideMachineDefinition,1
;   machineTypeOverride,0
;   strokeXoverride,250
;   strokeYoverride,210
;   strokeZoverride,200
;   originOffsetXoverride,0
;   originOffsetYoverride,0
;   originOffsetZoverride,0
;   homeXdirOverride,-1
;   homeYdirOverride,-1
;   homeZdirOverride,-1
;   flipXoverride,1
;   flipYoverride,-1
;   flipZoverride,1
;   toolheadOffsets,0,0|0,0|0,0|0,0|0,0|0,0
;   overrideFirmwareConfiguration,1
;   firmwareTypeOverride,RepRap (Marlin/Repetier/Sprinter)
;   GPXconfigOverride,r2
;   baudRateOverride,250000
;   overridePrinterModels,1
;   printerModelsOverride
;   startingGcode,M115 U3.0.7 ; use the latest firmware version,G28 W ; home all axes without mesh bed leveling,G80 ; run mesh bed leveling routine,G1 Y-3.0 F1000.0 ; prepare to prime,G92 E0 ; reset extrusion distance,G1 X60.0 E9.0  F1000.0 ; priming,G1 X100.0 E12.5  F1000.0 ; priming
;   layerChangeGcode,
;   retractionGcode,
;   toolChangeGcode,
;   endingGcode,M106 S0 ; turn off cooling fan,M104 S0 ; turn off extruder,M140 S0 ; turn off bed,G1 X0 Y200 ; part removal,M84 ; disable motors
;   exportFileFormat,gcode
;   celebration,0
;   celebrationSong,Random Song
;   postProcessing,
;   defaultSpeed,2400
;   outlineUnderspeed,0.8
;   solidInfillUnderspeed,0.8
;   supportUnderspeed,0.8
;   rapidXYspeed,4800
;   rapidZspeed,1002
;   minBridgingArea,50
;   bridgingExtraInflation,0
;   bridgingExtrusionMultiplier,1
;   bridgingSpeedMultiplier,1
;   useFixedBridgingAngle,0
;   fixedBridgingAngle,0
;   applyBridgingToPerimeters,0
;   filamentDiameters,1.75|1.75|1.75|1.75|1.75|1.75
;   filamentPricesPerKg,46|46|46|46|46|46
;   filamentDensities,1.25|1.25|1.25|1.25|1.25|1.25
;   useMinPrintHeight,1
;   minPrintHeight,0
;   useMaxPrintHeight,1
;   maxPrintHeight,235
;   useDiaphragm,0
;   diaphragmLayerInterval,20
;   robustSlicing,1
;   mergeAllIntoSolid,0
;   onlyRetractWhenCrossingOutline,1
;   retractBetweenLayers,1
;   useRetractionMinTravel,0
;   retractionMinTravel,3
;   retractWhileWiping,1
;   onlyWipeOutlines,1
;   avoidCrossingOutline,0
;   maxMovementDetourFactor,3
;   toolChangeRetractionDistance,12
;   toolChangeExtraRestartDistance,-0.5
;   toolChangeRetractionSpeed,600
;   externalThinWallType,0
;   internalThinWallType,2
;   thinWallAllowedOverlapPercentage,25
;   singleExtrusionMinLength,1
;   singleExtrusionMinPrintingWidthPercentage,50
;   singleExtrusionMaxPrintingWidthPercentage,200
;   singleExtrusionEndpointExtension,0.2
;   horizontalSizeCompensation,0
G90
M82
M106 S0
M140 S60
M190 S60
M104 S200 T0
M109 S200 T0
M115 U3.0.7 ; use the latest firmware version
G28 W ; home all axes without mesh bed leveling
G80 ; run mesh bed leveling routine
G1 Y-3.0 F1000.0 ; prepare to prime
G92 E0 ; reset extrusion distance
G1 X60.0 E9.0  F1000.0 ; priming
G1 X100.0 E12.5  F1000.0 ; priming
G92 E0
G1 E-1.5000 F1800
G1 Z0.114 F1002
; process Process1
; layer 1, Z = 0.114
T0
; tool H0.114 W0.480
; skirt
G1 X109.755 Y60.764 F4800
G1 E0.0000 F540
G92 E0
G1 X109.797 Y60.691 E0.0019 F1200
G1 X112.092 Y58.765 E0.0701
G1 X112.172 Y58.736 E0.0720
G1 X116.368 Y58.736 E0.1675
G1 X116.448 Y58.765 E0.1694
G1 X118.743 Y60.691 E0.2376
G1 X118.785 Y60.764 E0.2395
G1 X120.477 Y70.357 E0.4611
G1 X120.478 Y70.367 E0.4613
G1 X120.510 Y70.725 E0.4695
G1 X120.510 Y70.736 E0.4698
G1 X120.510 Y128.727 E1.7891
G1 X129.490 Y128.734 E1.9933
G1 X129.490 Y70.736 E3.3128
G1 X129.490 Y70.725 E3.3130
G1 X129.522 Y70.367 E3.3212
G1 X129.523 Y70.357 E3.3215
G1 X131.215 Y60.764 E3.5431
G1 X131.257 Y60.691 E3.5450
G1 X133.552 Y58.765 E3.6131
G1 X133.632 Y58.736 E3.6151
G1 X137.828 Y58.736 E3.7105
G1 X137.908 Y58.765 E3.7125
G1 X140.203 Y60.691 E3.7806
G1 X140.245 Y60.764 E3.7826
G1 X141.937 Y70.357 E4.0041
G1 X141.938 Y70.367 E4.0044
G1 X141.969 Y70.725 E4.0126
G1 X141.970 Y70.735 E4.0128
G1 X141.981 Y128.736 E5.3323
G1 X145.705 Y128.736 E5.4170
G1 X145.793 Y128.773 E5.4192
G1 X148.203 Y131.183 E5.4968
G1 X148.240 Y131.271 E5.4989
G1 X148.240 Y140.681 E5.7130
G1 X148.203 Y140.769 E5.7152
G1 X146.631 Y142.341 E5.7658
G1 X147.621 Y143.388 E5.7985
G1 X147.646 Y143.530 E5.8018
G1 X145.506 Y148.497 E5.9248
G1 X145.386 Y148.576 E5.9281
G1 X142.243 Y148.576 E5.9996
G1 X142.243 Y148.729 E6.0031
G1 X142.207 Y148.817 E6.0053
G1 X139.796 Y151.227 E6.0828
G1 X139.708 Y151.264 E6.0850
G1 X135.079 Y151.264 E6.1903
G1 X134.990 Y151.227 E6.1925
G1 X132.580 Y148.817 E6.2700
G1 X132.543 Y148.729 E6.2722
G1 X132.543 Y148.610 E6.2749
G1 X132.241 Y148.595 E6.2818
G1 X132.233 Y148.594 E6.2820
G1 X132.046 Y148.573 E6.2863
G1 X130.415 Y150.203 E6.3387
G1 X130.327 Y150.240 E6.3409
G1 X126.355 Y150.240 E6.4313
G1 X126.277 Y150.213 E6.4331
G1 X124.249 Y148.576 E6.4924
G1 X123.415 Y148.576 E6.5114
G1 X123.405 Y148.572 E6.5116
G1 X123.395 Y148.576 E6.5119
G1 X119.857 Y148.576 E6.5924
G1 X119.857 Y148.729 E6.5959
G1 X119.820 Y148.817 E6.5980
G1 X117.409 Y151.227 E6.6756
G1 X117.321 Y151.264 E6.6778
G1 X112.692 Y151.264 E6.7831
G1 X112.604 Y151.227 E6.7852
G1 X111.228 Y149.851 E6.8295
G1 X110.364 Y150.715 E6.8573
G1 X110.276 Y150.752 E6.8595
G1 X105.571 Y150.752 E6.9665
G1 X105.483 Y150.715 E6.9687
G1 X103.073 Y148.305 E7.0462
G1 X103.036 Y148.217 E7.0484
G1 X103.036 Y142.008 E7.1896
G1 X101.797 Y140.769 E7.2295
G1 X101.760 Y140.681 E7.2317
G1 X101.760 Y131.271 E7.4458
G1 X101.797 Y131.183 E7.4479
G1 X104.207 Y128.773 E7.5255
G1 X104.295 Y128.736 E7.5277
G1 X108.020 Y128.736 E7.6124
G1 X108.030 Y70.735 E8.9319
G1 X108.030 Y70.725 E8.9321
G1 X108.062 Y70.367 E8.9403
G1 X108.063 Y70.356 E8.9405
G1 X109.720 Y60.961 E9.1576
G1 X109.755 Y60.764 F1200
G92 E0
G1 E-1.5000 F1800
; inner perimeter
G1 X114.119 Y67.340 F4800
G1 E0.0000 F1800
G92 E0
G1 X114.421 Y67.340 E0.0069 F1080
G1 X115.070 Y71.021 E0.0919
G1 X115.070 Y131.008 E1.4566
G1 X115.086 Y131.311 E1.4635
G1 X115.138 Y131.642 E1.4711
G1 X115.225 Y131.965 E1.4787
G1 X115.345 Y132.278 E1.4864
G1 X115.497 Y132.577 E1.4940
G1 X115.680 Y132.858 E1.5016
G1 X115.891 Y133.118 E1.5092
G1 X116.128 Y133.355 E1.5169
G1 X116.388 Y133.566 E1.5245
G1 X116.669 Y133.749 E1.5321
G1 X116.968 Y133.901 E1.5397
G1 X117.281 Y134.021 E1.5474
G1 X117.604 Y134.108 E1.5550
G1 X117.935 Y134.160 E1.5626
G1 X118.239 Y134.176 E1.5695
G1 X131.764 Y134.176 E1.8772
G1 X132.068 Y134.160 E1.8841
G1 X132.399 Y134.107 E1.8918
G1 X132.723 Y134.020 E1.8994
G1 X133.036 Y133.899 E1.9070
G1 X133.334 Y133.747 E1.9147
G1 X133.615 Y133.564 E1.9223
G1 X133.875 Y133.352 E1.9299
G1 X134.112 Y133.115 E1.9375
G1 X134.323 Y132.854 E1.9452
G1 X134.505 Y132.573 E1.9528
G1 X134.657 Y132.274 E1.9604
G1 X134.776 Y131.961 E1.9680
G1 X134.862 Y131.637 E1.9757
G1 X134.914 Y131.307 E1.9833
G1 X134.930 Y131.008 E1.9901
G1 X134.930 Y71.021 E3.3548
G1 X135.579 Y67.340 E3.4398
G1 X135.881 Y67.340 E3.4467
G1 X136.530 Y71.021 E3.5317
G1 X136.530 Y131.008 E4.8964
G1 X136.546 Y131.311 E4.9033
G1 X136.598 Y131.642 E4.9109
G1 X136.685 Y131.965 E4.9185
G1 X136.805 Y132.278 E4.9262
G1 X136.957 Y132.577 E4.9338
G1 X137.140 Y132.858 E4.9414
G1 X137.351 Y133.118 E4.9490
G1 X137.588 Y133.355 E4.9567
G1 X137.848 Y133.566 E4.9643
G1 X138.129 Y133.749 E4.9719
G1 X138.428 Y133.901 E4.9795
G1 X138.741 Y134.021 E4.9872
G1 X139.064 Y134.108 E4.9948
G1 X139.395 Y134.160 E5.0024
G1 X139.698 Y134.176 E5.0093
G1 X142.800 Y134.176 E5.0799
G1 X142.800 Y137.776 E5.1618
G1 X107.200 Y137.776 E5.9717
G1 X107.200 Y134.176 E6.0536
G1 X110.304 Y134.176 E6.1242
G1 X110.608 Y134.160 E6.1311
G1 X110.939 Y134.107 E6.1387
G1 X111.263 Y134.020 E6.1464
G1 X111.576 Y133.899 E6.1540
G1 X111.874 Y133.747 E6.1616
G1 X112.155 Y133.564 E6.1692
G1 X112.415 Y133.352 E6.1769
G1 X112.652 Y133.115 E6.1845
G1 X112.863 Y132.854 E6.1921
G1 X113.045 Y132.573 E6.1997
G1 X113.197 Y132.274 E6.2074
G1 X113.316 Y131.961 E6.2150
G1 X113.403 Y131.637 E6.2226
G1 X113.454 Y131.307 E6.2302
G1 X113.470 Y131.007 E6.2370
G1 X113.470 Y71.021 E7.6017
G1 X114.084 Y67.537 E7.6822
G1 X114.119 Y67.340 F1080
G1 X114.119 Y64.576 F4800
G92 E0
G1 X114.421 Y64.576 E0.0069 F1080
G1 X115.550 Y70.979 E0.1548
G1 X115.550 Y130.995 E1.5201
G1 X115.564 Y131.260 E1.5262
G1 X115.608 Y131.542 E1.5327
G1 X115.682 Y131.817 E1.5391
G1 X115.784 Y132.083 E1.5456
G1 X115.914 Y132.337 E1.5521
G1 X116.069 Y132.575 E1.5586
G1 X116.248 Y132.797 E1.5651
G1 X116.449 Y132.998 E1.5715
G1 X116.671 Y133.177 E1.5780
G1 X116.910 Y133.332 E1.5845
G1 X117.163 Y133.462 E1.5910
G1 X117.429 Y133.564 E1.5975
G1 X117.704 Y133.638 E1.6039
G1 X117.986 Y133.682 E1.6104
G1 X118.251 Y133.696 E1.6165
G1 X131.751 Y133.696 E1.9236
G1 X132.017 Y133.682 E1.9297
G1 X132.299 Y133.637 E1.9361
G1 X132.574 Y133.563 E1.9426
G1 X132.840 Y133.460 E1.9491
G1 X133.093 Y133.331 E1.9556
G1 X133.332 Y133.175 E1.9621
G1 X133.553 Y132.995 E1.9686
G1 X133.754 Y132.794 E1.9750
G1 X133.933 Y132.572 E1.9815
G1 X134.088 Y132.333 E1.9880
G1 X134.217 Y132.079 E1.9945
G1 X134.319 Y131.813 E2.0010
G1 X134.392 Y131.538 E2.0074
G1 X134.436 Y131.257 E2.0139
G1 X134.450 Y130.995 E2.0199
G1 X134.450 Y70.979 E3.3852
G1 X135.579 Y64.576 E3.5331
G1 X135.881 Y64.576 E3.5400
G1 X137.010 Y70.979 E3.6879
G1 X137.010 Y130.995 E5.0533
G1 X137.024 Y131.260 E5.0593
G1 X137.068 Y131.542 E5.0658
G1 X137.142 Y131.817 E5.0723
G1 X137.244 Y132.083 E5.0788
G1 X137.374 Y132.337 E5.0852
G1 X137.529 Y132.575 E5.0917
G1 X137.708 Y132.797 E5.0982
G1 X137.909 Y132.998 E5.1047
G1 X138.131 Y133.177 E5.1112
G1 X138.369 Y133.332 E5.1176
G1 X138.623 Y133.462 E5.1241
G1 X138.889 Y133.564 E5.1306
G1 X139.164 Y133.638 E5.1371
G1 X139.446 Y133.682 E5.1436
G1 X139.711 Y133.696 E5.1496
G1 X143.280 Y133.696 E5.2308
G1 X143.280 Y138.256 E5.3345
G1 X140.980 Y138.256 E5.3869
G1 X140.613 Y138.745 E5.4008
G1 X140.367 Y138.256 E5.4132
G1 X118.593 Y138.256 E5.9086
G1 X118.226 Y138.745 E5.9225
G1 X117.981 Y138.256 E5.9349
G1 X106.720 Y138.256 E6.1911
G1 X106.720 Y133.696 E6.2949
G1 X110.291 Y133.696 E6.3761
G1 X110.557 Y133.682 E6.3822
G1 X110.839 Y133.637 E6.3886
G1 X111.114 Y133.563 E6.3951
G1 X111.380 Y133.460 E6.4016
G1 X111.633 Y133.331 E6.4081
G1 X111.872 Y133.175 E6.4146
G1 X112.093 Y132.996 E6.4211
G1 X112.294 Y132.794 E6.4275
G1 X112.473 Y132.572 E6.4340
G1 X112.628 Y132.333 E6.4405
G1 X112.757 Y132.079 E6.4470
G1 X112.859 Y131.813 E6.4535
G1 X112.932 Y131.538 E6.4599
G1 X112.976 Y131.257 E6.4664
G1 X112.990 Y130.995 E6.4724
G1 X112.990 Y70.979 E7.8377
G1 X114.084 Y64.773 E7.9811
G1 X114.119 Y64.576 F1080
; outer perimeter
G1 X114.669 Y63.216 F4800
G92 E0
G1 X116.030 Y70.937 E0.1784 F960
G1 X116.030 Y130.982 E1.5444
G1 X116.042 Y131.210 E1.5496
G1 X116.079 Y131.442 E1.5549
G1 X116.139 Y131.668 E1.5602
G1 X116.223 Y131.887 E1.5656
G1 X116.330 Y132.096 E1.5709
G1 X116.458 Y132.293 E1.5763
G1 X116.605 Y132.475 E1.5816
G1 X116.771 Y132.641 E1.5869
G1 X116.953 Y132.788 E1.5923
G1 X117.150 Y132.916 E1.5976
G1 X117.359 Y133.023 E1.6029
G1 X117.578 Y133.107 E1.6083
G1 X117.804 Y133.167 E1.6136
G1 X118.036 Y133.204 E1.6189
G1 X118.264 Y133.216 E1.6241
G1 X131.738 Y133.216 E1.9307
G1 X131.967 Y133.204 E1.9359
G1 X132.198 Y133.167 E1.9412
G1 X132.425 Y133.106 E1.9465
G1 X132.644 Y133.021 E1.9519
G1 X132.852 Y132.915 E1.9572
G1 X133.049 Y132.787 E1.9626
G1 X133.231 Y132.639 E1.9679
G1 X133.397 Y132.473 E1.9732
G1 X133.544 Y132.290 E1.9786
G1 X133.672 Y132.093 E1.9839
G1 X133.778 Y131.884 E1.9892
G1 X133.862 Y131.665 E1.9946
G1 X133.922 Y131.438 E1.9999
G1 X133.958 Y131.207 E2.0052
G1 X133.970 Y130.982 E2.0104
G1 X133.970 Y70.937 E3.3764
G1 X135.331 Y63.216 E3.5547
G1 X136.129 Y63.216 E3.5729
G1 X137.490 Y70.937 E3.7512
G1 X137.490 Y130.982 E5.1173
G1 X137.502 Y131.210 E5.1225
G1 X137.539 Y131.442 E5.1278
G1 X137.599 Y131.668 E5.1331
G1 X137.683 Y131.887 E5.1385
G1 X137.790 Y132.096 E5.1438
G1 X137.918 Y132.293 E5.1491
G1 X138.065 Y132.475 E5.1545
G1 X138.231 Y132.641 E5.1598
G1 X138.413 Y132.788 E5.1651
G1 X138.610 Y132.916 E5.1705
G1 X138.819 Y133.023 E5.1758
G1 X139.038 Y133.107 E5.1811
G1 X139.264 Y133.167 E5.1865
G1 X139.496 Y133.204 E5.1918
G1 X139.724 Y133.216 E5.1970
G1 X143.760 Y133.216 E5.2888
G1 X143.760 Y138.736 E5.4144
G1 X141.220 Y138.736 E5.4722
G1 X139.379 Y141.191 E5.5420
G1 X142.125 Y144.096 E5.6330
G1 X141.358 Y144.096 E5.6504
G1 X138.070 Y140.482 E5.7616
G1 X137.763 Y140.600 E5.7690
G1 X137.763 Y146.784 E5.9097
G1 X137.023 Y146.784 E5.9266
G1 X137.023 Y138.736 E6.1096
G1 X135.978 Y138.736 E6.1334
G1 X135.964 Y139.182 E6.1436
G1 X135.924 Y139.436 E6.1494
G1 X135.881 Y139.581 E6.1529
G1 X135.788 Y139.792 E6.1581
G1 X135.668 Y139.982 E6.1632
G1 X135.517 Y140.157 E6.1685
G1 X135.404 Y140.259 E6.1719
G1 X135.183 Y140.414 E6.1781
G1 X134.797 Y140.611 E6.1879
G1 X134.369 Y140.767 E6.1983
G1 X133.775 Y140.937 E6.2124
G1 X132.866 Y141.170 E6.2337
G1 X132.262 Y141.358 E6.2481
G1 X132.068 Y141.443 E6.2529
G1 X131.833 Y141.582 E6.2591
