; G-Code generated by Simplify3D(R) Version 4.0.0
; Oct 29, 2017 at 4:29:51 PM
; Settings Summary
;   processName,Process1
;   applyToModels,ljubasha
;   profileName,Prusa Research Original Prusa i3 MK2 (modified)
;   profileVersion,2017-07-23 22:27:18
;   baseProfile,
;   printMaterial,PLA
;   printQuality,Medium
;   printExtruders,
;   extruderName,Primary Extruder
;   extruderToolheadNumber,0
;   extruderDiameter,0.4
;   extruderAutoWidth,1
;   extruderWidth,0.48
;   extrusionMultiplier,1
;   extruderUseRetract,1
;   extruderRetractionDistance,1.5
;   extruderExtraRestartDistance,0
;   extruderRetractionZLift,0
;   extruderRetractionSpeed,1800
;   extruderUseCoasting,1
;   extruderCoastingDistance,0.2
;   extruderUseWipe,1
;   extruderWipeDistance,2
;   primaryExtruder,0
;   layerHeight,0.095
;   topSolidLayers,3
;   bottomSolidLayers,3
;   perimeterOutlines,3
;   printPerimetersInsideOut,1
;   startPointOption,2
;   startPointOriginX,0
;   startPointOriginY,0
;   sequentialIslands,0
;   spiralVaseMode,0
;   firstLayerHeightPercentage,120
;   firstLayerWidthPercentage,100
;   firstLayerUnderspeed,0.5
;   useRaft,0
;   raftExtruder,0
;   raftTopLayers,3
;   raftBaseLayers,2
;   raftOffset,3
;   raftSeparationDistance,0.14
;   raftTopInfill,100
;   aboveRaftSpeedMultiplier,0.3
;   useSkirt,1
;   skirtExtruder,0
;   skirtLayers,1
;   skirtOutlines,1
;   skirtOffset,4
;   usePrimePillar,0
;   primePillarExtruder,999
;   primePillarWidth,12
;   primePillarLocation,7
;   primePillarSpeedMultiplier,1
;   useOozeShield,0
;   oozeShieldExtruder,999
;   oozeShieldOffset,2
;   oozeShieldOutlines,1
;   oozeShieldSidewallShape,1
;   oozeShieldSidewallAngle,30
;   oozeShieldSpeedMultiplier,1
;   infillExtruder,0
;   internalInfillPattern,Rectilinear
;   externalInfillPattern,Rectilinear
;   infillPercentage,10
;   outlineOverlapPercentage,20
;   infillExtrusionWidthPercentage,100
;   minInfillLength,5
;   infillLayerInterval,1
;   internalInfillAngles,45,-45
;   overlapInternalInfillAngles,0
;   externalInfillAngles,45,-45
;   generateSupport,1
;   supportExtruder,0
;   supportInfillPercentage,30
;   supportExtraInflation,0
;   supportBaseLayers,0
;   denseSupportExtruder,0
;   denseSupportLayers,0
;   denseSupportInfillPercentage,70
;   supportLayerInterval,1
;   supportHorizontalPartOffset,0.3
;   supportUpperSeparationLayers,1
;   supportLowerSeparationLayers,1
;   supportType,0
;   supportGridSpacing,4
;   maxOverhangAngle,45
;   supportAngles,0
;   temperatureName,Primary Extruder,Heated Bed
;   temperatureNumber,0,0
;   temperatureSetpointCount,1,1
;   temperatureSetpointLayers,1,1
;   temperatureSetpointTemperatures,200,60
;   temperatureStabilizeAtStartup,1,1
;   temperatureHeatedBed,0,1
;   temperatureRelayBetweenLayers,0,0
;   temperatureRelayBetweenLoops,0,0
;   fanLayers,1,2
;   fanSpeeds,0,100
;   blipFanToFullPower,0
;   adjustSpeedForCooling,1
;   minSpeedLayerTime,15
;   minCoolingSpeedSlowdown,20
;   increaseFanForCooling,0
;   minFanLayerTime,45
;   maxCoolingFanSpeed,100
;   increaseFanForBridging,0
;   bridgingFanSpeed,100
;   use5D,1
;   relativeEdistances,0
;   allowEaxisZeroing,1
;   independentExtruderAxes,0
;   includeM10123,0
;   stickySupport,1
;   applyToolheadOffsets,0
;   gcodeXoffset,0
;   gcodeYoffset,0
;   gcodeZoffset,0
;   overrideMachineDefinition,1
;   machineTypeOverride,0
;   strokeXoverride,250
;   strokeYoverride,210
;   strokeZoverride,200
;   originOffsetXoverride,0
;   originOffsetYoverride,0
;   originOffsetZoverride,0
;   homeXdirOverride,-1
;   homeYdirOverride,-1
;   homeZdirOverride,-1
;   flipXoverride,1
;   flipYoverride,-1
;   flipZoverride,1
;   toolheadOffsets,0,0|0,0|0,0|0,0|0,0|0,0
;   overrideFirmwareConfiguration,1
;   firmwareTypeOverride,RepRap (Marlin/Repetier/Sprinter)
;   GPXconfigOverride,r2
;   baudRateOverride,250000
;   overridePrinterModels,1
;   printerModelsOverride
;   startingGcode,M115 U3.0.7 ; use the latest firmware version,G28 W ; home all axes without mesh bed leveling,G80 ; run mesh bed leveling routine,G1 Y-3.0 F1000.0 ; prepare to prime,G92 E0 ; reset extrusion distance,G1 X60.0 E9.0  F1000.0 ; priming,G1 X100.0 E12.5  F1000.0 ; priming
;   layerChangeGcode,
;   retractionGcode,
;   toolChangeGcode,
;   endingGcode,M106 S0 ; turn off cooling fan,M104 S0 ; turn off extruder,M140 S0 ; turn off bed,G1 X0 Y200 ; part removal,M84 ; disable motors
;   exportFileFormat,gcode
;   celebration,0
;   celebrationSong,Random Song
;   postProcessing,
;   defaultSpeed,2400
;   outlineUnderspeed,0.8
;   solidInfillUnderspeed,0.8
;   supportUnderspeed,0.8
;   rapidXYspeed,4800
;   rapidZspeed,1002
;   minBridgingArea,50
;   bridgingExtraInflation,0
;   bridgingExtrusionMultiplier,1
;   bridgingSpeedMultiplier,1
;   useFixedBridgingAngle,0
;   fixedBridgingAngle,0
;   applyBridgingToPerimeters,0
;   filamentDiameters,1.75|1.75|1.75|1.75|1.75|1.75
;   filamentPricesPerKg,46|46|46|46|46|46
;   filamentDensities,1.25|1.25|1.25|1.25|1.25|1.25
;   useMinPrintHeight,1
;   minPrintHeight,0
;   useMaxPrintHeight,1
;   maxPrintHeight,235
;   useDiaphragm,0
;   diaphragmLayerInterval,20
;   robustSlicing,1
;   mergeAllIntoSolid,0
;   onlyRetractWhenCrossingOutline,1
;   retractBetweenLayers,1
;   useRetractionMinTravel,0
;   retractionMinTravel,3
;   retractWhileWiping,1
;   onlyWipeOutlines,1
;   avoidCrossingOutline,0
;   maxMovementDetourFactor,3
;   toolChangeRetractionDistance,12
;   toolChangeExtraRestartDistance,-0.5
;   toolChangeRetractionSpeed,600
;   externalThinWallType,0
;   internalThinWallType,2
;   thinWallAllowedOverlapPercentage,25
;   singleExtrusionMinLength,1
;   singleExtrusionMinPrintingWidthPercentage,50
;   singleExtrusionMaxPrintingWidthPercentage,200
;   singleExtrusionEndpointExtension,0.2
;   horizontalSizeCompensation,0
G90
M82
M106 S0
M140 S60
M190 S60
M104 S200 T0
M109 S200 T0
M115 U3.0.7 ; use the latest firmware version
G28 W ; home all axes without mesh bed leveling
G80 ; run mesh bed leveling routine
G1 Y-3.0 F1000.0 ; prepare to prime
G92 E0 ; reset extrusion distance
G1 X60.0 E9.0  F1000.0 ; priming
G1 X100.0 E12.5  F1000.0 ; priming
G92 E0
G1 E-1.5000 F1800
G1 Z0.114 F1002
; process Process1
; layer 1, Z = 0.114
T0
; tool H0.114 W0.480
; skirt
G1 X105.400 Y60.764 F4800
G1 E0.0000 F540
G92 E0
G1 X105.442 Y60.691 E0.0019 F1200
G1 X107.737 Y58.765 E0.0701
G1 X107.817 Y58.736 E0.0720
G1 X112.013 Y58.736 E0.1675
G1 X112.093 Y58.765 E0.1694
G1 X114.388 Y60.691 E0.2376
G1 X114.430 Y60.764 E0.2395
G1 X116.122 Y70.357 E0.4611
G1 X116.123 Y70.367 E0.4613
G1 X116.155 Y70.725 E0.4695
G1 X116.155 Y70.736 E0.4698
G1 X116.155 Y128.736 E1.7893
G1 X133.845 Y128.736 E2.1917
G1 X133.845 Y70.736 E3.5112
G1 X133.845 Y70.725 E3.5114
G1 X133.877 Y70.367 E3.5196
G1 X133.878 Y70.357 E3.5199
G1 X135.570 Y60.764 E3.7415
G1 X135.612 Y60.691 E3.7434
G1 X137.907 Y58.765 E3.8115
G1 X137.987 Y58.736 E3.8135
G1 X142.183 Y58.736 E3.9089
G1 X142.263 Y58.765 E3.9109
G1 X144.558 Y60.691 E3.9790
G1 X144.600 Y60.764 E3.9810
G1 X146.292 Y70.356 E4.2025
G1 X146.293 Y70.367 E4.2028
G1 X146.325 Y70.725 E4.2110
G1 X146.325 Y70.735 E4.2112
G1 X146.335 Y128.736 E5.5307
G1 X152.205 Y128.736 E5.6642
G1 X152.293 Y128.773 E5.6664
G1 X154.703 Y131.183 E5.7440
G1 X154.740 Y131.271 E5.7461
G1 X154.740 Y140.681 E5.9602
G1 X154.703 Y140.769 E5.9624
G1 X153.143 Y142.329 E6.0126
G1 X153.143 Y142.458 E6.0155
G1 X153.142 Y142.467 E6.0157
G1 X153.115 Y142.794 E6.0232
G1 X153.114 Y142.804 E6.0234
G1 X152.967 Y143.700 E6.0441
G1 X152.964 Y143.712 E6.0443
G1 X152.857 Y144.111 E6.0537
G1 X152.853 Y144.122 E6.0540
G1 X152.521 Y144.997 E6.0753
G1 X152.515 Y145.010 E6.0756
G1 X152.297 Y145.432 E6.0864
G1 X152.290 Y145.444 E6.0867
G1 X151.755 Y146.236 E6.1085
G1 X151.747 Y146.247 E6.1088
G1 X151.421 Y146.623 E6.1201
G1 X151.411 Y146.634 E6.1204
G1 X150.737 Y147.244 E6.1411
G1 X150.729 Y147.251 E6.1414
G1 X150.434 Y147.473 E6.1498
G1 X150.425 Y147.479 E6.1500
G1 X149.918 Y147.795 E6.1636
G1 X149.909 Y147.800 E6.1638
G1 X149.609 Y147.955 E6.1715
G1 X149.600 Y147.959 E6.1718
G1 X148.789 Y148.295 E6.1917
G1 X148.779 Y148.299 E6.1920
G1 X148.414 Y148.412 E6.2006
G1 X148.403 Y148.414 E6.2009
G1 X147.504 Y148.604 E6.2218
G1 X147.496 Y148.606 E6.2220
G1 X147.195 Y148.646 E6.2289
G1 X147.187 Y148.647 E6.2291
G1 X146.271 Y148.703 E6.2500
G1 X146.265 Y148.703 E6.2501
G1 X146.036 Y148.705 E6.2553
G1 X146.029 Y148.704 E6.2555
G1 X145.170 Y148.661 E6.2750
G1 X145.163 Y148.661 E6.2752
G1 X144.920 Y148.634 E6.2808
G1 X144.913 Y148.633 E6.2809
G1 X144.093 Y148.494 E6.2998
G1 X144.085 Y148.492 E6.3000
G1 X143.790 Y148.419 E6.3069
G1 X143.782 Y148.417 E6.3071
G1 X142.985 Y148.157 E6.3262
G1 X142.975 Y148.153 E6.3265
G1 X142.893 Y148.118 E6.3285
G1 X142.603 Y148.253 E6.3358
G1 X142.591 Y148.257 E6.3360
G1 X142.192 Y148.394 E6.3456
G1 X142.180 Y148.398 E6.3459
G1 X141.895 Y148.464 E6.3526
G1 X141.895 Y148.728 E6.3586
G1 X141.859 Y148.816 E6.3608
G1 X139.448 Y151.227 E6.4383
G1 X139.360 Y151.264 E6.4405
G1 X134.730 Y151.264 E6.5458
G1 X134.641 Y151.227 E6.5480
G1 X132.231 Y148.817 E6.6256
G1 X132.194 Y148.729 E6.6277
G1 X132.194 Y148.608 E6.6305
G1 X131.982 Y148.603 E6.6353
G1 X131.975 Y148.602 E6.6355
G1 X131.747 Y148.583 E6.6407
G1 X131.740 Y148.582 E6.6408
G1 X131.226 Y148.511 E6.6526
G1 X131.220 Y148.510 E6.6528
G1 X131.006 Y148.468 E6.6577
G1 X131.000 Y148.467 E6.6579
G1 X130.197 Y148.266 E6.6767
G1 X130.187 Y148.263 E6.6769
G1 X129.849 Y148.147 E6.6851
G1 X129.839 Y148.143 E6.6853
G1 X129.679 Y148.072 E6.6893
G1 X129.359 Y148.206 E6.6972
G1 X129.348 Y148.211 E6.6975
G1 X128.461 Y148.481 E6.7185
G1 X128.452 Y148.483 E6.7188
G1 X128.118 Y148.555 E6.7265
G1 X128.108 Y148.557 E6.7268
G1 X127.229 Y148.672 E6.7469
G1 X127.223 Y148.672 E6.7471
G1 X127.017 Y148.689 E6.7518
G1 X127.011 Y148.689 E6.7519
G1 X126.489 Y148.705 E6.7638
G1 X126.485 Y148.705 E6.7639
G1 X126.321 Y148.703 E6.7676
G1 X126.316 Y148.703 E6.7677
G1 X125.489 Y148.661 E6.7866
G1 X125.482 Y148.661 E6.7867
G1 X125.240 Y148.634 E6.7923
G1 X125.233 Y148.633 E6.7924
G1 X124.413 Y148.494 E6.8114
G1 X124.404 Y148.492 E6.8116
G1 X124.110 Y148.419 E6.8184
G1 X124.102 Y148.417 E6.8186
G1 X123.305 Y148.157 E6.8377
G1 X123.295 Y148.153 E6.8380
G1 X123.154 Y148.093 E6.8414
G1 X122.721 Y148.290 E6.8523
G1 X122.708 Y148.296 E6.8526
G1 X122.242 Y148.445 E6.8637
G1 X122.228 Y148.448 E6.8640
G1 X122.187 Y148.456 E6.8650
G1 X122.187 Y148.728 E6.8712
G1 X122.151 Y148.816 E6.8733
G1 X119.740 Y151.227 E6.9509
G1 X119.652 Y151.264 E6.9531
G1 X115.022 Y151.264 E7.0584
G1 X114.934 Y151.227 E7.0606
G1 X112.581 Y148.874 E7.1363
G1 X110.227 Y151.227 E7.2120
G1 X110.139 Y151.264 E7.2142
G1 X105.509 Y151.264 E7.3195
G1 X105.421 Y151.227 E7.3217
G1 X104.319 Y150.126 E7.3571
G1 X103.730 Y150.715 E7.3761
G1 X103.642 Y150.752 E7.3783
G1 X98.937 Y150.752 E7.4853
G1 X98.849 Y150.715 E7.4875
G1 X96.439 Y148.305 E7.5650
G1 X96.402 Y148.217 E7.5672
G1 X96.402 Y141.874 E7.7115
G1 X95.297 Y140.769 E7.7470
G1 X95.260 Y140.681 E7.7492
G1 X95.260 Y131.271 E7.9633
G1 X95.297 Y131.183 E7.9654
G1 X97.707 Y128.773 E8.0430
G1 X97.795 Y128.736 E8.0452
G1 X103.664 Y128.736 E8.1787
G1 X103.675 Y70.735 E9.4982
G1 X103.675 Y70.725 E9.4984
G1 X103.707 Y70.367 E9.5066
G1 X103.708 Y70.356 E9.5069
G1 X105.365 Y60.961 E9.7239
G1 X105.400 Y60.764 F1200
G92 E0
G1 E-1.5000 F1800
; inner perimeter
G1 X109.764 Y67.340 F4800
G1 E0.0000 F1800
G92 E0
G1 X110.066 Y67.340 E0.0069 F1080
G1 X110.715 Y71.021 E0.0919
G1 X110.715 Y131.008 E1.4566
G1 X110.731 Y131.307 E1.4634
G1 X110.782 Y131.637 E1.4710
G1 X110.869 Y131.961 E1.4786
G1 X110.988 Y132.274 E1.4863
G1 X111.140 Y132.573 E1.4939
G1 X111.322 Y132.854 E1.5015
G1 X111.533 Y133.115 E1.5091
G1 X111.770 Y133.352 E1.5168
G1 X112.030 Y133.564 E1.5244
G1 X112.311 Y133.747 E1.5320
G1 X112.609 Y133.899 E1.5396
G1 X112.922 Y134.020 E1.5473
G1 X113.246 Y134.107 E1.5549
G1 X113.577 Y134.160 E1.5625
G1 X113.881 Y134.176 E1.5694
G1 X136.116 Y134.176 E2.0753
G1 X136.420 Y134.160 E2.0822
G1 X136.751 Y134.108 E2.0898
G1 X137.074 Y134.021 E2.0975
G1 X137.387 Y133.901 E2.1051
G1 X137.686 Y133.749 E2.1127
G1 X137.967 Y133.566 E2.1203
G1 X138.227 Y133.355 E2.1280
G1 X138.464 Y133.118 E2.1356
G1 X138.675 Y132.858 E2.1432
G1 X138.858 Y132.577 E2.1508
G1 X139.010 Y132.278 E2.1585
G1 X139.130 Y131.965 E2.1661
G1 X139.217 Y131.642 E2.1737
G1 X139.269 Y131.311 E2.1813
G1 X139.285 Y131.008 E2.1882
G1 X139.285 Y71.021 E3.5529
G1 X139.934 Y67.340 E3.6379
G1 X140.236 Y67.340 E3.6448
G1 X140.885 Y71.021 E3.7298
G1 X140.885 Y131.008 E5.0945
G1 X140.901 Y131.307 E5.1014
G1 X140.952 Y131.637 E5.1090
G1 X141.039 Y131.961 E5.1166
G1 X141.158 Y132.274 E5.1242
G1 X141.310 Y132.573 E5.1318
G1 X141.492 Y132.854 E5.1395
G1 X141.703 Y133.115 E5.1471
G1 X141.940 Y133.352 E5.1547
G1 X142.200 Y133.564 E5.1623
G1 X142.481 Y133.747 E5.1700
G1 X142.779 Y133.899 E5.1776
G1 X143.092 Y134.020 E5.1852
G1 X143.416 Y134.107 E5.1928
G1 X143.747 Y134.160 E5.2005
G1 X144.051 Y134.176 E5.2074
G1 X149.300 Y134.176 E5.3268
G1 X149.300 Y137.776 E5.4087
G1 X100.700 Y137.776 E6.5144
G1 X100.700 Y134.176 E6.5963
G1 X105.949 Y134.176 E6.7157
G1 X106.250 Y134.160 E6.7225
G1 X106.581 Y134.108 E6.7301
G1 X106.904 Y134.021 E6.7378
G1 X107.217 Y133.901 E6.7454
G1 X107.516 Y133.749 E6.7530
G1 X107.797 Y133.566 E6.7606
G1 X108.057 Y133.355 E6.7683
G1 X108.294 Y133.118 E6.7759
G1 X108.505 Y132.858 E6.7835
G1 X108.688 Y132.577 E6.7911
G1 X108.840 Y132.278 E6.7988
G1 X108.960 Y131.965 E6.8064
G1 X109.047 Y131.642 E6.8140
G1 X109.099 Y131.311 E6.8216
G1 X109.115 Y131.007 E6.8285
G1 X109.115 Y71.021 E8.1932
G1 X109.729 Y67.537 E8.2737
G1 X109.764 Y67.340 F1080
G1 X109.764 Y64.576 F4800
G92 E0
G1 X110.066 Y64.576 E0.0069 F1080
G1 X111.195 Y70.979 E0.1548
G1 X111.195 Y130.995 E1.5201
G1 X111.209 Y131.257 E1.5261
G1 X111.253 Y131.538 E1.5326
G1 X111.326 Y131.813 E1.5391
G1 X111.428 Y132.079 E1.5455
G1 X111.557 Y132.333 E1.5520
G1 X111.712 Y132.572 E1.5585
G1 X111.891 Y132.794 E1.5650
G1 X112.092 Y132.995 E1.5715
G1 X112.313 Y133.175 E1.5779
G1 X112.552 Y133.331 E1.5844
G1 X112.805 Y133.460 E1.5909
G1 X113.071 Y133.563 E1.5974
G1 X113.346 Y133.637 E1.6039
G1 X113.628 Y133.682 E1.6104
G1 X113.894 Y133.696 E1.6164
G1 X136.104 Y133.696 E2.1217
G1 X136.369 Y133.682 E2.1277
G1 X136.651 Y133.638 E2.1342
G1 X136.926 Y133.564 E2.1407
G1 X137.192 Y133.462 E2.1472
G1 X137.445 Y133.332 E2.1537
G1 X137.684 Y133.177 E2.1601
G1 X137.906 Y132.998 E2.1666
G1 X138.107 Y132.797 E2.1731
G1 X138.286 Y132.575 E2.1796
G1 X138.441 Y132.337 E2.1861
G1 X138.571 Y132.083 E2.1925
G1 X138.673 Y131.817 E2.1990
G1 X138.747 Y131.542 E2.2055
G1 X138.791 Y131.260 E2.2120
G1 X138.805 Y130.995 E2.2180
G1 X138.805 Y70.979 E3.5834
G1 X139.934 Y64.576 E3.7313
G1 X140.236 Y64.576 E3.7382
G1 X141.365 Y70.979 E3.8861
G1 X141.365 Y130.995 E5.2514
G1 X141.379 Y131.257 E5.2574
G1 X141.423 Y131.538 E5.2639
G1 X141.496 Y131.813 E5.2703
G1 X141.598 Y132.079 E5.2768
G1 X141.727 Y132.333 E5.2833
G1 X141.882 Y132.572 E5.2898
G1 X142.060 Y132.794 E5.2963
G1 X142.262 Y132.996 E5.3028
G1 X142.483 Y133.175 E5.3092
G1 X142.722 Y133.331 E5.3157
G1 X142.975 Y133.460 E5.3222
G1 X143.241 Y133.563 E5.3287
G1 X143.516 Y133.637 E5.3352
G1 X143.798 Y133.682 E5.3416
G1 X144.064 Y133.696 E5.3477
G1 X149.780 Y133.696 E5.4778
G1 X149.780 Y138.256 E5.5815
G1 X148.196 Y138.256 E5.6175
G1 X148.196 Y138.331 E5.6192
G1 X147.923 Y138.399 E5.6256
G1 X147.847 Y138.256 E5.6293
G1 X128.516 Y138.256 E6.0691
G1 X128.515 Y138.333 E6.0708
G1 X128.243 Y138.400 E6.0772
G1 X128.166 Y138.256 E6.0810
G1 X100.220 Y138.256 E6.7167
G1 X100.220 Y133.696 E6.8205
G1 X105.936 Y133.696 E6.9505
G1 X106.199 Y133.682 E6.9565
G1 X106.481 Y133.638 E6.9630
G1 X106.756 Y133.564 E6.9695
G1 X107.022 Y133.462 E6.9759
G1 X107.275 Y133.332 E6.9824
G1 X107.514 Y133.177 E6.9889
G1 X107.736 Y132.998 E6.9954
G1 X107.937 Y132.797 E7.0019
G1 X108.116 Y132.575 E7.0083
G1 X108.271 Y132.337 E7.0148
G1 X108.401 Y132.083 E7.0213
G1 X108.503 Y131.817 E7.0278
G1 X108.577 Y131.542 E7.0343
G1 X108.621 Y131.260 E7.0407
G1 X108.635 Y130.995 E7.0468
