; generated by Slic3r Prusa Edition 1.41.0+ on 2019-02-12 at 08:40:42

; 

; external perimeters extrusion width = 0.60mm
; perimeters extrusion width = 0.43mm
; infill extrusion width = 0.45mm
; solid infill extrusion width = 0.70mm
; top infill extrusion width = 0.43mm
; support material extrusion width = 0.35mm
; first layer extrusion width = 0.42mm

M201 X9000 Y9000 Z500 E10000 ; sets maximum accelerations, mm/sec^2
M203 X500 Y500 Z12 E120 ; sets maximum feedrates, mm/sec
M204 P2000 R1500 T2000 ; sets acceleration (P, T) and retract acceleration (R), mm/sec^2
M205 X10.00 Y10.00 Z0.20 E2.50 ; sets the jerk limits, mm/sec
M205 S0 T0 ; sets the minimum extruding and travel feed rate, mm/sec
M107
M115 U3.1.0 ; tell printer latest fw version
M83  ; extruder relative mode
M204 S2000 T1500 ; MK2 firmware only supports the old M204 format
M104 S210 ; set extruder temp
M140 S55 ; set bed temp
M190 S55 ; wait for bed temp
M109 S210 ; wait for extruder temp
G28 W ; home all without mesh bed level
G80 ; mesh bed leveling
G1 Y-3.0 F1000.0 ; go outside print area
G92 E0.0
G1 X60.0 E9.0  F1000.0 ; intro line
G1 X100.0 E12.5  F1000.0 ; intro line
G92 E0.0
M900 K30; Filament gcode
G21 ; set units to millimeters
G90 ; use absolute coordinates
M83 ; use relative distances for extrusion
;BEFORE_LAYER_CHANGE
G92 E0.0
;0.32


G1 E-0.80000 F2100.00000
G1 Z0.600 F10800.000
;AFTER_LAYER_CHANGE
;0.32
G1 X102.762 Y61.852
G1 Z0.320
G1 E0.80000 F2100.00000
M204 S1000
G1 F1800
G1 X103.098 Y61.427 E0.02531
G1 X103.531 Y61.096 E0.02548
G1 X104.033 Y60.883 E0.02548
G1 X104.572 Y60.801 E0.02548
G1 X145.379 Y60.800 E1.90735
G1 X146.111 Y60.929 E0.03475
G1 X146.757 Y61.296 E0.03475
G1 X147.242 Y61.859 E0.03475
G1 X147.509 Y62.553 E0.03475
G1 X159.651 Y132.652 E3.32529
G1 X159.652 Y139.299 E0.31068
G1 X158.384 Y143.408 E0.20098
G1 X157.891 Y144.413 E0.05233
G1 X157.116 Y145.343 E0.05658
G1 X156.209 Y145.986 E0.05195
G1 X150.450 Y148.979 E0.30336
G1 X149.627 Y149.196 E0.03977
G1 X103.564 Y149.199 E2.15304
G1 X93.478 Y148.682 E0.47203
G1 X92.979 Y148.584 E0.02379
G1 X92.515 Y148.374 E0.02379
G1 X91.885 Y147.797 E0.03994
G1 X91.525 Y147.018 E0.04010
G1 X90.345 Y139.276 E0.36602
G1 X90.339 Y132.721 E0.30638
G1 X101.082 Y70.542 E2.94939
G1 X102.489 Y62.562 E0.37872
G1 X102.741 Y61.908 E0.03278
; PURGING FINISHED
G1 F8640
G1 X103.098 Y61.427 E-0.13834
G1 X103.531 Y61.096 E-0.12588
G1 X104.033 Y60.883 E-0.12588
G1 X104.572 Y60.801 E-0.12588
G1 X105.628 Y60.801 E-0.24401
G1 E-0.04000 F2100.00000
G1 Z0.920 F10800.000
G1 X104.154 Y146.419
G1 Z0.320
G1 E0.80000 F2100.00000
G1 F1800
G1 X104.253 Y146.419 E0.00460
G1 X104.253 Y146.463 E0.00203
G1 X104.171 Y146.463 E0.00382
G1 X103.803 Y146.814 F10800.000
G1 F1800
G1 X103.803 Y146.068 E0.03487
G1 X104.604 Y146.068 E0.03744
G1 X104.604 Y146.814 E0.03487
G1 X103.863 Y146.814 E0.03464
G1 X103.911 Y146.429 F10800.000
G1 F8640
G1 X103.803 Y146.068 E-0.17281
G1 X104.604 Y146.068 E-0.18495
G1 X104.604 Y146.814 E-0.17226
G1 X103.863 Y146.814 E-0.17110
G1 E-0.09888 F2100.00000
G1 Z0.920 F10800.000
G1 X110.931 Y146.463
G1 Z0.320
G1 E0.80000 F2100.00000
G1 F1800
G1 X110.931 Y146.419 E0.00203
G1 X111.029 Y146.419 E0.00460
G1 X111.029 Y146.463 E0.00203
G1 X110.991 Y146.463 E0.00179
G1 X111.380 Y146.814 F10800.000
G1 F1800
G1 X110.579 Y146.814 E0.03744
G1 X110.579 Y146.068 E0.03487
G1 X111.380 Y146.068 E0.03744
G1 X111.380 Y146.754 E0.03206
G1 X110.993 Y146.715 F10800.000
G1 F8640
G1 X110.579 Y146.814 E-0.18547
G1 X110.579 Y146.068 E-0.17226
G1 X111.380 Y146.068 E-0.18495
G1 X111.380 Y146.754 E-0.15840
G1 E-0.09892 F2100.00000
G1 Z0.920 F10800.000
G1 X94.584 Y138.766
G1 Z0.320
G1 E0.80000 F2100.00000
G1 F1800
G1 X97.391 Y138.766 E0.13122
G1 X95.549 Y143.541 E0.23923
G1 X94.987 Y145.286 E0.08571
G1 X94.542 Y145.215 E0.02106
G1 X94.584 Y143.334 E0.08795
G1 X94.584 Y138.826 E0.21069
G1 X94.585 Y138.366 F10800.000
G1 F8640
G1 X97.391 Y138.766 E-0.64839
G1 X97.217 Y139.217 E-0.11161
G1 E-0.04000 F2100.00000
G1 Z0.920 F10800.000
G1 X99.223 Y138.766
G1 Z0.320
G1 E0.80000 F2100.00000
G1 F1800
G1 X101.986 Y138.766 E0.12914
G1 X101.987 Y143.596 E0.22575
G1 X102.030 Y145.137 E0.07206
G1 X101.582 Y145.212 E0.02122
G1 X101.108 Y143.719 E0.07318
G1 X99.245 Y138.822 E0.24491
G1 X99.177 Y138.369 F10800.000
G1 F8640
G1 X101.986 Y138.766 E-0.63317
G1 X101.986 Y139.315 E-0.12683
G1 E-0.04000 F2100.00000
G1 Z0.920 F10800.000
G1 X101.527 Y145.577
G1 Z0.320
G1 E0.80000 F2100.00000
G1 F1800
G1 X102.382 Y145.434 E0.04048
G1 X102.382 Y145.951 E0.02413
G1 X101.669 Y145.951 E0.03332
G1 X101.549 Y145.633 E0.01588
G1 F8640
G1 X102.382 Y145.434 E-0.19775
G1 X102.382 Y145.951 E-0.11919
G1 X101.669 Y145.951 E-0.16461
G1 X101.549 Y145.633 E-0.07842
G1 E-0.24001 F2100.00000
G1 Z0.920 F10800.000
G1 X95.071 Y145.656
G1 Z0.320
G1 E0.80000 F2100.00000
G1 F1800
G1 X94.958 Y145.951 E0.01477
G1 X94.202 Y145.951 E0.03531
G1 X94.202 Y145.516 E0.02032
G1 X95.012 Y145.646 E0.03834
G1 F8640
G1 X94.958 Y145.951 E-0.07138
G1 X94.202 Y145.951 E-0.17444
G1 X94.202 Y145.516 E-0.10036
G1 X95.012 Y145.646 E-0.18941
G1 E-0.26441 F2100.00000
G1 Z0.920 F10800.000
G1 X114.124 Y138.766
G1 Z0.320
G1 E0.80000 F2100.00000
G1 F1800
G1 X117.581 Y138.766 E0.16158
G1 X117.581 Y141.644 E0.13452
G1 X117.539 Y142.372 E0.03409
G1 X117.459 Y142.773 E0.01908
G1 X117.334 Y143.101 E0.01643
G1 X117.150 Y143.357 E0.01473
G1 X116.897 Y143.547 E0.01481
G1 X116.586 Y143.668 E0.01559
G1 X116.224 Y143.725 E0.01709
G1 X115.813 Y143.721 E0.01926
G1 X115.417 Y143.637 E0.01891
G1 X115.074 Y143.472 E0.01781
G1 X114.898 Y143.343 E0.01020
G1 X114.625 Y143.055 E0.01854
G1 X114.502 Y142.875 E0.01019
G1 X114.398 Y142.679 E0.01036
G1 X114.244 Y142.258 E0.02094
G1 X114.153 Y141.776 E0.02295
G1 X114.124 Y141.243 E0.02495
G1 X114.124 Y138.826 E0.11296
G1 X114.122 Y138.366 F10800.000
G1 F8640
G1 X117.415 Y138.769 E-0.76000
G1 E-0.04000 F2100.00000
G1 Z0.920 F10800.000
G1 X118.368 Y138.826
G1 Z0.320
G1 E0.80000 F2100.00000
G1 F1800
G1 X118.368 Y138.766 E0.00280
G1 X121.826 Y138.766 E0.16162
G1 X121.826 Y141.644 E0.13452
G1 X121.784 Y142.372 E0.03409
G1 X121.704 Y142.773 E0.01908
G1 X121.579 Y143.101 E0.01643
G1 X121.395 Y143.357 E0.01474
G1 X121.141 Y143.547 E0.01481
G1 X120.830 Y143.668 E0.01560
G1 X120.469 Y143.725 E0.01711
G1 X120.052 Y143.722 E0.01946
G1 X119.651 Y143.638 E0.01917
G1 X119.298 Y143.470 E0.01826
G1 X119.133 Y143.348 E0.00961
G1 X118.982 Y143.206 E0.00968
G1 X118.737 Y142.878 E0.01913
G1 X118.555 Y142.485 E0.02022
G1 X118.485 Y142.257 E0.01118
G1 X118.397 Y141.778 E0.02276
G1 X118.368 Y141.243 E0.02506
G1 X118.368 Y138.886 E0.11015
G1 X118.316 Y138.796 F10800.000
G1 F8640
G1 X118.368 Y138.766 E-0.02771
G1 X121.539 Y138.766 E-0.73229
G1 E-0.04000 F2100.00000
G1 Z0.920 F10800.000
G1 X124.533 Y138.766
G1 Z0.320
G1 E0.80000 F2100.00000
G1 F1800
G1 X128.179 Y138.766 E0.17045
G1 X128.304 Y139.287 E0.02505
G1 X128.352 Y139.594 E0.01451
G1 X128.404 Y140.271 E0.03173
G1 X128.404 Y141.029 E0.03543
G1 X128.352 Y141.709 E0.03189
G1 X128.245 Y142.287 E0.02748
G1 X128.079 Y142.765 E0.02367
G1 X127.850 Y143.139 E0.02047
G1 X127.699 Y143.301 E0.01033
G1 X127.534 Y143.434 E0.00993
G1 X127.350 Y143.543 E0.00997
G1 X127.145 Y143.629 E0.01043
G1 X126.708 Y143.721 E0.02087
G1 X126.199 Y143.720 E0.02378
G1 X125.940 Y143.683 E0.01220
G1 X125.702 Y143.622 E0.01151
G1 X125.480 Y143.535 E0.01115
G1 X125.275 Y143.422 E0.01093
G1 X125.090 Y143.283 E0.01083
G1 X124.924 Y143.120 E0.01087
G1 X124.777 Y142.928 E0.01132
G1 X124.554 Y142.492 E0.02288
G1 X124.464 Y142.224 E0.01320
G1 X124.341 Y141.642 E0.02780
G1 X124.302 Y141.306 E0.01583
G1 X124.272 Y140.574 E0.03426
G1 X124.301 Y139.878 E0.03254
G1 X124.392 Y139.273 E0.02858
G1 X124.517 Y138.824 E0.02181
G1 X124.560 Y138.367 F10800.000
G1 F8640
G1 X127.808 Y138.772 E-0.76000
G1 E-0.04000 F2100.00000
G1 Z0.920 F10800.000
G1 X131.058 Y138.766
G1 Z0.320
G1 E0.80000 F2100.00000
G1 F1800
G1 X134.923 Y138.766 E0.18063
G1 X135.076 Y139.314 E0.02659
G1 X135.131 Y139.621 E0.01459
G1 X135.192 Y140.291 E0.03143
G1 X135.193 Y141.039 E0.03499
G1 X135.134 Y141.717 E0.03179
G1 X135.015 Y142.298 E0.02772
G1 X134.833 Y142.778 E0.02398
G1 X134.712 Y142.989 E0.01139
G1 X134.572 Y143.173 E0.01082
G1 X134.409 Y143.335 E0.01073
G1 X134.223 Y143.471 E0.01075
G1 X134.017 Y143.581 E0.01091
G1 X133.793 Y143.666 E0.01122
G1 X133.546 Y143.727 E0.01189
G1 X133.016 Y143.773 E0.02488
G1 X132.480 Y143.726 E0.02512
G1 X132.230 Y143.664 E0.01205
G1 X132.002 Y143.578 E0.01140
G1 X131.792 Y143.466 E0.01112
G1 X131.602 Y143.328 E0.01098
G1 X131.433 Y143.165 E0.01098
G1 X131.283 Y142.974 E0.01137
G1 X131.054 Y142.538 E0.02298
G1 X130.894 Y142.005 E0.02602
G1 X130.801 Y141.383 E0.02939
G1 X130.777 Y141.031 E0.01649
G1 X130.777 Y140.304 E0.03399
G1 X130.800 Y139.959 E0.01616
G1 X130.892 Y139.346 E0.02897
G1 X131.042 Y138.824 E0.02540
G1 X131.087 Y138.367 F10800.000
G1 F8640
G1 X134.333 Y138.775 E-0.76000
G1 E-0.04000 F2100.00000
G1 Z0.920 F10800.000
G1 X137.877 Y138.824
G1 Z0.320
G1 E0.80000 F2100.00000
G1 F1800
G1 X137.877 Y138.766 E0.00270
G1 X141.724 Y138.766 E0.17981
G1 X141.724 Y141.644 E0.13451
G1 X141.687 Y142.310 E0.03120
G1 X141.608 Y142.717 E0.01938
G1 X141.524 Y142.953 E0.01172
G1 X141.351 Y143.244 E0.01580
G1 X141.112 Y143.471 E0.01540
G1 X140.810 Y143.621 E0.01573
G1 X140.438 Y143.705 E0.01784
G1 X139.992 Y143.732 E0.02089
G1 X139.541 Y143.691 E0.02117
G1 X139.316 Y143.636 E0.01082
G1 X138.928 Y143.468 E0.01977
G1 X138.587 Y143.211 E0.01994
G1 X138.307 Y142.880 E0.02029
G1 X138.183 Y142.670 E0.01137
G1 X138.014 Y142.256 E0.02093
G1 X137.911 Y141.773 E0.02306
G1 X137.877 Y141.244 E0.02481
G1 X137.877 Y138.884 E0.11030
G1 X137.827 Y138.795 F10800.000
G1 F8640
G1 X137.877 Y138.766 E-0.02717
G1 X141.051 Y138.766 E-0.73283
G1 E-0.04000 F2100.00000
G1 Z0.920 F10800.000
G1 X144.582 Y138.766
G1 Z0.320
G1 E0.80000 F2100.00000
G1 F1800
G1 X148.188 Y138.766 E0.16858
G1 X148.363 Y139.385 E0.03005
G1 X148.455 Y140.015 E0.02976
G1 X148.478 Y140.371 E0.01669
G1 X148.478 Y141.107 E0.03437
G1 X148.417 Y141.762 E0.03075
G1 X148.293 Y142.326 E0.02702
G1 X148.104 Y142.795 E0.02364
G1 X147.978 Y143.003 E0.01136
G1 X147.834 Y143.184 E0.01077
G1 X147.670 Y143.342 E0.01065
G1 X147.486 Y143.475 E0.01065
G1 X147.282 Y143.584 E0.01076
G1 X147.062 Y143.667 E0.01101
G1 X146.821 Y143.727 E0.01162
G1 X146.306 Y143.773 E0.02417
G1 X145.837 Y143.726 E0.02201
G1 X145.615 Y143.664 E0.01078
G1 X145.414 Y143.579 E0.01024
G1 X145.229 Y143.467 E0.01009
G1 X145.062 Y143.331 E0.01006
G1 X144.916 Y143.171 E0.01016
G1 X144.786 Y142.983 E0.01065
G1 X144.592 Y142.559 E0.02182
G1 X144.514 Y142.300 E0.01261
G1 X144.453 Y142.020 E0.01342
G1 X144.373 Y141.394 E0.02950
G1 X144.347 Y140.663 E0.03418
G1 X144.373 Y139.930 E0.03427
G1 X144.452 Y139.303 E0.02956
G1 X144.567 Y138.824 E0.02301
G1 X144.605 Y138.367 F10800.000
G1 F8640
G1 X147.858 Y138.771 E-0.76000
G1 E-0.04000 F2100.00000
G1 Z0.920 F10800.000
G1 X151.424 Y138.766
G1 Z0.320
G1 E0.80000 F2100.00000
G1 F1800
G1 X155.289 Y138.766 E0.18063
G1 X155.442 Y139.314 E0.02659
G1 X155.497 Y139.621 E0.01459
G1 X155.558 Y140.291 E0.03143
G1 X155.559 Y141.039 E0.03499
G1 X155.500 Y141.717 E0.03179
G1 X155.381 Y142.298 E0.02772
G1 X155.199 Y142.778 E0.02398
G1 X155.078 Y142.989 E0.01139
G1 X154.938 Y143.173 E0.01082
G1 X154.775 Y143.335 E0.01073
G1 X154.589 Y143.471 E0.01075
G1 X154.384 Y143.581 E0.01091
G1 X154.159 Y143.666 E0.01122
G1 X153.912 Y143.727 E0.01189
G1 X153.382 Y143.773 E0.02488
G1 X152.846 Y143.726 E0.02511
G1 X152.596 Y143.664 E0.01206
G1 X152.368 Y143.578 E0.01140
G1 X152.158 Y143.466 E0.01112
G1 X151.968 Y143.328 E0.01098
G1 X151.799 Y143.165 E0.01098
G1 X151.649 Y142.974 E0.01137
G1 X151.420 Y142.538 E0.02298
G1 X151.260 Y142.005 E0.02602
G1 X151.167 Y141.383 E0.02939
G1 X151.143 Y141.031 E0.01649
G1 X151.143 Y140.304 E0.03399
G1 X151.166 Y139.959 E0.01616
G1 X151.258 Y139.346 E0.02897
G1 X151.408 Y138.824 E0.02540
G1 X151.452 Y138.367 F10800.000
G1 F8640
G1 X154.699 Y138.775 E-0.76000
G1 E-0.04000 F2100.00000
G1 Z0.920 F10800.000
G1 X155.706 Y138.415
G1 Z0.320
G1 E0.80000 F2100.00000
G1 F1800
G1 X155.968 Y139.469 E0.05076
G1 X156.027 Y139.831 E0.01719
G1 X156.064 Y140.230 E0.01870
G1 X156.076 Y140.664 E0.02028
G1 X156.030 Y141.507 E0.03947
G1 X155.974 Y141.874 E0.01737
G1 X155.897 Y142.205 E0.01586
G1 X155.802 Y142.498 E0.01443
G1 X155.688 Y142.756 E0.01315
G1 X155.559 Y142.979 E0.01204
G1 X155.415 Y143.170 E0.01120
G1 X155.266 Y143.322 E0.00995
G1 X155.372 Y143.184 E0.00815
G1 X155.518 Y142.928 E0.01376
G1 X155.719 Y142.396 E0.02660
G1 X155.848 Y141.767 E0.02999
G1 X155.910 Y141.054 E0.03346
G1 X155.910 Y140.275 E0.03644
G1 X155.846 Y139.574 E0.03288
G1 X155.785 Y139.235 E0.01609
G1 X155.555 Y138.415 E0.03983
G1 X151.159 Y138.415 E0.20547
G1 X150.914 Y139.271 E0.04165
G1 X150.817 Y139.921 E0.03070
G1 X150.792 Y140.292 E0.01739
G1 X150.792 Y141.043 E0.03509
G1 X150.817 Y141.421 E0.01771
G1 X150.916 Y142.082 E0.03124
G1 X151.093 Y142.671 E0.02877
G1 X151.382 Y143.203 E0.02824
G1 X151.314 Y143.142 E0.00422
G1 X151.027 Y142.716 E0.02402
G1 X150.810 Y142.167 E0.02761
G1 X150.673 Y141.482 E0.03263
G1 X150.625 Y140.655 E0.03874
G1 X150.672 Y139.862 E0.03714
G1 X150.730 Y139.508 E0.01676
G1 X150.997 Y138.415 E0.05259
G1 X148.935 Y138.415 E0.09636
G1 X148.935 Y146.463 E0.37617
G1 X148.838 Y146.463 E0.00452
G1 X148.849 Y142.893 E0.16685
G1 X148.482 Y142.795 E0.01775
G1 X148.629 Y142.430 E0.01839
G1 X148.764 Y141.816 E0.02941
G1 X148.829 Y141.123 E0.03253
G1 X148.829 Y140.360 E0.03566
G1 X148.804 Y139.978 E0.01788
G1 X148.708 Y139.311 E0.03150
G1 X148.454 Y138.415 E0.04355
G1 X144.305 Y138.415 E0.19393
G1 X144.106 Y139.239 E0.03966
G1 X144.022 Y139.902 E0.03121
G1 X143.995 Y140.663 E0.03560
G1 X144.023 Y141.422 E0.03551
G1 X144.106 Y142.080 E0.03098
G1 X144.262 Y142.683 E0.02910
G1 X144.479 Y143.158 E0.02442
G1 X144.640 Y143.390 E0.01322
G1 X144.784 Y143.547 E0.00995
G1 X144.699 Y143.492 E0.00476
G1 X144.412 Y143.176 E0.01996
G1 X144.174 Y142.741 E0.02318
G1 X143.991 Y142.171 E0.02794
G1 X143.876 Y141.464 E0.03350
G1 X143.837 Y140.622 E0.03941
G1 X143.875 Y139.789 E0.03897
G1 X144.094 Y138.415 E0.06504
G1 X142.180 Y138.415 E0.08946
G1 X142.180 Y141.860 E0.16102
G1 X142.148 Y142.450 E0.02764
G1 X142.057 Y142.922 E0.02245
G1 X141.999 Y143.095 E0.00852
G1 X141.851 Y143.375 E0.01482
G1 X141.672 Y143.568 E0.01232
G1 X141.560 Y143.649 E0.00644
G1 X141.284 Y143.777 E0.01423
G1 X141.628 Y143.466 E0.02169
G1 X141.843 Y143.104 E0.01969
G1 X141.948 Y142.810 E0.01454
G1 X142.037 Y142.354 E0.02174
G1 X142.076 Y141.654 E0.03279
G1 X142.076 Y138.415 E0.15139
G1 X137.526 Y138.415 E0.21265
G1 X137.526 Y141.255 E0.13274
G1 X137.562 Y141.821 E0.02654
G1 X137.676 Y142.360 E0.02573
G1 X137.795 Y142.651 E0.01472
G1 X137.485 Y142.729 E0.01494
G1 X137.441 Y143.775 E0.04894
G1 X137.409 Y143.775 E0.00148
G1 X137.425 Y143.356 E0.01958
G1 X137.428 Y138.415 E0.23096
G1 X135.340 Y138.415 E0.09759
G1 X135.602 Y139.469 E0.05076
G1 X135.661 Y139.831 E0.01719
G1 X135.698 Y140.230 E0.01870
G1 X135.710 Y140.664 E0.02028
G1 X135.664 Y141.507 E0.03948
G1 X135.608 Y141.874 E0.01737
G1 X135.531 Y142.205 E0.01585
G1 X135.436 Y142.498 E0.01444
G1 X135.322 Y142.756 E0.01315
G1 X135.193 Y142.979 E0.01204
G1 X135.049 Y143.170 E0.01120
G1 X134.900 Y143.322 E0.00995
G1 X135.006 Y143.184 E0.00815
G1 X135.152 Y142.928 E0.01376
G1 X135.353 Y142.396 E0.02660
G1 X135.482 Y141.767 E0.02999
G1 X135.544 Y141.054 E0.03346
G1 X135.544 Y140.275 E0.03644
G1 X135.480 Y139.574 E0.03289
G1 X135.419 Y139.235 E0.01609
G1 X135.189 Y138.415 E0.03982
G1 X130.793 Y138.415 E0.20547
G1 X130.548 Y139.271 E0.04165
G1 X130.451 Y139.921 E0.03071
G1 X130.426 Y140.292 E0.01738
G1 X130.426 Y141.043 E0.03509
G1 X130.451 Y141.421 E0.01771
G1 X130.550 Y142.082 E0.03124
G1 X130.727 Y142.671 E0.02877
G1 X131.016 Y143.203 E0.02825
G1 X130.948 Y143.142 E0.00424
G1 X130.661 Y142.716 E0.02402
G1 X130.444 Y142.167 E0.02761
G1 X130.307 Y141.482 E0.03263
G1 X130.259 Y140.655 E0.03874
G1 X130.306 Y139.862 E0.03714
G1 X130.364 Y139.508 E0.01676
