; generated by Slic3r Prusa Edition 1.41.0+ on 2019-02-12 at 08:41:17

; 

; external perimeters extrusion width = 0.60mm
; perimeters extrusion width = 0.43mm
; infill extrusion width = 0.45mm
; solid infill extrusion width = 0.70mm
; top infill extrusion width = 0.43mm
; support material extrusion width = 0.35mm
; first layer extrusion width = 0.42mm

M201 X9000 Y9000 Z500 E10000 ; sets maximum accelerations, mm/sec^2
M203 X500 Y500 Z12 E120 ; sets maximum feedrates, mm/sec
M204 P2000 R1500 T2000 ; sets acceleration (P, T) and retract acceleration (R), mm/sec^2
M205 X10.00 Y10.00 Z0.20 E2.50 ; sets the jerk limits, mm/sec
M205 S0 T0 ; sets the minimum extruding and travel feed rate, mm/sec
M107
M115 U3.1.0 ; tell printer latest fw version
M83  ; extruder relative mode
M204 S2000 T1500 ; MK2 firmware only supports the old M204 format
M104 S210 ; set extruder temp
M140 S55 ; set bed temp
M190 S55 ; wait for bed temp
M109 S210 ; wait for extruder temp
G28 W ; home all without mesh bed level
G80 ; mesh bed leveling
G1 Y-3.0 F1000.0 ; go outside print area
G92 E0.0
G1 X60.0 E9.0  F1000.0 ; intro line
G1 X100.0 E12.5  F1000.0 ; intro line
G92 E0.0
M900 K30; Filament gcode
G21 ; set units to millimeters
G90 ; use absolute coordinates
M83 ; use relative distances for extrusion
;BEFORE_LAYER_CHANGE
G92 E0.0
;0.32


G1 E-0.80000 F2100.00000
G1 Z0.600 F10800.000
;AFTER_LAYER_CHANGE
;0.32
G1 X67.342 Y16.706
G1 Z0.320
G1 E0.80000 F2100.00000
M204 S1000
G1 F1800
G1 X67.686 Y16.321 E0.02413
G1 X68.114 Y16.026 E0.02430
G1 X68.596 Y15.842 E0.02413
G1 X69.108 Y15.776 E0.02413
G1 X180.879 Y15.776 E5.22424
G1 X181.611 Y15.905 E0.03475
G1 X182.257 Y16.272 E0.03475
G1 X182.742 Y16.835 E0.03475
G1 X183.009 Y17.529 E0.03475
G1 X195.170 Y87.795 E3.33311
G1 X195.175 Y184.040 E4.49858
G1 X195.087 Y184.615 E0.02717
G1 X193.888 Y188.418 E0.18639
G1 X193.312 Y189.559 E0.05978
G1 X192.586 Y190.394 E0.05169
G1 X191.690 Y191.020 E0.05111
G1 X185.940 Y194.008 E0.30285
G1 X185.055 Y194.223 E0.04260
G1 X68.079 Y194.224 E5.46755
G1 X57.967 Y193.705 E0.47322
G1 X57.406 Y193.584 E0.02683
G1 X56.896 Y193.320 E0.02683
G1 X56.333 Y192.746 E0.03760
G1 X56.018 Y192.010 E0.03743
G1 X54.825 Y184.043 E0.37655
G1 X54.828 Y87.825 E4.49731
G1 X65.582 Y25.514 E2.95550
G1 X66.992 Y17.524 E0.37922
G1 X67.318 Y16.761 E0.03880
; PURGING FINISHED
G1 F8640
G1 X67.686 Y16.321 E-0.13240
G1 X68.114 Y16.026 E-0.12004
G1 X68.596 Y15.842 E-0.11920
G1 X69.108 Y15.776 E-0.11920
G1 X70.274 Y15.776 E-0.26916
G1 E-0.04000 F2100.00000
G1 Z0.920 F10800.000
G1 X139.654 Y191.443
G1 Z0.320
G1 E0.80000 F2100.00000
G1 F1800
G1 X139.753 Y191.443 E0.00460
G1 X139.753 Y191.487 E0.00203
G1 X139.671 Y191.487 E0.00382
G1 X139.303 Y191.838 F10800.000
G1 F1800
G1 X139.303 Y191.092 E0.03487
G1 X140.104 Y191.092 E0.03744
G1 X140.104 Y191.838 E0.03487
G1 X139.363 Y191.838 E0.03464
G1 X139.411 Y191.453 F10800.000
G1 F8640
G1 X139.303 Y191.092 E-0.17281
G1 X140.104 Y191.092 E-0.18495
G1 X140.104 Y191.838 E-0.17226
G1 X139.363 Y191.838 E-0.17110
G1 E-0.09888 F2100.00000
G1 Z0.920 F10800.000
G1 X146.431 Y191.487
G1 Z0.320
G1 E0.80000 F2100.00000
G1 F1800
G1 X146.431 Y191.443 E0.00203
G1 X146.529 Y191.443 E0.00460
G1 X146.529 Y191.487 E0.00203
G1 X146.491 Y191.487 E0.00179
G1 X146.880 Y191.838 F10800.000
G1 F1800
G1 X146.079 Y191.838 E0.03744
G1 X146.079 Y191.092 E0.03487
G1 X146.880 Y191.092 E0.03744
G1 X146.880 Y191.778 E0.03206
G1 X146.493 Y191.739 F10800.000
G1 F8640
G1 X146.079 Y191.838 E-0.18547
G1 X146.079 Y191.092 E-0.17226
G1 X146.880 Y191.092 E-0.18495
G1 X146.880 Y191.778 E-0.15840
G1 E-0.09892 F2100.00000
G1 Z0.920 F10800.000
G1 X130.084 Y183.790
G1 Z0.320
G1 E0.80000 F2100.00000
G1 F1800
G1 X132.891 Y183.790 E0.13122
G1 X131.049 Y188.565 E0.23923
G1 X130.487 Y190.310 E0.08571
G1 X130.042 Y190.239 E0.02106
G1 X130.084 Y188.358 E0.08795
G1 X130.084 Y183.850 E0.21069
G1 X130.085 Y183.390 F10800.000
G1 F8640
G1 X132.891 Y183.790 E-0.64839
G1 X132.717 Y184.241 E-0.11161
G1 E-0.04000 F2100.00000
G1 Z0.920 F10800.000
G1 X134.723 Y183.790
G1 Z0.320
G1 E0.80000 F2100.00000
G1 F1800
G1 X137.486 Y183.790 E0.12914
G1 X137.487 Y188.620 E0.22575
G1 X137.530 Y190.161 E0.07206
G1 X137.082 Y190.236 E0.02122
G1 X136.608 Y188.743 E0.07318
G1 X134.745 Y183.846 E0.24491
G1 X134.677 Y183.393 F10800.000
G1 F8640
G1 X137.486 Y183.790 E-0.63317
G1 X137.486 Y184.339 E-0.12683
G1 E-0.04000 F2100.00000
G1 Z0.920 F10800.000
G1 X137.027 Y190.601
G1 Z0.320
G1 E0.80000 F2100.00000
G1 F1800
G1 X137.882 Y190.458 E0.04048
G1 X137.882 Y190.975 E0.02413
G1 X137.169 Y190.975 E0.03332
G1 X137.049 Y190.657 E0.01588
G1 F8640
G1 X137.882 Y190.458 E-0.19775
G1 X137.882 Y190.975 E-0.11919
G1 X137.169 Y190.975 E-0.16461
G1 X137.049 Y190.657 E-0.07842
G1 E-0.24001 F2100.00000
G1 Z0.920 F10800.000
G1 X130.571 Y190.680
G1 Z0.320
G1 E0.80000 F2100.00000
G1 F1800
G1 X130.458 Y190.975 E0.01477
G1 X129.702 Y190.975 E0.03531
G1 X129.702 Y190.540 E0.02032
G1 X130.512 Y190.670 E0.03834
G1 F8640
G1 X130.458 Y190.975 E-0.07138
G1 X129.702 Y190.975 E-0.17444
G1 X129.702 Y190.540 E-0.10036
G1 X130.512 Y190.670 E-0.18941
G1 E-0.26441 F2100.00000
G1 Z0.920 F10800.000
G1 X149.624 Y183.790
G1 Z0.320
G1 E0.80000 F2100.00000
G1 F1800
G1 X153.081 Y183.790 E0.16158
G1 X153.081 Y186.668 E0.13452
G1 X153.039 Y187.396 E0.03409
G1 X152.959 Y187.797 E0.01908
G1 X152.834 Y188.125 E0.01643
G1 X152.650 Y188.381 E0.01473
G1 X152.397 Y188.571 E0.01481
G1 X152.086 Y188.692 E0.01559
G1 X151.724 Y188.749 E0.01709
G1 X151.313 Y188.745 E0.01926
G1 X150.917 Y188.661 E0.01891
G1 X150.574 Y188.496 E0.01781
G1 X150.398 Y188.367 E0.01020
G1 X150.125 Y188.079 E0.01854
G1 X150.002 Y187.899 E0.01019
G1 X149.898 Y187.703 E0.01036
G1 X149.744 Y187.282 E0.02094
G1 X149.653 Y186.800 E0.02295
G1 X149.624 Y186.267 E0.02495
G1 X149.624 Y183.850 E0.11296
G1 X149.622 Y183.390 F10800.000
G1 F8640
G1 X152.915 Y183.793 E-0.76000
G1 E-0.04000 F2100.00000
G1 Z0.920 F10800.000
G1 X153.868 Y183.850
G1 Z0.320
G1 E0.80000 F2100.00000
G1 F1800
G1 X153.868 Y183.790 E0.00280
G1 X157.326 Y183.790 E0.16162
G1 X157.326 Y186.668 E0.13452
G1 X157.284 Y187.396 E0.03409
G1 X157.204 Y187.797 E0.01908
G1 X157.079 Y188.125 E0.01643
G1 X156.895 Y188.381 E0.01474
G1 X156.641 Y188.571 E0.01481
G1 X156.330 Y188.692 E0.01560
G1 X155.969 Y188.749 E0.01711
G1 X155.552 Y188.746 E0.01946
G1 X155.151 Y188.662 E0.01917
G1 X154.798 Y188.494 E0.01826
G1 X154.633 Y188.372 E0.00961
G1 X154.482 Y188.230 E0.00968
G1 X154.237 Y187.902 E0.01913
G1 X154.055 Y187.509 E0.02022
G1 X153.985 Y187.281 E0.01118
G1 X153.897 Y186.802 E0.02276
G1 X153.868 Y186.267 E0.02506
G1 X153.868 Y183.910 E0.11015
G1 X153.816 Y183.820 F10800.000
G1 F8640
G1 X153.868 Y183.790 E-0.02771
G1 X157.039 Y183.790 E-0.73229
G1 E-0.04000 F2100.00000
G1 Z0.920 F10800.000
G1 X160.033 Y183.790
G1 Z0.320
G1 E0.80000 F2100.00000
G1 F1800
G1 X163.679 Y183.790 E0.17045
G1 X163.804 Y184.311 E0.02505
G1 X163.852 Y184.618 E0.01451
G1 X163.904 Y185.295 E0.03173
G1 X163.904 Y186.053 E0.03543
G1 X163.852 Y186.733 E0.03189
G1 X163.745 Y187.311 E0.02748
G1 X163.579 Y187.789 E0.02367
G1 X163.350 Y188.163 E0.02047
G1 X163.199 Y188.325 E0.01033
G1 X163.034 Y188.458 E0.00993
G1 X162.850 Y188.567 E0.00997
G1 X162.645 Y188.653 E0.01043
G1 X162.208 Y188.745 E0.02087
G1 X161.699 Y188.744 E0.02378
G1 X161.440 Y188.707 E0.01220
G1 X161.202 Y188.646 E0.01151
G1 X160.980 Y188.559 E0.01115
G1 X160.775 Y188.446 E0.01093
G1 X160.590 Y188.307 E0.01083
G1 X160.424 Y188.144 E0.01087
G1 X160.277 Y187.952 E0.01132
G1 X160.054 Y187.516 E0.02288
G1 X159.964 Y187.248 E0.01320
G1 X159.841 Y186.666 E0.02780
G1 X159.802 Y186.330 E0.01583
G1 X159.772 Y185.598 E0.03426
G1 X159.801 Y184.902 E0.03254
G1 X159.892 Y184.297 E0.02858
G1 X160.017 Y183.848 E0.02181
G1 X160.060 Y183.391 F10800.000
G1 F8640
G1 X163.308 Y183.796 E-0.76000
G1 E-0.04000 F2100.00000
G1 Z0.920 F10800.000
G1 X166.558 Y183.790
G1 Z0.320
G1 E0.80000 F2100.00000
G1 F1800
G1 X170.423 Y183.790 E0.18063
G1 X170.576 Y184.338 E0.02659
G1 X170.631 Y184.645 E0.01459
G1 X170.692 Y185.315 E0.03143
G1 X170.693 Y186.063 E0.03499
G1 X170.634 Y186.741 E0.03179
G1 X170.515 Y187.322 E0.02772
G1 X170.333 Y187.802 E0.02398
G1 X170.212 Y188.013 E0.01139
G1 X170.072 Y188.197 E0.01082
G1 X169.909 Y188.359 E0.01073
G1 X169.723 Y188.495 E0.01075
G1 X169.517 Y188.605 E0.01091
G1 X169.293 Y188.690 E0.01122
G1 X169.046 Y188.751 E0.01189
G1 X168.516 Y188.797 E0.02488
G1 X167.980 Y188.750 E0.02512
G1 X167.730 Y188.688 E0.01205
G1 X167.502 Y188.602 E0.01140
G1 X167.292 Y188.490 E0.01112
G1 X167.102 Y188.352 E0.01098
G1 X166.933 Y188.189 E0.01098
G1 X166.783 Y187.998 E0.01137
G1 X166.554 Y187.562 E0.02298
G1 X166.394 Y187.029 E0.02602
G1 X166.301 Y186.407 E0.02939
G1 X166.277 Y186.055 E0.01649
G1 X166.277 Y185.328 E0.03399
G1 X166.300 Y184.983 E0.01616
G1 X166.392 Y184.370 E0.02897
G1 X166.542 Y183.848 E0.02540
G1 X166.587 Y183.391 F10800.000
G1 F8640
G1 X169.833 Y183.799 E-0.76000
G1 E-0.04000 F2100.00000
G1 Z0.920 F10800.000
G1 X173.377 Y183.848
G1 Z0.320
G1 E0.80000 F2100.00000
G1 F1800
G1 X173.377 Y183.790 E0.00270
G1 X177.224 Y183.790 E0.17981
G1 X177.224 Y186.668 E0.13451
G1 X177.187 Y187.334 E0.03120
G1 X177.108 Y187.741 E0.01938
G1 X177.024 Y187.977 E0.01172
G1 X176.851 Y188.268 E0.01580
G1 X176.612 Y188.495 E0.01540
G1 X176.310 Y188.645 E0.01573
G1 X175.938 Y188.729 E0.01784
G1 X175.492 Y188.756 E0.02089
G1 X175.041 Y188.715 E0.02117
G1 X174.816 Y188.660 E0.01082
G1 X174.428 Y188.492 E0.01977
G1 X174.087 Y188.235 E0.01994
G1 X173.807 Y187.904 E0.02029
G1 X173.683 Y187.694 E0.01137
G1 X173.514 Y187.280 E0.02093
G1 X173.411 Y186.797 E0.02306
G1 X173.377 Y186.268 E0.02481
G1 X173.377 Y183.908 E0.11030
G1 X173.327 Y183.819 F10800.000
G1 F8640
G1 X173.377 Y183.790 E-0.02717
G1 X176.551 Y183.790 E-0.73283
G1 E-0.04000 F2100.00000
G1 Z0.920 F10800.000
G1 X180.082 Y183.790
G1 Z0.320
G1 E0.80000 F2100.00000
G1 F1800
G1 X183.688 Y183.790 E0.16858
G1 X183.863 Y184.409 E0.03005
G1 X183.955 Y185.039 E0.02976
G1 X183.978 Y185.395 E0.01669
G1 X183.978 Y186.131 E0.03437
G1 X183.917 Y186.786 E0.03075
G1 X183.793 Y187.350 E0.02702
G1 X183.604 Y187.819 E0.02364
G1 X183.478 Y188.027 E0.01136
G1 X183.334 Y188.208 E0.01077
G1 X183.170 Y188.366 E0.01065
G1 X182.986 Y188.499 E0.01065
G1 X182.782 Y188.608 E0.01076
G1 X182.562 Y188.691 E0.01101
G1 X182.321 Y188.751 E0.01162
G1 X181.806 Y188.797 E0.02417
G1 X181.337 Y188.750 E0.02201
G1 X181.115 Y188.688 E0.01078
G1 X180.914 Y188.603 E0.01024
G1 X180.729 Y188.491 E0.01009
G1 X180.562 Y188.355 E0.01006
G1 X180.416 Y188.195 E0.01016
G1 X180.286 Y188.007 E0.01065
G1 X180.092 Y187.583 E0.02182
G1 X180.014 Y187.324 E0.01261
G1 X179.953 Y187.044 E0.01342
G1 X179.873 Y186.418 E0.02950
G1 X179.847 Y185.687 E0.03418
G1 X179.873 Y184.954 E0.03427
G1 X179.952 Y184.327 E0.02956
G1 X180.067 Y183.848 E0.02301
G1 X180.105 Y183.391 F10800.000
G1 F8640
G1 X183.358 Y183.795 E-0.76000
G1 E-0.04000 F2100.00000
G1 Z0.920 F10800.000
G1 X186.924 Y183.790
G1 Z0.320
G1 E0.80000 F2100.00000
G1 F1800
G1 X190.789 Y183.790 E0.18063
G1 X190.942 Y184.338 E0.02659
G1 X190.997 Y184.645 E0.01459
G1 X191.058 Y185.315 E0.03143
G1 X191.059 Y186.063 E0.03499
G1 X191.000 Y186.741 E0.03179
G1 X190.881 Y187.322 E0.02772
G1 X190.699 Y187.802 E0.02398
G1 X190.578 Y188.013 E0.01139
G1 X190.438 Y188.197 E0.01082
G1 X190.275 Y188.359 E0.01073
G1 X190.089 Y188.495 E0.01075
G1 X189.884 Y188.605 E0.01091
G1 X189.659 Y188.690 E0.01122
G1 X189.412 Y188.751 E0.01189
G1 X188.882 Y188.797 E0.02488
G1 X188.346 Y188.750 E0.02511
G1 X188.096 Y188.688 E0.01206
G1 X187.868 Y188.602 E0.01140
G1 X187.658 Y188.490 E0.01112
G1 X187.468 Y188.352 E0.01098
G1 X187.299 Y188.189 E0.01098
G1 X187.149 Y187.998 E0.01137
G1 X186.920 Y187.562 E0.02298
G1 X186.760 Y187.029 E0.02602
G1 X186.667 Y186.407 E0.02939
G1 X186.643 Y186.055 E0.01649
G1 X186.643 Y185.328 E0.03399
G1 X186.666 Y184.983 E0.01616
G1 X186.758 Y184.370 E0.02897
G1 X186.908 Y183.848 E0.02540
G1 X186.952 Y183.391 F10800.000
G1 F8640
G1 X190.199 Y183.799 E-0.76000
G1 E-0.04000 F2100.00000
G1 Z0.920 F10800.000
G1 X191.206 Y183.439
G1 Z0.320
G1 E0.80000 F2100.00000
G1 F1800
G1 X191.468 Y184.493 E0.05076
G1 X191.527 Y184.855 E0.01719
G1 X191.564 Y185.254 E0.01870
G1 X191.576 Y185.688 E0.02028
G1 X191.530 Y186.531 E0.03947
G1 X191.474 Y186.898 E0.01737
G1 X191.397 Y187.229 E0.01586
G1 X191.302 Y187.522 E0.01443
G1 X191.188 Y187.780 E0.01315
G1 X191.059 Y188.003 E0.01204
G1 X190.915 Y188.194 E0.01120
G1 X190.766 Y188.346 E0.00995
G1 X190.872 Y188.208 E0.00815
G1 X191.018 Y187.952 E0.01376
G1 X191.219 Y187.420 E0.02660
G1 X191.348 Y186.791 E0.02999
G1 X191.410 Y186.078 E0.03346
G1 X191.410 Y185.299 E0.03644
G1 X191.346 Y184.598 E0.03288
G1 X191.285 Y184.259 E0.01609
G1 X191.055 Y183.439 E0.03983
G1 X186.659 Y183.439 E0.20547
G1 X186.414 Y184.295 E0.04165
G1 X186.317 Y184.945 E0.03070
G1 X186.292 Y185.316 E0.01739
G1 X186.292 Y186.067 E0.03509
G1 X186.317 Y186.445 E0.01771
G1 X186.416 Y187.106 E0.03124
G1 X186.593 Y187.695 E0.02877
G1 X186.882 Y188.227 E0.02824
G1 X186.814 Y188.166 E0.00422
G1 X186.527 Y187.740 E0.02402
G1 X186.310 Y187.191 E0.02761
G1 X186.173 Y186.506 E0.03263
G1 X186.125 Y185.679 E0.03874
G1 X186.172 Y184.886 E0.03714
G1 X186.230 Y184.532 E0.01676
G1 X186.497 Y183.439 E0.05259
G1 X184.435 Y183.439 E0.09636
G1 X184.435 Y191.487 E0.37617
G1 X184.338 Y191.487 E0.00452
G1 X184.349 Y187.917 E0.16685
G1 X183.982 Y187.819 E0.01775
G1 X184.129 Y187.454 E0.01839
G1 X184.264 Y186.840 E0.02941
G1 X184.329 Y186.147 E0.03253
G1 X184.329 Y185.384 E0.03566
G1 X184.304 Y185.002 E0.01788
G1 X184.208 Y184.335 E0.03150
G1 X183.954 Y183.439 E0.04355
G1 X179.805 Y183.439 E0.19393
G1 X179.606 Y184.263 E0.03966
G1 X179.522 Y184.926 E0.03121
G1 X179.495 Y185.687 E0.03560
G1 X179.523 Y186.446 E0.03551
G1 X179.606 Y187.104 E0.03098
G1 X179.762 Y187.707 E0.02910
G1 X179.979 Y188.182 E0.02442
G1 X180.140 Y188.414 E0.01322
G1 X180.284 Y188.571 E0.00995
G1 X180.199 Y188.516 E0.00476
G1 X179.912 Y188.200 E0.01996
G1 X179.674 Y187.765 E0.02318
G1 X179.491 Y187.195 E0.02794
G1 X179.376 Y186.488 E0.03350
G1 X179.337 Y185.646 E0.03941
G1 X179.375 Y184.813 E0.03897
G1 X179.594 Y183.439 E0.06504
G1 X177.680 Y183.439 E0.08946
G1 X177.680 Y186.884 E0.16102
G1 X177.648 Y187.474 E0.02764
G1 X177.557 Y187.946 E0.02245
G1 X177.499 Y188.119 E0.00852
G1 X177.351 Y188.399 E0.01482
G1 X177.172 Y188.592 E0.01232
G1 X177.060 Y188.673 E0.00644
G1 X176.784 Y188.801 E0.01423
G1 X177.128 Y188.490 E0.02169
G1 X177.343 Y188.128 E0.01969
G1 X177.448 Y187.834 E0.01454
G1 X177.537 Y187.378 E0.02174
G1 X177.576 Y186.678 E0.03279
G1 X177.576 Y183.439 E0.15139
G1 X173.026 Y183.439 E0.21265
G1 X173.026 Y186.279 E0.13274
G1 X173.062 Y186.845 E0.02654
G1 X173.176 Y187.384 E0.02573
G1 X173.295 Y187.675 E0.01472
G1 X172.985 Y187.753 E0.01494
G1 X172.941 Y188.799 E0.04894
G1 X172.909 Y188.799 E0.00148
G1 X172.925 Y188.380 E0.01958
G1 X172.928 Y183.439 E0.23096
G1 X170.840 Y183.439 E0.09759
G1 X171.102 Y184.493 E0.05076
G1 X171.161 Y184.855 E0.01719
G1 X171.198 Y185.254 E0.01870
G1 X171.210 Y185.688 E0.02028
G1 X171.164 Y186.531 E0.03948
G1 X171.108 Y186.898 E0.01737
G1 X171.031 Y187.229 E0.01585
G1 X170.936 Y187.522 E0.01444
G1 X170.822 Y187.780 E0.01315
G1 X170.693 Y188.003 E0.01204
G1 X170.549 Y188.194 E0.01120
G1 X170.400 Y188.346 E0.00995
G1 X170.506 Y188.208 E0.00815
G1 X170.652 Y187.952 E0.01376
G1 X170.853 Y187.420 E0.02660
G1 X170.982 Y186.791 E0.02999
G1 X171.044 Y186.078 E0.03346
G1 X171.044 Y185.299 E0.03644
G1 X170.980 Y184.598 E0.03289
G1 X170.919 Y184.259 E0.01609
G1 X170.689 Y183.439 E0.03982
G1 X166.293 Y183.439 E0.20547
G1 X166.048 Y184.295 E0.04165
G1 X165.951 Y184.945 E0.03071
G1 X165.926 Y185.316 E0.01738
G1 X165.926 Y186.067 E0.03509
G1 X165.951 Y186.445 E0.01771
G1 X166.050 Y187.106 E0.03124
G1 X166.227 Y187.695 E0.02877
G1 X166.516 Y188.227 E0.02825
G1 X166.448 Y188.166 E0.00424
G1 X166.161 Y187.740 E0.02402
G1 X165.944 Y187.191 E0.02761
G1 X165.807 Y186.506 E0.03263
G1 X165.759 Y185.679 E0.03874
G1 X165.806 Y184.886 E0.03714
