; G-Code generated by Simplify3D(R) Version 4.0.0
; Feb 4, 2018 at 3:57:58 PM
; Settings Summary
;   processName,Process1
;   applyToModels,c-reaper,fatalii,goats-weed
;   profileName,Prusa Research Original Prusa i3 MK2 (modified)
;   profileVersion,2017-07-23 22:27:18
;   baseProfile,
;   printMaterial,PLA
;   printQuality,Fast
;   printExtruders,
;   extruderName,Primary Extruder
;   extruderToolheadNumber,0
;   extruderDiameter,0.4
;   extruderAutoWidth,1
;   extruderWidth,0.48
;   extrusionMultiplier,1
;   extruderUseRetract,1
;   extruderRetractionDistance,1.5
;   extruderExtraRestartDistance,0
;   extruderRetractionZLift,0
;   extruderRetractionSpeed,1800
;   extruderUseCoasting,1
;   extruderCoastingDistance,0.2
;   extruderUseWipe,1
;   extruderWipeDistance,2
;   primaryExtruder,0
;   layerHeight,0.35
;   topSolidLayers,5
;   bottomSolidLayers,5
;   perimeterOutlines,3
;   printPerimetersInsideOut,1
;   startPointOption,2
;   startPointOriginX,0
;   startPointOriginY,0
;   sequentialIslands,0
;   spiralVaseMode,0
;   firstLayerHeightPercentage,120
;   firstLayerWidthPercentage,100
;   firstLayerUnderspeed,0.5
;   useRaft,0
;   raftExtruder,0
;   raftTopLayers,3
;   raftBaseLayers,2
;   raftOffset,3
;   raftSeparationDistance,0.14
;   raftTopInfill,100
;   aboveRaftSpeedMultiplier,0.3
;   useSkirt,1
;   skirtExtruder,0
;   skirtLayers,1
;   skirtOutlines,1
;   skirtOffset,4
;   usePrimePillar,0
;   primePillarExtruder,999
;   primePillarWidth,12
;   primePillarLocation,7
;   primePillarSpeedMultiplier,1
;   useOozeShield,0
;   oozeShieldExtruder,999
;   oozeShieldOffset,2
;   oozeShieldOutlines,1
;   oozeShieldSidewallShape,1
;   oozeShieldSidewallAngle,30
;   oozeShieldSpeedMultiplier,1
;   infillExtruder,0
;   internalInfillPattern,Rectilinear
;   externalInfillPattern,Rectilinear
;   infillPercentage,30
;   outlineOverlapPercentage,20
;   infillExtrusionWidthPercentage,100
;   minInfillLength,5
;   infillLayerInterval,1
;   internalInfillAngles,45,-45
;   overlapInternalInfillAngles,0
;   externalInfillAngles,45,-45
;   generateSupport,1
;   supportExtruder,0
;   supportInfillPercentage,25
;   supportExtraInflation,0
;   supportBaseLayers,0
;   denseSupportExtruder,0
;   denseSupportLayers,0
;   denseSupportInfillPercentage,70
;   supportLayerInterval,1
;   supportHorizontalPartOffset,0.3
;   supportUpperSeparationLayers,1
;   supportLowerSeparationLayers,1
;   supportType,0
;   supportGridSpacing,4
;   maxOverhangAngle,45
;   supportAngles,0
;   temperatureName,Primary Extruder,Heated Bed
;   temperatureNumber,0,0
;   temperatureSetpointCount,1,1
;   temperatureSetpointLayers,1,1
;   temperatureSetpointTemperatures,200,60
;   temperatureStabilizeAtStartup,1,1
;   temperatureHeatedBed,0,1
;   temperatureRelayBetweenLayers,0,0
;   temperatureRelayBetweenLoops,0,0
;   fanLayers,1,2
;   fanSpeeds,0,100
;   blipFanToFullPower,0
;   adjustSpeedForCooling,1
;   minSpeedLayerTime,15
;   minCoolingSpeedSlowdown,20
;   increaseFanForCooling,0
;   minFanLayerTime,45
;   maxCoolingFanSpeed,100
;   increaseFanForBridging,0
;   bridgingFanSpeed,100
;   use5D,1
;   relativeEdistances,0
;   allowEaxisZeroing,1
;   independentExtruderAxes,0
;   includeM10123,0
;   stickySupport,1
;   applyToolheadOffsets,0
;   gcodeXoffset,0
;   gcodeYoffset,0
;   gcodeZoffset,0
;   overrideMachineDefinition,1
;   machineTypeOverride,0
;   strokeXoverride,250
;   strokeYoverride,210
;   strokeZoverride,200
;   originOffsetXoverride,0
;   originOffsetYoverride,0
;   originOffsetZoverride,0
;   homeXdirOverride,-1
;   homeYdirOverride,-1
;   homeZdirOverride,-1
;   flipXoverride,1
;   flipYoverride,-1
;   flipZoverride,1
;   toolheadOffsets,0,0|0,0|0,0|0,0|0,0|0,0
;   overrideFirmwareConfiguration,1
;   firmwareTypeOverride,RepRap (Marlin/Repetier/Sprinter)
;   GPXconfigOverride,r2
;   baudRateOverride,250000
;   overridePrinterModels,1
;   printerModelsOverride
;   startingGcode,M115 U3.0.7 ; use the latest firmware version,G28 W ; home all axes without mesh bed leveling,G80 ; run mesh bed leveling routine,G1 Y-3.0 F1000.0 ; prepare to prime,G92 E0 ; reset extrusion distance,G1 X60.0 E9.0  F1000.0 ; priming,G1 X100.0 E12.5  F1000.0 ; priming
;   layerChangeGcode,
;   retractionGcode,
;   toolChangeGcode,
;   endingGcode,M106 S0 ; turn off cooling fan,M104 S0 ; turn off extruder,M140 S0 ; turn off bed,G1 X0 Y200 ; part removal,M84 ; disable motors
;   exportFileFormat,gcode
;   celebration,0
;   celebrationSong,Random Song
;   postProcessing,
;   defaultSpeed,2400
;   outlineUnderspeed,0.8
;   solidInfillUnderspeed,0.8
;   supportUnderspeed,0.8
;   rapidXYspeed,4800
;   rapidZspeed,1002
;   minBridgingArea,50
;   bridgingExtraInflation,0
;   bridgingExtrusionMultiplier,1
;   bridgingSpeedMultiplier,1
;   useFixedBridgingAngle,0
;   fixedBridgingAngle,0
;   applyBridgingToPerimeters,0
;   filamentDiameters,1.75|1.75|1.75|1.75|1.75|1.75
;   filamentPricesPerKg,46|46|46|46|46|46
;   filamentDensities,1.25|1.25|1.25|1.25|1.25|1.25
;   useMinPrintHeight,1
;   minPrintHeight,0
;   useMaxPrintHeight,1
;   maxPrintHeight,235
;   useDiaphragm,0
;   diaphragmLayerInterval,20
;   robustSlicing,1
;   mergeAllIntoSolid,0
;   onlyRetractWhenCrossingOutline,1
;   retractBetweenLayers,1
;   useRetractionMinTravel,0
;   retractionMinTravel,3
;   retractWhileWiping,1
;   onlyWipeOutlines,1
;   avoidCrossingOutline,0
;   maxMovementDetourFactor,3
;   toolChangeRetractionDistance,12
;   toolChangeExtraRestartDistance,-0.5
;   toolChangeRetractionSpeed,600
;   externalThinWallType,0
;   internalThinWallType,2
;   thinWallAllowedOverlapPercentage,25
;   singleExtrusionMinLength,1
;   singleExtrusionMinPrintingWidthPercentage,50
;   singleExtrusionMaxPrintingWidthPercentage,200
;   singleExtrusionEndpointExtension,0.2
;   horizontalSizeCompensation,0
G90
M82
M106 S0
M140 S60
M190 S60
M104 S200 T0
M109 S200 T0
M115 U3.0.7 ; use the latest firmware version
G28 W ; home all axes without mesh bed leveling
G80 ; run mesh bed leveling routine
G1 Y-3.0 F1000.0 ; prepare to prime
G92 E0 ; reset extrusion distance
G1 X60.0 E9.0  F1000.0 ; priming
G1 X100.0 E12.5  F1000.0 ; priming
G92 E0
G1 E-1.5000 F1800
G1 Z0.420 F1002
; process Process1
; layer 1, Z = 0.420
T0
; tool H0.420 W0.480
; skirt
G1 X71.643 Y25.833 F4800
G1 E0.0000 F540
G92 E0
G1 X73.335 Y16.240 E0.8164 F1200
G1 X73.377 Y16.167 E0.8235
G1 X75.672 Y14.241 E1.0746
G1 X75.752 Y14.212 E1.0817
G1 X79.948 Y14.212 E1.4335
G1 X80.028 Y14.241 E1.4405
G1 X82.323 Y16.167 E1.6917
G1 X82.365 Y16.240 E1.6988
G1 X84.057 Y25.833 E2.5152
G1 X84.058 Y25.843 E2.5161
G1 X84.090 Y26.201 E2.5462
G1 X84.090 Y26.212 E2.5471
G1 X84.090 Y84.211 E7.4083
G1 X127.910 Y84.200 E11.0811
G1 X127.910 Y26.212 E15.9415
G1 X127.910 Y26.201 E15.9424
G1 X127.942 Y25.843 E15.9725
G1 X127.943 Y25.833 E15.9734
G1 X129.635 Y16.240 E16.7898
G1 X129.677 Y16.167 E16.7969
G1 X131.972 Y14.241 E17.0480
G1 X132.052 Y14.212 E17.0551
G1 X136.248 Y14.212 E17.4068
G1 X136.328 Y14.241 E17.4139
G1 X138.623 Y16.167 E17.6651
G1 X138.665 Y16.240 E17.6722
G1 X140.357 Y25.833 E18.4886
G1 X140.358 Y25.843 E18.4895
G1 X140.390 Y26.201 E18.5196
G1 X140.390 Y26.212 E18.5205
G1 X140.390 Y84.203 E23.3810
G1 X152.707 Y84.213 E24.4134
G1 X152.795 Y84.250 E24.4214
G1 X153.500 Y84.955 E24.5050
G1 X154.207 Y84.249 E24.5888
G1 X154.295 Y84.212 E24.5968
G1 X157.194 Y84.212 E24.8398
G1 X157.205 Y26.211 E29.7011
G1 X157.205 Y26.201 E29.7020
G1 X157.237 Y25.843 E29.7321
G1 X157.238 Y25.832 E29.7330
G1 X158.930 Y16.240 E30.5494
G1 X158.972 Y16.167 E30.5565
G1 X161.267 Y14.241 E30.8076
G1 X161.347 Y14.212 E30.8147
G1 X165.543 Y14.212 E31.1664
G1 X165.623 Y14.241 E31.1735
G1 X167.918 Y16.167 E31.4247
G1 X167.960 Y16.240 E31.4318
G1 X169.652 Y25.833 E32.2482
G1 X169.653 Y25.843 E32.2490
G1 X169.685 Y26.201 E32.2792
G1 X169.685 Y26.212 E32.2801
G1 X169.685 Y84.204 E37.1407
G1 X175.315 Y84.209 E37.6126
G1 X175.315 Y26.212 E42.4736
G1 X175.315 Y26.201 E42.4745
G1 X175.347 Y25.843 E42.5047
G1 X175.348 Y25.833 E42.5056
G1 X177.040 Y16.240 E43.3219
G1 X177.082 Y16.167 E43.3290
G1 X179.377 Y14.241 E43.5802
G1 X179.457 Y14.212 E43.5873
G1 X183.653 Y14.212 E43.9390
G1 X183.733 Y14.241 E43.9461
G1 X186.028 Y16.167 E44.1972
G1 X186.070 Y16.240 E44.2043
G1 X187.762 Y25.832 E45.0207
G1 X187.763 Y25.843 E45.0216
G1 X187.794 Y26.201 E45.0517
G1 X187.795 Y26.211 E45.0526
G1 X187.806 Y84.212 E49.9139
G1 X190.705 Y84.212 E50.1569
G1 X190.793 Y84.249 E50.1649
G1 X193.203 Y86.659 E50.4507
G1 X193.240 Y86.747 E50.4587
G1 X193.240 Y96.157 E51.2473
G1 X193.203 Y96.245 E51.2553
G1 X192.234 Y97.215 E51.3703
G1 X192.234 Y104.205 E51.9561
G1 X192.197 Y104.293 E51.9641
G1 X189.786 Y106.703 E52.2499
G1 X189.698 Y106.740 E52.2579
G1 X179.652 Y106.740 E53.0999
G1 X179.564 Y106.703 E53.1079
G1 X177.153 Y104.293 E53.3936
G1 X177.117 Y104.205 E53.4017
G1 X177.117 Y104.166 E53.4049
G1 X176.548 Y104.137 E53.4526
G1 X176.541 Y104.137 E53.4532
G1 X176.299 Y104.110 E53.4737
G1 X176.292 Y104.109 E53.4742
G1 X175.941 Y104.050 E53.5041
G1 X174.311 Y105.679 E53.6972
G1 X174.223 Y105.716 E53.7052
G1 X170.251 Y105.716 E54.0382
G1 X170.173 Y105.689 E54.0451
G1 X168.242 Y104.130 E54.2531
G1 X168.108 Y104.148 E54.2644
G1 X168.102 Y104.148 E54.2649
G1 X167.895 Y104.165 E54.2823
G1 X167.889 Y104.165 E54.2828
G1 X167.769 Y104.169 E54.2928
G1 X165.747 Y106.191 E54.5326
G1 X165.659 Y106.228 E54.5406
G1 X155.438 Y106.228 E55.3972
G1 X155.350 Y106.191 E55.4052
G1 X152.940 Y103.781 E55.6909
G1 X152.903 Y103.693 E55.6989
G1 X152.903 Y103.239 E55.7370
G1 X152.467 Y103.756 E55.7937
G1 X152.393 Y103.798 E55.8008
G1 X150.322 Y104.152 E55.9769
G1 X150.309 Y104.153 E55.9780
G1 X149.875 Y104.181 E56.0145
G1 X149.862 Y104.181 E56.0155
G1 X149.003 Y104.145 E56.0876
G1 X148.991 Y104.144 E56.0886
G1 X148.612 Y104.093 E56.1207
G1 X148.601 Y104.091 E56.1216
G1 X148.434 Y104.052 E56.1360
G1 X144.996 Y104.052 E56.4241
G1 X144.907 Y104.014 E56.4323
G1 X144.847 Y103.953 E56.4394
G1 X144.618 Y104.017 E56.4594
G1 X144.607 Y104.019 E56.4603
G1 X144.219 Y104.088 E56.4933
G1 X144.207 Y104.089 E56.4943
G1 X143.085 Y104.180 E56.5887
G1 X143.076 Y104.180 E56.5895
G1 X142.743 Y104.180 E56.6174
G1 X142.733 Y104.180 E56.6182
G1 X141.626 Y104.089 E56.7113
G1 X141.615 Y104.088 E56.7122
G1 X141.229 Y104.019 E56.7451
G1 X141.218 Y104.017 E56.7460
G1 X140.211 Y103.737 E56.8336
G1 X140.201 Y103.734 E56.8345
G1 X139.883 Y103.616 E56.8629
G1 X139.874 Y103.613 E56.8637
G1 X139.712 Y103.537 E56.8787
G1 X139.394 Y103.681 E56.9079
G1 X139.380 Y103.686 E56.9092
G1 X138.424 Y103.983 E56.9931
G1 X138.415 Y103.985 E56.9939
G1 X138.087 Y104.058 E57.0220
G1 X138.077 Y104.060 E57.0229
G1 X137.453 Y104.146 E57.0757
G1 X137.445 Y104.147 E57.0764
G1 X137.143 Y104.167 E57.1018
G1 X137.134 Y104.167 E57.1025
G1 X136.038 Y104.157 E57.1943
G1 X136.027 Y104.156 E57.1953
G1 X135.655 Y104.119 E57.2267
G1 X135.644 Y104.117 E57.2276
G1 X135.305 Y104.052 E57.2565
G1 X131.393 Y104.052 E57.5843
G1 X131.304 Y104.014 E57.5925
G1 X131.264 Y103.973 E57.5973
G1 X130.993 Y104.031 E57.6206
G1 X130.983 Y104.033 E57.6214
G1 X130.104 Y104.148 E57.6957
G1 X130.098 Y104.148 E57.6962
G1 X129.891 Y104.165 E57.7136
G1 X129.885 Y104.165 E57.7141
G1 X129.364 Y104.181 E57.7578
G1 X129.359 Y104.181 E57.7582
G1 X129.195 Y104.179 E57.7719
G1 X129.191 Y104.179 E57.7723
G1 X128.364 Y104.137 E57.8417
G1 X128.357 Y104.137 E57.8423
G1 X128.114 Y104.110 E57.8627
G1 X128.107 Y104.109 E57.8633
G1 X127.287 Y103.970 E57.9330
G1 X127.279 Y103.968 E57.9338
G1 X126.985 Y103.896 E57.9592
G1 X126.976 Y103.893 E57.9599
G1 X126.179 Y103.633 E58.0302
G1 X126.169 Y103.629 E58.0311
G1 X125.855 Y103.495 E58.0598
G1 X125.793 Y103.528 E58.0656
G1 X125.781 Y103.534 E58.0668
G1 X125.342 Y103.713 E58.1065
G1 X125.329 Y103.717 E58.1077
G1 X124.252 Y104.017 E58.2013
G1 X124.241 Y104.019 E58.2023
G1 X123.853 Y104.088 E58.2353
G1 X123.841 Y104.089 E58.2363
G1 X122.719 Y104.180 E58.3306
G1 X122.710 Y104.180 E58.3315
G1 X122.377 Y104.180 E58.3593
G1 X122.367 Y104.180 E58.3601
G1 X122.358 Y104.179 E58.3609
G1 X123.593 Y105.215 E58.4960
G1 X123.635 Y105.288 E58.5031
G1 X125.327 Y114.880 E59.3195
G1 X125.328 Y114.891 E59.3204
G1 X125.359 Y115.249 E59.3505
G1 X125.360 Y115.259 E59.3514
G1 X125.371 Y173.252 E64.2120
G1 X134.708 Y173.262 E64.9947
G1 X134.796 Y173.298 E65.0027
G1 X137.204 Y175.709 E65.2882
G1 X137.240 Y175.797 E65.2962
G1 X137.240 Y185.205 E66.0847
G1 X137.203 Y185.293 E66.0927
G1 X135.213 Y187.283 E66.3286
G1 X135.213 Y193.253 E66.8290
G1 X135.176 Y193.341 E66.8370
G1 X132.766 Y195.751 E67.1227
G1 X132.678 Y195.788 E67.1307
G1 X128.043 Y195.788 E67.5191
G1 X127.955 Y195.751 E67.5271
G1 X125.543 Y193.331 E67.8136
G1 X125.506 Y193.242 E67.8216
G1 X125.507 Y192.958 E67.8454
G1 X124.703 Y192.695 E67.9163
G1 X124.689 Y192.689 E67.9176
G1 X124.479 Y192.589 E67.9371
G1 X124.057 Y192.761 E67.9753
G1 X124.044 Y192.765 E67.9764
G1 X122.967 Y193.065 E68.0701
G1 X122.956 Y193.067 E68.0711
G1 X122.568 Y193.136 E68.1041
G1 X122.556 Y193.137 E68.1051
G1 X121.434 Y193.228 E68.1994
G1 X121.425 Y193.228 E68.2002
G1 X121.092 Y193.228 E68.2281
G1 X121.082 Y193.228 E68.2289
G1 X120.027 Y193.142 E68.3176
G1 X120.019 Y193.141 E68.3183
G1 X119.735 Y193.098 E68.3424
G1 X119.727 Y193.096 E68.3431
G1 X119.089 Y192.953 E68.3979
G1 X119.079 Y192.951 E68.3987
G1 X118.767 Y192.854 E68.4262
G1 X118.758 Y192.851 E68.4270
G1 X117.866 Y192.496 E68.5074
G1 X117.720 Y192.576 E68.5214
G1 X117.708 Y192.582 E68.5225
G1 X117.268 Y192.761 E68.5623
G1 X117.255 Y192.765 E68.5635
G1 X116.178 Y193.065 E68.6572
G1 X116.167 Y193.067 E68.6581
G1 X116.131 Y193.073 E68.6611
G1 X114.523 Y195.225 E68.8863
G1 X114.422 Y195.276 E68.8958
G1 X109.624 Y195.276 E69.2979
G1 X109.549 Y195.251 E69.3045
G1 X108.746 Y194.641 E69.3891
G1 X107.941 Y195.251 E69.4737
G1 X107.867 Y195.276 E69.4803
G1 X103.858 Y195.276 E69.8163
G1 X103.784 Y195.251 E69.8229
G1 X102.970 Y194.635 E69.9084
G1 X102.155 Y195.251 E69.9941
G1 X102.080 Y195.276 E70.0007
G1 X97.289 Y195.276 E70.4023
G1 X97.187 Y195.225 E70.4118
G1 X95.462 Y192.917 E70.6533
G1 X95.423 Y192.929 E70.6567
G1 X95.416 Y192.931 E70.6574
G1 X95.150 Y192.989 E70.6802
G1 X95.142 Y192.991 E70.6809
G1 X94.380 Y193.107 E70.7454
G1 X94.374 Y193.107 E70.7460
G1 X94.153 Y193.129 E70.7646
G1 X94.147 Y193.129 E70.7651
G1 X93.355 Y193.164 E70.8315
G1 X93.349 Y193.164 E70.8320
G1 X93.238 Y193.163 E70.8413
G1 X91.265 Y195.237 E71.0812
G1 X91.174 Y195.276 E71.0895
G1 X86.400 Y195.276 E71.4896
G1 X86.310 Y195.237 E71.4979
G1 X85.858 Y194.764 E71.5527
G1 X84.079 Y194.764 E71.7019
G1 X84.001 Y194.737 E71.7088
G1 X82.069 Y193.178 E71.9168
G1 X81.935 Y193.196 E71.9281
G1 X81.929 Y193.196 E71.9286
G1 X81.723 Y193.213 E71.9460
G1 X81.717 Y193.213 E71.9465
G1 X81.196 Y193.229 E71.9902
G1 X81.191 Y193.229 E71.9906
G1 X81.027 Y193.227 E72.0043
G1 X81.022 Y193.227 E72.0047
G1 X80.195 Y193.185 E72.0741
G1 X80.188 Y193.185 E72.0747
G1 X79.946 Y193.158 E72.0952
G1 X79.939 Y193.157 E72.0958
G1 X79.119 Y193.018 E72.1655
G1 X79.110 Y193.016 E72.1662
G1 X78.816 Y192.944 E72.1916
G1 X78.808 Y192.941 E72.1923
G1 X78.011 Y192.681 E72.2626
G1 X78.001 Y192.677 E72.2635
G1 X77.725 Y192.559 E72.2887
G1 X77.394 Y192.705 E72.3190
G1 X77.385 Y192.708 E72.3198
G1 X77.068 Y192.818 E72.3479
G1 X77.059 Y192.821 E72.3487
G1 X76.042 Y193.082 E72.4367
G1 X76.032 Y193.084 E72.4375
G1 X75.669 Y193.144 E72.4684
G1 X75.658 Y193.145 E72.4693
G1 X74.534 Y193.228 E72.5638
G1 X74.525 Y193.228 E72.5646
G1 X74.215 Y193.228 E72.5905
G1 X74.206 Y193.227 E72.5913
G1 X73.091 Y193.142 E72.6850
G1 X73.080 Y193.140 E72.6859
G1 X72.808 Y193.094 E72.7090
G1 X72.294 Y193.582 E72.7684
G1 X72.286 Y193.589 E72.7693
G1 X72.003 Y193.814 E72.7996
G1 X71.995 Y193.820 E72.8005
G1 X71.231 Y194.324 E72.8772
G1 X71.223 Y194.330 E72.8780
G1 X70.918 Y194.496 E72.9072
G1 X70.908 Y194.501 E72.9080
G1 X70.079 Y194.866 E72.9840
G1 X70.071 Y194.869 E72.9847
G1 X69.788 Y194.970 E73.0099
G1 X69.780 Y194.973 E73.0106
G1 X68.903 Y195.215 E73.0868
G1 X68.896 Y195.217 E73.0875
G1 X68.643 Y195.270 E73.1091
