; G-Code generated by Simplify3D(R) Version 4.0.0
; Sep 30, 2017 at 4:52:12 PM
; Settings Summary
;   processName,Process1
;   applyToModels,moruga-scorpion
;   profileName,Prusa Research Original Prusa i3 MK2 (modified)
;   profileVersion,2017-07-23 22:27:18
;   baseProfile,
;   printMaterial,PLA
;   printQuality,Medium
;   printExtruders,
;   extruderName,Primary Extruder
;   extruderToolheadNumber,0
;   extruderDiameter,0.4
;   extruderAutoWidth,1
;   extruderWidth,0.48
;   extrusionMultiplier,1
;   extruderUseRetract,1
;   extruderRetractionDistance,1.5
;   extruderExtraRestartDistance,0
;   extruderRetractionZLift,0
;   extruderRetractionSpeed,1800
;   extruderUseCoasting,1
;   extruderCoastingDistance,0.2
;   extruderUseWipe,1
;   extruderWipeDistance,2
;   primaryExtruder,0
;   layerHeight,0.095
;   topSolidLayers,3
;   bottomSolidLayers,3
;   perimeterOutlines,3
;   printPerimetersInsideOut,1
;   startPointOption,2
;   startPointOriginX,0
;   startPointOriginY,0
;   sequentialIslands,0
;   spiralVaseMode,0
;   firstLayerHeightPercentage,120
;   firstLayerWidthPercentage,100
;   firstLayerUnderspeed,0.5
;   useRaft,0
;   raftExtruder,0
;   raftTopLayers,3
;   raftBaseLayers,2
;   raftOffset,3
;   raftSeparationDistance,0.14
;   raftTopInfill,100
;   aboveRaftSpeedMultiplier,0.3
;   useSkirt,1
;   skirtExtruder,0
;   skirtLayers,1
;   skirtOutlines,1
;   skirtOffset,4
;   usePrimePillar,0
;   primePillarExtruder,999
;   primePillarWidth,12
;   primePillarLocation,7
;   primePillarSpeedMultiplier,1
;   useOozeShield,0
;   oozeShieldExtruder,999
;   oozeShieldOffset,2
;   oozeShieldOutlines,1
;   oozeShieldSidewallShape,1
;   oozeShieldSidewallAngle,30
;   oozeShieldSpeedMultiplier,1
;   infillExtruder,0
;   internalInfillPattern,Rectilinear
;   externalInfillPattern,Rectilinear
;   infillPercentage,10
;   outlineOverlapPercentage,20
;   infillExtrusionWidthPercentage,100
;   minInfillLength,5
;   infillLayerInterval,1
;   internalInfillAngles,45,-45
;   overlapInternalInfillAngles,0
;   externalInfillAngles,45,-45
;   generateSupport,1
;   supportExtruder,0
;   supportInfillPercentage,30
;   supportExtraInflation,0
;   supportBaseLayers,0
;   denseSupportExtruder,0
;   denseSupportLayers,0
;   denseSupportInfillPercentage,70
;   supportLayerInterval,1
;   supportHorizontalPartOffset,0.3
;   supportUpperSeparationLayers,1
;   supportLowerSeparationLayers,1
;   supportType,0
;   supportGridSpacing,4
;   maxOverhangAngle,45
;   supportAngles,0
;   temperatureName,Primary Extruder,Heated Bed
;   temperatureNumber,0,0
;   temperatureSetpointCount,1,1
;   temperatureSetpointLayers,1,1
;   temperatureSetpointTemperatures,200,60
;   temperatureStabilizeAtStartup,1,1
;   temperatureHeatedBed,0,1
;   temperatureRelayBetweenLayers,0,0
;   temperatureRelayBetweenLoops,0,0
;   fanLayers,1,2
;   fanSpeeds,0,100
;   blipFanToFullPower,0
;   adjustSpeedForCooling,1
;   minSpeedLayerTime,15
;   minCoolingSpeedSlowdown,20
;   increaseFanForCooling,0
;   minFanLayerTime,45
;   maxCoolingFanSpeed,100
;   increaseFanForBridging,0
;   bridgingFanSpeed,100
;   use5D,1
;   relativeEdistances,0
;   allowEaxisZeroing,1
;   independentExtruderAxes,0
;   includeM10123,0
;   stickySupport,1
;   applyToolheadOffsets,0
;   gcodeXoffset,0
;   gcodeYoffset,0
;   gcodeZoffset,0
;   overrideMachineDefinition,1
;   machineTypeOverride,0
;   strokeXoverride,250
;   strokeYoverride,210
;   strokeZoverride,200
;   originOffsetXoverride,0
;   originOffsetYoverride,0
;   originOffsetZoverride,0
;   homeXdirOverride,-1
;   homeYdirOverride,-1
;   homeZdirOverride,-1
;   flipXoverride,1
;   flipYoverride,-1
;   flipZoverride,1
;   toolheadOffsets,0,0|0,0|0,0|0,0|0,0|0,0
;   overrideFirmwareConfiguration,1
;   firmwareTypeOverride,RepRap (Marlin/Repetier/Sprinter)
;   GPXconfigOverride,r2
;   baudRateOverride,250000
;   overridePrinterModels,1
;   printerModelsOverride
;   startingGcode,M115 U3.0.7 ; use the latest firmware version,G28 W ; home all axes without mesh bed leveling,G80 ; run mesh bed leveling routine,G1 Y-3.0 F1000.0 ; prepare to prime,G92 E0 ; reset extrusion distance,G1 X60.0 E9.0  F1000.0 ; priming,G1 X100.0 E12.5  F1000.0 ; priming
;   layerChangeGcode,
;   retractionGcode,
;   toolChangeGcode,
;   endingGcode,M106 S0 ; turn off cooling fan,M104 S0 ; turn off extruder,M140 S0 ; turn off bed,G1 X0 Y200 ; part removal,M84 ; disable motors
;   exportFileFormat,gcode
;   celebration,0
;   celebrationSong,Random Song
;   postProcessing,
;   defaultSpeed,2400
;   outlineUnderspeed,0.8
;   solidInfillUnderspeed,0.8
;   supportUnderspeed,0.8
;   rapidXYspeed,4800
;   rapidZspeed,1002
;   minBridgingArea,50
;   bridgingExtraInflation,0
;   bridgingExtrusionMultiplier,1
;   bridgingSpeedMultiplier,1
;   useFixedBridgingAngle,0
;   fixedBridgingAngle,0
;   applyBridgingToPerimeters,0
;   filamentDiameters,1.75|1.75|1.75|1.75|1.75|1.75
;   filamentPricesPerKg,46|46|46|46|46|46
;   filamentDensities,1.25|1.25|1.25|1.25|1.25|1.25
;   useMinPrintHeight,1
;   minPrintHeight,0
;   useMaxPrintHeight,1
;   maxPrintHeight,235
;   useDiaphragm,0
;   diaphragmLayerInterval,20
;   robustSlicing,1
;   mergeAllIntoSolid,0
;   onlyRetractWhenCrossingOutline,1
;   retractBetweenLayers,1
;   useRetractionMinTravel,0
;   retractionMinTravel,3
;   retractWhileWiping,1
;   onlyWipeOutlines,1
;   avoidCrossingOutline,0
;   maxMovementDetourFactor,3
;   toolChangeRetractionDistance,12
;   toolChangeExtraRestartDistance,-0.5
;   toolChangeRetractionSpeed,600
;   externalThinWallType,0
;   internalThinWallType,2
;   thinWallAllowedOverlapPercentage,25
;   singleExtrusionMinLength,1
;   singleExtrusionMinPrintingWidthPercentage,50
;   singleExtrusionMaxPrintingWidthPercentage,200
;   singleExtrusionEndpointExtension,0.2
;   horizontalSizeCompensation,0
G90
M82
M106 S0
M140 S60
M190 S60
M104 S200 T0
M109 S200 T0
M115 U3.0.7 ; use the latest firmware version
G28 W ; home all axes without mesh bed leveling
G80 ; run mesh bed leveling routine
G1 Y-3.0 F1000.0 ; prepare to prime
G92 E0 ; reset extrusion distance
G1 X60.0 E9.0  F1000.0 ; priming
G1 X100.0 E12.5  F1000.0 ; priming
G92 E0
G1 E-1.5000 F1800
G1 Z0.114 F1002
; process Process1
; layer 1, Z = 0.114
T0
; tool H0.114 W0.480
; skirt
G1 X98.667 Y71.825 F4800
G1 E0.0000 F540
G92 E0
G1 X98.710 Y71.752 E0.0019 F1200
G1 X101.005 Y69.826 E0.0701
G1 X101.085 Y69.797 E0.0720
G1 X104.965 Y69.797 E0.1603
G1 X105.045 Y69.826 E0.1622
G1 X107.340 Y71.752 E0.2304
G1 X107.382 Y71.825 E0.2323
G1 X108.705 Y79.328 E0.4056
G1 X108.707 Y79.338 E0.4059
G1 X108.738 Y79.696 E0.4141
G1 X108.739 Y79.707 E0.4143
G1 X108.739 Y121.373 E1.3622
G1 X141.261 Y121.373 E2.1021
G1 X141.261 Y79.707 E3.0500
G1 X141.262 Y79.696 E3.0502
G1 X141.293 Y79.338 E3.0584
G1 X141.295 Y79.328 E3.0586
G1 X142.618 Y71.825 E3.2320
G1 X142.660 Y71.752 E3.2339
G1 X144.955 Y69.826 E3.3021
G1 X145.035 Y69.797 E3.3040
G1 X148.915 Y69.797 E3.3923
G1 X148.995 Y69.826 E3.3942
G1 X151.290 Y71.752 E3.4624
G1 X151.333 Y71.825 E3.4643
G1 X152.655 Y79.328 E3.6376
G1 X152.657 Y79.338 E3.6378
G1 X152.688 Y79.696 E3.6460
G1 X152.689 Y79.707 E3.6463
G1 X152.689 Y121.367 E4.5940
G1 X161.705 Y121.374 E4.7991
G1 X161.793 Y121.411 E4.8013
G1 X164.201 Y123.821 E4.8788
G1 X164.238 Y123.909 E4.8810
G1 X164.238 Y131.738 E5.0591
G1 X164.201 Y131.826 E5.0613
G1 X162.686 Y133.341 E5.1100
G1 X162.674 Y133.429 E5.1120
G1 X162.672 Y133.439 E5.1123
G1 X162.434 Y134.449 E5.1359
G1 X162.429 Y134.464 E5.1362
G1 X162.245 Y134.956 E5.1482
G1 X162.238 Y134.970 E5.1485
G1 X161.865 Y135.675 E5.1667
G1 X161.859 Y135.686 E5.1670
G1 X161.635 Y136.024 E5.1762
G1 X161.628 Y136.034 E5.1765
G1 X161.268 Y136.475 E5.1894
G1 X161.260 Y136.484 E5.1897
G1 X160.965 Y136.780 E5.1992
G1 X160.956 Y136.788 E5.1995
G1 X160.312 Y137.313 E5.2184
G1 X160.297 Y137.324 E5.2188
G1 X159.753 Y137.644 E5.2332
G1 X159.737 Y137.652 E5.2336
G1 X158.710 Y138.060 E5.2587
G1 X158.694 Y138.065 E5.2591
G1 X158.140 Y138.201 E5.2721
G1 X158.124 Y138.204 E5.2724
G1 X157.055 Y138.314 E5.2969
G1 X157.044 Y138.314 E5.2971
G1 X156.674 Y138.319 E5.3056
G1 X156.663 Y138.319 E5.3058
G1 X155.864 Y138.257 E5.3240
G1 X155.853 Y138.255 E5.3243
G1 X155.662 Y138.223 E5.3287
G1 X152.586 Y138.223 E5.3987
G1 X152.424 Y138.249 E5.4024
G1 X152.413 Y138.250 E5.4027
G1 X151.730 Y138.300 E5.4182
G1 X149.864 Y140.167 E5.4783
G1 X149.775 Y140.203 E5.4805
G1 X145.467 Y140.203 E5.5785
G1 X145.378 Y140.167 E5.5807
G1 X143.434 Y138.223 E5.6432
G1 X142.337 Y138.223 E5.6682
G1 X141.947 Y138.290 E5.6772
G1 X141.935 Y138.291 E5.6775
G1 X141.504 Y138.319 E5.6873
G1 X141.491 Y138.319 E5.6876
G1 X140.755 Y138.290 E5.7043
G1 X140.744 Y138.289 E5.7046
G1 X140.366 Y138.238 E5.7133
G1 X140.355 Y138.237 E5.7135
G1 X140.295 Y138.223 E5.7149
G1 X137.596 Y138.223 E5.7763
G1 X137.549 Y138.231 E5.7774
G1 X137.541 Y138.233 E5.7776
G1 X137.042 Y138.289 E5.7890
G1 X137.037 Y138.289 E5.7891
G1 X136.880 Y138.301 E5.7927
G1 X136.875 Y138.301 E5.7928
G1 X136.386 Y138.319 E5.8039
G1 X136.380 Y138.319 E5.8041
G1 X136.148 Y138.314 E5.8094
G1 X136.141 Y138.313 E5.8095
G1 X135.268 Y138.246 E5.8294
G1 X135.257 Y138.245 E5.8297
G1 X134.885 Y138.182 E5.8383
G1 X134.874 Y138.179 E5.8385
G1 X133.990 Y137.944 E5.8593
G1 X133.443 Y138.115 E5.8724
G1 X133.433 Y138.117 E5.8726
G1 X133.107 Y138.190 E5.8802
G1 X133.097 Y138.192 E5.8804
G1 X132.397 Y138.291 E5.8965
G1 X132.388 Y138.292 E5.8967
G1 X132.078 Y138.312 E5.9038
G1 X132.069 Y138.312 E5.9040
G1 X131.427 Y138.305 E5.9186
G1 X131.290 Y138.430 E5.9228
G1 X131.280 Y138.438 E5.9231
G1 X130.596 Y138.937 E5.9424
G1 X130.584 Y138.945 E5.9427
G1 X130.133 Y139.195 E5.9544
G1 X130.120 Y139.201 E5.9548
G1 X129.146 Y139.591 E5.9786
G1 X129.136 Y139.595 E5.9789
G1 X128.770 Y139.704 E5.9876
G1 X128.759 Y139.706 E5.9878
G1 X128.001 Y139.857 E6.0054
G1 X127.994 Y139.858 E6.0056
G1 X127.769 Y139.890 E6.0108
G1 X127.762 Y139.891 E6.0109
G1 X127.026 Y139.954 E6.0277
G1 X127.020 Y139.955 E6.0278
G1 X126.836 Y139.962 E6.0320
G1 X126.830 Y139.962 E6.0322
G1 X126.026 Y139.959 E6.0505
G1 X126.019 Y139.959 E6.0506
G1 X125.805 Y139.947 E6.0555
G1 X125.799 Y139.946 E6.0556
G1 X124.983 Y139.858 E6.0743
G1 X124.975 Y139.856 E6.0745
G1 X124.700 Y139.807 E6.0809
G1 X124.692 Y139.806 E6.0810
G1 X123.891 Y139.607 E6.0998
G1 X123.881 Y139.604 E6.1000
G1 X123.551 Y139.491 E6.1080
G1 X123.541 Y139.487 E6.1082
G1 X122.769 Y139.148 E6.1274
G1 X122.758 Y139.143 E6.1277
G1 X122.394 Y138.937 E6.1372
G1 X122.384 Y138.931 E6.1375
G1 X121.725 Y138.464 E6.1558
G1 X121.717 Y138.458 E6.1561
G1 X121.443 Y138.226 E6.1642
G1 X121.435 Y138.218 E6.1645
G1 X121.040 Y137.819 E6.1773
G1 X120.670 Y137.952 E6.1862
G1 X120.659 Y137.956 E6.1865
G1 X119.674 Y138.206 E6.2096
G1 X119.663 Y138.208 E6.2099
G1 X119.275 Y138.268 E6.2188
G1 X119.264 Y138.269 E6.2190
G1 X118.471 Y138.316 E6.2371
G1 X118.464 Y138.316 E6.2373
G1 X118.236 Y138.317 E6.2424
G1 X118.230 Y138.317 E6.2426
G1 X117.538 Y138.281 E6.2584
G1 X117.531 Y138.280 E6.2585
G1 X117.293 Y138.254 E6.2640
G1 X117.286 Y138.253 E6.2641
G1 X117.109 Y138.223 E6.2682
G1 X113.675 Y138.223 E6.3463
G1 X113.142 Y138.269 E6.3585
G1 X113.131 Y138.270 E6.3588
G1 X112.765 Y138.269 E6.3671
G1 X112.755 Y138.269 E6.3673
G1 X112.200 Y138.219 E6.3800
G1 X112.190 Y138.223 E6.3802
G1 X106.334 Y138.223 E6.5135
G1 X105.647 Y138.317 E6.5292
G1 X105.630 Y138.318 E6.5296
G1 X105.056 Y138.316 E6.5427
G1 X105.039 Y138.315 E6.5431
G1 X104.396 Y138.223 E6.5578
G1 X101.599 Y138.223 E6.6215
G1 X101.378 Y138.253 E6.6266
G1 X101.370 Y138.254 E6.6267
G1 X100.997 Y138.281 E6.6352
G1 X99.489 Y139.790 E6.6838
G1 X99.401 Y139.826 E6.6859
G1 X95.188 Y139.826 E6.7818
G1 X95.118 Y139.804 E6.7834
G1 X94.284 Y139.228 E6.8065
G1 X93.443 Y139.804 E6.8297
G1 X93.374 Y139.826 E6.8314
G1 X89.138 Y139.826 E6.9277
G1 X89.050 Y139.790 E6.9299
G1 X86.639 Y137.379 E7.0074
G1 X86.603 Y137.291 E7.0096
G1 X86.603 Y132.630 E7.1156
G1 X85.799 Y131.826 E7.1415
G1 X85.762 Y131.738 E7.1437
G1 X85.762 Y123.909 E7.3218
G1 X85.798 Y123.821 E7.3240
G1 X88.207 Y121.411 E7.4015
G1 X88.295 Y121.374 E7.4036
G1 X97.311 Y121.367 E7.6088
G1 X97.311 Y79.707 E8.5565
G1 X97.312 Y79.696 E8.5568
G1 X97.343 Y79.338 E8.5649
G1 X97.345 Y79.328 E8.5652
G1 X98.633 Y72.022 E8.7340
G1 X98.667 Y71.825 F1200
G92 E0
G1 E-1.5000 F1800
; inner perimeter
G1 X102.874 Y79.297 F4800
G1 E0.0000 F1800
G92 E0
G1 X103.176 Y79.297 E0.0069 F1080
G1 X103.299 Y79.992 E0.0229
G1 X103.299 Y124.202 E1.0287
G1 X103.350 Y124.696 E1.0400
G1 X103.514 Y125.199 E1.0520
G1 X103.670 Y125.505 E1.0599
G1 X103.980 Y125.933 E1.0719
G1 X104.397 Y126.307 E1.0846
G1 X104.882 Y126.588 E1.0974
G1 X105.415 Y126.761 E1.1101
G1 X105.909 Y126.813 E1.1214
G1 X144.094 Y126.813 E1.9901
G1 X144.589 Y126.760 E2.0015
G1 X145.122 Y126.586 E2.0142
G1 X145.580 Y126.321 E2.0262
G1 X145.846 Y126.104 E2.0341
G1 X146.199 Y125.710 E2.0461
G1 X146.478 Y125.224 E2.0588
G1 X146.650 Y124.692 E2.0716
G1 X146.701 Y124.202 E2.0828
G1 X146.701 Y79.992 E3.0885
G1 X146.824 Y79.297 E3.1046
G1 X147.126 Y79.297 E3.1115
G1 X147.249 Y79.992 E3.1275
G1 X147.249 Y124.202 E4.1333
G1 X147.301 Y124.696 E4.1446
G1 X147.464 Y125.199 E4.1566
G1 X147.620 Y125.505 E4.1645
G1 X147.912 Y125.907 E4.1758
G1 X148.154 Y126.149 E4.1836
G1 X148.557 Y126.442 E4.1949
G1 X148.862 Y126.597 E4.2027
G1 X149.335 Y126.751 E4.2140
G1 X149.673 Y126.805 E4.2218
G1 X158.798 Y126.812 E4.4294
G1 X158.798 Y128.833 E4.4754
G1 X91.202 Y128.833 E6.0132
G1 X91.202 Y126.812 E6.0592
G1 X100.361 Y126.804 E6.2675
G1 X100.879 Y126.693 E6.2796
G1 X101.199 Y126.570 E6.2874
G1 X101.629 Y126.321 E6.2987
G1 X101.871 Y126.124 E6.3058
G1 X102.091 Y125.903 E6.3129
G1 X102.383 Y125.500 E6.3242
G1 X102.538 Y125.194 E6.3320
G1 X102.700 Y124.692 E6.3440
G1 X102.751 Y124.202 E6.3552
G1 X102.751 Y79.992 E7.3610
G1 X102.839 Y79.494 E7.3725
G1 X102.874 Y79.297 F1080
G1 X102.271 Y79.950 F4800
G92 E0
G1 X102.874 Y76.532 E0.0789 F1080
G1 X103.176 Y76.532 E0.0858
G1 X103.779 Y79.950 E0.1648
G1 X103.779 Y124.177 E1.1709
G1 X103.823 Y124.596 E1.1805
G1 X103.959 Y125.015 E1.1905
G1 X104.080 Y125.253 E1.1966
G1 X104.339 Y125.610 E1.2066
G1 X104.680 Y125.917 E1.2171
G1 X105.078 Y126.147 E1.2275
G1 X105.515 Y126.289 E1.2380
G1 X105.934 Y126.333 E1.2476
G1 X144.068 Y126.333 E2.1151
G1 X144.488 Y126.288 E2.1247
G1 X144.925 Y126.145 E2.1352
G1 X145.306 Y125.924 E2.1452
G1 X145.514 Y125.755 E2.1513
G1 X145.808 Y125.427 E2.1613
G1 X146.037 Y125.029 E2.1718
G1 X146.178 Y124.592 E2.1822
G1 X146.221 Y124.177 E2.1917
G1 X146.221 Y79.950 E3.1979
G1 X146.824 Y76.532 E3.2768
G1 X147.126 Y76.532 E3.2837
G1 X147.729 Y79.950 E3.3626
G1 X147.729 Y124.177 E4.3688
G1 X147.773 Y124.596 E4.3784
G1 X147.909 Y125.015 E4.3884
G1 X148.030 Y125.253 E4.3945
G1 X148.278 Y125.594 E4.4041
G1 X148.467 Y125.783 E4.4102
G1 X148.808 Y126.031 E4.4198
G1 X149.046 Y126.153 E4.4258
G1 X149.447 Y126.283 E4.4354
G1 X149.711 Y126.325 E4.4415
G1 X159.278 Y126.332 E4.6592
G1 X159.278 Y129.314 E4.7270
G1 X90.722 Y129.314 E6.2866
G1 X90.722 Y126.332 E6.3544
G1 X100.310 Y126.324 E6.5726
G1 X100.741 Y126.232 E6.5826
G1 X100.991 Y126.136 E6.5887
G1 X101.356 Y125.924 E6.5983
G1 X101.549 Y125.767 E6.6040
G1 X101.725 Y125.591 E6.6096
G1 X101.972 Y125.250 E6.6192
G1 X102.093 Y125.011 E6.6253
G1 X102.228 Y124.592 E6.6353
G1 X102.271 Y124.177 E6.6448
G1 X102.271 Y80.150 E7.6464
G1 X102.271 Y79.950 F1080
; outer perimeter
G1 X101.791 Y124.152 F4800
G92 E0
G1 X101.791 Y79.908 E1.0065 F960
G1 X102.784 Y74.277 E1.1366
G1 X103.266 Y74.277 E1.1476
G1 X104.259 Y79.908 E1.2777
G1 X104.259 Y124.152 E2.2842
G1 X104.295 Y124.496 E2.2921
G1 X104.404 Y124.831 E2.3001
G1 X104.491 Y125.002 E2.3045
G1 X104.698 Y125.287 E2.3125
G1 X104.964 Y125.527 E2.3206
G1 X105.275 Y125.706 E2.3288
G1 X105.616 Y125.817 E2.3369
G1 X105.960 Y125.853 E2.3448
G1 X144.043 Y125.853 E3.2112
G1 X144.387 Y125.816 E3.2191
G1 X144.728 Y125.705 E3.2272
G1 X145.033 Y125.528 E3.2352
G1 X145.182 Y125.407 E3.2396
G1 X145.417 Y125.144 E3.2476
G1 X145.596 Y124.833 E3.2558
G1 X145.706 Y124.492 E3.2639
G1 X145.741 Y124.152 E3.2717
