; G-Code generated by Simplify3D(R) Version 4.0.0
; May 17, 2018 at 1:03:18 PM
; Settings Summary
;   processName,Fast PLA
;   applyToModels,moruga-scorpion
;   profileName,Prusa Research Original Prusa i3 MK2 (modified)
;   profileVersion,2017-07-23 22:27:18
;   baseProfile,
;   printMaterial,PLA
;   printQuality,Fast
;   printExtruders,
;   extruderName,Primary Extruder
;   extruderToolheadNumber,0
;   extruderDiameter,0.4
;   extruderAutoWidth,1
;   extruderWidth,0.48
;   extrusionMultiplier,1
;   extruderUseRetract,1
;   extruderRetractionDistance,1.5
;   extruderExtraRestartDistance,0
;   extruderRetractionZLift,0
;   extruderRetractionSpeed,1800
;   extruderUseCoasting,1
;   extruderCoastingDistance,0.2
;   extruderUseWipe,1
;   extruderWipeDistance,2
;   primaryExtruder,0
;   layerHeight,0.35
;   topSolidLayers,3
;   bottomSolidLayers,3
;   perimeterOutlines,3
;   printPerimetersInsideOut,1
;   startPointOption,2
;   startPointOriginX,0
;   startPointOriginY,0
;   sequentialIslands,0
;   spiralVaseMode,0
;   firstLayerHeightPercentage,120
;   firstLayerWidthPercentage,100
;   firstLayerUnderspeed,0.5
;   useRaft,0
;   raftExtruder,0
;   raftTopLayers,3
;   raftBaseLayers,2
;   raftOffset,3
;   raftSeparationDistance,0.14
;   raftTopInfill,100
;   aboveRaftSpeedMultiplier,0.3
;   useSkirt,1
;   skirtExtruder,0
;   skirtLayers,1
;   skirtOutlines,1
;   skirtOffset,4
;   usePrimePillar,0
;   primePillarExtruder,999
;   primePillarWidth,12
;   primePillarLocation,7
;   primePillarSpeedMultiplier,1
;   useOozeShield,0
;   oozeShieldExtruder,999
;   oozeShieldOffset,2
;   oozeShieldOutlines,1
;   oozeShieldSidewallShape,1
;   oozeShieldSidewallAngle,30
;   oozeShieldSpeedMultiplier,1
;   infillExtruder,0
;   internalInfillPattern,Rectilinear
;   externalInfillPattern,Rectilinear
;   infillPercentage,30
;   outlineOverlapPercentage,20
;   infillExtrusionWidthPercentage,100
;   minInfillLength,5
;   infillLayerInterval,1
;   internalInfillAngles,45,-45
;   overlapInternalInfillAngles,0
;   externalInfillAngles,45,-45
;   generateSupport,1
;   supportExtruder,0
;   supportInfillPercentage,25
;   supportExtraInflation,0
;   supportBaseLayers,0
;   denseSupportExtruder,0
;   denseSupportLayers,0
;   denseSupportInfillPercentage,70
;   supportLayerInterval,1
;   supportHorizontalPartOffset,0.3
;   supportUpperSeparationLayers,1
;   supportLowerSeparationLayers,1
;   supportType,0
;   supportGridSpacing,4
;   maxOverhangAngle,45
;   supportAngles,0
;   temperatureName,Primary Extruder,Heated Bed
;   temperatureNumber,0,0
;   temperatureSetpointCount,1,1
;   temperatureSetpointLayers,1,1
;   temperatureSetpointTemperatures,210,55
;   temperatureStabilizeAtStartup,1,1
;   temperatureHeatedBed,0,1
;   temperatureRelayBetweenLayers,0,0
;   temperatureRelayBetweenLoops,0,0
;   fanLayers,1,2
;   fanSpeeds,0,100
;   blipFanToFullPower,0
;   adjustSpeedForCooling,1
;   minSpeedLayerTime,15
;   minCoolingSpeedSlowdown,20
;   increaseFanForCooling,0
;   minFanLayerTime,45
;   maxCoolingFanSpeed,100
;   increaseFanForBridging,0
;   bridgingFanSpeed,100
;   use5D,1
;   relativeEdistances,0
;   allowEaxisZeroing,1
;   independentExtruderAxes,0
;   includeM10123,0
;   stickySupport,1
;   applyToolheadOffsets,0
;   gcodeXoffset,0
;   gcodeYoffset,0
;   gcodeZoffset,0
;   overrideMachineDefinition,1
;   machineTypeOverride,0
;   strokeXoverride,250
;   strokeYoverride,210
;   strokeZoverride,200
;   originOffsetXoverride,0
;   originOffsetYoverride,0
;   originOffsetZoverride,0
;   homeXdirOverride,-1
;   homeYdirOverride,-1
;   homeZdirOverride,-1
;   flipXoverride,1
;   flipYoverride,-1
;   flipZoverride,1
;   toolheadOffsets,0,0|0,0|0,0|0,0|0,0|0,0
;   overrideFirmwareConfiguration,1
;   firmwareTypeOverride,RepRap (Marlin/Repetier/Sprinter)
;   GPXconfigOverride,r2
;   baudRateOverride,250000
;   overridePrinterModels,1
;   printerModelsOverride
;   startingGcode,M115 U3.0.7 ; use the latest firmware version,G28 W ; home all axes without mesh bed leveling,G80 ; run mesh bed leveling routine,G1 Y-3.0 F1000.0 ; prepare to prime,G92 E0 ; reset extrusion distance,G1 X60.0 E9.0  F1000.0 ; priming,G1 X100.0 E12.5  F1000.0 ; priming
;   layerChangeGcode,
;   retractionGcode,
;   toolChangeGcode,
;   endingGcode,M106 S0 ; turn off cooling fan,M104 S0 ; turn off extruder,M140 S0 ; turn off bed,G1 X0 Y200 ; part removal,M84 ; disable motors
;   exportFileFormat,gcode
;   celebration,0
;   celebrationSong,Random Song
;   postProcessing,
;   defaultSpeed,2400
;   outlineUnderspeed,0.8
;   solidInfillUnderspeed,0.8
;   supportUnderspeed,0.8
;   rapidXYspeed,4800
;   rapidZspeed,1002
;   minBridgingArea,50
;   bridgingExtraInflation,0
;   bridgingExtrusionMultiplier,1
;   bridgingSpeedMultiplier,1
;   useFixedBridgingAngle,0
;   fixedBridgingAngle,0
;   applyBridgingToPerimeters,0
;   filamentDiameters,1.75|1.75|1.75|1.75|1.75|1.75
;   filamentPricesPerKg,46|46|46|46|46|46
;   filamentDensities,1.25|1.25|1.25|1.25|1.25|1.25
;   useMinPrintHeight,1
;   minPrintHeight,0
;   useMaxPrintHeight,1
;   maxPrintHeight,235
;   useDiaphragm,0
;   diaphragmLayerInterval,20
;   robustSlicing,1
;   mergeAllIntoSolid,0
;   onlyRetractWhenCrossingOutline,1
;   retractBetweenLayers,1
;   useRetractionMinTravel,0
;   retractionMinTravel,3
;   retractWhileWiping,1
;   onlyWipeOutlines,1
;   avoidCrossingOutline,0
;   maxMovementDetourFactor,3
;   toolChangeRetractionDistance,12
;   toolChangeExtraRestartDistance,-0.5
;   toolChangeRetractionSpeed,600
;   externalThinWallType,0
;   internalThinWallType,1
;   thinWallAllowedOverlapPercentage,25
;   singleExtrusionMinLength,1
;   singleExtrusionMinPrintingWidthPercentage,50
;   singleExtrusionMaxPrintingWidthPercentage,200
;   singleExtrusionEndpointExtension,0.2
;   horizontalSizeCompensation,0
G90
M82
M106 S0
M140 S55
M190 S55
M104 S210 T0
M109 S210 T0
M115 U3.0.7 ; use the latest firmware version
G28 W ; home all axes without mesh bed leveling
G80 ; run mesh bed leveling routine
G1 Y-3.0 F1000.0 ; prepare to prime
G92 E0 ; reset extrusion distance
G1 X60.0 E9.0  F1000.0 ; priming
G1 X100.0 E12.5  F1000.0 ; priming
G92 E0
G1 E-1.5000 F1800
G1 Z0.420 F1002
; process Fast PLA
; layer 1, Z = 0.420
T0
; tool H0.420 W0.480
; skirt
G1 X98.667 Y71.825 F4800
G1 E0.0000 F540
G92 E0
G1 X98.710 Y71.752 E0.0071 F1200
G1 X101.005 Y69.826 E0.2582
G1 X101.085 Y69.797 E0.2653
G1 X104.965 Y69.797 E0.5906
G1 X105.045 Y69.826 E0.5977
G1 X107.340 Y71.752 E0.8488
G1 X107.382 Y71.825 E0.8559
G1 X108.705 Y79.328 E1.4945
G1 X108.707 Y79.338 E1.4953
G1 X108.738 Y79.696 E1.5255
G1 X108.739 Y79.707 E1.5264
G1 X108.739 Y121.373 E5.0186
G1 X141.261 Y121.372 E7.7445
G1 X141.261 Y79.707 E11.2367
G1 X141.262 Y79.696 E11.2376
G1 X141.293 Y79.338 E11.2678
G1 X141.295 Y79.328 E11.2687
G1 X142.618 Y71.825 E11.9072
G1 X142.660 Y71.752 E11.9143
G1 X144.955 Y69.826 E12.1654
G1 X145.035 Y69.797 E12.1725
G1 X148.915 Y69.797 E12.4978
G1 X148.995 Y69.826 E12.5049
G1 X151.290 Y71.752 E12.7560
G1 X151.333 Y71.825 E12.7631
G1 X152.655 Y79.328 E13.4016
G1 X152.657 Y79.338 E13.4025
G1 X152.688 Y79.696 E13.4327
G1 X152.689 Y79.707 E13.4336
G1 X152.689 Y121.367 E16.9253
G1 X161.705 Y121.374 E17.6810
G1 X161.793 Y121.411 E17.6890
G1 X164.201 Y123.821 E17.9746
G1 X164.238 Y123.909 E17.9826
G1 X164.238 Y131.738 E18.6388
G1 X164.201 Y131.826 E18.6468
G1 X162.686 Y133.341 E18.8264
G1 X162.674 Y133.429 E18.8338
G1 X162.672 Y133.439 E18.8347
G1 X162.447 Y134.391 E18.9166
G1 X162.444 Y134.402 E18.9176
G1 X162.313 Y134.786 E18.9516
G1 X162.308 Y134.797 E18.9526
G1 X162.074 Y135.310 E18.9999
G1 X162.069 Y135.320 E19.0008
G1 X161.880 Y135.650 E19.0327
G1 X161.874 Y135.660 E19.0337
G1 X161.422 Y136.301 E19.0994
G1 X161.412 Y136.314 E19.1008
G1 X161.032 Y136.723 E19.1476
G1 X161.020 Y136.734 E19.1490
G1 X160.323 Y137.306 E19.2245
G1 X160.308 Y137.317 E19.2260
G1 X159.764 Y137.638 E19.2790
G1 X159.748 Y137.646 E19.2805
G1 X158.719 Y138.058 E19.3734
G1 X158.703 Y138.063 E19.3748
G1 X158.143 Y138.201 E19.4232
G1 X158.126 Y138.204 E19.4246
G1 X157.041 Y138.314 E19.5160
G1 X157.030 Y138.315 E19.5170
G1 X156.656 Y138.319 E19.5483
G1 X156.645 Y138.318 E19.5492
G1 X155.845 Y138.254 E19.6165
G1 X155.834 Y138.252 E19.6174
G1 X155.663 Y138.223 E19.6319
G1 X152.588 Y138.223 E19.8897
G1 X152.433 Y138.248 E19.9029
G1 X152.422 Y138.250 E19.9038
G1 X151.730 Y138.300 E19.9620
G1 X149.864 Y140.167 E20.1832
G1 X149.775 Y140.203 E20.1912
G1 X145.467 Y140.203 E20.5523
G1 X145.378 Y140.167 E20.5603
G1 X143.434 Y138.223 E20.7908
G1 X142.337 Y138.223 E20.8828
G1 X141.940 Y138.290 E20.9165
G1 X141.927 Y138.292 E20.9176
G1 X141.491 Y138.319 E20.9542
G1 X141.478 Y138.320 E20.9553
G1 X140.735 Y138.288 E21.0177
G1 X140.723 Y138.287 E21.0186
G1 X140.343 Y138.234 E21.0508
G1 X140.332 Y138.232 E21.0517
G1 X140.291 Y138.223 E21.0553
G1 X137.599 Y138.223 E21.2809
G1 X137.562 Y138.230 E21.2840
G1 X137.554 Y138.231 E21.2847
G1 X137.053 Y138.288 E21.3270
G1 X137.048 Y138.289 E21.3274
G1 X136.887 Y138.301 E21.3409
G1 X136.883 Y138.301 E21.3413
G1 X136.386 Y138.319 E21.3829
G1 X136.379 Y138.319 E21.3835
G1 X136.148 Y138.314 E21.4029
G1 X136.141 Y138.313 E21.4034
G1 X135.268 Y138.246 E21.4768
G1 X135.257 Y138.245 E21.4778
G1 X134.885 Y138.182 E21.5095
G1 X134.874 Y138.179 E21.5104
G1 X133.989 Y137.944 E21.5871
G1 X133.449 Y138.113 E21.6345
G1 X133.440 Y138.116 E21.6354
G1 X133.105 Y138.191 E21.6641
G1 X133.095 Y138.193 E21.6650
G1 X132.378 Y138.292 E21.7256
G1 X132.370 Y138.293 E21.7263
G1 X132.065 Y138.312 E21.7519
G1 X132.056 Y138.312 E21.7526
G1 X131.426 Y138.305 E21.8055
G1 X131.299 Y138.422 E21.8199
G1 X131.289 Y138.430 E21.8210
G1 X130.644 Y138.904 E21.8881
G1 X130.633 Y138.911 E21.8891
G1 X130.267 Y139.125 E21.9247
G1 X130.256 Y139.131 E21.9257
G1 X129.554 Y139.451 E21.9904
G1 X129.545 Y139.454 E21.9913
G1 X129.222 Y139.570 E22.0200
G1 X129.213 Y139.573 E22.0208
G1 X128.480 Y139.768 E22.0843
G1 X128.473 Y139.770 E22.0850
G1 X128.218 Y139.821 E22.1068
G1 X128.210 Y139.823 E22.1074
G1 X127.463 Y139.924 E22.1706
G1 X127.456 Y139.924 E22.1712
G1 X127.214 Y139.943 E22.1916
G1 X127.206 Y139.943 E22.1922
G1 X126.098 Y139.961 E22.2851
G1 X126.091 Y139.961 E22.2857
G1 X125.837 Y139.950 E22.3070
G1 X125.829 Y139.949 E22.3077
G1 X124.993 Y139.859 E22.3781
G1 X124.985 Y139.858 E22.3788
G1 X124.711 Y139.810 E22.4022
G1 X124.703 Y139.808 E22.4029
G1 X123.902 Y139.610 E22.4720
G1 X123.892 Y139.607 E22.4729
G1 X123.562 Y139.495 E22.5021
G1 X123.552 Y139.491 E22.5030
G1 X122.778 Y139.153 E22.5738
G1 X122.767 Y139.148 E22.5748
G1 X122.401 Y138.941 E22.6100
G1 X122.390 Y138.935 E22.6111
G1 X121.726 Y138.465 E22.6792
G1 X121.718 Y138.459 E22.6801
G1 X121.443 Y138.226 E22.7103
G1 X121.436 Y138.219 E22.7112
G1 X121.037 Y137.816 E22.7587
G1 X120.872 Y137.885 E22.7736
G1 X120.861 Y137.889 E22.7747
G1 X120.077 Y138.128 E22.8434
G1 X120.065 Y138.131 E22.8444
G1 X119.658 Y138.211 E22.8791
G1 X119.646 Y138.213 E22.8801
G1 X118.597 Y138.312 E22.9685
G1 X118.588 Y138.313 E22.9692
G1 X118.291 Y138.319 E22.9942
G1 X118.282 Y138.319 E22.9949
G1 X117.552 Y138.283 E23.0561
G1 X117.545 Y138.282 E23.0567
G1 X117.303 Y138.256 E23.0772
G1 X117.296 Y138.255 E23.0778
G1 X117.109 Y138.223 E23.0937
G1 X113.681 Y138.223 E23.3810
G1 X113.150 Y138.270 E23.4257
G1 X113.139 Y138.270 E23.4266
G1 X112.776 Y138.270 E23.4570
G1 X112.766 Y138.269 E23.4579
G1 X112.199 Y138.219 E23.5056
G1 X112.190 Y138.223 E23.5063
G1 X106.340 Y138.223 E23.9967
G1 X105.943 Y138.290 E24.0304
G1 X105.930 Y138.292 E24.0315
G1 X105.494 Y138.319 E24.0681
G1 X105.481 Y138.320 E24.0692
G1 X104.738 Y138.288 E24.1316
G1 X104.727 Y138.287 E24.1325
G1 X104.346 Y138.234 E24.1647
G1 X104.335 Y138.232 E24.1657
G1 X104.294 Y138.223 E24.1692
G1 X101.602 Y138.223 E24.3948
G1 X101.565 Y138.230 E24.3980
G1 X101.557 Y138.231 E24.3987
G1 X101.056 Y138.288 E24.4409
G1 X101.051 Y138.289 E24.4413
G1 X100.985 Y138.293 E24.4469
G1 X99.489 Y139.790 E24.6242
G1 X99.401 Y139.826 E24.6322
G1 X95.188 Y139.826 E24.9853
G1 X95.118 Y139.804 E24.9914
G1 X94.284 Y139.228 E25.0765
G1 X93.443 Y139.804 E25.1619
G1 X93.374 Y139.826 E25.1680
G1 X89.138 Y139.826 E25.5230
G1 X89.050 Y139.790 E25.5310
G1 X86.639 Y137.379 E25.8167
G1 X86.603 Y137.291 E25.8247
G1 X86.603 Y132.630 E26.2153
G1 X85.799 Y131.826 E26.3107
G1 X85.762 Y131.738 E26.3187
G1 X85.762 Y123.909 E26.9748
G1 X85.798 Y123.821 E26.9828
G1 X88.207 Y121.411 E27.2684
G1 X88.295 Y121.374 E27.2764
G1 X97.311 Y121.366 E28.0321
G1 X97.311 Y79.707 E31.5238
G1 X97.312 Y79.696 E31.5247
G1 X97.343 Y79.338 E31.5549
G1 X97.345 Y79.328 E31.5557
G1 X98.633 Y72.022 E32.1775
G1 X98.667 Y71.825 F1200
G92 E0
G1 E-1.5000 F1800
; inner perimeter
G1 X102.874 Y79.297 F4800
G1 E0.0000 F1800
G92 E0
G1 X103.176 Y79.297 E0.0253 F1080
G1 X103.299 Y79.992 E0.0845
G1 X103.299 Y124.202 E3.7900
G1 X103.350 Y124.696 E3.8316
G1 X103.514 Y125.199 E3.8760
G1 X103.670 Y125.505 E3.9047
G1 X103.980 Y125.933 E3.9490
G1 X104.397 Y126.307 E3.9960
G1 X104.882 Y126.588 E4.0430
G1 X105.415 Y126.761 E4.0899
G1 X105.909 Y126.813 E4.1316
G1 X144.102 Y126.812 E7.3327
G1 X144.600 Y126.757 E7.3747
G1 X145.132 Y126.581 E7.4217
G1 X145.590 Y126.313 E7.4661
G1 X145.855 Y126.095 E7.4949
G1 X146.205 Y125.701 E7.5390
G1 X146.477 Y125.228 E7.5848
G1 X146.650 Y124.696 E7.6317
G1 X146.701 Y124.202 E7.6733
G1 X146.701 Y79.992 E11.3788
G1 X146.824 Y79.297 E11.4380
G1 X147.126 Y79.297 E11.4633
G1 X147.249 Y79.992 E11.5225
G1 X147.249 Y124.202 E15.2280
G1 X147.301 Y124.696 E15.2696
G1 X147.464 Y125.199 E15.3139
G1 X147.620 Y125.505 E15.3427
G1 X147.912 Y125.907 E15.3844
G1 X148.154 Y126.149 E15.4131
G1 X148.557 Y126.442 E15.4548
G1 X148.862 Y126.597 E15.4835
G1 X149.335 Y126.751 E15.5252
G1 X149.673 Y126.805 E15.5539
G1 X158.798 Y126.812 E16.3187
G1 X158.798 Y128.833 E16.4881
G1 X91.202 Y128.833 E22.1537
G1 X91.202 Y126.812 E22.3232
G1 X100.338 Y126.803 E23.0889
G1 X100.680 Y126.747 E23.1180
G1 X101.182 Y126.581 E23.1623
G1 X101.639 Y126.313 E23.2067
G1 X101.881 Y126.115 E23.2329
G1 X102.098 Y125.895 E23.2588
G1 X102.381 Y125.504 E23.2993
G1 X102.536 Y125.199 E23.3279
G1 X102.699 Y124.696 E23.3722
G1 X102.751 Y124.202 E23.4139
G1 X102.751 Y79.992 E27.1194
G1 X102.839 Y79.494 E27.1618
G1 X102.874 Y79.297 F1080
G1 X102.271 Y79.950 F4800
G92 E0
G1 X102.874 Y76.532 E0.2908 F1080
G1 X103.176 Y76.532 E0.3162
G1 X103.779 Y79.950 E0.6070
G1 X103.779 Y124.177 E4.3139
G1 X103.823 Y124.596 E4.3492
G1 X103.959 Y125.015 E4.3862
G1 X104.080 Y125.253 E4.4086
G1 X104.339 Y125.610 E4.4455
G1 X104.680 Y125.917 E4.4840
G1 X105.078 Y126.147 E4.5225
G1 X105.515 Y126.289 E4.5610
G1 X105.934 Y126.333 E4.5963
G1 X144.075 Y126.332 E7.7931
G1 X144.497 Y126.286 E7.8287
G1 X144.934 Y126.141 E7.8673
G1 X145.314 Y125.918 E7.9042
G1 X145.521 Y125.748 E7.9267
G1 X145.813 Y125.419 E7.9635
G1 X146.036 Y125.032 E8.0009
G1 X146.177 Y124.596 E8.0394
G1 X146.221 Y124.177 E8.0747
G1 X146.221 Y79.950 E11.7816
G1 X146.824 Y76.532 E12.0725
G1 X147.126 Y76.532 E12.0978
G1 X147.729 Y79.950 E12.3886
G1 X147.729 Y124.177 E16.0955
G1 X147.773 Y124.596 E16.1309
G1 X147.909 Y125.015 E16.1678
G1 X148.030 Y125.253 E16.1902
G1 X148.278 Y125.594 E16.2255
G1 X148.467 Y125.783 E16.2480
G1 X148.808 Y126.031 E16.2833
G1 X149.046 Y126.153 E16.3057
G1 X149.447 Y126.283 E16.3410
G1 X149.711 Y126.325 E16.3634
G1 X159.278 Y126.332 E17.1653
G1 X159.278 Y129.314 E17.4152
G1 X90.722 Y129.314 E23.1612
G1 X90.722 Y126.332 E23.4111
G1 X100.299 Y126.323 E24.2138
G1 X100.565 Y126.280 E24.2364
G1 X100.983 Y126.141 E24.2733
G1 X101.364 Y125.918 E24.3103
G1 X101.557 Y125.760 E24.3312
G1 X101.730 Y125.584 E24.3519
G1 X101.970 Y125.253 E24.3862
G1 X102.091 Y125.015 E24.4086
G1 X102.227 Y124.596 E24.4455
G1 X102.271 Y124.177 E24.4808
G1 X102.271 Y80.150 E28.1710
G1 X102.271 Y79.950 F1080
; outer perimeter
G1 X104.259 Y79.908 F4800
G92 E0
G1 X104.259 Y124.152 E3.7083 F960
G1 X104.295 Y124.496 E3.7373
G1 X104.404 Y124.831 E3.7668
G1 X104.491 Y125.002 E3.7829
G1 X104.698 Y125.287 E3.8125
G1 X104.964 Y125.527 E3.8425
G1 X105.275 Y125.706 E3.8725
G1 X105.616 Y125.817 E3.9026
