; G-Code generated by Simplify3D(R) Version 4.0.0
; May 17, 2018 at 12:46:53 PM
; Settings Summary
;   processName,Fast PLA
;   applyToModels,paper-lantern
;   profileName,Prusa Research Original Prusa i3 MK2 (modified)
;   profileVersion,2017-07-23 22:27:18
;   baseProfile,
;   printMaterial,PLA
;   printQuality,Fast
;   printExtruders,
;   extruderName,Primary Extruder
;   extruderToolheadNumber,0
;   extruderDiameter,0.4
;   extruderAutoWidth,1
;   extruderWidth,0.48
;   extrusionMultiplier,1
;   extruderUseRetract,1
;   extruderRetractionDistance,1.5
;   extruderExtraRestartDistance,0
;   extruderRetractionZLift,0
;   extruderRetractionSpeed,1800
;   extruderUseCoasting,1
;   extruderCoastingDistance,0.2
;   extruderUseWipe,1
;   extruderWipeDistance,2
;   primaryExtruder,0
;   layerHeight,0.35
;   topSolidLayers,3
;   bottomSolidLayers,3
;   perimeterOutlines,3
;   printPerimetersInsideOut,1
;   startPointOption,2
;   startPointOriginX,0
;   startPointOriginY,0
;   sequentialIslands,0
;   spiralVaseMode,0
;   firstLayerHeightPercentage,120
;   firstLayerWidthPercentage,100
;   firstLayerUnderspeed,0.5
;   useRaft,0
;   raftExtruder,0
;   raftTopLayers,3
;   raftBaseLayers,2
;   raftOffset,3
;   raftSeparationDistance,0.14
;   raftTopInfill,100
;   aboveRaftSpeedMultiplier,0.3
;   useSkirt,1
;   skirtExtruder,0
;   skirtLayers,1
;   skirtOutlines,1
;   skirtOffset,4
;   usePrimePillar,0
;   primePillarExtruder,999
;   primePillarWidth,12
;   primePillarLocation,7
;   primePillarSpeedMultiplier,1
;   useOozeShield,0
;   oozeShieldExtruder,999
;   oozeShieldOffset,2
;   oozeShieldOutlines,1
;   oozeShieldSidewallShape,1
;   oozeShieldSidewallAngle,30
;   oozeShieldSpeedMultiplier,1
;   infillExtruder,0
;   internalInfillPattern,Rectilinear
;   externalInfillPattern,Rectilinear
;   infillPercentage,30
;   outlineOverlapPercentage,20
;   infillExtrusionWidthPercentage,100
;   minInfillLength,5
;   infillLayerInterval,1
;   internalInfillAngles,45,-45
;   overlapInternalInfillAngles,0
;   externalInfillAngles,45,-45
;   generateSupport,1
;   supportExtruder,0
;   supportInfillPercentage,25
;   supportExtraInflation,0
;   supportBaseLayers,0
;   denseSupportExtruder,0
;   denseSupportLayers,0
;   denseSupportInfillPercentage,70
;   supportLayerInterval,1
;   supportHorizontalPartOffset,0.3
;   supportUpperSeparationLayers,1
;   supportLowerSeparationLayers,1
;   supportType,0
;   supportGridSpacing,4
;   maxOverhangAngle,45
;   supportAngles,0
;   temperatureName,Primary Extruder,Heated Bed
;   temperatureNumber,0,0
;   temperatureSetpointCount,1,1
;   temperatureSetpointLayers,1,1
;   temperatureSetpointTemperatures,210,55
;   temperatureStabilizeAtStartup,1,1
;   temperatureHeatedBed,0,1
;   temperatureRelayBetweenLayers,0,0
;   temperatureRelayBetweenLoops,0,0
;   fanLayers,1,2
;   fanSpeeds,0,100
;   blipFanToFullPower,0
;   adjustSpeedForCooling,1
;   minSpeedLayerTime,15
;   minCoolingSpeedSlowdown,20
;   increaseFanForCooling,0
;   minFanLayerTime,45
;   maxCoolingFanSpeed,100
;   increaseFanForBridging,0
;   bridgingFanSpeed,100
;   use5D,1
;   relativeEdistances,0
;   allowEaxisZeroing,1
;   independentExtruderAxes,0
;   includeM10123,0
;   stickySupport,1
;   applyToolheadOffsets,0
;   gcodeXoffset,0
;   gcodeYoffset,0
;   gcodeZoffset,0
;   overrideMachineDefinition,1
;   machineTypeOverride,0
;   strokeXoverride,250
;   strokeYoverride,210
;   strokeZoverride,200
;   originOffsetXoverride,0
;   originOffsetYoverride,0
;   originOffsetZoverride,0
;   homeXdirOverride,-1
;   homeYdirOverride,-1
;   homeZdirOverride,-1
;   flipXoverride,1
;   flipYoverride,-1
;   flipZoverride,1
;   toolheadOffsets,0,0|0,0|0,0|0,0|0,0|0,0
;   overrideFirmwareConfiguration,1
;   firmwareTypeOverride,RepRap (Marlin/Repetier/Sprinter)
;   GPXconfigOverride,r2
;   baudRateOverride,250000
;   overridePrinterModels,1
;   printerModelsOverride
;   startingGcode,M115 U3.0.7 ; use the latest firmware version,G28 W ; home all axes without mesh bed leveling,G80 ; run mesh bed leveling routine,G1 Y-3.0 F1000.0 ; prepare to prime,G92 E0 ; reset extrusion distance,G1 X60.0 E9.0  F1000.0 ; priming,G1 X100.0 E12.5  F1000.0 ; priming
;   layerChangeGcode,
;   retractionGcode,
;   toolChangeGcode,
;   endingGcode,M106 S0 ; turn off cooling fan,M104 S0 ; turn off extruder,M140 S0 ; turn off bed,G1 X0 Y200 ; part removal,M84 ; disable motors
;   exportFileFormat,gcode
;   celebration,0
;   celebrationSong,Random Song
;   postProcessing,
;   defaultSpeed,2400
;   outlineUnderspeed,0.8
;   solidInfillUnderspeed,0.8
;   supportUnderspeed,0.8
;   rapidXYspeed,4800
;   rapidZspeed,1002
;   minBridgingArea,50
;   bridgingExtraInflation,0
;   bridgingExtrusionMultiplier,1
;   bridgingSpeedMultiplier,1
;   useFixedBridgingAngle,0
;   fixedBridgingAngle,0
;   applyBridgingToPerimeters,0
;   filamentDiameters,1.75|1.75|1.75|1.75|1.75|1.75
;   filamentPricesPerKg,46|46|46|46|46|46
;   filamentDensities,1.25|1.25|1.25|1.25|1.25|1.25
;   useMinPrintHeight,1
;   minPrintHeight,0
;   useMaxPrintHeight,1
;   maxPrintHeight,235
;   useDiaphragm,0
;   diaphragmLayerInterval,20
;   robustSlicing,1
;   mergeAllIntoSolid,0
;   onlyRetractWhenCrossingOutline,1
;   retractBetweenLayers,1
;   useRetractionMinTravel,0
;   retractionMinTravel,3
;   retractWhileWiping,1
;   onlyWipeOutlines,1
;   avoidCrossingOutline,0
;   maxMovementDetourFactor,3
;   toolChangeRetractionDistance,12
;   toolChangeExtraRestartDistance,-0.5
;   toolChangeRetractionSpeed,600
;   externalThinWallType,0
;   internalThinWallType,1
;   thinWallAllowedOverlapPercentage,25
;   singleExtrusionMinLength,1
;   singleExtrusionMinPrintingWidthPercentage,50
;   singleExtrusionMaxPrintingWidthPercentage,200
;   singleExtrusionEndpointExtension,0.2
;   horizontalSizeCompensation,0
G90
M82
M106 S0
M140 S55
M190 S55
M104 S210 T0
M109 S210 T0
M115 U3.0.7 ; use the latest firmware version
G28 W ; home all axes without mesh bed leveling
G80 ; run mesh bed leveling routine
G1 Y-3.0 F1000.0 ; prepare to prime
G92 E0 ; reset extrusion distance
G1 X60.0 E9.0  F1000.0 ; priming
G1 X100.0 E12.5  F1000.0 ; priming
G92 E0
G1 E-1.5000 F1800
G1 Z0.420 F1002
; process Fast PLA
; layer 1, Z = 0.420
T0
; tool H0.420 W0.480
; skirt
G1 X98.917 Y65.704 F4800
G1 E0.0000 F540
G92 E0
G1 X101.212 Y63.778 E0.2511 F1200
G1 X101.292 Y63.749 E0.2582
G1 X105.351 Y63.749 E0.5985
G1 X105.431 Y63.778 E0.6056
G1 X107.726 Y65.704 E0.8567
G1 X107.769 Y65.778 E0.8638
G1 X109.301 Y74.466 E1.6033
G1 X109.302 Y74.476 E1.6041
G1 X109.333 Y74.834 E1.6343
G1 X109.334 Y74.845 E1.6352
G1 X109.334 Y125.776 E5.9040
G1 X140.666 Y125.776 E8.5302
G1 X140.666 Y74.845 E12.7990
G1 X140.667 Y74.834 E12.7999
G1 X140.698 Y74.476 E12.8300
G1 X140.699 Y74.466 E12.8309
G1 X142.231 Y65.778 E13.5703
G1 X142.274 Y65.704 E13.5774
G1 X144.569 Y63.778 E13.8286
G1 X144.649 Y63.749 E13.8356
G1 X148.708 Y63.749 E14.1759
G1 X148.788 Y63.778 E14.1830
G1 X151.083 Y65.704 E14.4342
G1 X151.126 Y65.778 E14.4412
G1 X152.657 Y74.466 E15.1807
G1 X152.659 Y74.476 E15.1815
G1 X152.690 Y74.834 E15.2117
G1 X152.691 Y74.844 E15.2125
G1 X152.700 Y125.769 E19.4808
G1 X161.708 Y125.778 E20.2359
G1 X161.797 Y125.815 E20.2439
G1 X164.204 Y128.225 E20.5294
G1 X164.241 Y128.313 E20.5374
G1 X164.241 Y137.038 E21.2687
G1 X164.204 Y137.126 E21.2767
G1 X162.809 Y138.521 E21.4421
G1 X162.794 Y138.804 E21.4659
G1 X162.793 Y138.810 E21.4663
G1 X162.772 Y139.012 E21.4833
G1 X162.772 Y139.018 E21.4838
G1 X162.698 Y139.496 E21.5244
G1 X162.697 Y139.503 E21.5250
G1 X162.643 Y139.750 E21.5462
G1 X162.641 Y139.757 E21.5468
G1 X162.423 Y140.528 E21.6139
G1 X162.419 Y140.540 E21.6150
G1 X162.257 Y140.943 E21.6514
G1 X162.252 Y140.955 E21.6525
G1 X161.837 Y141.740 E21.7269
G1 X161.829 Y141.753 E21.7282
G1 X161.516 Y142.194 E21.7736
G1 X161.506 Y142.206 E21.7749
G1 X160.886 Y142.873 E21.8512
G1 X160.874 Y142.884 E21.8525
G1 X160.454 Y143.231 E21.8982
G1 X160.441 Y143.240 E21.8995
G1 X159.688 Y143.710 E21.9740
G1 X159.676 Y143.717 E21.9751
G1 X159.246 Y143.921 E22.0149
G1 X159.234 Y143.926 E22.0161
G1 X158.396 Y144.210 E22.0903
G1 X158.383 Y144.214 E22.0914
G1 X157.927 Y144.313 E22.1305
G1 X157.914 Y144.315 E22.1316
G1 X156.733 Y144.436 E22.2311
G1 X156.721 Y144.436 E22.2321
G1 X156.290 Y144.435 E22.2682
G1 X156.277 Y144.434 E22.2693
G1 X155.241 Y144.322 E22.3566
G1 X153.484 Y144.322 E22.5039
G1 X152.980 Y144.408 E22.5467
G1 X152.968 Y144.410 E22.5478
G1 X152.533 Y144.438 E22.5843
G1 X152.520 Y144.438 E22.5854
G1 X151.711 Y144.403 E22.6533
G1 X151.700 Y144.402 E22.6542
G1 X151.320 Y144.351 E22.6864
G1 X151.309 Y144.349 E22.6873
G1 X151.196 Y144.322 E22.6970
G1 X148.007 Y144.322 E22.9643
G1 X147.928 Y144.289 E22.9715
G1 X147.579 Y144.351 E23.0012
G1 X147.568 Y144.352 E23.0021
G1 X146.575 Y144.432 E23.0856
G1 X146.568 Y144.433 E23.0862
G1 X146.321 Y144.438 E23.1069
G1 X146.314 Y144.437 E23.1075
G1 X145.714 Y144.414 E23.1578
G1 X145.706 Y144.413 E23.1585
G1 X145.436 Y144.384 E23.1813
G1 X145.428 Y144.383 E23.1820
G1 X145.147 Y144.335 E23.2059
G1 X143.721 Y145.760 E23.3749
G1 X143.633 Y145.797 E23.3829
G1 X139.753 Y145.797 E23.7080
G1 X139.676 Y145.770 E23.7149
G1 X138.010 Y144.426 E23.8943
G1 X137.273 Y144.413 E23.9561
G1 X137.262 Y144.413 E23.9570
G1 X136.893 Y144.373 E23.9881
G1 X136.882 Y144.371 E23.9890
G1 X136.638 Y144.322 E24.0099
G1 X132.965 Y144.322 E24.3177
G1 X132.892 Y144.291 E24.3244
G1 X132.764 Y144.317 E24.3353
G1 X132.752 Y144.318 E24.3363
G1 X131.562 Y144.431 E24.4365
G1 X131.553 Y144.432 E24.4373
G1 X131.256 Y144.438 E24.4622
G1 X131.247 Y144.438 E24.4629
G1 X130.424 Y144.397 E24.5320
G1 X130.417 Y144.396 E24.5326
G1 X130.175 Y144.370 E24.5530
G1 X130.168 Y144.369 E24.5536
G1 X129.411 Y144.240 E24.6180
G1 X129.402 Y144.238 E24.6187
G1 X129.108 Y144.166 E24.6441
G1 X129.099 Y144.163 E24.6449
G1 X128.357 Y143.921 E24.7103
G1 X128.347 Y143.917 E24.7112
G1 X128.185 Y143.848 E24.7260
G1 X125.819 Y146.214 E25.0064
G1 X125.731 Y146.251 E25.0144
G1 X121.174 Y146.251 E25.3964
G1 X121.086 Y146.214 E25.4044
G1 X119.268 Y144.397 E25.6198
G1 X119.051 Y144.426 E25.6381
G1 X119.039 Y144.427 E25.6392
G1 X118.617 Y144.440 E25.6745
G1 X118.605 Y144.440 E25.6756
G1 X117.946 Y144.393 E25.7310
G1 X117.937 Y144.392 E25.7317
G1 X117.615 Y144.344 E25.7590
G1 X117.606 Y144.342 E25.7598
G1 X117.522 Y144.322 E25.7670
G1 X114.333 Y144.322 E26.0343
G1 X114.254 Y144.289 E26.0415
G1 X113.905 Y144.351 E26.0712
G1 X113.893 Y144.352 E26.0722
G1 X112.858 Y144.436 E26.1592
G1 X112.848 Y144.436 E26.1601
G1 X112.515 Y144.436 E26.1879
G1 X112.506 Y144.435 E26.1888
G1 X111.536 Y144.357 E26.2703
G1 X111.527 Y144.356 E26.2710
G1 X111.244 Y144.312 E26.2951
G1 X111.236 Y144.311 E26.2958
G1 X110.636 Y144.177 E26.3473
G1 X110.627 Y144.174 E26.3481
G1 X110.314 Y144.077 E26.3755
G1 X110.305 Y144.074 E26.3763
G1 X109.876 Y143.903 E26.4150
G1 X109.320 Y144.113 E26.4648
G1 X109.310 Y144.116 E26.4657
G1 X108.972 Y144.211 E26.4951
G1 X108.962 Y144.214 E26.4960
G1 X108.061 Y144.386 E26.5728
G1 X108.049 Y144.388 E26.5738
G1 X107.642 Y144.425 E26.6082
G1 X107.630 Y144.425 E26.6092
G1 X106.566 Y144.415 E26.6984
G1 X106.555 Y144.415 E26.6993
G1 X106.182 Y144.377 E26.7307
G1 X106.171 Y144.375 E26.7316
G1 X105.897 Y144.322 E26.7550
G1 X102.279 Y144.322 E27.0582
G1 X102.211 Y144.294 E27.0644
G1 X102.095 Y144.317 E27.0743
G1 X102.083 Y144.318 E27.0753
G1 X100.893 Y144.431 E27.1756
G1 X100.884 Y144.432 E27.1763
G1 X100.587 Y144.438 E27.2012
G1 X100.578 Y144.438 E27.2020
G1 X99.755 Y144.397 E27.2710
G1 X99.748 Y144.396 E27.2716
G1 X99.726 Y144.394 E27.2735
G1 X99.202 Y144.840 E27.3311
G1 X99.194 Y144.846 E27.3320
G1 X98.918 Y145.044 E27.3605
G1 X98.910 Y145.049 E27.3613
G1 X98.402 Y145.354 E27.4109
G1 X98.394 Y145.358 E27.4117
G1 X98.110 Y145.500 E27.4382
G1 X98.102 Y145.504 E27.4390
G1 X97.273 Y145.841 E27.5140
G1 X97.263 Y145.844 E27.5149
G1 X96.911 Y145.952 E27.5458
G1 X96.901 Y145.955 E27.5467
G1 X96.015 Y146.142 E27.6226
G1 X96.008 Y146.143 E27.6231
G1 X95.779 Y146.178 E27.6426
G1 X95.772 Y146.179 E27.6431
G1 X95.235 Y146.230 E27.6883
G1 X95.230 Y146.230 E27.6888
G1 X95.039 Y146.240 E27.7048
G1 X95.033 Y146.240 E27.7053
G1 X89.314 Y146.255 E28.1847
G1 X89.225 Y146.219 E28.1927
G1 X86.807 Y143.807 E28.4790
G1 X86.770 Y143.718 E28.4870
G1 X86.770 Y138.100 E28.9579
G1 X85.796 Y137.126 E29.0734
G1 X85.759 Y137.038 E29.0814
G1 X85.759 Y128.313 E29.8126
G1 X85.796 Y128.225 E29.8206
G1 X88.203 Y125.815 E30.1061
G1 X88.291 Y125.778 E30.1141
G1 X97.309 Y125.768 E30.8700
G1 X97.309 Y74.845 E35.1382
G1 X97.310 Y74.834 E35.1391
G1 X97.341 Y74.476 E35.1692
G1 X97.343 Y74.466 E35.1701
G1 X98.854 Y65.891 E35.8999
G1 X98.874 Y65.778 F1200
G1 X98.917 Y65.704 F1200
G92 E0
G1 E-1.5000 F1800
; inner perimeter
G1 X103.171 Y72.741 F4800
G1 E0.0000 F1800
G92 E0
G1 X103.473 Y72.741 E0.0253 F1080
G1 X103.894 Y75.130 E0.2286
G1 X103.894 Y128.307 E4.6857
G1 X103.949 Y128.832 E4.7299
G1 X104.046 Y129.194 E4.7613
G1 X104.273 Y129.705 E4.8082
G1 X104.460 Y129.992 E4.8369
G1 X104.676 Y130.258 E4.8657
G1 X105.115 Y130.654 E4.9152
G1 X105.654 Y130.965 E4.9674
G1 X106.247 Y131.158 E5.0196
G1 X106.803 Y131.216 E5.0665
G1 X143.207 Y131.216 E8.1177
G1 X143.767 Y131.155 E8.1649
G1 X144.359 Y130.959 E8.2172
G1 X144.898 Y130.644 E8.2695
G1 X145.357 Y130.226 E8.3215
G1 X145.714 Y129.733 E8.3726
G1 X145.954 Y129.194 E8.4220
G1 X146.051 Y128.832 E8.4534
G1 X146.106 Y128.307 E8.4977
G1 X146.106 Y75.130 E12.9547
G1 X146.527 Y72.741 E13.1580
G1 X146.829 Y72.741 E13.1833
G1 X147.251 Y75.130 E13.3866
G1 X147.260 Y128.556 E17.8645
G1 X147.390 Y129.165 E17.9167
G1 X147.643 Y129.734 E17.9689
G1 X147.991 Y130.212 E18.0185
G1 X148.233 Y130.454 E18.0472
G1 X148.499 Y130.670 E18.0759
G1 X149.011 Y130.965 E18.1255
G1 X149.573 Y131.148 E18.1750
G1 X149.942 Y131.207 E18.2063
G1 X158.801 Y131.215 E18.9488
G1 X158.801 Y134.133 E19.1934
G1 X91.199 Y134.133 E24.8594
G1 X91.199 Y131.216 E25.1039
G1 X99.819 Y131.216 E25.8264
G1 X100.101 Y131.200 E25.8501
G1 X100.440 Y131.145 E25.8788
G1 X101.002 Y130.959 E25.9285
G1 X101.513 Y130.660 E25.9781
G1 X101.801 Y130.424 E26.0093
G1 X102.166 Y130.018 E26.0551
G1 X102.352 Y129.731 E26.0837
G1 X102.508 Y129.426 E26.1125
G1 X102.691 Y128.863 E26.1620
G1 X102.749 Y128.307 E26.2089
G1 X102.749 Y75.130 E30.6660
G1 X103.136 Y72.938 E30.8525
G1 X103.171 Y72.741 F1080
G1 X102.269 Y75.088 F4800
G92 E0
G1 X103.171 Y69.977 E0.4350 F1080
G1 X103.473 Y69.977 E0.4603
G1 X104.374 Y75.088 E0.8953
G1 X104.374 Y128.282 E5.3537
G1 X104.422 Y128.744 E5.3927
G1 X104.500 Y129.033 E5.4178
G1 X104.696 Y129.475 E5.4583
G1 X104.849 Y129.710 E5.4818
G1 X105.025 Y129.927 E5.5052
G1 X105.399 Y130.264 E5.5474
G1 X105.851 Y130.524 E5.5911
G1 X106.347 Y130.686 E5.6349
G1 X106.828 Y130.736 E5.6754
G1 X143.181 Y130.736 E8.7223
G1 X143.664 Y130.683 E8.7631
G1 X144.161 Y130.519 E8.8069
G1 X144.612 Y130.255 E8.8507
G1 X144.997 Y129.905 E8.8944
G1 X145.296 Y129.492 E8.9371
G1 X145.500 Y129.033 E8.9792
G1 X145.578 Y128.744 E9.0042
G1 X145.626 Y128.282 E9.0432
G1 X145.626 Y75.088 E13.5017
G1 X146.527 Y69.977 E13.9367
G1 X146.829 Y69.977 E13.9620
G1 X147.731 Y75.088 E14.3969
G1 X147.740 Y128.505 E18.8741
G1 X147.849 Y129.015 E18.9179
G1 X148.061 Y129.492 E18.9616
G1 X148.357 Y129.899 E19.0038
G1 X148.554 Y130.097 E19.0272
G1 X148.772 Y130.273 E19.0507
G1 X149.208 Y130.525 E19.0928
G1 X149.686 Y130.680 E19.1350
G1 X149.981 Y130.727 E19.1600
G1 X159.281 Y130.736 E19.9395
G1 X159.281 Y134.613 E20.2645
G1 X90.719 Y134.613 E26.0110
G1 X90.719 Y130.736 E26.3359
G1 X99.805 Y130.736 E27.0975
G1 X100.049 Y130.722 E27.1180
G1 X100.325 Y130.677 E27.1414
G1 X100.804 Y130.519 E27.1837
G1 X101.238 Y130.265 E27.2259
G1 X101.469 Y130.076 E27.2508
G1 X101.784 Y129.725 E27.2904
G1 X101.936 Y129.491 E27.3138
G1 X102.063 Y129.241 E27.3373
G1 X102.219 Y128.763 E27.3794
G1 X102.269 Y128.282 E27.4200
G1 X102.269 Y75.288 E31.8617
G1 X102.269 Y75.088 F1080
; outer perimeter
G1 X104.854 Y75.046 F4800
G92 E0
G1 X104.854 Y128.257 E4.4599 F960
G1 X104.896 Y128.656 E4.4936
G1 X104.954 Y128.872 E4.5123
