; G-Code generated by Simplify3D(R) Version 4.0.0
; Jan 23, 2018 at 10:43:26 PM
; Settings Summary
;   processName,Process1
;   applyToModels,pimenta-diomar
;   profileName,Prusa Research Original Prusa i3 MK2 (modified)
;   profileVersion,2017-07-23 22:27:18
;   baseProfile,
;   printMaterial,PLA
;   printQuality,Medium
;   printExtruders,
;   extruderName,Primary Extruder
;   extruderToolheadNumber,0
;   extruderDiameter,0.4
;   extruderAutoWidth,1
;   extruderWidth,0.48
;   extrusionMultiplier,1
;   extruderUseRetract,1
;   extruderRetractionDistance,1.5
;   extruderExtraRestartDistance,0
;   extruderRetractionZLift,0
;   extruderRetractionSpeed,1800
;   extruderUseCoasting,1
;   extruderCoastingDistance,0.2
;   extruderUseWipe,1
;   extruderWipeDistance,2
;   primaryExtruder,0
;   layerHeight,0.095
;   topSolidLayers,3
;   bottomSolidLayers,3
;   perimeterOutlines,3
;   printPerimetersInsideOut,1
;   startPointOption,2
;   startPointOriginX,0
;   startPointOriginY,0
;   sequentialIslands,0
;   spiralVaseMode,0
;   firstLayerHeightPercentage,120
;   firstLayerWidthPercentage,100
;   firstLayerUnderspeed,0.5
;   useRaft,0
;   raftExtruder,0
;   raftTopLayers,3
;   raftBaseLayers,2
;   raftOffset,3
;   raftSeparationDistance,0.14
;   raftTopInfill,100
;   aboveRaftSpeedMultiplier,0.3
;   useSkirt,1
;   skirtExtruder,0
;   skirtLayers,1
;   skirtOutlines,1
;   skirtOffset,4
;   usePrimePillar,0
;   primePillarExtruder,999
;   primePillarWidth,12
;   primePillarLocation,7
;   primePillarSpeedMultiplier,1
;   useOozeShield,0
;   oozeShieldExtruder,999
;   oozeShieldOffset,2
;   oozeShieldOutlines,1
;   oozeShieldSidewallShape,1
;   oozeShieldSidewallAngle,30
;   oozeShieldSpeedMultiplier,1
;   infillExtruder,0
;   internalInfillPattern,Rectilinear
;   externalInfillPattern,Rectilinear
;   infillPercentage,10
;   outlineOverlapPercentage,20
;   infillExtrusionWidthPercentage,100
;   minInfillLength,5
;   infillLayerInterval,1
;   internalInfillAngles,45,-45
;   overlapInternalInfillAngles,0
;   externalInfillAngles,45,-45
;   generateSupport,1
;   supportExtruder,0
;   supportInfillPercentage,30
;   supportExtraInflation,0
;   supportBaseLayers,0
;   denseSupportExtruder,0
;   denseSupportLayers,0
;   denseSupportInfillPercentage,70
;   supportLayerInterval,1
;   supportHorizontalPartOffset,0.3
;   supportUpperSeparationLayers,1
;   supportLowerSeparationLayers,1
;   supportType,0
;   supportGridSpacing,4
;   maxOverhangAngle,45
;   supportAngles,0
;   temperatureName,Primary Extruder,Heated Bed
;   temperatureNumber,0,0
;   temperatureSetpointCount,1,1
;   temperatureSetpointLayers,1,1
;   temperatureSetpointTemperatures,200,60
;   temperatureStabilizeAtStartup,1,1
;   temperatureHeatedBed,0,1
;   temperatureRelayBetweenLayers,0,0
;   temperatureRelayBetweenLoops,0,0
;   fanLayers,1,2
;   fanSpeeds,0,100
;   blipFanToFullPower,0
;   adjustSpeedForCooling,1
;   minSpeedLayerTime,15
;   minCoolingSpeedSlowdown,20
;   increaseFanForCooling,0
;   minFanLayerTime,45
;   maxCoolingFanSpeed,100
;   increaseFanForBridging,0
;   bridgingFanSpeed,100
;   use5D,1
;   relativeEdistances,0
;   allowEaxisZeroing,1
;   independentExtruderAxes,0
;   includeM10123,0
;   stickySupport,1
;   applyToolheadOffsets,0
;   gcodeXoffset,0
;   gcodeYoffset,0
;   gcodeZoffset,0
;   overrideMachineDefinition,1
;   machineTypeOverride,0
;   strokeXoverride,250
;   strokeYoverride,210
;   strokeZoverride,200
;   originOffsetXoverride,0
;   originOffsetYoverride,0
;   originOffsetZoverride,0
;   homeXdirOverride,-1
;   homeYdirOverride,-1
;   homeZdirOverride,-1
;   flipXoverride,1
;   flipYoverride,-1
;   flipZoverride,1
;   toolheadOffsets,0,0|0,0|0,0|0,0|0,0|0,0
;   overrideFirmwareConfiguration,1
;   firmwareTypeOverride,RepRap (Marlin/Repetier/Sprinter)
;   GPXconfigOverride,r2
;   baudRateOverride,250000
;   overridePrinterModels,1
;   printerModelsOverride
;   startingGcode,M115 U3.0.7 ; use the latest firmware version,G28 W ; home all axes without mesh bed leveling,G80 ; run mesh bed leveling routine,G1 Y-3.0 F1000.0 ; prepare to prime,G92 E0 ; reset extrusion distance,G1 X60.0 E9.0  F1000.0 ; priming,G1 X100.0 E12.5  F1000.0 ; priming
;   layerChangeGcode,
;   retractionGcode,
;   toolChangeGcode,
;   endingGcode,M106 S0 ; turn off cooling fan,M104 S0 ; turn off extruder,M140 S0 ; turn off bed,G1 X0 Y200 ; part removal,M84 ; disable motors
;   exportFileFormat,gcode
;   celebration,0
;   celebrationSong,Random Song
;   postProcessing,
;   defaultSpeed,2400
;   outlineUnderspeed,0.8
;   solidInfillUnderspeed,0.8
;   supportUnderspeed,0.8
;   rapidXYspeed,4800
;   rapidZspeed,1002
;   minBridgingArea,50
;   bridgingExtraInflation,0
;   bridgingExtrusionMultiplier,1
;   bridgingSpeedMultiplier,1
;   useFixedBridgingAngle,0
;   fixedBridgingAngle,0
;   applyBridgingToPerimeters,0
;   filamentDiameters,1.75|1.75|1.75|1.75|1.75|1.75
;   filamentPricesPerKg,46|46|46|46|46|46
;   filamentDensities,1.25|1.25|1.25|1.25|1.25|1.25
;   useMinPrintHeight,1
;   minPrintHeight,0
;   useMaxPrintHeight,1
;   maxPrintHeight,235
;   useDiaphragm,0
;   diaphragmLayerInterval,20
;   robustSlicing,1
;   mergeAllIntoSolid,0
;   onlyRetractWhenCrossingOutline,1
;   retractBetweenLayers,1
;   useRetractionMinTravel,0
;   retractionMinTravel,3
;   retractWhileWiping,1
;   onlyWipeOutlines,1
;   avoidCrossingOutline,0
;   maxMovementDetourFactor,3
;   toolChangeRetractionDistance,12
;   toolChangeExtraRestartDistance,-0.5
;   toolChangeRetractionSpeed,600
;   externalThinWallType,0
;   internalThinWallType,2
;   thinWallAllowedOverlapPercentage,25
;   singleExtrusionMinLength,1
;   singleExtrusionMinPrintingWidthPercentage,50
;   singleExtrusionMaxPrintingWidthPercentage,200
;   singleExtrusionEndpointExtension,0.2
;   horizontalSizeCompensation,0
G90
M82
M106 S0
M140 S60
M190 S60
M104 S200 T0
M109 S200 T0
M115 U3.0.7 ; use the latest firmware version
G28 W ; home all axes without mesh bed leveling
G80 ; run mesh bed leveling routine
G1 Y-3.0 F1000.0 ; prepare to prime
G92 E0 ; reset extrusion distance
G1 X60.0 E9.0  F1000.0 ; priming
G1 X100.0 E12.5  F1000.0 ; priming
G92 E0
G1 E-1.5000 F1800
G1 Z0.114 F1002
; process Process1
; layer 1, Z = 0.114
T0
; tool H0.114 W0.480
; skirt
G1 X92.930 Y60.764 F4800
G1 E0.0000 F540
G92 E0
G1 X92.972 Y60.691 E0.0019 F1200
G1 X95.267 Y58.765 E0.0701
G1 X95.347 Y58.736 E0.0720
G1 X99.543 Y58.736 E0.1675
G1 X99.623 Y58.765 E0.1694
G1 X101.918 Y60.691 E0.2376
G1 X101.961 Y60.764 E0.2395
G1 X103.652 Y70.357 E0.4611
G1 X103.653 Y70.367 E0.4613
G1 X103.685 Y70.725 E0.4695
G1 X103.685 Y70.736 E0.4698
G1 X103.685 Y128.735 E1.7892
G1 X145.495 Y128.725 E2.7404
G1 X145.495 Y70.736 E4.0597
G1 X145.496 Y70.725 E4.0599
G1 X145.527 Y70.367 E4.0681
G1 X145.528 Y70.357 E4.0683
G1 X147.220 Y60.764 E4.2899
G1 X147.262 Y60.691 E4.2919
G1 X149.557 Y58.765 E4.3600
G1 X149.637 Y58.736 E4.3619
G1 X153.833 Y58.736 E4.4574
G1 X153.913 Y58.765 E4.4593
G1 X156.208 Y60.691 E4.5275
G1 X156.251 Y60.764 E4.5294
G1 X157.942 Y70.357 E4.7510
G1 X157.943 Y70.367 E4.7513
G1 X157.975 Y70.725 E4.7594
G1 X157.975 Y70.736 E4.7597
G1 X157.975 Y128.727 E6.0790
G1 X169.797 Y128.737 E6.3479
G1 X169.886 Y128.774 E6.3501
G1 X172.294 Y131.184 E6.4276
G1 X172.330 Y131.272 E6.4298
G1 X172.330 Y140.622 E6.6425
G1 X173.107 Y141.286 E6.6657
G1 X173.151 Y141.381 E6.6681
G1 X173.148 Y145.902 E6.7710
G1 X173.119 Y145.982 E6.7729
G1 X171.180 Y148.279 E6.8413
G1 X171.107 Y148.321 E6.8432
G1 X169.042 Y148.675 E6.8909
G1 X169.030 Y148.677 E6.8912
G1 X168.599 Y148.705 E6.9010
G1 X168.586 Y148.705 E6.9013
G1 X167.733 Y148.671 E6.9207
G1 X167.722 Y148.670 E6.9210
G1 X167.344 Y148.620 E6.9296
G1 X167.333 Y148.618 E6.9299
G1 X167.149 Y148.576 E6.9342
G1 X163.710 Y148.576 E7.0124
G1 X163.620 Y148.538 E7.0146
G1 X163.574 Y148.490 E7.0161
G1 X163.391 Y148.533 E7.0204
G1 X163.384 Y148.535 E7.0206
G1 X162.852 Y148.624 E7.0329
G1 X162.845 Y148.625 E7.0330
G1 X162.626 Y148.650 E7.0380
G1 X162.619 Y148.651 E7.0382
G1 X161.740 Y148.703 E7.0582
G1 X161.734 Y148.703 E7.0584
G1 X161.505 Y148.704 E7.0636
G1 X161.499 Y148.704 E7.0637
G1 X160.642 Y148.660 E7.0832
G1 X160.635 Y148.659 E7.0834
G1 X160.396 Y148.633 E7.0889
G1 X160.389 Y148.632 E7.0890
G1 X159.578 Y148.494 E7.1077
G1 X159.570 Y148.492 E7.1079
G1 X159.276 Y148.419 E7.1148
G1 X159.267 Y148.417 E7.1150
G1 X158.683 Y148.226 E7.1290
G1 X158.189 Y148.410 E7.1410
G1 X158.180 Y148.413 E7.1412
G1 X157.873 Y148.500 E7.1484
G1 X157.864 Y148.503 E7.1487
G1 X157.347 Y148.608 E7.1607
G1 X157.339 Y148.609 E7.1609
G1 X157.076 Y148.645 E7.1669
G1 X157.069 Y148.646 E7.1671
G1 X156.287 Y148.702 E7.1849
G1 X156.279 Y148.703 E7.1851
G1 X156.015 Y148.705 E7.1911
G1 X156.008 Y148.705 E7.1913
G1 X155.381 Y148.670 E7.2055
G1 X155.374 Y148.669 E7.2057
G1 X155.123 Y148.639 E7.2114
G1 X155.116 Y148.638 E7.2116
G1 X154.512 Y148.529 E7.2256
G1 X154.504 Y148.528 E7.2258
G1 X154.228 Y148.458 E7.2322
G1 X154.220 Y148.456 E7.2324
G1 X154.012 Y148.388 E7.2374
G1 X153.952 Y148.410 E7.2389
G1 X153.941 Y148.414 E7.2391
G1 X153.560 Y148.520 E7.2481
G1 X153.549 Y148.522 E7.2484
G1 X152.852 Y148.645 E7.2645
G1 X152.844 Y148.646 E7.2647
G1 X152.541 Y148.677 E7.2716
G1 X152.532 Y148.678 E7.2718
G1 X151.628 Y148.702 E7.2924
G1 X151.618 Y148.702 E7.2926
G1 X151.266 Y148.681 E7.3006
G1 X151.256 Y148.680 E7.3008
G1 X150.535 Y148.576 E7.3174
G1 X146.747 Y148.576 E7.4036
G1 X146.657 Y148.538 E7.4058
G1 X146.616 Y148.496 E7.4071
G1 X146.170 Y148.587 E7.4175
G1 X146.163 Y148.589 E7.4177
G1 X145.900 Y148.625 E7.4237
G1 X145.892 Y148.626 E7.4239
G1 X144.824 Y148.704 E7.4483
G1 X144.815 Y148.704 E7.4485
G1 X144.506 Y148.704 E7.4555
G1 X144.497 Y148.703 E7.4557
G1 X144.461 Y148.701 E7.4565
G1 X144.461 Y148.729 E7.4572
G1 X144.424 Y148.817 E7.4593
G1 X142.014 Y151.227 E7.5369
G1 X141.926 Y151.264 E7.5391
G1 X137.295 Y151.264 E7.6444
G1 X137.207 Y151.227 E7.6466
G1 X136.398 Y150.418 E7.6726
G1 X136.254 Y150.457 E7.6760
G1 X136.249 Y150.459 E7.6761
G1 X136.076 Y150.498 E7.6802
G1 X136.071 Y150.499 E7.6803
G1 X135.347 Y150.630 E7.6970
G1 X135.340 Y150.631 E7.6972
G1 X135.108 Y150.659 E7.7025
G1 X135.101 Y150.660 E7.7026
G1 X133.779 Y150.747 E7.7328
G1 X133.775 Y150.747 E7.7329
G1 X133.639 Y150.752 E7.7360
G1 X133.635 Y150.752 E7.7361
G1 X128.697 Y150.752 E7.8484
G1 X128.609 Y150.715 E7.8506
G1 X126.198 Y148.305 E7.9281
G1 X126.161 Y148.217 E7.9303
G1 X126.161 Y148.079 E7.9334
G1 X126.091 Y148.113 E7.9352
G1 X126.083 Y148.116 E7.9354
G1 X125.796 Y148.227 E7.9424
G1 X125.787 Y148.230 E7.9426
G1 X124.992 Y148.471 E7.9615
G1 X124.984 Y148.473 E7.9617
G1 X124.728 Y148.533 E7.9677
G1 X124.721 Y148.535 E7.9679
G1 X124.189 Y148.624 E7.9801
G1 X124.183 Y148.625 E7.9803
G1 X123.963 Y148.650 E7.9853
G1 X123.956 Y148.651 E7.9855
G1 X123.077 Y148.703 E8.0055
G1 X123.071 Y148.703 E8.0056
G1 X122.842 Y148.704 E8.0108
G1 X122.836 Y148.704 E8.0110
G1 X121.979 Y148.660 E8.0305
G1 X121.972 Y148.659 E8.0306
G1 X121.733 Y148.633 E8.0361
G1 X121.726 Y148.632 E8.0363
G1 X121.385 Y148.574 E8.0442
G1 X119.755 Y150.203 E8.0966
G1 X119.667 Y150.240 E8.0988
G1 X115.695 Y150.240 E8.1891
G1 X115.617 Y150.213 E8.1910
G1 X113.732 Y148.691 E8.2461
G1 X113.562 Y148.703 E8.2500
G1 X113.555 Y148.703 E8.2502
G1 X113.314 Y148.705 E8.2556
G1 X113.307 Y148.705 E8.2558
G1 X112.677 Y148.672 E8.2701
G1 X112.670 Y148.672 E8.2703
G1 X112.440 Y148.647 E8.2756
G1 X112.433 Y148.646 E8.2757
G1 X112.007 Y148.576 E8.2856
G1 X108.072 Y148.576 E8.3751
G1 X107.982 Y148.538 E8.3773
G1 X107.925 Y148.478 E8.3792
G1 X107.699 Y148.541 E8.3845
G1 X107.687 Y148.543 E8.3848
G1 X107.298 Y148.612 E8.3938
G1 X107.286 Y148.614 E8.3940
G1 X106.158 Y148.704 E8.4198
G1 X106.148 Y148.704 E8.4200
G1 X105.814 Y148.704 E8.4276
G1 X105.805 Y148.703 E8.4278
G1 X104.698 Y148.612 E8.4531
G1 X104.686 Y148.610 E8.4534
G1 X104.300 Y148.541 E8.4623
G1 X104.289 Y148.538 E8.4625
G1 X103.282 Y148.257 E8.4863
G1 X103.273 Y148.254 E8.4866
G1 X103.125 Y148.199 E8.4901
G1 X102.557 Y148.410 E8.5039
G1 X102.549 Y148.413 E8.5041
G1 X102.241 Y148.500 E8.5114
G1 X102.232 Y148.503 E8.5116
G1 X101.714 Y148.608 E8.5236
G1 X101.707 Y148.609 E8.5238
G1 X101.444 Y148.645 E8.5298
G1 X101.436 Y148.646 E8.5300
G1 X100.654 Y148.702 E8.5478
G1 X100.647 Y148.703 E8.5480
G1 X100.383 Y148.705 E8.5540
G1 X100.376 Y148.705 E8.5542
G1 X99.749 Y148.670 E8.5685
G1 X99.742 Y148.669 E8.5686
G1 X99.491 Y148.639 E8.5744
G1 X99.484 Y148.638 E8.5745
G1 X98.880 Y148.529 E8.5885
G1 X98.871 Y148.528 E8.5887
G1 X98.596 Y148.458 E8.5952
G1 X98.588 Y148.456 E8.5953
G1 X98.379 Y148.388 E8.6003
G1 X98.320 Y148.411 E8.6018
G1 X98.309 Y148.414 E8.6021
G1 X97.928 Y148.520 E8.6111
G1 X97.917 Y148.522 E8.6113
G1 X97.220 Y148.645 E8.6274
G1 X97.211 Y148.646 E8.6276
G1 X96.909 Y148.677 E8.6345
G1 X96.900 Y148.678 E8.6347
G1 X95.996 Y148.702 E8.6553
G1 X95.986 Y148.702 E8.6555
G1 X95.634 Y148.681 E8.6636
G1 X95.624 Y148.680 E8.6638
G1 X95.617 Y148.680 E8.6639
G1 X95.617 Y148.729 E8.6650
G1 X95.581 Y148.817 E8.6672
G1 X93.170 Y151.227 E8.7448
G1 X93.082 Y151.264 E8.7469
G1 X88.452 Y151.264 E8.8523
G1 X88.364 Y151.227 E8.8545
G1 X87.775 Y150.638 E8.8734
G1 X87.771 Y150.639 E8.8735
G1 X87.765 Y150.640 E8.8736
G1 X87.536 Y150.675 E8.8789
G1 X87.529 Y150.676 E8.8791
G1 X86.951 Y150.730 E8.8923
G1 X86.945 Y150.731 E8.8924
G1 X86.757 Y150.740 E8.8967
G1 X86.751 Y150.740 E8.8968
G1 X80.535 Y150.756 E9.0383
G1 X80.446 Y150.720 E9.0404
G1 X78.028 Y148.308 E9.1181
G1 X77.991 Y148.220 E9.1203
G1 X77.991 Y141.873 E9.2647
G1 X76.887 Y140.769 E9.3002
G1 X76.850 Y140.681 E9.3024
G1 X76.850 Y131.272 E9.5164
G1 X76.887 Y131.184 E9.5186
G1 X79.295 Y128.774 E9.5961
G1 X79.383 Y128.738 E9.5983
G1 X91.205 Y128.727 E9.8672
G1 X91.205 Y70.736 E11.1865
G1 X91.206 Y70.725 E11.1868
G1 X91.237 Y70.367 E11.1949
G1 X91.238 Y70.357 E11.1952
G1 X92.895 Y60.961 E11.4122
G1 X92.930 Y60.764 F1200
G92 E0
G1 E-1.5000 F1800
; inner perimeter
G1 X97.294 Y67.340 F4800
G1 E0.0000 F1800
G92 E0
G1 X97.596 Y67.340 E0.0069 F1080
G1 X98.245 Y71.021 E0.0919
G1 X98.245 Y131.008 E1.4566
G1 X98.261 Y131.311 E1.4635
G1 X98.313 Y131.642 E1.4711
G1 X98.400 Y131.965 E1.4787
G1 X98.520 Y132.278 E1.4864
G1 X98.673 Y132.577 E1.4940
G1 X98.855 Y132.858 E1.5016
G1 X99.066 Y133.118 E1.5092
G1 X99.303 Y133.355 E1.5169
G1 X99.563 Y133.566 E1.5245
G1 X99.844 Y133.749 E1.5321
G1 X100.143 Y133.901 E1.5397
G1 X100.456 Y134.021 E1.5474
G1 X100.780 Y134.108 E1.5550
G1 X101.110 Y134.160 E1.5626
G1 X101.414 Y134.176 E1.5695
G1 X147.769 Y134.176 E2.6241
G1 X148.073 Y134.160 E2.6310
G1 X148.404 Y134.107 E2.6387
G1 X148.728 Y134.020 E2.6463
G1 X149.041 Y133.899 E2.6539
G1 X149.339 Y133.747 E2.6615
G1 X149.620 Y133.564 E2.6692
G1 X149.881 Y133.352 E2.6768
G1 X150.117 Y133.115 E2.6844
G1 X150.328 Y132.854 E2.6920
G1 X150.510 Y132.573 E2.6997
G1 X150.662 Y132.274 E2.7073
G1 X150.781 Y131.961 E2.7149
G1 X150.868 Y131.637 E2.7225
G1 X150.919 Y131.307 E2.7301
G1 X150.935 Y131.008 E2.7370
G1 X150.935 Y71.021 E4.1017
G1 X151.584 Y67.340 E4.1867
G1 X151.886 Y67.340 E4.1935
G1 X152.535 Y71.021 E4.2786
G1 X152.535 Y131.008 E5.6433
G1 X152.551 Y131.311 E5.6502
G1 X152.603 Y131.642 E5.6578
G1 X152.690 Y131.965 E5.6654
G1 X152.810 Y132.278 E5.6730
G1 X152.962 Y132.577 E5.6807
G1 X153.145 Y132.858 E5.6883
G1 X153.356 Y133.118 E5.6959
G1 X153.593 Y133.355 E5.7035
G1 X153.853 Y133.566 E5.7112
G1 X154.134 Y133.749 E5.7188
G1 X154.433 Y133.901 E5.7264
G1 X154.746 Y134.021 E5.7340
G1 X155.070 Y134.108 E5.7417
G1 X155.400 Y134.160 E5.7493
G1 X155.704 Y134.176 E5.7562
G1 X166.890 Y134.176 E6.0107
G1 X166.890 Y137.776 E6.0926
G1 X82.290 Y137.776 E8.0172
G1 X82.290 Y134.176 E8.0991
G1 X93.479 Y134.176 E8.3537
G1 X93.783 Y134.160 E8.3606
G1 X94.114 Y134.107 E8.3682
G1 X94.438 Y134.020 E8.3759
G1 X94.751 Y133.899 E8.3835
G1 X95.049 Y133.747 E8.3911
G1 X95.330 Y133.564 E8.3987
G1 X95.591 Y133.352 E8.4064
G1 X95.827 Y133.115 E8.4140
G1 X96.038 Y132.854 E8.4216
G1 X96.220 Y132.573 E8.4292
G1 X96.372 Y132.274 E8.4369
G1 X96.491 Y131.961 E8.4445
G1 X96.578 Y131.637 E8.4521
G1 X96.629 Y131.307 E8.4597
