; G-Code generated by Simplify3D(R) Version 4.0.0
; Aug 25, 2017 at 4:48:42 PM
; Settings Summary
;   processName,Process1
;   applyToModels,purple-cayenne
;   profileName,Prusa Research Original Prusa i3 MK2 (modified)
;   profileVersion,2017-07-23 22:27:18
;   baseProfile,
;   printMaterial,PLA
;   printQuality,Medium
;   printExtruders,
;   extruderName,Primary Extruder
;   extruderToolheadNumber,0
;   extruderDiameter,0.4
;   extruderAutoWidth,1
;   extruderWidth,0.48
;   extrusionMultiplier,1
;   extruderUseRetract,1
;   extruderRetractionDistance,1.5
;   extruderExtraRestartDistance,0
;   extruderRetractionZLift,0
;   extruderRetractionSpeed,1800
;   extruderUseCoasting,1
;   extruderCoastingDistance,0.2
;   extruderUseWipe,1
;   extruderWipeDistance,2
;   primaryExtruder,0
;   layerHeight,0.095
;   topSolidLayers,3
;   bottomSolidLayers,3
;   perimeterOutlines,3
;   printPerimetersInsideOut,1
;   startPointOption,2
;   startPointOriginX,0
;   startPointOriginY,0
;   sequentialIslands,0
;   spiralVaseMode,0
;   firstLayerHeightPercentage,120
;   firstLayerWidthPercentage,100
;   firstLayerUnderspeed,0.5
;   useRaft,0
;   raftExtruder,0
;   raftTopLayers,3
;   raftBaseLayers,2
;   raftOffset,3
;   raftSeparationDistance,0.14
;   raftTopInfill,100
;   aboveRaftSpeedMultiplier,0.3
;   useSkirt,1
;   skirtExtruder,0
;   skirtLayers,1
;   skirtOutlines,1
;   skirtOffset,4
;   usePrimePillar,0
;   primePillarExtruder,999
;   primePillarWidth,12
;   primePillarLocation,7
;   primePillarSpeedMultiplier,1
;   useOozeShield,0
;   oozeShieldExtruder,999
;   oozeShieldOffset,2
;   oozeShieldOutlines,1
;   oozeShieldSidewallShape,1
;   oozeShieldSidewallAngle,30
;   oozeShieldSpeedMultiplier,1
;   infillExtruder,0
;   internalInfillPattern,Rectilinear
;   externalInfillPattern,Rectilinear
;   infillPercentage,10
;   outlineOverlapPercentage,20
;   infillExtrusionWidthPercentage,100
;   minInfillLength,5
;   infillLayerInterval,1
;   internalInfillAngles,45,-45
;   overlapInternalInfillAngles,0
;   externalInfillAngles,45,-45
;   generateSupport,1
;   supportExtruder,0
;   supportInfillPercentage,30
;   supportExtraInflation,0
;   supportBaseLayers,0
;   denseSupportExtruder,0
;   denseSupportLayers,0
;   denseSupportInfillPercentage,70
;   supportLayerInterval,1
;   supportHorizontalPartOffset,0.3
;   supportUpperSeparationLayers,1
;   supportLowerSeparationLayers,1
;   supportType,0
;   supportGridSpacing,4
;   maxOverhangAngle,45
;   supportAngles,0
;   temperatureName,Primary Extruder,Heated Bed
;   temperatureNumber,0,0
;   temperatureSetpointCount,1,1
;   temperatureSetpointLayers,1,1
;   temperatureSetpointTemperatures,200,60
;   temperatureStabilizeAtStartup,1,1
;   temperatureHeatedBed,0,1
;   temperatureRelayBetweenLayers,0,0
;   temperatureRelayBetweenLoops,0,0
;   fanLayers,1,2
;   fanSpeeds,0,100
;   blipFanToFullPower,0
;   adjustSpeedForCooling,1
;   minSpeedLayerTime,15
;   minCoolingSpeedSlowdown,20
;   increaseFanForCooling,0
;   minFanLayerTime,45
;   maxCoolingFanSpeed,100
;   increaseFanForBridging,0
;   bridgingFanSpeed,100
;   use5D,1
;   relativeEdistances,0
;   allowEaxisZeroing,1
;   independentExtruderAxes,0
;   includeM10123,0
;   stickySupport,1
;   applyToolheadOffsets,0
;   gcodeXoffset,0
;   gcodeYoffset,0
;   gcodeZoffset,0
;   overrideMachineDefinition,1
;   machineTypeOverride,0
;   strokeXoverride,250
;   strokeYoverride,210
;   strokeZoverride,200
;   originOffsetXoverride,0
;   originOffsetYoverride,0
;   originOffsetZoverride,0
;   homeXdirOverride,-1
;   homeYdirOverride,-1
;   homeZdirOverride,-1
;   flipXoverride,1
;   flipYoverride,-1
;   flipZoverride,1
;   toolheadOffsets,0,0|0,0|0,0|0,0|0,0|0,0
;   overrideFirmwareConfiguration,1
;   firmwareTypeOverride,RepRap (Marlin/Repetier/Sprinter)
;   GPXconfigOverride,r2
;   baudRateOverride,250000
;   overridePrinterModels,1
;   printerModelsOverride
;   startingGcode,M115 U3.0.7 ; use the latest firmware version,G28 W ; home all axes without mesh bed leveling,G80 ; run mesh bed leveling routine,G1 Y-3.0 F1000.0 ; prepare to prime,G92 E0 ; reset extrusion distance,G1 X60.0 E9.0  F1000.0 ; priming,G1 X100.0 E12.5  F1000.0 ; priming
;   layerChangeGcode,
;   retractionGcode,
;   toolChangeGcode,
;   endingGcode,M106 S0 ; turn off cooling fan,M104 S0 ; turn off extruder,M140 S0 ; turn off bed,G1 X0 Y200 ; part removal,M84 ; disable motors
;   exportFileFormat,gcode
;   celebration,0
;   celebrationSong,Random Song
;   postProcessing,
;   defaultSpeed,2400
;   outlineUnderspeed,0.8
;   solidInfillUnderspeed,0.8
;   supportUnderspeed,0.8
;   rapidXYspeed,4800
;   rapidZspeed,1002
;   minBridgingArea,50
;   bridgingExtraInflation,0
;   bridgingExtrusionMultiplier,1
;   bridgingSpeedMultiplier,1
;   useFixedBridgingAngle,0
;   fixedBridgingAngle,0
;   applyBridgingToPerimeters,0
;   filamentDiameters,1.75|1.75|1.75|1.75|1.75|1.75
;   filamentPricesPerKg,46|46|46|46|46|46
;   filamentDensities,1.25|1.25|1.25|1.25|1.25|1.25
;   useMinPrintHeight,1
;   minPrintHeight,0
;   useMaxPrintHeight,1
;   maxPrintHeight,235
;   useDiaphragm,0
;   diaphragmLayerInterval,20
;   robustSlicing,1
;   mergeAllIntoSolid,0
;   onlyRetractWhenCrossingOutline,1
;   retractBetweenLayers,1
;   useRetractionMinTravel,0
;   retractionMinTravel,3
;   retractWhileWiping,1
;   onlyWipeOutlines,1
;   avoidCrossingOutline,0
;   maxMovementDetourFactor,3
;   toolChangeRetractionDistance,12
;   toolChangeExtraRestartDistance,-0.5
;   toolChangeRetractionSpeed,600
;   externalThinWallType,0
;   internalThinWallType,2
;   thinWallAllowedOverlapPercentage,25
;   singleExtrusionMinLength,1
;   singleExtrusionMinPrintingWidthPercentage,50
;   singleExtrusionMaxPrintingWidthPercentage,200
;   singleExtrusionEndpointExtension,0.2
;   horizontalSizeCompensation,0
G90
M82
M106 S0
M140 S60
M190 S60
M104 S200 T0
M109 S200 T0
M115 U3.0.7 ; use the latest firmware version
G28 W ; home all axes without mesh bed leveling
G80 ; run mesh bed leveling routine
G1 Y-3.0 F1000.0 ; prepare to prime
G92 E0 ; reset extrusion distance
G1 X60.0 E9.0  F1000.0 ; priming
G1 X100.0 E12.5  F1000.0 ; priming
G92 E0
G1 E-1.5000 F1800
G1 Z0.114 F1002
; process Process1
; layer 1, Z = 0.114
T0
; tool H0.114 W0.480
; skirt
G1 X98.736 Y69.736 F4800
G1 E0.0000 F540
G92 E0
G1 X98.778 Y69.663 E0.0019 F1200
G1 X101.074 Y67.737 E0.0701
G1 X101.153 Y67.708 E0.0720
G1 X105.094 Y67.708 E0.1617
G1 X105.173 Y67.737 E0.1636
G1 X107.468 Y69.663 E0.2318
G1 X107.511 Y69.736 E0.2337
G1 X108.903 Y77.634 E0.4161
G1 X108.905 Y77.644 E0.4163
G1 X108.936 Y78.002 E0.4245
G1 X108.936 Y78.013 E0.4248
G1 X108.936 Y122.763 E1.4428
G1 X141.063 Y122.763 E2.1737
G1 X141.063 Y78.013 E3.1918
G1 X141.064 Y78.002 E3.1920
G1 X141.095 Y77.644 E3.2002
G1 X141.097 Y77.634 E3.2004
G1 X142.489 Y69.736 E3.3829
G1 X142.531 Y69.663 E3.3848
G1 X144.827 Y67.737 E3.4530
G1 X144.906 Y67.708 E3.4549
G1 X148.847 Y67.708 E3.5445
G1 X148.926 Y67.737 E3.5465
G1 X151.222 Y69.663 E3.6146
G1 X151.264 Y69.736 E3.6166
G1 X152.656 Y77.634 E3.7990
G1 X152.658 Y77.644 E3.7992
G1 X152.689 Y78.002 E3.8074
G1 X152.689 Y78.013 E3.8077
G1 X152.689 Y122.757 E4.8256
G1 X161.706 Y122.765 E5.0307
G1 X161.795 Y122.801 E5.0329
G1 X164.203 Y125.211 E5.1104
G1 X164.239 Y125.300 E5.1126
G1 X164.239 Y133.427 E5.2975
G1 X164.203 Y133.515 E5.2996
G1 X163.237 Y134.480 E5.3307
G1 X163.084 Y135.280 E5.3492
G1 X163.082 Y135.290 E5.3494
G1 X162.986 Y135.630 E5.3575
G1 X162.983 Y135.640 E5.3577
G1 X162.644 Y136.539 E5.3796
G1 X162.639 Y136.550 E5.3799
G1 X162.442 Y136.942 E5.3898
G1 X162.435 Y136.953 E5.3901
G1 X161.901 Y137.781 E5.4125
G1 X161.892 Y137.793 E5.4129
G1 X161.569 Y138.180 E5.4243
G1 X161.559 Y138.190 E5.4247
G1 X160.827 Y138.877 E5.4475
G1 X160.815 Y138.886 E5.4479
G1 X160.394 Y139.192 E5.4597
G1 X160.382 Y139.200 E5.4600
G1 X159.507 Y139.679 E5.4827
G1 X159.495 Y139.685 E5.4830
G1 X159.056 Y139.863 E5.4938
G1 X159.043 Y139.868 E5.4941
G1 X158.105 Y140.128 E5.5163
G1 X158.094 Y140.131 E5.5165
G1 X157.704 Y140.200 E5.5255
G1 X157.693 Y140.201 E5.5258
G1 X156.768 Y140.275 E5.5469
G1 X156.761 Y140.275 E5.5470
G1 X156.513 Y140.280 E5.5527
G1 X156.506 Y140.280 E5.5528
G1 X155.992 Y140.259 E5.5645
G1 X155.987 Y140.258 E5.5647
G1 X155.811 Y140.244 E5.5687
G1 X155.806 Y140.243 E5.5688
G1 X155.285 Y140.177 E5.5807
G1 X155.276 Y140.175 E5.5809
G1 X154.980 Y140.115 E5.5878
G1 X154.972 Y140.113 E5.5880
G1 X154.149 Y139.883 E5.6075
G1 X154.139 Y139.880 E5.6077
G1 X154.101 Y139.865 E5.6086
G1 X153.074 Y140.155 E5.6329
G1 X153.061 Y140.158 E5.6332
G1 X152.585 Y140.234 E5.6442
G1 X152.571 Y140.236 E5.6445
G1 X151.548 Y140.278 E5.6678
G1 X151.537 Y140.278 E5.6680
G1 X151.176 Y140.261 E5.6762
G1 X151.166 Y140.261 E5.6765
G1 X150.551 Y140.178 E5.6906
G1 X147.599 Y140.178 E5.7578
G1 X147.246 Y140.234 E5.7659
G1 X147.232 Y140.236 E5.7662
G1 X146.209 Y140.278 E5.7895
G1 X146.198 Y140.278 E5.7897
G1 X145.837 Y140.261 E5.7980
G1 X145.826 Y140.261 E5.7982
G1 X145.212 Y140.178 E5.8123
G1 X141.812 Y140.178 E5.8897
G1 X141.686 Y140.200 E5.8926
G1 X141.675 Y140.201 E5.8928
G1 X140.708 Y140.278 E5.9149
G1 X140.698 Y140.279 E5.9151
G1 X140.364 Y140.278 E5.9227
G1 X140.354 Y140.278 E5.9229
G1 X139.406 Y140.199 E5.9446
G1 X139.395 Y140.197 E5.9448
G1 X139.286 Y140.178 E5.9474
G1 X135.827 Y140.178 E6.0261
G1 X135.756 Y140.155 E6.0278
G1 X135.430 Y139.923 E6.0369
G1 X135.091 Y140.156 E6.0462
G1 X135.021 Y140.178 E6.0479
G1 X131.561 Y140.178 E6.1266
G1 X131.163 Y140.245 E6.1358
G1 X131.151 Y140.246 E6.1360
G1 X130.759 Y140.274 E6.1450
G1 X130.748 Y140.274 E6.1452
G1 X129.839 Y140.252 E6.1659
G1 X129.833 Y140.259 E6.1661
G1 X129.823 Y140.267 E6.1664
G1 X129.480 Y140.538 E6.1764
G1 X129.470 Y140.546 E6.1767
G1 X128.529 Y141.139 E6.2020
G1 X128.519 Y141.145 E6.2022
G1 X128.157 Y141.326 E6.2114
G1 X128.146 Y141.331 E6.2117
G1 X127.369 Y141.629 E6.2306
G1 X127.361 Y141.632 E6.2308
G1 X127.085 Y141.717 E6.2374
G1 X127.077 Y141.719 E6.2376
G1 X126.311 Y141.895 E6.2555
G1 X126.304 Y141.897 E6.2557
G1 X126.055 Y141.938 E6.2614
G1 X126.048 Y141.939 E6.2616
G1 X125.249 Y142.023 E6.2798
G1 X125.242 Y142.023 E6.2800
G1 X125.000 Y142.034 E6.2855
G1 X124.993 Y142.034 E6.2857
G1 X124.045 Y142.021 E6.3072
G1 X124.038 Y142.021 E6.3074
G1 X123.815 Y142.006 E6.3125
G1 X123.809 Y142.005 E6.3126
G1 X123.160 Y141.926 E6.3275
G1 X123.152 Y141.924 E6.3277
G1 X122.870 Y141.869 E6.3342
G1 X122.861 Y141.868 E6.3344
G1 X121.793 Y141.581 E6.3596
G1 X121.781 Y141.577 E6.3599
G1 X121.374 Y141.421 E6.3698
G1 X121.362 Y141.416 E6.3701
G1 X120.336 Y140.890 E6.3963
G1 X120.325 Y140.883 E6.3966
G1 X119.938 Y140.627 E6.4071
G1 X119.927 Y140.619 E6.4075
G1 X119.090 Y139.916 E6.4323
G1 X119.082 Y139.909 E6.4326
G1 X118.838 Y139.667 E6.4404
G1 X118.831 Y139.659 E6.4406
G1 X118.709 Y139.515 E6.4449
G1 X118.410 Y139.679 E6.4527
G1 X118.398 Y139.685 E6.4530
G1 X117.959 Y139.863 E6.4637
G1 X117.946 Y139.868 E6.4641
G1 X117.009 Y140.128 E6.4862
G1 X116.997 Y140.131 E6.4865
G1 X116.607 Y140.200 E6.4955
G1 X116.596 Y140.201 E6.4957
G1 X115.752 Y140.268 E6.5150
G1 X113.765 Y142.255 E6.5789
G1 X113.677 Y142.292 E6.5811
G1 X109.308 Y142.292 E6.6805
G1 X109.220 Y142.255 E6.6826
G1 X107.142 Y140.178 E6.7495
G1 X105.821 Y140.178 E6.7796
G1 X105.088 Y140.278 E6.7964
G1 X105.071 Y140.279 E6.7968
G1 X104.497 Y140.278 E6.8098
G1 X104.480 Y140.276 E6.8102
G1 X103.792 Y140.178 E6.8260
G1 X98.884 Y140.178 E6.9377
G1 X98.453 Y140.543 E6.9505
G1 X98.445 Y140.549 E6.9508
G1 X98.169 Y140.746 E6.9585
G1 X98.161 Y140.752 E6.9587
G1 X97.679 Y141.040 E6.9715
G1 X97.670 Y141.044 E6.9717
G1 X97.387 Y141.185 E6.9789
G1 X97.378 Y141.189 E6.9791
G1 X96.606 Y141.502 E6.9981
G1 X96.596 Y141.505 E6.9983
G1 X96.244 Y141.612 E7.0067
G1 X96.234 Y141.615 E7.0069
G1 X95.414 Y141.787 E7.0260
G1 X95.408 Y141.788 E7.0261
G1 X95.179 Y141.822 E7.0314
G1 X95.172 Y141.823 E7.0315
G1 X94.673 Y141.870 E7.0429
G1 X94.668 Y141.871 E7.0431
G1 X94.480 Y141.880 E7.0473
G1 X94.474 Y141.880 E7.0475
G1 X89.202 Y141.894 E7.1674
G1 X89.113 Y141.857 E7.1696
G1 X86.695 Y139.445 E7.2473
G1 X86.658 Y139.357 E7.2495
G1 X86.658 Y134.376 E7.3628
G1 X85.797 Y133.515 E7.3905
G1 X85.761 Y133.427 E7.3927
G1 X85.761 Y125.300 E7.5776
G1 X85.797 Y125.211 E7.5797
G1 X88.205 Y122.801 E7.6572
G1 X88.293 Y122.765 E7.6594
G1 X97.310 Y122.757 E7.8646
G1 X97.310 Y78.013 E8.8825
G1 X97.311 Y78.002 E8.8827
G1 X97.342 Y77.644 E8.8909
G1 X97.344 Y77.634 E8.8911
G1 X98.701 Y69.933 E9.0690
G1 X98.736 Y69.736 F1200
G92 E0
G1 E-1.5000 F1800
; inner perimeter
G1 X102.972 Y77.039 F4800
G1 E0.0000 F1800
G92 E0
G1 X103.275 Y77.039 E0.0069 F1080
G1 X103.496 Y78.298 E0.0360
G1 X103.496 Y125.493 E1.1096
G1 X103.547 Y125.977 E1.1207
G1 X103.639 Y126.318 E1.1287
G1 X103.849 Y126.791 E1.1405
G1 X104.042 Y127.088 E1.1486
G1 X104.388 Y127.472 E1.1603
G1 X104.663 Y127.695 E1.1684
G1 X105.139 Y127.969 E1.1809
G1 X105.692 Y128.149 E1.1941
G1 X106.207 Y128.203 E1.2059
G1 X143.796 Y128.203 E2.0610
G1 X144.312 Y128.148 E2.0728
G1 X144.865 Y127.968 E2.0861
G1 X145.341 Y127.692 E2.0986
G1 X145.615 Y127.469 E2.1066
G1 X145.982 Y127.060 E2.1191
G1 X146.272 Y126.556 E2.1324
G1 X146.450 Y126.004 E2.1456
G1 X146.503 Y125.493 E2.1572
G1 X146.503 Y78.298 E3.2309
G1 X146.725 Y77.039 E3.2600
G1 X147.028 Y77.039 E3.2669
G1 X147.249 Y78.298 E3.2960
G1 X147.249 Y125.493 E4.3697
G1 X147.300 Y125.977 E4.3807
G1 X147.392 Y126.318 E4.3887
G1 X147.602 Y126.791 E4.4005
G1 X147.795 Y127.088 E4.4086
G1 X148.141 Y127.472 E4.4204
G1 X148.416 Y127.695 E4.4284
G1 X148.892 Y127.970 E4.4409
G1 X149.414 Y128.139 E4.4534
G1 X149.763 Y128.194 E4.4614
G1 X158.799 Y128.202 E4.6670
G1 X158.799 Y130.522 E4.7198
G1 X128.748 Y130.522 E5.4034
G1 X128.703 Y130.302 E5.4086
G1 X128.264 Y130.522 E5.4197
G1 X91.201 Y130.522 E6.2629
G1 X91.201 Y128.202 E6.3157
G1 X100.240 Y128.194 E6.5214
G1 X100.589 Y128.138 E6.5294
G1 X101.112 Y127.968 E6.5419
G1 X101.588 Y127.692 E6.5544
G1 X101.862 Y127.469 E6.5625
G1 X102.208 Y127.083 E6.5742
G1 X102.383 Y126.813 E6.5816
G1 X102.528 Y126.526 E6.5889
G1 X102.697 Y126.004 E6.6014
G1 X102.750 Y125.493 E6.6131
G1 X102.750 Y78.298 E7.6868
G1 X102.938 Y77.236 E7.7113
G1 X102.972 Y77.039 F1080
G1 X102.270 Y78.256 F4800
G92 E0
G1 X102.972 Y74.275 E0.0920 F1080
G1 X103.275 Y74.275 E0.0988
G1 X103.976 Y78.256 E0.1908
G1 X103.976 Y125.468 E1.2649
G1 X104.021 Y125.889 E1.2745
G1 X104.093 Y126.157 E1.2808
G1 X104.272 Y126.561 E1.2909
G1 X104.424 Y126.794 E1.2972
G1 X104.720 Y127.123 E1.3073
G1 X104.936 Y127.298 E1.3136
G1 X105.335 Y127.529 E1.3241
G1 X105.792 Y127.677 E1.3350
G1 X106.232 Y127.723 E1.3451
G1 X143.771 Y127.723 E2.1991
G1 X144.211 Y127.676 E2.2092
G1 X144.668 Y127.527 E2.2201
G1 X145.067 Y127.296 E2.2306
G1 X145.283 Y127.120 E2.2369
G1 X145.591 Y126.777 E2.2474
G1 X145.830 Y126.361 E2.2583
G1 X145.978 Y125.904 E2.2692
G1 X146.023 Y125.468 E2.2792
G1 X146.023 Y78.256 E3.3533
G1 X146.725 Y74.275 E3.4453
G1 X147.028 Y74.275 E3.4521
G1 X147.729 Y78.256 E3.5441
G1 X147.729 Y125.468 E4.6182
G1 X147.774 Y125.889 E4.6278
G1 X147.846 Y126.157 E4.6341
G1 X148.025 Y126.561 E4.6442
G1 X148.177 Y126.794 E4.6505
G1 X148.473 Y127.123 E4.6606
G1 X148.689 Y127.298 E4.6669
G1 X149.088 Y127.529 E4.6774
G1 X149.527 Y127.671 E4.6879
G1 X149.801 Y127.714 E4.6942
G1 X159.279 Y127.723 E4.9098
G1 X159.279 Y131.002 E4.9844
G1 X90.721 Y131.002 E6.5441
G1 X90.721 Y127.722 E6.6187
G1 X100.202 Y127.714 E6.8344
G1 X100.476 Y127.670 E6.8408
G1 X100.915 Y127.527 E6.8513
G1 X101.314 Y127.296 E6.8618
G1 X101.530 Y127.120 E6.8681
G1 X101.825 Y126.791 E6.8781
G1 X101.966 Y126.573 E6.8840
G1 X102.083 Y126.342 E6.8899
G1 X102.225 Y125.904 E6.9004
G1 X102.270 Y125.468 E6.9104
G1 X102.270 Y78.456 E7.9799
G1 X102.270 Y78.256 F1080
; outer perimeter
G1 X104.456 Y78.214 F4800
G92 E0
G1 X104.456 Y125.443 E1.0745 F960
G1 X104.494 Y125.801 E1.0827
G1 X104.547 Y125.997 E1.0873
G1 X104.696 Y126.332 E1.0956
G1 X104.806 Y126.501 E1.1002
G1 X105.051 Y126.774 E1.1085
G1 X105.209 Y126.901 E1.1131
G1 X105.531 Y127.088 E1.1216
G1 X105.892 Y127.205 E1.1303
G1 X106.257 Y127.243 E1.1386
