; G-Code generated by Simplify3D(R) Version 4.0.0
; Oct 29, 2017 at 4:31:14 PM
; Settings Summary
;   processName,Process1
;   applyToModels,sibirien-röd
;   profileName,Prusa Research Original Prusa i3 MK2 (modified)
;   profileVersion,2017-07-23 22:27:18
;   baseProfile,
;   printMaterial,PLA
;   printQuality,Medium
;   printExtruders,
;   extruderName,Primary Extruder
;   extruderToolheadNumber,0
;   extruderDiameter,0.4
;   extruderAutoWidth,1
;   extruderWidth,0.48
;   extrusionMultiplier,1
;   extruderUseRetract,1
;   extruderRetractionDistance,1.5
;   extruderExtraRestartDistance,0
;   extruderRetractionZLift,0
;   extruderRetractionSpeed,1800
;   extruderUseCoasting,1
;   extruderCoastingDistance,0.2
;   extruderUseWipe,1
;   extruderWipeDistance,2
;   primaryExtruder,0
;   layerHeight,0.095
;   topSolidLayers,3
;   bottomSolidLayers,3
;   perimeterOutlines,3
;   printPerimetersInsideOut,1
;   startPointOption,2
;   startPointOriginX,0
;   startPointOriginY,0
;   sequentialIslands,0
;   spiralVaseMode,0
;   firstLayerHeightPercentage,120
;   firstLayerWidthPercentage,100
;   firstLayerUnderspeed,0.5
;   useRaft,0
;   raftExtruder,0
;   raftTopLayers,3
;   raftBaseLayers,2
;   raftOffset,3
;   raftSeparationDistance,0.14
;   raftTopInfill,100
;   aboveRaftSpeedMultiplier,0.3
;   useSkirt,1
;   skirtExtruder,0
;   skirtLayers,1
;   skirtOutlines,1
;   skirtOffset,4
;   usePrimePillar,0
;   primePillarExtruder,999
;   primePillarWidth,12
;   primePillarLocation,7
;   primePillarSpeedMultiplier,1
;   useOozeShield,0
;   oozeShieldExtruder,999
;   oozeShieldOffset,2
;   oozeShieldOutlines,1
;   oozeShieldSidewallShape,1
;   oozeShieldSidewallAngle,30
;   oozeShieldSpeedMultiplier,1
;   infillExtruder,0
;   internalInfillPattern,Rectilinear
;   externalInfillPattern,Rectilinear
;   infillPercentage,10
;   outlineOverlapPercentage,20
;   infillExtrusionWidthPercentage,100
;   minInfillLength,5
;   infillLayerInterval,1
;   internalInfillAngles,45,-45
;   overlapInternalInfillAngles,0
;   externalInfillAngles,45,-45
;   generateSupport,1
;   supportExtruder,0
;   supportInfillPercentage,30
;   supportExtraInflation,0
;   supportBaseLayers,0
;   denseSupportExtruder,0
;   denseSupportLayers,0
;   denseSupportInfillPercentage,70
;   supportLayerInterval,1
;   supportHorizontalPartOffset,0.3
;   supportUpperSeparationLayers,1
;   supportLowerSeparationLayers,1
;   supportType,0
;   supportGridSpacing,4
;   maxOverhangAngle,45
;   supportAngles,0
;   temperatureName,Primary Extruder,Heated Bed
;   temperatureNumber,0,0
;   temperatureSetpointCount,1,1
;   temperatureSetpointLayers,1,1
;   temperatureSetpointTemperatures,200,60
;   temperatureStabilizeAtStartup,1,1
;   temperatureHeatedBed,0,1
;   temperatureRelayBetweenLayers,0,0
;   temperatureRelayBetweenLoops,0,0
;   fanLayers,1,2
;   fanSpeeds,0,100
;   blipFanToFullPower,0
;   adjustSpeedForCooling,1
;   minSpeedLayerTime,15
;   minCoolingSpeedSlowdown,20
;   increaseFanForCooling,0
;   minFanLayerTime,45
;   maxCoolingFanSpeed,100
;   increaseFanForBridging,0
;   bridgingFanSpeed,100
;   use5D,1
;   relativeEdistances,0
;   allowEaxisZeroing,1
;   independentExtruderAxes,0
;   includeM10123,0
;   stickySupport,1
;   applyToolheadOffsets,0
;   gcodeXoffset,0
;   gcodeYoffset,0
;   gcodeZoffset,0
;   overrideMachineDefinition,1
;   machineTypeOverride,0
;   strokeXoverride,250
;   strokeYoverride,210
;   strokeZoverride,200
;   originOffsetXoverride,0
;   originOffsetYoverride,0
;   originOffsetZoverride,0
;   homeXdirOverride,-1
;   homeYdirOverride,-1
;   homeZdirOverride,-1
;   flipXoverride,1
;   flipYoverride,-1
;   flipZoverride,1
;   toolheadOffsets,0,0|0,0|0,0|0,0|0,0|0,0
;   overrideFirmwareConfiguration,1
;   firmwareTypeOverride,RepRap (Marlin/Repetier/Sprinter)
;   GPXconfigOverride,r2
;   baudRateOverride,250000
;   overridePrinterModels,1
;   printerModelsOverride
;   startingGcode,M115 U3.0.7 ; use the latest firmware version,G28 W ; home all axes without mesh bed leveling,G80 ; run mesh bed leveling routine,G1 Y-3.0 F1000.0 ; prepare to prime,G92 E0 ; reset extrusion distance,G1 X60.0 E9.0  F1000.0 ; priming,G1 X100.0 E12.5  F1000.0 ; priming
;   layerChangeGcode,
;   retractionGcode,
;   toolChangeGcode,
;   endingGcode,M106 S0 ; turn off cooling fan,M104 S0 ; turn off extruder,M140 S0 ; turn off bed,G1 X0 Y200 ; part removal,M84 ; disable motors
;   exportFileFormat,gcode
;   celebration,0
;   celebrationSong,Random Song
;   postProcessing,
;   defaultSpeed,2400
;   outlineUnderspeed,0.8
;   solidInfillUnderspeed,0.8
;   supportUnderspeed,0.8
;   rapidXYspeed,4800
;   rapidZspeed,1002
;   minBridgingArea,50
;   bridgingExtraInflation,0
;   bridgingExtrusionMultiplier,1
;   bridgingSpeedMultiplier,1
;   useFixedBridgingAngle,0
;   fixedBridgingAngle,0
;   applyBridgingToPerimeters,0
;   filamentDiameters,1.75|1.75|1.75|1.75|1.75|1.75
;   filamentPricesPerKg,46|46|46|46|46|46
;   filamentDensities,1.25|1.25|1.25|1.25|1.25|1.25
;   useMinPrintHeight,1
;   minPrintHeight,0
;   useMaxPrintHeight,1
;   maxPrintHeight,235
;   useDiaphragm,0
;   diaphragmLayerInterval,20
;   robustSlicing,1
;   mergeAllIntoSolid,0
;   onlyRetractWhenCrossingOutline,1
;   retractBetweenLayers,1
;   useRetractionMinTravel,0
;   retractionMinTravel,3
;   retractWhileWiping,1
;   onlyWipeOutlines,1
;   avoidCrossingOutline,0
;   maxMovementDetourFactor,3
;   toolChangeRetractionDistance,12
;   toolChangeExtraRestartDistance,-0.5
;   toolChangeRetractionSpeed,600
;   externalThinWallType,0
;   internalThinWallType,2
;   thinWallAllowedOverlapPercentage,25
;   singleExtrusionMinLength,1
;   singleExtrusionMinPrintingWidthPercentage,50
;   singleExtrusionMaxPrintingWidthPercentage,200
;   singleExtrusionEndpointExtension,0.2
;   horizontalSizeCompensation,0
G90
M82
M106 S0
M140 S60
M190 S60
M104 S200 T0
M109 S200 T0
M115 U3.0.7 ; use the latest firmware version
G28 W ; home all axes without mesh bed leveling
G80 ; run mesh bed leveling routine
G1 Y-3.0 F1000.0 ; prepare to prime
G92 E0 ; reset extrusion distance
G1 X60.0 E9.0  F1000.0 ; priming
G1 X100.0 E12.5  F1000.0 ; priming
G92 E0
G1 E-1.5000 F1800
G1 Z0.114 F1002
; process Process1
; layer 1, Z = 0.114
T0
; tool H0.114 W0.480
; skirt
G1 X99.747 Y60.691 F4800
G1 E0.0000 F540
G92 E0
G1 X102.042 Y58.765 E0.0682 F1200
G1 X102.122 Y58.736 E0.0701
G1 X106.318 Y58.736 E0.1656
G1 X106.398 Y58.765 E0.1675
G1 X108.693 Y60.691 E0.2357
G1 X108.735 Y60.764 E0.2376
G1 X110.427 Y70.357 E0.4592
G1 X110.428 Y70.367 E0.4594
G1 X110.460 Y70.725 E0.4676
G1 X110.460 Y70.736 E0.4678
G1 X110.460 Y128.736 E1.7873
G1 X139.540 Y128.736 E2.4489
G1 X139.540 Y70.736 E3.7684
G1 X139.540 Y70.725 E3.7686
G1 X139.572 Y70.367 E3.7768
G1 X139.573 Y70.357 E3.7771
G1 X141.265 Y60.764 E3.9986
G1 X141.307 Y60.691 E4.0006
G1 X143.602 Y58.765 E4.0687
G1 X143.682 Y58.736 E4.0707
G1 X147.878 Y58.736 E4.1661
G1 X147.958 Y58.765 E4.1681
G1 X150.253 Y60.691 E4.2362
G1 X150.295 Y60.764 E4.2382
G1 X151.987 Y70.356 E4.4597
G1 X151.988 Y70.367 E4.4600
G1 X152.019 Y70.725 E4.4682
G1 X152.020 Y70.735 E4.4684
G1 X152.031 Y128.736 E5.7879
G1 X160.705 Y128.736 E5.9852
G1 X160.793 Y128.773 E5.9874
G1 X163.203 Y131.183 E6.0650
G1 X163.240 Y131.271 E6.0671
G1 X163.240 Y140.681 E6.2812
G1 X163.203 Y140.769 E6.2834
G1 X161.748 Y142.224 E6.3302
G1 X161.747 Y148.729 E6.4782
G1 X161.711 Y148.817 E6.4804
G1 X159.300 Y151.227 E6.5579
G1 X159.212 Y151.264 E6.5601
G1 X154.578 Y151.264 E6.6655
G1 X154.489 Y151.227 E6.6677
G1 X152.726 Y149.458 E6.7245
G1 X151.501 Y150.683 E6.7639
G1 X151.412 Y150.720 E6.7661
G1 X144.240 Y150.720 E6.9293
G1 X144.152 Y150.683 E6.9315
G1 X143.746 Y150.277 E6.9445
G1 X143.397 Y150.394 E6.9529
G1 X143.390 Y150.396 E6.9531
G1 X143.139 Y150.463 E6.9590
G1 X143.131 Y150.465 E6.9591
G1 X142.193 Y150.653 E6.9809
G1 X142.184 Y150.654 E6.9811
G1 X141.900 Y150.691 E6.9876
G1 X141.892 Y150.692 E6.9878
G1 X140.932 Y150.748 E7.0097
G1 X140.928 Y150.748 E7.0098
G1 X140.807 Y150.752 E7.0125
G1 X140.804 Y150.752 E7.0126
G1 X134.535 Y150.752 E7.1552
G1 X134.446 Y150.715 E7.1574
G1 X132.036 Y148.305 E7.2350
G1 X132.018 Y148.262 E7.2360
G1 X131.790 Y148.347 E7.2416
G1 X131.781 Y148.350 E7.2418
G1 X131.299 Y148.486 E7.2532
G1 X131.293 Y148.487 E7.2533
G1 X131.109 Y148.530 E7.2576
G1 X131.104 Y148.531 E7.2577
G1 X130.639 Y148.618 E7.2685
G1 X130.632 Y148.619 E7.2686
G1 X130.392 Y148.649 E7.2742
G1 X130.385 Y148.650 E7.2743
G1 X129.580 Y148.703 E7.2927
G1 X129.573 Y148.703 E7.2928
G1 X129.332 Y148.705 E7.2983
G1 X129.325 Y148.705 E7.2985
G1 X128.695 Y148.672 E7.3128
G1 X128.688 Y148.672 E7.3130
G1 X128.458 Y148.647 E7.3182
G1 X128.451 Y148.646 E7.3184
G1 X128.025 Y148.576 E7.3282
G1 X124.091 Y148.576 E7.4177
G1 X124.000 Y148.538 E7.4200
G1 X123.943 Y148.478 E7.4218
G1 X123.717 Y148.541 E7.4272
G1 X123.706 Y148.543 E7.4274
G1 X123.316 Y148.612 E7.4364
G1 X123.305 Y148.614 E7.4367
G1 X122.176 Y148.704 E7.4625
G1 X122.166 Y148.704 E7.4627
G1 X121.833 Y148.704 E7.4703
G1 X121.823 Y148.703 E7.4705
G1 X121.804 Y148.702 E7.4709
G1 X121.804 Y148.729 E7.4715
G1 X121.767 Y148.817 E7.4737
G1 X119.357 Y151.227 E7.5513
G1 X119.268 Y151.264 E7.5535
G1 X114.638 Y151.264 E7.6588
G1 X114.550 Y151.227 E7.6610
G1 X113.565 Y150.243 E7.6926
G1 X112.580 Y151.227 E7.7243
G1 X112.492 Y151.264 E7.7265
G1 X107.862 Y151.264 E7.8318
G1 X107.774 Y151.227 E7.8340
G1 X106.789 Y150.242 E7.8657
G1 X105.804 Y151.227 E7.8974
G1 X105.715 Y151.264 E7.8996
G1 X98.362 Y151.264 E8.0669
G1 X98.273 Y151.227 E8.0690
G1 X97.797 Y150.751 E8.0844
G1 X97.026 Y150.880 E8.1021
G1 X97.017 Y150.881 E8.1023
G1 X96.711 Y150.909 E8.1094
G1 X96.702 Y150.910 E8.1096
G1 X95.257 Y150.934 E8.1424
G1 X95.251 Y150.934 E8.1426
G1 X95.054 Y150.928 E8.1470
G1 X95.049 Y150.928 E8.1472
G1 X94.455 Y150.881 E8.1607
G1 X94.450 Y150.880 E8.1608
G1 X94.259 Y150.857 E8.1652
G1 X94.254 Y150.856 E8.1653
G1 X93.281 Y150.687 E8.1878
G1 X93.273 Y150.685 E8.1880
G1 X92.969 Y150.608 E8.1951
G1 X92.960 Y150.606 E8.1953
G1 X92.055 Y150.302 E8.2170
G1 X92.048 Y150.299 E8.2172
G1 X91.786 Y150.191 E8.2237
G1 X91.779 Y150.188 E8.2239
G1 X91.236 Y149.918 E8.2376
G1 X91.228 Y149.914 E8.2379
G1 X90.954 Y149.750 E8.2451
G1 X90.946 Y149.745 E8.2453
G1 X90.151 Y149.182 E8.2675
G1 X90.140 Y149.173 E8.2678
G1 X89.779 Y148.847 E8.2789
G1 X89.769 Y148.837 E8.2792
G1 X89.080 Y148.049 E8.3030
G1 X89.071 Y148.037 E8.3034
G1 X88.775 Y147.595 E8.3155
G1 X88.767 Y147.581 E8.3158
G1 X88.328 Y146.695 E8.3383
G1 X88.323 Y146.685 E8.3386
G1 X88.184 Y146.322 E8.3474
G1 X88.180 Y146.311 E8.3477
G1 X88.022 Y145.745 E8.3610
G1 X88.021 Y145.738 E8.3612
G1 X87.970 Y145.503 E8.3667
G1 X87.969 Y145.496 E8.3668
G1 X87.885 Y144.966 E8.3790
G1 X87.885 Y144.959 E8.3792
G1 X87.860 Y144.696 E8.3852
G1 X87.860 Y144.689 E8.3854
G1 X87.839 Y143.931 E8.4026
G1 X87.839 Y143.920 E8.4029
G1 X87.865 Y143.531 E8.4117
G1 X87.867 Y143.520 E8.4120
G1 X88.028 Y142.530 E8.4348
G1 X88.030 Y142.519 E8.4351
G1 X88.129 Y142.141 E8.4440
G1 X88.132 Y142.130 E8.4442
G1 X88.139 Y142.112 E8.4447
G1 X86.797 Y140.769 E8.4879
G1 X86.760 Y140.681 E8.4900
G1 X86.760 Y131.271 E8.7041
G1 X86.797 Y131.183 E8.7063
G1 X89.207 Y128.773 E8.7838
G1 X89.295 Y128.736 E8.7860
G1 X97.970 Y128.736 E8.9833
G1 X97.980 Y70.735 E10.3028
G1 X97.980 Y70.725 E10.3031
G1 X98.012 Y70.367 E10.3113
G1 X98.013 Y70.356 E10.3115
G1 X99.685 Y60.878 E10.5305
G1 X99.705 Y60.764 F1200
G1 X99.747 Y60.691 F1200
G92 E0
G1 E-1.5000 F1800
; inner perimeter
G1 X104.069 Y67.340 F4800
G1 E0.0000 F1800
G92 E0
G1 X104.371 Y67.340 E0.0069 F1080
G1 X105.020 Y71.021 E0.0919
G1 X105.020 Y131.008 E1.4566
G1 X105.036 Y131.311 E1.4635
G1 X105.088 Y131.642 E1.4711
G1 X105.175 Y131.965 E1.4787
G1 X105.295 Y132.278 E1.4864
G1 X105.447 Y132.577 E1.4940
G1 X105.630 Y132.858 E1.5016
G1 X105.841 Y133.118 E1.5092
G1 X106.078 Y133.355 E1.5169
G1 X106.338 Y133.566 E1.5245
G1 X106.619 Y133.749 E1.5321
G1 X106.918 Y133.901 E1.5397
G1 X107.231 Y134.021 E1.5474
G1 X107.554 Y134.108 E1.5550
G1 X107.885 Y134.160 E1.5626
G1 X108.189 Y134.176 E1.5695
G1 X141.814 Y134.176 E2.3345
G1 X142.118 Y134.160 E2.3414
G1 X142.449 Y134.107 E2.3490
G1 X142.773 Y134.020 E2.3567
G1 X143.086 Y133.899 E2.3643
G1 X143.384 Y133.747 E2.3719
G1 X143.665 Y133.564 E2.3796
G1 X143.925 Y133.352 E2.3872
G1 X144.162 Y133.115 E2.3948
G1 X144.373 Y132.854 E2.4024
G1 X144.555 Y132.573 E2.4101
G1 X144.707 Y132.274 E2.4177
G1 X144.826 Y131.961 E2.4253
G1 X144.913 Y131.637 E2.4329
G1 X144.964 Y131.307 E2.4405
G1 X144.980 Y131.008 E2.4474
G1 X144.980 Y71.021 E3.8120
G1 X145.629 Y67.340 E3.8971
G1 X145.931 Y67.340 E3.9039
G1 X146.580 Y71.021 E3.9890
G1 X146.580 Y131.008 E5.3537
G1 X146.596 Y131.311 E5.3606
G1 X146.648 Y131.642 E5.3682
G1 X146.735 Y131.965 E5.3758
G1 X146.855 Y132.278 E5.3834
G1 X147.007 Y132.577 E5.3911
G1 X147.190 Y132.858 E5.3987
G1 X147.401 Y133.118 E5.4063
G1 X147.638 Y133.355 E5.4139
G1 X147.898 Y133.566 E5.4216
G1 X148.179 Y133.749 E5.4292
G1 X148.478 Y133.901 E5.4368
G1 X148.791 Y134.021 E5.4444
G1 X149.114 Y134.108 E5.4521
G1 X149.445 Y134.160 E5.4597
G1 X149.749 Y134.176 E5.4666
G1 X157.800 Y134.176 E5.6498
G1 X157.800 Y137.776 E5.7317
G1 X92.200 Y137.776 E7.2240
G1 X92.200 Y134.176 E7.3059
G1 X100.254 Y134.176 E7.4892
G1 X100.558 Y134.160 E7.4961
G1 X100.889 Y134.107 E7.5037
G1 X101.213 Y134.020 E7.5114
G1 X101.526 Y133.899 E7.5190
G1 X101.824 Y133.747 E7.5266
G1 X102.105 Y133.564 E7.5342
G1 X102.365 Y133.352 E7.5419
G1 X102.602 Y133.115 E7.5495
G1 X102.813 Y132.854 E7.5571
G1 X102.995 Y132.573 E7.5647
G1 X103.147 Y132.274 E7.5724
G1 X103.266 Y131.961 E7.5800
G1 X103.353 Y131.637 E7.5876
G1 X103.404 Y131.307 E7.5952
G1 X103.420 Y131.008 E7.6020
G1 X103.420 Y71.021 E8.9667
G1 X104.034 Y67.537 E9.0472
G1 X104.069 Y67.340 F1080
G1 X104.069 Y64.576 F4800
G92 E0
G1 X104.371 Y64.576 E0.0069 F1080
G1 X105.500 Y70.979 E0.1548
G1 X105.500 Y130.995 E1.5201
G1 X105.514 Y131.260 E1.5262
G1 X105.558 Y131.542 E1.5327
G1 X105.632 Y131.817 E1.5391
G1 X105.734 Y132.083 E1.5456
G1 X105.864 Y132.337 E1.5521
G1 X106.019 Y132.575 E1.5586
G1 X106.198 Y132.797 E1.5651
G1 X106.399 Y132.998 E1.5715
G1 X106.621 Y133.177 E1.5780
G1 X106.860 Y133.332 E1.5845
G1 X107.113 Y133.462 E1.5910
G1 X107.379 Y133.564 E1.5975
G1 X107.654 Y133.638 E1.6039
G1 X107.936 Y133.682 E1.6104
G1 X108.201 Y133.696 E1.6165
G1 X141.801 Y133.696 E2.3809
G1 X142.067 Y133.682 E2.3869
G1 X142.349 Y133.637 E2.3934
G1 X142.624 Y133.563 E2.3999
G1 X142.890 Y133.460 E2.4064
G1 X143.143 Y133.331 E2.4129
G1 X143.382 Y133.175 E2.4193
G1 X143.603 Y132.995 E2.4258
G1 X143.805 Y132.794 E2.4323
G1 X143.983 Y132.572 E2.4388
G1 X144.138 Y132.333 E2.4453
G1 X144.267 Y132.079 E2.4518
G1 X144.369 Y131.813 E2.4582
G1 X144.442 Y131.538 E2.4647
G1 X144.486 Y131.257 E2.4712
G1 X144.500 Y130.995 E2.4771
G1 X144.500 Y70.979 E3.8425
G1 X145.629 Y64.576 E3.9904
G1 X145.931 Y64.576 E3.9973
G1 X147.060 Y70.979 E4.1452
G1 X147.060 Y130.995 E5.5106
G1 X147.074 Y131.260 E5.5166
G1 X147.118 Y131.542 E5.5231
G1 X147.192 Y131.817 E5.5296
G1 X147.294 Y132.083 E5.5360
G1 X147.424 Y132.337 E5.5425
G1 X147.579 Y132.575 E5.5490
G1 X147.758 Y132.797 E5.5555
G1 X147.959 Y132.998 E5.5620
G1 X148.181 Y133.177 E5.5684
G1 X148.419 Y133.332 E5.5749
G1 X148.673 Y133.462 E5.5814
G1 X148.939 Y133.564 E5.5879
G1 X149.214 Y133.638 E5.5944
G1 X149.496 Y133.682 E5.6008
G1 X149.761 Y133.696 E5.6069
G1 X158.280 Y133.696 E5.8007
G1 X158.280 Y138.256 E5.9044
G1 X142.793 Y138.256 E6.2568
G1 X142.459 Y138.762 E6.2705
G1 X142.179 Y138.256 E6.2837
G1 X91.720 Y138.256 E7.4316
G1 X91.720 Y133.696 E7.5354
G1 X100.241 Y133.696 E7.7292
G1 X100.507 Y133.682 E7.7353
G1 X100.789 Y133.637 E7.7418
G1 X101.064 Y133.563 E7.7483
G1 X101.330 Y133.460 E7.7547
G1 X101.583 Y133.331 E7.7612
G1 X101.822 Y133.175 E7.7677
G1 X102.043 Y132.996 E7.7742
G1 X102.245 Y132.794 E7.7807
G1 X102.423 Y132.572 E7.7872
G1 X102.578 Y132.333 E7.7936
G1 X102.707 Y132.079 E7.8001
G1 X102.809 Y131.813 E7.8066
G1 X102.882 Y131.538 E7.8131
G1 X102.926 Y131.257 E7.8195
G1 X102.940 Y130.995 E7.8255
G1 X102.940 Y70.979 E9.1909
