; G-Code generated by Simplify3D(R) Version 4.0.0
; May 17, 2018 at 12:47:34 PM
; Settings Summary
;   processName,Fast PLA
;   applyToModels,tabasco
;   profileName,Prusa Research Original Prusa i3 MK2 (modified)
;   profileVersion,2017-07-23 22:27:18
;   baseProfile,
;   printMaterial,PLA
;   printQuality,Fast
;   printExtruders,
;   extruderName,Primary Extruder
;   extruderToolheadNumber,0
;   extruderDiameter,0.4
;   extruderAutoWidth,1
;   extruderWidth,0.48
;   extrusionMultiplier,1
;   extruderUseRetract,1
;   extruderRetractionDistance,1.5
;   extruderExtraRestartDistance,0
;   extruderRetractionZLift,0
;   extruderRetractionSpeed,1800
;   extruderUseCoasting,1
;   extruderCoastingDistance,0.2
;   extruderUseWipe,1
;   extruderWipeDistance,2
;   primaryExtruder,0
;   layerHeight,0.35
;   topSolidLayers,3
;   bottomSolidLayers,3
;   perimeterOutlines,3
;   printPerimetersInsideOut,1
;   startPointOption,2
;   startPointOriginX,0
;   startPointOriginY,0
;   sequentialIslands,0
;   spiralVaseMode,0
;   firstLayerHeightPercentage,120
;   firstLayerWidthPercentage,100
;   firstLayerUnderspeed,0.5
;   useRaft,0
;   raftExtruder,0
;   raftTopLayers,3
;   raftBaseLayers,2
;   raftOffset,3
;   raftSeparationDistance,0.14
;   raftTopInfill,100
;   aboveRaftSpeedMultiplier,0.3
;   useSkirt,1
;   skirtExtruder,0
;   skirtLayers,1
;   skirtOutlines,1
;   skirtOffset,4
;   usePrimePillar,0
;   primePillarExtruder,999
;   primePillarWidth,12
;   primePillarLocation,7
;   primePillarSpeedMultiplier,1
;   useOozeShield,0
;   oozeShieldExtruder,999
;   oozeShieldOffset,2
;   oozeShieldOutlines,1
;   oozeShieldSidewallShape,1
;   oozeShieldSidewallAngle,30
;   oozeShieldSpeedMultiplier,1
;   infillExtruder,0
;   internalInfillPattern,Rectilinear
;   externalInfillPattern,Rectilinear
;   infillPercentage,30
;   outlineOverlapPercentage,20
;   infillExtrusionWidthPercentage,100
;   minInfillLength,5
;   infillLayerInterval,1
;   internalInfillAngles,45,-45
;   overlapInternalInfillAngles,0
;   externalInfillAngles,45,-45
;   generateSupport,1
;   supportExtruder,0
;   supportInfillPercentage,25
;   supportExtraInflation,0
;   supportBaseLayers,0
;   denseSupportExtruder,0
;   denseSupportLayers,0
;   denseSupportInfillPercentage,70
;   supportLayerInterval,1
;   supportHorizontalPartOffset,0.3
;   supportUpperSeparationLayers,1
;   supportLowerSeparationLayers,1
;   supportType,0
;   supportGridSpacing,4
;   maxOverhangAngle,45
;   supportAngles,0
;   temperatureName,Primary Extruder,Heated Bed
;   temperatureNumber,0,0
;   temperatureSetpointCount,1,1
;   temperatureSetpointLayers,1,1
;   temperatureSetpointTemperatures,210,55
;   temperatureStabilizeAtStartup,1,1
;   temperatureHeatedBed,0,1
;   temperatureRelayBetweenLayers,0,0
;   temperatureRelayBetweenLoops,0,0
;   fanLayers,1,2
;   fanSpeeds,0,100
;   blipFanToFullPower,0
;   adjustSpeedForCooling,1
;   minSpeedLayerTime,15
;   minCoolingSpeedSlowdown,20
;   increaseFanForCooling,0
;   minFanLayerTime,45
;   maxCoolingFanSpeed,100
;   increaseFanForBridging,0
;   bridgingFanSpeed,100
;   use5D,1
;   relativeEdistances,0
;   allowEaxisZeroing,1
;   independentExtruderAxes,0
;   includeM10123,0
;   stickySupport,1
;   applyToolheadOffsets,0
;   gcodeXoffset,0
;   gcodeYoffset,0
;   gcodeZoffset,0
;   overrideMachineDefinition,1
;   machineTypeOverride,0
;   strokeXoverride,250
;   strokeYoverride,210
;   strokeZoverride,200
;   originOffsetXoverride,0
;   originOffsetYoverride,0
;   originOffsetZoverride,0
;   homeXdirOverride,-1
;   homeYdirOverride,-1
;   homeZdirOverride,-1
;   flipXoverride,1
;   flipYoverride,-1
;   flipZoverride,1
;   toolheadOffsets,0,0|0,0|0,0|0,0|0,0|0,0
;   overrideFirmwareConfiguration,1
;   firmwareTypeOverride,RepRap (Marlin/Repetier/Sprinter)
;   GPXconfigOverride,r2
;   baudRateOverride,250000
;   overridePrinterModels,1
;   printerModelsOverride
;   startingGcode,M115 U3.0.7 ; use the latest firmware version,G28 W ; home all axes without mesh bed leveling,G80 ; run mesh bed leveling routine,G1 Y-3.0 F1000.0 ; prepare to prime,G92 E0 ; reset extrusion distance,G1 X60.0 E9.0  F1000.0 ; priming,G1 X100.0 E12.5  F1000.0 ; priming
;   layerChangeGcode,
;   retractionGcode,
;   toolChangeGcode,
;   endingGcode,M106 S0 ; turn off cooling fan,M104 S0 ; turn off extruder,M140 S0 ; turn off bed,G1 X0 Y200 ; part removal,M84 ; disable motors
;   exportFileFormat,gcode
;   celebration,0
;   celebrationSong,Random Song
;   postProcessing,
;   defaultSpeed,2400
;   outlineUnderspeed,0.8
;   solidInfillUnderspeed,0.8
;   supportUnderspeed,0.8
;   rapidXYspeed,4800
;   rapidZspeed,1002
;   minBridgingArea,50
;   bridgingExtraInflation,0
;   bridgingExtrusionMultiplier,1
;   bridgingSpeedMultiplier,1
;   useFixedBridgingAngle,0
;   fixedBridgingAngle,0
;   applyBridgingToPerimeters,0
;   filamentDiameters,1.75|1.75|1.75|1.75|1.75|1.75
;   filamentPricesPerKg,46|46|46|46|46|46
;   filamentDensities,1.25|1.25|1.25|1.25|1.25|1.25
;   useMinPrintHeight,1
;   minPrintHeight,0
;   useMaxPrintHeight,1
;   maxPrintHeight,235
;   useDiaphragm,0
;   diaphragmLayerInterval,20
;   robustSlicing,1
;   mergeAllIntoSolid,0
;   onlyRetractWhenCrossingOutline,1
;   retractBetweenLayers,1
;   useRetractionMinTravel,0
;   retractionMinTravel,3
;   retractWhileWiping,1
;   onlyWipeOutlines,1
;   avoidCrossingOutline,0
;   maxMovementDetourFactor,3
;   toolChangeRetractionDistance,12
;   toolChangeExtraRestartDistance,-0.5
;   toolChangeRetractionSpeed,600
;   externalThinWallType,0
;   internalThinWallType,1
;   thinWallAllowedOverlapPercentage,25
;   singleExtrusionMinLength,1
;   singleExtrusionMinPrintingWidthPercentage,50
;   singleExtrusionMaxPrintingWidthPercentage,200
;   singleExtrusionEndpointExtension,0.2
;   horizontalSizeCompensation,0
G90
M82
M106 S0
M140 S55
M190 S55
M104 S210 T0
M109 S210 T0
M115 U3.0.7 ; use the latest firmware version
G28 W ; home all axes without mesh bed leveling
G80 ; run mesh bed leveling routine
G1 Y-3.0 F1000.0 ; prepare to prime
G92 E0 ; reset extrusion distance
G1 X60.0 E9.0  F1000.0 ; priming
G1 X100.0 E12.5  F1000.0 ; priming
G92 E0
G1 E-1.5000 F1800
G1 Z0.420 F1002
; process Fast PLA
; layer 1, Z = 0.420
T0
; tool H0.420 W0.480
; skirt
G1 X106.740 Y60.764 F4800
G1 E0.0000 F540
G92 E0
G1 X106.782 Y60.691 E0.0071 F1200
G1 X109.077 Y58.765 E0.2582
G1 X109.157 Y58.736 E0.2653
G1 X113.353 Y58.736 E0.6171
G1 X113.433 Y58.765 E0.6242
G1 X115.728 Y60.691 E0.8753
G1 X115.770 Y60.764 E0.8824
G1 X117.462 Y70.357 E1.6988
G1 X117.463 Y70.367 E1.6997
G1 X117.495 Y70.725 E1.7298
G1 X117.495 Y70.736 E1.7307
G1 X117.495 Y128.726 E6.5912
G1 X132.505 Y128.734 E7.8493
G1 X132.505 Y70.736 E12.7104
G1 X132.505 Y70.725 E12.7113
G1 X132.537 Y70.367 E12.7415
G1 X132.538 Y70.357 E12.7423
G1 X134.230 Y60.764 E13.5587
G1 X134.272 Y60.691 E13.5658
G1 X136.567 Y58.765 E13.8170
G1 X136.647 Y58.736 E13.8241
G1 X140.843 Y58.736 E14.1758
G1 X140.923 Y58.765 E14.1829
G1 X143.218 Y60.691 E14.4340
G1 X143.260 Y60.764 E14.4411
G1 X144.952 Y70.356 E15.2575
G1 X144.953 Y70.367 E15.2584
G1 X144.984 Y70.725 E15.2885
G1 X144.985 Y70.735 E15.2894
G1 X144.996 Y128.736 E20.1507
G1 X150.205 Y128.736 E20.5873
G1 X150.293 Y128.773 E20.5953
G1 X152.703 Y131.183 E20.8811
G1 X152.740 Y131.271 E20.8891
G1 X152.740 Y140.681 E21.6777
G1 X152.703 Y140.769 E21.6857
G1 X151.508 Y141.964 E21.8274
G1 X151.477 Y142.224 E21.8493
G1 X151.475 Y142.232 E21.8500
G1 X151.267 Y143.327 E21.9434
G1 X151.264 Y143.337 E21.9443
G1 X151.166 Y143.684 E21.9745
G1 X151.163 Y143.694 E21.9754
G1 X150.769 Y144.729 E22.0683
G1 X150.764 Y144.741 E22.0694
G1 X150.556 Y145.146 E22.1075
G1 X150.549 Y145.158 E22.1086
G1 X149.967 Y146.039 E22.1971
G1 X149.961 Y146.048 E22.1981
G1 X149.714 Y146.354 E22.2310
G1 X149.706 Y146.362 E22.2320
G1 X149.261 Y146.817 E22.2853
G1 X149.255 Y146.823 E22.2860
G1 X149.053 Y147.004 E22.3088
G1 X149.046 Y147.009 E22.3094
G1 X148.595 Y147.363 E22.3575
G1 X148.588 Y147.367 E22.3582
G1 X148.370 Y147.517 E22.3804
G1 X148.363 Y147.521 E22.3810
G1 X147.874 Y147.812 E22.4288
G1 X147.867 Y147.815 E22.4294
G1 X147.645 Y147.930 E22.4503
G1 X147.638 Y147.933 E22.4509
G1 X147.074 Y148.181 E22.5026
G1 X147.065 Y148.184 E22.5034
G1 X146.749 Y148.294 E22.5315
G1 X146.739 Y148.297 E22.5323
G1 X145.723 Y148.558 E22.6202
G1 X145.713 Y148.560 E22.6211
G1 X145.350 Y148.620 E22.6520
G1 X145.339 Y148.621 E22.6529
G1 X144.214 Y148.704 E22.7474
G1 X144.205 Y148.704 E22.7482
G1 X143.896 Y148.704 E22.7741
G1 X143.887 Y148.703 E22.7749
G1 X142.771 Y148.618 E22.8686
G1 X142.760 Y148.616 E22.8695
G1 X142.388 Y148.553 E22.9012
G1 X142.377 Y148.551 E22.9021
G1 X141.303 Y148.265 E22.9953
G1 X141.290 Y148.261 E22.9964
G1 X140.862 Y148.094 E23.0349
G1 X140.850 Y148.089 E23.0360
G1 X140.844 Y148.085 E23.0366
G1 X140.355 Y148.287 E23.0810
G1 X140.347 Y148.290 E23.0816
G1 X140.093 Y148.376 E23.1042
G1 X140.085 Y148.378 E23.1048
G1 X139.558 Y148.519 E23.1505
G1 X139.549 Y148.521 E23.1513
G1 X139.230 Y148.580 E23.1785
G1 X139.221 Y148.582 E23.1793
G1 X138.073 Y148.701 E23.2761
G1 X138.061 Y148.702 E23.2770
G1 X137.673 Y148.706 E23.3096
G1 X137.662 Y148.705 E23.3105
G1 X136.547 Y148.611 E23.4043
G1 X136.535 Y148.609 E23.4053
G1 X136.135 Y148.535 E23.4394
G1 X136.123 Y148.532 E23.4404
G1 X135.070 Y148.227 E23.5323
G1 X135.057 Y148.222 E23.5335
G1 X134.674 Y148.062 E23.5683
G1 X134.671 Y148.063 E23.5686
G1 X134.662 Y148.067 E23.5694
G1 X134.352 Y148.185 E23.5971
G1 X134.343 Y148.188 E23.5979
G1 X133.599 Y148.405 E23.6629
G1 X133.591 Y148.407 E23.6636
G1 X133.325 Y148.465 E23.6864
G1 X133.317 Y148.467 E23.6871
G1 X132.556 Y148.583 E23.7517
G1 X132.549 Y148.583 E23.7522
G1 X132.329 Y148.605 E23.7708
G1 X132.322 Y148.605 E23.7713
G1 X131.530 Y148.640 E23.8377
G1 X131.525 Y148.640 E23.8382
G1 X131.325 Y148.639 E23.8550
G1 X131.319 Y148.639 E23.8555
G1 X130.452 Y148.593 E23.9283
G1 X130.445 Y148.592 E23.9289
G1 X130.200 Y148.564 E23.9495
G1 X130.193 Y148.563 E23.9501
G1 X129.366 Y148.419 E24.0204
G1 X129.357 Y148.417 E24.0212
G1 X129.050 Y148.339 E24.0477
G1 X129.042 Y148.336 E24.0485
G1 X128.255 Y148.070 E24.1181
G1 X127.752 Y148.278 E24.1637
G1 X127.744 Y148.281 E24.1645
G1 X127.466 Y148.374 E24.1891
G1 X127.458 Y148.376 E24.1898
G1 X126.924 Y148.513 E24.2360
G1 X126.916 Y148.515 E24.2366
G1 X126.673 Y148.562 E24.2574
G1 X126.665 Y148.563 E24.2580
G1 X125.832 Y148.672 E24.3284
G1 X125.826 Y148.672 E24.3289
G1 X125.620 Y148.689 E24.3463
G1 X125.614 Y148.689 E24.3468
G1 X125.093 Y148.705 E24.3905
G1 X125.088 Y148.705 E24.3909
G1 X124.924 Y148.703 E24.4046
G1 X124.919 Y148.703 E24.4050
G1 X124.092 Y148.661 E24.4744
G1 X124.085 Y148.661 E24.4750
G1 X123.843 Y148.634 E24.4955
G1 X123.836 Y148.633 E24.4961
G1 X123.016 Y148.494 E24.5658
G1 X123.007 Y148.492 E24.5665
G1 X122.713 Y148.419 E24.5919
G1 X122.705 Y148.417 E24.5926
G1 X121.908 Y148.157 E24.6629
G1 X121.898 Y148.153 E24.6638
G1 X121.757 Y148.093 E24.6766
G1 X121.324 Y148.291 E24.7165
G1 X121.311 Y148.296 E24.7177
G1 X120.845 Y148.445 E24.7587
G1 X120.831 Y148.448 E24.7599
G1 X120.790 Y148.456 E24.7634
G1 X120.790 Y148.728 E24.7862
G1 X120.753 Y148.816 E24.7942
G1 X118.343 Y151.227 E25.0800
G1 X118.255 Y151.264 E25.0880
G1 X113.625 Y151.264 E25.4760
G1 X113.537 Y151.227 E25.4840
G1 X112.255 Y149.945 E25.6360
G1 X111.485 Y150.715 E25.7272
G1 X111.397 Y150.752 E25.7352
G1 X100.108 Y150.752 E26.6814
G1 X100.020 Y150.715 E26.6894
G1 X97.610 Y148.305 E26.9751
G1 X97.573 Y148.217 E26.9831
G1 X97.573 Y143.749 E27.3575
G1 X97.610 Y143.661 E27.3655
G1 X98.899 Y142.371 E27.5184
G1 X97.297 Y140.769 E27.7084
G1 X97.260 Y140.681 E27.7164
G1 X97.260 Y131.271 E28.5050
G1 X97.297 Y131.183 E28.5130
G1 X99.707 Y128.773 E28.7987
G1 X99.795 Y128.736 E28.8067
G1 X105.004 Y128.736 E29.2434
G1 X105.015 Y70.735 E34.1047
G1 X105.015 Y70.725 E34.1056
G1 X105.047 Y70.367 E34.1357
G1 X105.048 Y70.356 E34.1366
G1 X106.705 Y60.961 E34.9362
G1 X106.740 Y60.764 F1200
G92 E0
G1 E-1.5000 F1800
; inner perimeter
G1 X111.104 Y67.340 F4800
G1 E0.0000 F1800
G92 E0
G1 X111.406 Y67.340 E0.0253 F1080
G1 X112.055 Y71.021 E0.3386
G1 X112.055 Y131.008 E5.3664
G1 X112.071 Y131.311 E5.3918
G1 X112.123 Y131.642 E5.4199
G1 X112.210 Y131.965 E5.4480
G1 X112.330 Y132.278 E5.4761
G1 X112.482 Y132.577 E5.5042
G1 X112.665 Y132.858 E5.5323
G1 X112.876 Y133.118 E5.5603
G1 X113.113 Y133.355 E5.5884
G1 X113.373 Y133.566 E5.6165
G1 X113.654 Y133.749 E5.6446
G1 X113.953 Y133.901 E5.6727
G1 X114.266 Y134.021 E5.7008
G1 X114.589 Y134.108 E5.7289
G1 X114.920 Y134.160 E5.7570
G1 X115.224 Y134.176 E5.7824
G1 X134.786 Y134.176 E7.4221
G1 X135.092 Y134.158 E7.4478
G1 X135.423 Y134.105 E7.4759
G1 X135.747 Y134.016 E7.5040
G1 X136.060 Y133.895 E7.5321
G1 X136.358 Y133.741 E7.5603
G1 X136.639 Y133.557 E7.5884
G1 X136.896 Y133.346 E7.6163
G1 X137.124 Y133.118 E7.6433
G1 X137.335 Y132.858 E7.6714
G1 X137.518 Y132.577 E7.6995
G1 X137.670 Y132.278 E7.7276
G1 X137.790 Y131.965 E7.7557
G1 X137.877 Y131.642 E7.7837
G1 X137.929 Y131.311 E7.8118
G1 X137.945 Y131.008 E7.8373
G1 X137.945 Y71.021 E12.8651
G1 X138.594 Y67.340 E13.1783
G1 X138.896 Y67.340 E13.2036
G1 X139.545 Y71.021 E13.5169
G1 X139.545 Y131.008 E18.5447
G1 X139.561 Y131.311 E18.5701
G1 X139.613 Y131.642 E18.5982
G1 X139.700 Y131.965 E18.6263
G1 X139.820 Y132.278 E18.6544
G1 X139.972 Y132.577 E18.6825
G1 X140.155 Y132.858 E18.7106
G1 X140.366 Y133.118 E18.7387
G1 X140.603 Y133.355 E18.7668
G1 X140.863 Y133.566 E18.7949
G1 X141.144 Y133.749 E18.8229
G1 X141.443 Y133.901 E18.8510
G1 X141.756 Y134.021 E18.8791
G1 X142.079 Y134.108 E18.9072
G1 X142.410 Y134.160 E18.9353
G1 X142.714 Y134.176 E18.9607
G1 X147.300 Y134.176 E19.3452
G1 X147.300 Y137.776 E19.6469
G1 X102.700 Y137.776 E23.3851
G1 X102.700 Y134.176 E23.6868
G1 X107.296 Y134.176 E24.0721
G1 X107.602 Y134.158 E24.0977
G1 X107.933 Y134.105 E24.1259
G1 X108.257 Y134.016 E24.1540
G1 X108.570 Y133.895 E24.1821
G1 X108.868 Y133.741 E24.2102
G1 X109.149 Y133.557 E24.2384
G1 X109.409 Y133.344 E24.2665
G1 X109.642 Y133.108 E24.2944
G1 X109.845 Y132.858 E24.3214
G1 X110.028 Y132.577 E24.3494
G1 X110.180 Y132.278 E24.3775
G1 X110.300 Y131.965 E24.4056
G1 X110.387 Y131.642 E24.4337
G1 X110.439 Y131.311 E24.4618
G1 X110.455 Y131.007 E24.4872
G1 X110.455 Y71.021 E29.5151
G1 X111.069 Y67.537 E29.8115
G1 X111.104 Y67.340 F1080
G1 X111.104 Y64.576 F4800
G92 E0
G1 X111.406 Y64.576 E0.0253 F1080
G1 X112.535 Y70.979 E0.5702
G1 X112.535 Y130.995 E5.6005
G1 X112.549 Y131.260 E5.6228
G1 X112.593 Y131.542 E5.6467
G1 X112.667 Y131.817 E5.6705
G1 X112.769 Y132.083 E5.6944
G1 X112.899 Y132.337 E5.7183
G1 X113.054 Y132.575 E5.7422
G1 X113.233 Y132.797 E5.7660
G1 X113.434 Y132.998 E5.7899
G1 X113.656 Y133.177 E5.8138
G1 X113.895 Y133.332 E5.8377
G1 X114.148 Y133.462 E5.8615
G1 X114.414 Y133.564 E5.8854
G1 X114.689 Y133.638 E5.9093
G1 X114.971 Y133.682 E5.9331
G1 X115.236 Y133.696 E5.9554
G1 X134.773 Y133.696 E7.5929
G1 X135.040 Y133.681 E7.6153
G1 X135.322 Y133.635 E7.6392
G1 X135.597 Y133.560 E7.6631
G1 X135.863 Y133.456 E7.6870
G1 X136.116 Y133.326 E7.7109
G1 X136.355 Y133.169 E7.7349
G1 X136.574 Y132.990 E7.7586
G1 X136.767 Y132.797 E7.7815
G1 X136.946 Y132.575 E7.8054
G1 X137.101 Y132.336 E7.8293
G1 X137.231 Y132.083 E7.8531
G1 X137.333 Y131.817 E7.8770
G1 X137.407 Y131.542 E7.9009
G1 X137.451 Y131.260 E7.9247
G1 X137.465 Y130.995 E7.9470
G1 X137.465 Y70.979 E12.9773
G1 X138.594 Y64.576 E13.5222
G1 X138.896 Y64.576 E13.5476
G1 X140.025 Y70.979 E14.0925
G1 X140.025 Y130.995 E19.1228
G1 X140.039 Y131.260 E19.1450
G1 X140.083 Y131.542 E19.1689
G1 X140.157 Y131.817 E19.1928
G1 X140.259 Y132.083 E19.2167
G1 X140.389 Y132.337 E19.2405
G1 X140.544 Y132.575 E19.2644
G1 X140.723 Y132.797 E19.2883
G1 X140.924 Y132.998 E19.3121
G1 X141.146 Y133.177 E19.3360
G1 X141.385 Y133.332 E19.3599
G1 X141.638 Y133.462 E19.3838
G1 X141.904 Y133.564 E19.4076
G1 X142.179 Y133.638 E19.4315
G1 X142.461 Y133.682 E19.4554
G1 X142.726 Y133.696 E19.4777
G1 X147.780 Y133.696 E19.9012
G1 X147.780 Y138.256 E20.2834
G1 X127.117 Y138.256 E22.0154
