; G-Code generated by Simplify3D(R) Version 4.0.0
; Jan 24, 2018 at 11:33:27 AM
; Settings Summary
;   processName,Process1
;   applyToModels,vampire
;   profileName,Prusa Research Original Prusa i3 MK2 (modified)
;   profileVersion,2017-07-23 22:27:18
;   baseProfile,
;   printMaterial,PLA
;   printQuality,Medium
;   printExtruders,
;   extruderName,Primary Extruder
;   extruderToolheadNumber,0
;   extruderDiameter,0.4
;   extruderAutoWidth,1
;   extruderWidth,0.48
;   extrusionMultiplier,1
;   extruderUseRetract,1
;   extruderRetractionDistance,1.5
;   extruderExtraRestartDistance,0
;   extruderRetractionZLift,0
;   extruderRetractionSpeed,1800
;   extruderUseCoasting,1
;   extruderCoastingDistance,0.2
;   extruderUseWipe,1
;   extruderWipeDistance,2
;   primaryExtruder,0
;   layerHeight,0.095
;   topSolidLayers,3
;   bottomSolidLayers,3
;   perimeterOutlines,3
;   printPerimetersInsideOut,1
;   startPointOption,2
;   startPointOriginX,0
;   startPointOriginY,0
;   sequentialIslands,0
;   spiralVaseMode,0
;   firstLayerHeightPercentage,120
;   firstLayerWidthPercentage,100
;   firstLayerUnderspeed,0.5
;   useRaft,0
;   raftExtruder,0
;   raftTopLayers,3
;   raftBaseLayers,2
;   raftOffset,3
;   raftSeparationDistance,0.14
;   raftTopInfill,100
;   aboveRaftSpeedMultiplier,0.3
;   useSkirt,1
;   skirtExtruder,0
;   skirtLayers,1
;   skirtOutlines,1
;   skirtOffset,4
;   usePrimePillar,0
;   primePillarExtruder,999
;   primePillarWidth,12
;   primePillarLocation,7
;   primePillarSpeedMultiplier,1
;   useOozeShield,0
;   oozeShieldExtruder,999
;   oozeShieldOffset,2
;   oozeShieldOutlines,1
;   oozeShieldSidewallShape,1
;   oozeShieldSidewallAngle,30
;   oozeShieldSpeedMultiplier,1
;   infillExtruder,0
;   internalInfillPattern,Rectilinear
;   externalInfillPattern,Rectilinear
;   infillPercentage,10
;   outlineOverlapPercentage,20
;   infillExtrusionWidthPercentage,100
;   minInfillLength,5
;   infillLayerInterval,1
;   internalInfillAngles,45,-45
;   overlapInternalInfillAngles,0
;   externalInfillAngles,45,-45
;   generateSupport,1
;   supportExtruder,0
;   supportInfillPercentage,30
;   supportExtraInflation,0
;   supportBaseLayers,0
;   denseSupportExtruder,0
;   denseSupportLayers,0
;   denseSupportInfillPercentage,70
;   supportLayerInterval,1
;   supportHorizontalPartOffset,0.3
;   supportUpperSeparationLayers,1
;   supportLowerSeparationLayers,1
;   supportType,0
;   supportGridSpacing,4
;   maxOverhangAngle,45
;   supportAngles,0
;   temperatureName,Primary Extruder,Heated Bed
;   temperatureNumber,0,0
;   temperatureSetpointCount,1,1
;   temperatureSetpointLayers,1,1
;   temperatureSetpointTemperatures,200,60
;   temperatureStabilizeAtStartup,1,1
;   temperatureHeatedBed,0,1
;   temperatureRelayBetweenLayers,0,0
;   temperatureRelayBetweenLoops,0,0
;   fanLayers,1,2
;   fanSpeeds,0,100
;   blipFanToFullPower,0
;   adjustSpeedForCooling,1
;   minSpeedLayerTime,15
;   minCoolingSpeedSlowdown,20
;   increaseFanForCooling,0
;   minFanLayerTime,45
;   maxCoolingFanSpeed,100
;   increaseFanForBridging,0
;   bridgingFanSpeed,100
;   use5D,1
;   relativeEdistances,0
;   allowEaxisZeroing,1
;   independentExtruderAxes,0
;   includeM10123,0
;   stickySupport,1
;   applyToolheadOffsets,0
;   gcodeXoffset,0
;   gcodeYoffset,0
;   gcodeZoffset,0
;   overrideMachineDefinition,1
;   machineTypeOverride,0
;   strokeXoverride,250
;   strokeYoverride,210
;   strokeZoverride,200
;   originOffsetXoverride,0
;   originOffsetYoverride,0
;   originOffsetZoverride,0
;   homeXdirOverride,-1
;   homeYdirOverride,-1
;   homeZdirOverride,-1
;   flipXoverride,1
;   flipYoverride,-1
;   flipZoverride,1
;   toolheadOffsets,0,0|0,0|0,0|0,0|0,0|0,0
;   overrideFirmwareConfiguration,1
;   firmwareTypeOverride,RepRap (Marlin/Repetier/Sprinter)
;   GPXconfigOverride,r2
;   baudRateOverride,250000
;   overridePrinterModels,1
;   printerModelsOverride
;   startingGcode,M115 U3.0.7 ; use the latest firmware version,G28 W ; home all axes without mesh bed leveling,G80 ; run mesh bed leveling routine,G1 Y-3.0 F1000.0 ; prepare to prime,G92 E0 ; reset extrusion distance,G1 X60.0 E9.0  F1000.0 ; priming,G1 X100.0 E12.5  F1000.0 ; priming
;   layerChangeGcode,
;   retractionGcode,
;   toolChangeGcode,
;   endingGcode,M106 S0 ; turn off cooling fan,M104 S0 ; turn off extruder,M140 S0 ; turn off bed,G1 X0 Y200 ; part removal,M84 ; disable motors
;   exportFileFormat,gcode
;   celebration,0
;   celebrationSong,Random Song
;   postProcessing,
;   defaultSpeed,2400
;   outlineUnderspeed,0.8
;   solidInfillUnderspeed,0.8
;   supportUnderspeed,0.8
;   rapidXYspeed,4800
;   rapidZspeed,1002
;   minBridgingArea,50
;   bridgingExtraInflation,0
;   bridgingExtrusionMultiplier,1
;   bridgingSpeedMultiplier,1
;   useFixedBridgingAngle,0
;   fixedBridgingAngle,0
;   applyBridgingToPerimeters,0
;   filamentDiameters,1.75|1.75|1.75|1.75|1.75|1.75
;   filamentPricesPerKg,46|46|46|46|46|46
;   filamentDensities,1.25|1.25|1.25|1.25|1.25|1.25
;   useMinPrintHeight,1
;   minPrintHeight,0
;   useMaxPrintHeight,1
;   maxPrintHeight,235
;   useDiaphragm,0
;   diaphragmLayerInterval,20
;   robustSlicing,1
;   mergeAllIntoSolid,0
;   onlyRetractWhenCrossingOutline,1
;   retractBetweenLayers,1
;   useRetractionMinTravel,0
;   retractionMinTravel,3
;   retractWhileWiping,1
;   onlyWipeOutlines,1
;   avoidCrossingOutline,0
;   maxMovementDetourFactor,3
;   toolChangeRetractionDistance,12
;   toolChangeExtraRestartDistance,-0.5
;   toolChangeRetractionSpeed,600
;   externalThinWallType,0
;   internalThinWallType,2
;   thinWallAllowedOverlapPercentage,25
;   singleExtrusionMinLength,1
;   singleExtrusionMinPrintingWidthPercentage,50
;   singleExtrusionMaxPrintingWidthPercentage,200
;   singleExtrusionEndpointExtension,0.2
;   horizontalSizeCompensation,0
G90
M82
M106 S0
M140 S60
M190 S60
M104 S200 T0
M109 S200 T0
M115 U3.0.7 ; use the latest firmware version
G28 W ; home all axes without mesh bed leveling
G80 ; run mesh bed leveling routine
G1 Y-3.0 F1000.0 ; prepare to prime
G92 E0 ; reset extrusion distance
G1 X60.0 E9.0  F1000.0 ; priming
G1 X100.0 E12.5  F1000.0 ; priming
G92 E0
G1 E-1.5000 F1800
G1 Z0.114 F1002
; process Process1
; layer 1, Z = 0.114
T0
; tool H0.114 W0.480
; skirt
G1 X107.075 Y60.764 F4800
G1 E0.0000 F540
G92 E0
G1 X107.117 Y60.691 E0.0019 F1200
G1 X109.412 Y58.765 E0.0701
G1 X109.492 Y58.736 E0.0720
G1 X113.688 Y58.736 E0.1675
G1 X113.768 Y58.765 E0.1694
G1 X116.063 Y60.691 E0.2376
G1 X116.105 Y60.764 E0.2395
G1 X117.797 Y70.357 E0.4611
G1 X117.798 Y70.367 E0.4613
G1 X117.830 Y70.725 E0.4695
G1 X117.830 Y70.736 E0.4698
G1 X117.830 Y128.726 E1.7890
G1 X132.170 Y128.735 E2.1153
G1 X132.170 Y70.736 E3.4347
G1 X132.170 Y70.725 E3.4350
G1 X132.202 Y70.367 E3.4432
G1 X132.203 Y70.357 E3.4434
G1 X133.895 Y60.764 E3.6650
G1 X133.937 Y60.691 E3.6669
G1 X136.232 Y58.765 E3.7351
G1 X136.312 Y58.736 E3.7370
G1 X140.508 Y58.736 E3.8325
G1 X140.588 Y58.765 E3.8344
G1 X142.883 Y60.691 E3.9026
G1 X142.925 Y60.764 E3.9045
G1 X144.617 Y70.356 E4.1261
G1 X144.618 Y70.367 E4.1263
G1 X144.649 Y70.725 E4.1345
G1 X144.650 Y70.735 E4.1347
G1 X144.661 Y128.736 E5.4543
G1 X149.705 Y128.736 E5.5690
G1 X149.793 Y128.773 E5.5712
G1 X152.203 Y131.183 E5.6487
G1 X152.240 Y131.271 E5.6509
G1 X152.240 Y140.681 E5.8650
G1 X152.203 Y140.769 E5.8671
G1 X151.048 Y141.924 E5.9043
G1 X151.025 Y142.116 E5.9087
G1 X151.024 Y142.124 E5.9089
G1 X150.811 Y143.236 E5.9346
G1 X150.809 Y143.246 E5.9349
G1 X150.713 Y143.586 E5.9429
G1 X150.710 Y143.596 E5.9431
G1 X150.317 Y144.638 E5.9685
G1 X150.312 Y144.650 E5.9688
G1 X150.115 Y145.041 E5.9787
G1 X150.108 Y145.052 E5.9790
G1 X149.498 Y145.998 E6.0046
G1 X149.489 Y146.009 E6.0050
G1 X149.166 Y146.397 E6.0164
G1 X149.156 Y146.407 E6.0168
G1 X148.326 Y147.185 E6.0427
G1 X148.315 Y147.195 E6.0430
G1 X147.894 Y147.500 E6.0548
G1 X147.881 Y147.508 E6.0552
G1 X146.888 Y148.052 E6.0809
G1 X146.876 Y148.058 E6.0812
G1 X146.436 Y148.237 E6.0920
G1 X146.423 Y148.241 E6.0923
G1 X145.345 Y148.541 E6.1178
G1 X145.334 Y148.543 E6.1181
G1 X144.945 Y148.612 E6.1271
G1 X144.933 Y148.614 E6.1273
G1 X143.847 Y148.700 E6.1521
G1 X143.840 Y148.701 E6.1523
G1 X143.593 Y148.705 E6.1579
G1 X143.585 Y148.705 E6.1581
G1 X142.941 Y148.679 E6.1727
G1 X142.934 Y148.679 E6.1729
G1 X142.663 Y148.649 E6.1791
G1 X142.655 Y148.648 E6.1793
G1 X141.609 Y148.466 E6.2034
G1 X141.597 Y148.463 E6.2037
G1 X141.539 Y148.446 E6.2051
G1 X140.203 Y148.675 E6.2359
G1 X140.191 Y148.677 E6.2362
G1 X139.760 Y148.705 E6.2460
G1 X139.747 Y148.705 E6.2463
G1 X139.367 Y148.690 E6.2550
G1 X139.367 Y148.729 E6.2558
G1 X139.331 Y148.817 E6.2580
G1 X136.920 Y151.227 E6.3356
G1 X136.832 Y151.264 E6.3377
G1 X132.202 Y151.264 E6.4431
G1 X132.114 Y151.227 E6.4453
G1 X129.703 Y148.817 E6.5228
G1 X129.666 Y148.729 E6.5250
G1 X129.666 Y148.648 E6.5268
G1 X129.210 Y148.576 E6.5373
G1 X125.920 Y148.576 E6.6122
G1 X125.308 Y148.671 E6.6263
G1 X125.298 Y148.673 E6.6265
G1 X124.943 Y148.697 E6.6346
G1 X124.933 Y148.697 E6.6348
G1 X123.919 Y148.679 E6.6579
G1 X123.907 Y148.678 E6.6582
G1 X123.510 Y148.633 E6.6672
G1 X123.499 Y148.631 E6.6675
G1 X122.585 Y148.435 E6.6888
G1 X122.573 Y148.431 E6.6891
G1 X122.457 Y148.393 E6.6918
G1 X122.322 Y148.436 E6.6951
G1 X122.311 Y148.439 E6.6953
G1 X121.438 Y148.624 E6.7156
G1 X121.428 Y148.626 E6.7158
G1 X121.106 Y148.668 E6.7232
G1 X121.097 Y148.669 E6.7235
G1 X120.400 Y148.705 E6.7393
G1 X120.391 Y148.706 E6.7395
G1 X120.112 Y148.701 E6.7459
G1 X120.104 Y148.701 E6.7461
G1 X119.284 Y148.632 E6.7648
G1 X119.274 Y148.631 E6.7650
G1 X118.951 Y148.578 E6.7725
G1 X118.942 Y148.576 E6.7727
G1 X115.196 Y148.576 E6.8579
G1 X115.106 Y148.538 E6.8601
G1 X115.062 Y148.491 E6.8616
G1 X114.983 Y148.511 E6.8634
G1 X113.518 Y150.696 E6.9232
G1 X113.412 Y150.752 E6.9260
G1 X108.587 Y150.752 E7.0358
G1 X108.517 Y150.731 E7.0374
G1 X106.641 Y149.452 E7.0891
G1 X104.760 Y150.731 E7.1408
G1 X104.691 Y150.752 E7.1424
G1 X99.868 Y150.752 E7.2522
G1 X99.762 Y150.696 E7.2549
G1 X97.318 Y147.053 E7.3547
G1 X97.306 Y146.934 E7.3574
G1 X99.241 Y142.213 E7.4735
G1 X97.797 Y140.769 E7.5199
G1 X97.760 Y140.681 E7.5221
G1 X97.760 Y131.271 E7.7362
G1 X97.797 Y131.183 E7.7384
G1 X100.207 Y128.773 E7.8159
G1 X100.295 Y128.736 E7.8181
G1 X105.340 Y128.736 E7.9328
G1 X105.350 Y70.735 E9.2523
G1 X105.350 Y70.725 E9.2526
G1 X105.382 Y70.367 E9.2608
G1 X105.383 Y70.356 E9.2610
G1 X107.040 Y60.961 E9.4780
G1 X107.075 Y60.764 F1200
G92 E0
G1 E-1.5000 F1800
; inner perimeter
G1 X111.439 Y67.340 F4800
G1 E0.0000 F1800
G92 E0
G1 X111.741 Y67.340 E0.0069 F1080
G1 X112.390 Y71.021 E0.0919
G1 X112.390 Y131.008 E1.4566
G1 X112.406 Y131.311 E1.4635
G1 X112.458 Y131.642 E1.4711
G1 X112.545 Y131.965 E1.4787
G1 X112.665 Y132.278 E1.4864
G1 X112.817 Y132.577 E1.4940
G1 X113.000 Y132.858 E1.5016
G1 X113.211 Y133.118 E1.5092
G1 X113.448 Y133.355 E1.5169
G1 X113.708 Y133.566 E1.5245
G1 X113.989 Y133.749 E1.5321
G1 X114.288 Y133.901 E1.5397
G1 X114.601 Y134.021 E1.5474
G1 X114.924 Y134.108 E1.5550
G1 X115.255 Y134.160 E1.5626
G1 X115.558 Y134.176 E1.5695
G1 X134.444 Y134.176 E1.9992
G1 X134.748 Y134.160 E2.0061
G1 X135.079 Y134.107 E2.0137
G1 X135.403 Y134.020 E2.0213
G1 X135.716 Y133.899 E2.0290
G1 X136.014 Y133.747 E2.0366
G1 X136.295 Y133.564 E2.0442
G1 X136.555 Y133.352 E2.0518
G1 X136.792 Y133.115 E2.0595
G1 X137.003 Y132.854 E2.0671
G1 X137.185 Y132.573 E2.0747
G1 X137.337 Y132.274 E2.0824
G1 X137.456 Y131.961 E2.0900
G1 X137.543 Y131.637 E2.0976
G1 X137.594 Y131.307 E2.1052
G1 X137.610 Y131.008 E2.1120
G1 X137.610 Y71.021 E3.4767
G1 X138.259 Y67.340 E3.5617
G1 X138.561 Y67.340 E3.5686
G1 X139.210 Y71.021 E3.6536
G1 X139.210 Y131.008 E5.0183
G1 X139.226 Y131.311 E5.0252
G1 X139.278 Y131.642 E5.0329
G1 X139.365 Y131.965 E5.0405
G1 X139.485 Y132.278 E5.0481
G1 X139.637 Y132.577 E5.0557
G1 X139.820 Y132.858 E5.0634
G1 X140.031 Y133.118 E5.0710
G1 X140.268 Y133.355 E5.0786
G1 X140.528 Y133.566 E5.0862
G1 X140.809 Y133.749 E5.0938
G1 X141.108 Y133.901 E5.1015
G1 X141.421 Y134.021 E5.1091
G1 X141.744 Y134.108 E5.1167
G1 X142.075 Y134.160 E5.1243
G1 X142.379 Y134.176 E5.1312
G1 X146.800 Y134.176 E5.2318
G1 X146.800 Y137.776 E5.3137
G1 X103.200 Y137.776 E6.3056
G1 X103.200 Y134.176 E6.3875
G1 X107.624 Y134.176 E6.4882
G1 X107.928 Y134.160 E6.4951
G1 X108.259 Y134.107 E6.5027
G1 X108.583 Y134.020 E6.5104
G1 X108.896 Y133.899 E6.5180
G1 X109.194 Y133.747 E6.5256
G1 X109.475 Y133.564 E6.5332
G1 X109.735 Y133.352 E6.5409
G1 X109.972 Y133.115 E6.5485
G1 X110.183 Y132.854 E6.5561
G1 X110.365 Y132.573 E6.5637
G1 X110.517 Y132.274 E6.5714
G1 X110.636 Y131.961 E6.5790
G1 X110.723 Y131.637 E6.5866
G1 X110.774 Y131.307 E6.5942
G1 X110.790 Y131.007 E6.6010
G1 X110.790 Y71.021 E7.9657
G1 X111.404 Y67.537 E8.0462
G1 X111.439 Y67.340 F1080
G1 X111.439 Y64.576 F4800
G92 E0
G1 X111.741 Y64.576 E0.0069 F1080
G1 X112.870 Y70.979 E0.1548
G1 X112.870 Y130.995 E1.5201
G1 X112.884 Y131.260 E1.5262
G1 X112.928 Y131.542 E1.5327
G1 X113.002 Y131.817 E1.5391
G1 X113.104 Y132.083 E1.5456
G1 X113.234 Y132.337 E1.5521
G1 X113.389 Y132.575 E1.5586
G1 X113.568 Y132.797 E1.5651
G1 X113.769 Y132.998 E1.5715
G1 X113.991 Y133.177 E1.5780
G1 X114.230 Y133.332 E1.5845
G1 X114.483 Y133.462 E1.5910
G1 X114.749 Y133.564 E1.5975
G1 X115.024 Y133.638 E1.6039
G1 X115.306 Y133.682 E1.6104
G1 X115.571 Y133.696 E1.6165
G1 X134.431 Y133.696 E2.0455
G1 X134.697 Y133.682 E2.0516
G1 X134.979 Y133.637 E2.0581
G1 X135.254 Y133.563 E2.0646
G1 X135.520 Y133.460 E2.0710
G1 X135.773 Y133.331 E2.0775
G1 X136.012 Y133.175 E2.0840
G1 X136.233 Y132.996 E2.0905
G1 X136.435 Y132.794 E2.0970
G1 X136.613 Y132.572 E2.1035
G1 X136.768 Y132.333 E2.1099
G1 X136.897 Y132.079 E2.1164
G1 X136.999 Y131.813 E2.1229
G1 X137.072 Y131.538 E2.1294
G1 X137.116 Y131.257 E2.1358
G1 X137.130 Y130.995 E2.1418
G1 X137.130 Y70.979 E3.5072
G1 X138.259 Y64.576 E3.6551
G1 X138.561 Y64.576 E3.6620
G1 X139.690 Y70.979 E3.8099
G1 X139.690 Y130.995 E5.1752
G1 X139.704 Y131.260 E5.1813
G1 X139.748 Y131.542 E5.1877
G1 X139.822 Y131.817 E5.1942
G1 X139.924 Y132.083 E5.2007
G1 X140.054 Y132.337 E5.2072
G1 X140.209 Y132.575 E5.2137
G1 X140.388 Y132.797 E5.2201
G1 X140.589 Y132.998 E5.2266
G1 X140.811 Y133.177 E5.2331
G1 X141.050 Y133.332 E5.2396
G1 X141.303 Y133.462 E5.2461
G1 X141.569 Y133.564 E5.2525
G1 X141.844 Y133.638 E5.2590
G1 X142.125 Y133.682 E5.2655
G1 X142.391 Y133.696 E5.2716
G1 X147.280 Y133.696 E5.3828
G1 X147.280 Y138.256 E5.4865
G1 X115.174 Y138.256 E6.2169
G1 X115.174 Y138.332 E6.2186
G1 X114.902 Y138.399 E6.2250
G1 X114.825 Y138.256 E6.2287
G1 X102.720 Y138.256 E6.5041
G1 X102.720 Y133.696 E6.6079
G1 X107.611 Y133.696 E6.7191
G1 X107.877 Y133.682 E6.7252
G1 X108.159 Y133.637 E6.7317
G1 X108.434 Y133.563 E6.7382
G1 X108.700 Y133.460 E6.7446
G1 X108.953 Y133.331 E6.7511
G1 X109.192 Y133.175 E6.7576
G1 X109.413 Y132.996 E6.7641
G1 X109.614 Y132.794 E6.7706
G1 X109.793 Y132.572 E6.7770
G1 X109.948 Y132.333 E6.7835
G1 X110.077 Y132.079 E6.7900
G1 X110.179 Y131.813 E6.7965
G1 X110.252 Y131.538 E6.8030
G1 X110.296 Y131.257 E6.8094
G1 X110.310 Y130.995 E6.8154
G1 X110.310 Y70.979 E8.1808
G1 X111.404 Y64.773 E8.3241
G1 X111.439 Y64.576 F1080
; outer perimeter
G1 X111.989 Y63.216 F4800
G92 E0
G1 X113.350 Y70.937 E0.1784 F960
G1 X113.350 Y130.982 E1.5444
G1 X113.362 Y131.210 E1.5496
G1 X113.399 Y131.442 E1.5549
G1 X113.459 Y131.668 E1.5602
G1 X113.543 Y131.887 E1.5656
G1 X113.650 Y132.096 E1.5709
G1 X113.778 Y132.293 E1.5763
G1 X113.925 Y132.475 E1.5816
G1 X114.091 Y132.641 E1.5869
G1 X114.273 Y132.788 E1.5923
G1 X114.470 Y132.916 E1.5976
G1 X114.679 Y133.023 E1.6029
G1 X114.898 Y133.107 E1.6083
G1 X115.124 Y133.167 E1.6136
G1 X115.356 Y133.204 E1.6189
G1 X115.584 Y133.216 E1.6241
G1 X134.418 Y133.216 E2.0526
G1 X134.647 Y133.204 E2.0578
G1 X134.878 Y133.167 E2.0631
G1 X135.105 Y133.106 E2.0685
G1 X135.324 Y133.021 E2.0738
G1 X135.532 Y132.915 E2.0792
G1 X135.729 Y132.787 E2.0845
G1 X135.911 Y132.639 E2.0898
G1 X136.077 Y132.473 E2.0952
G1 X136.224 Y132.290 E2.1005
G1 X136.352 Y132.093 E2.1058
