; G-Code generated by Simplify3D(R) Version 4.0.0
; Jul 13, 2018 at 2:35:20 PM
; Settings Summary
;   processName,PLA
;   applyToModels,lacie-4tb-external-hdd-sleeve-lid
;   profileName,Prusa Research Original Prusa i3 MK2 (modified)
;   profileVersion,2017-07-23 22:27:18
;   baseProfile,
;   printMaterial,PLA
;   printQuality,Fast
;   printExtruders,
;   extruderName,Primary Extruder
;   extruderToolheadNumber,0
;   extruderDiameter,0.4
;   extruderAutoWidth,1
;   extruderWidth,0.48
;   extrusionMultiplier,1.1
;   extruderUseRetract,1
;   extruderRetractionDistance,1.5
;   extruderExtraRestartDistance,0
;   extruderRetractionZLift,0
;   extruderRetractionSpeed,1800
;   extruderUseCoasting,1
;   extruderCoastingDistance,0.2
;   extruderUseWipe,1
;   extruderWipeDistance,2
;   primaryExtruder,0
;   layerHeight,0.35
;   topSolidLayers,4
;   bottomSolidLayers,4
;   perimeterOutlines,2
;   printPerimetersInsideOut,1
;   startPointOption,2
;   startPointOriginX,0
;   startPointOriginY,0
;   sequentialIslands,0
;   spiralVaseMode,0
;   firstLayerHeightPercentage,120
;   firstLayerWidthPercentage,100
;   firstLayerUnderspeed,0.5
;   useRaft,0
;   raftExtruder,0
;   raftTopLayers,3
;   raftBaseLayers,2
;   raftOffset,3
;   raftSeparationDistance,0.14
;   raftTopInfill,100
;   aboveRaftSpeedMultiplier,0.3
;   useSkirt,1
;   skirtExtruder,0
;   skirtLayers,1
;   skirtOutlines,1
;   skirtOffset,4
;   usePrimePillar,0
;   primePillarExtruder,999
;   primePillarWidth,12
;   primePillarLocation,7
;   primePillarSpeedMultiplier,1
;   useOozeShield,0
;   oozeShieldExtruder,999
;   oozeShieldOffset,2
;   oozeShieldOutlines,1
;   oozeShieldSidewallShape,1
;   oozeShieldSidewallAngle,30
;   oozeShieldSpeedMultiplier,1
;   infillExtruder,0
;   internalInfillPattern,Rectilinear
;   externalInfillPattern,Rectilinear
;   infillPercentage,0
;   outlineOverlapPercentage,20
;   infillExtrusionWidthPercentage,100
;   minInfillLength,5
;   infillLayerInterval,1
;   internalInfillAngles,45,-45
;   overlapInternalInfillAngles,0
;   externalInfillAngles,45,-45
;   generateSupport,0
;   supportExtruder,0
;   supportInfillPercentage,25
;   supportExtraInflation,0
;   supportBaseLayers,0
;   denseSupportExtruder,0
;   denseSupportLayers,0
;   denseSupportInfillPercentage,70
;   supportLayerInterval,1
;   supportHorizontalPartOffset,0.3
;   supportUpperSeparationLayers,1
;   supportLowerSeparationLayers,1
;   supportType,0
;   supportGridSpacing,4
;   maxOverhangAngle,45
;   supportAngles,0
;   temperatureName,Primary Extruder,Heated Bed
;   temperatureNumber,0,0
;   temperatureSetpointCount,1,1
;   temperatureSetpointLayers,1,1
;   temperatureSetpointTemperatures,210,55
;   temperatureStabilizeAtStartup,1,1
;   temperatureHeatedBed,0,1
;   temperatureRelayBetweenLayers,0,0
;   temperatureRelayBetweenLoops,0,0
;   fanLayers,1,2
;   fanSpeeds,0,100
;   blipFanToFullPower,0
;   adjustSpeedForCooling,1
;   minSpeedLayerTime,15
;   minCoolingSpeedSlowdown,20
;   increaseFanForCooling,0
;   minFanLayerTime,45
;   maxCoolingFanSpeed,100
;   increaseFanForBridging,0
;   bridgingFanSpeed,100
;   use5D,1
;   relativeEdistances,0
;   allowEaxisZeroing,1
;   independentExtruderAxes,0
;   includeM10123,0
;   stickySupport,1
;   applyToolheadOffsets,0
;   gcodeXoffset,0
;   gcodeYoffset,0
;   gcodeZoffset,0
;   overrideMachineDefinition,1
;   machineTypeOverride,0
;   strokeXoverride,250
;   strokeYoverride,210
;   strokeZoverride,200
;   originOffsetXoverride,0
;   originOffsetYoverride,0
;   originOffsetZoverride,0
;   homeXdirOverride,-1
;   homeYdirOverride,-1
;   homeZdirOverride,-1
;   flipXoverride,1
;   flipYoverride,-1
;   flipZoverride,1
;   toolheadOffsets,0,0|0,0|0,0|0,0|0,0|0,0
;   overrideFirmwareConfiguration,1
;   firmwareTypeOverride,RepRap (Marlin/Repetier/Sprinter)
;   GPXconfigOverride,r2
;   baudRateOverride,250000
;   overridePrinterModels,1
;   printerModelsOverride
;   startingGcode,M115 U3.0.7 ; use the latest firmware version,G28 W ; home all axes without mesh bed leveling,G80 ; run mesh bed leveling routine,G1 Y-3.0 F1000.0 ; prepare to prime,G92 E0 ; reset extrusion distance,G1 X60.0 E9.0  F1000.0 ; priming,G1 X100.0 E12.5  F1000.0 ; priming
;   layerChangeGcode,
;   retractionGcode,
;   toolChangeGcode,
;   endingGcode,M106 S0 ; turn off cooling fan,M104 S0 ; turn off extruder,M140 S0 ; turn off bed,G1 X0 Y200 ; part removal,M84 ; disable motors
;   exportFileFormat,gcode
;   celebration,0
;   celebrationSong,Random Song
;   postProcessing,
;   defaultSpeed,2400
;   outlineUnderspeed,0.8
;   solidInfillUnderspeed,0.8
;   supportUnderspeed,0.8
;   rapidXYspeed,4800
;   rapidZspeed,1002
;   minBridgingArea,50
;   bridgingExtraInflation,0
;   bridgingExtrusionMultiplier,1
;   bridgingSpeedMultiplier,1
;   useFixedBridgingAngle,0
;   fixedBridgingAngle,0
;   applyBridgingToPerimeters,0
;   filamentDiameters,1.75|1.75|1.75|1.75|1.75|1.75
;   filamentPricesPerKg,46|46|46|46|46|46
;   filamentDensities,1.25|1.25|1.25|1.25|1.25|1.25
;   useMinPrintHeight,1
;   minPrintHeight,0
;   useMaxPrintHeight,1
;   maxPrintHeight,235
;   useDiaphragm,0
;   diaphragmLayerInterval,20
;   robustSlicing,1
;   mergeAllIntoSolid,0
;   onlyRetractWhenCrossingOutline,1
;   retractBetweenLayers,1
;   useRetractionMinTravel,0
;   retractionMinTravel,3
;   retractWhileWiping,1
;   onlyWipeOutlines,1
;   avoidCrossingOutline,0
;   maxMovementDetourFactor,3
;   toolChangeRetractionDistance,12
;   toolChangeExtraRestartDistance,-0.5
;   toolChangeRetractionSpeed,600
;   externalThinWallType,0
;   internalThinWallType,1
;   thinWallAllowedOverlapPercentage,25
;   singleExtrusionMinLength,1
;   singleExtrusionMinPrintingWidthPercentage,50
;   singleExtrusionMaxPrintingWidthPercentage,200
;   singleExtrusionEndpointExtension,0.2
;   horizontalSizeCompensation,0
G90
M82
M106 S0
M140 S55
M190 S55
M104 S210 T0
M109 S210 T0
M115 U3.0.7 ; use the latest firmware version
G28 W ; home all axes without mesh bed leveling
G80 ; run mesh bed leveling routine
G1 Y-3.0 F1000.0 ; prepare to prime
G92 E0 ; reset extrusion distance
G1 X60.0 E9.0  F1000.0 ; priming
G1 X100.0 E12.5  F1000.0 ; priming
G92 E0
G1 E-1.5000 F1800
G1 Z0.420 F1002
; process PLA
; layer 1, Z = 0.420
T0
; tool H0.420 W0.480
; skirt
G1 X77.072 Y91.062 F4800
G1 E0.0000 F540
G92 E0
G1 X77.159 Y91.025 E0.0088 F1200
G1 X79.087 Y91.008 E0.1865
G1 X79.108 Y90.627 E0.2216
G1 X79.147 Y90.544 E0.2301
G1 X81.527 Y88.294 E0.5321
G1 X81.612 Y88.260 E0.5405
G1 X168.388 Y88.260 E8.5409
G1 X168.473 Y88.294 E8.5494
G1 X170.853 Y90.544 E8.8514
G1 X170.892 Y90.627 E8.8599
G1 X170.913 Y91.008 E8.8950
G1 X172.840 Y91.025 E9.0727
G1 X172.928 Y91.062 E9.0815
G1 X175.312 Y93.468 E9.3938
G1 X175.349 Y93.556 E9.4026
G1 X175.349 Y116.444 E11.5127
G1 X175.312 Y116.532 E11.5215
G1 X172.928 Y118.938 E11.8338
G1 X172.840 Y118.975 E11.8425
G1 X170.849 Y118.993 E12.0262
G1 X170.787 Y119.536 E12.0766
G1 X170.747 Y119.615 E12.0848
G1 X168.404 Y121.708 E12.3745
G1 X168.321 Y121.740 E12.3826
G1 X81.612 Y121.740 E20.3769
G1 X81.527 Y121.706 E20.3854
G1 X79.147 Y119.456 E20.6873
G1 X79.108 Y119.373 E20.6958
G1 X79.087 Y118.992 E20.7310
G1 X77.159 Y118.975 E20.9087
G1 X77.072 Y118.938 E20.9175
G1 X74.688 Y116.532 E21.2298
G1 X74.651 Y116.444 E21.2385
G1 X74.651 Y93.556 E23.3487
G1 X74.688 Y93.468 E23.3574
G1 X76.931 Y91.204 E23.6513
G1 X77.072 Y91.062 F1200
G92 E0
G1 E-1.5000 F1800
; inner perimeter
G1 X79.610 Y95.970 F4800
G1 E0.0000 F1800
G92 E0
G1 X80.520 Y95.970 E0.0839 F1080
G1 X80.889 Y95.949 E0.1179
G1 X81.272 Y95.884 E0.1538
G1 X81.646 Y95.776 E0.1897
G1 X82.006 Y95.627 E0.2256
G1 X82.347 Y95.439 E0.2615
G1 X82.664 Y95.214 E0.2974
G1 X82.954 Y94.954 E0.3333
G1 X83.214 Y94.664 E0.3692
G1 X83.439 Y94.347 E0.4050
G1 X83.627 Y94.006 E0.4409
G1 X83.776 Y93.646 E0.4768
G1 X83.899 Y93.220 E0.5177
G1 X166.101 Y93.220 E8.0965
G1 X166.224 Y93.646 E8.1374
G1 X166.373 Y94.006 E8.1733
G1 X166.561 Y94.347 E8.2092
G1 X166.786 Y94.664 E8.2451
G1 X167.046 Y94.954 E8.2810
G1 X167.336 Y95.214 E8.3168
G1 X167.653 Y95.439 E8.3527
G1 X167.994 Y95.627 E8.3886
G1 X168.354 Y95.776 E8.4245
G1 X168.728 Y95.884 E8.4604
G1 X169.111 Y95.949 E8.4963
G1 X169.480 Y95.970 E8.5303
G1 X170.389 Y95.970 E8.6141
G1 X170.389 Y114.030 E10.2792
G1 X169.480 Y114.030 E10.3630
G1 X169.111 Y114.051 E10.3970
G1 X168.728 Y114.116 E10.4329
G1 X168.354 Y114.224 E10.4688
G1 X167.994 Y114.373 E10.5047
G1 X167.653 Y114.561 E10.5405
G1 X167.336 Y114.786 E10.5764
G1 X167.046 Y115.046 E10.6123
G1 X166.786 Y115.336 E10.6482
G1 X166.561 Y115.653 E10.6841
G1 X166.373 Y115.994 E10.7200
G1 X166.224 Y116.354 E10.7559
G1 X166.101 Y116.780 E10.7968
G1 X83.899 Y116.780 E18.3755
G1 X83.776 Y116.354 E18.4164
G1 X83.627 Y115.994 E18.4523
G1 X83.439 Y115.653 E18.4882
G1 X83.214 Y115.336 E18.5241
G1 X82.954 Y115.046 E18.5600
G1 X82.664 Y114.786 E18.5959
G1 X82.347 Y114.561 E18.6318
G1 X82.006 Y114.373 E18.6677
G1 X81.646 Y114.224 E18.7036
G1 X81.272 Y114.116 E18.7394
G1 X80.889 Y114.051 E18.7753
G1 X80.520 Y114.030 E18.8094
G1 X79.611 Y114.030 E18.8931
G1 X79.608 Y96.718 E20.4893
G1 X79.610 Y96.170 E20.5398
G1 X79.610 Y95.970 F1080
; outer perimeter
G1 X79.131 Y95.490 F4800
G92 E0
G1 X80.507 Y95.490 E0.1268 F960
G1 X80.835 Y95.472 E0.1571
G1 X81.165 Y95.415 E0.1881
G1 X81.488 Y95.323 E0.2190
G1 X81.797 Y95.194 E0.2499
G1 X82.091 Y95.032 E0.2808
G1 X82.364 Y94.838 E0.3117
G1 X82.615 Y94.615 E0.3426
G1 X82.838 Y94.364 E0.3736
G1 X83.032 Y94.091 E0.4045
G1 X83.194 Y93.797 E0.4354
G1 X83.323 Y93.488 E0.4663
G1 X83.415 Y93.165 E0.4972
G1 X83.472 Y92.835 E0.5282
G1 X83.477 Y92.740 E0.5369
G1 X166.523 Y92.740 E8.1935
G1 X166.528 Y92.835 E8.2023
G1 X166.585 Y93.165 E8.2332
G1 X166.677 Y93.488 E8.2641
G1 X166.806 Y93.797 E8.2950
G1 X166.968 Y94.091 E8.3260
G1 X167.162 Y94.364 E8.3569
G1 X167.385 Y94.615 E8.3878
G1 X167.636 Y94.838 E8.4187
G1 X167.909 Y95.032 E8.4496
G1 X168.203 Y95.194 E8.4805
G1 X168.512 Y95.323 E8.5115
G1 X168.835 Y95.415 E8.5424
G1 X169.165 Y95.472 E8.5733
G1 X169.493 Y95.490 E8.6036
G1 X170.869 Y95.490 E8.7304
G1 X170.869 Y114.510 E10.4840
G1 X169.493 Y114.510 E10.6108
G1 X169.165 Y114.528 E10.6411
G1 X168.835 Y114.585 E10.6720
G1 X168.512 Y114.677 E10.7029
G1 X168.203 Y114.806 E10.7338
G1 X167.909 Y114.968 E10.7647
G1 X167.636 Y115.162 E10.7957
G1 X167.385 Y115.385 E10.8266
G1 X167.162 Y115.636 E10.8575
G1 X166.968 Y115.909 E10.8884
G1 X166.806 Y116.203 E10.9193
G1 X166.677 Y116.512 E10.9502
G1 X166.585 Y116.835 E10.9812
G1 X166.528 Y117.165 E11.0121
G1 X166.523 Y117.260 E11.0208
G1 X83.477 Y117.260 E18.6775
G1 X83.472 Y117.165 E18.6862
G1 X83.415 Y116.835 E18.7171
G1 X83.323 Y116.512 E18.7481
G1 X83.194 Y116.203 E18.7790
G1 X83.032 Y115.909 E18.8099
G1 X82.838 Y115.636 E18.8408
G1 X82.615 Y115.385 E18.8717
G1 X82.364 Y115.162 E18.9026
G1 X82.091 Y114.968 E18.9336
G1 X81.797 Y114.806 E18.9645
G1 X81.488 Y114.677 E18.9954
G1 X81.165 Y114.585 E19.0263
G1 X80.835 Y114.528 E19.0572
G1 X80.507 Y114.510 E19.0875
G1 X79.131 Y114.510 E19.2143
G1 X79.128 Y96.717 E20.8548
G1 X79.131 Y95.690 E20.9495
G1 X79.131 Y95.490 F960
G1 X80.507 Y95.490 F2400
G1 X80.835 Y95.472 F2400
G1 X81.126 Y95.422 F2400
; solid layer
G1 X80.019 Y113.646 F4800
G92 E0
G1 X79.995 Y113.622 E0.0031 F960
G1 X79.995 Y112.943 E0.0657
G1 X80.708 Y113.656 E0.1586
G1 X80.932 Y113.668 E0.1793
G1 X81.358 Y113.741 E0.2192
G1 X81.518 Y113.787 E0.2345
G1 X79.995 Y112.264 E0.4330
G1 X79.995 Y111.585 E0.4956
G1 X82.873 Y114.463 E0.8708
G1 X82.904 Y114.486 E0.8744
G1 X83.226 Y114.774 E0.9142
G1 X83.515 Y115.096 E0.9541
G1 X83.537 Y115.127 E0.9576
G1 X84.806 Y116.396 E1.1231
G1 X85.484 Y116.396 E1.1856
G1 X79.995 Y110.906 E1.9014
G1 X79.995 Y110.228 E1.9640
G1 X86.163 Y116.396 E2.7683
G1 X86.842 Y116.396 E2.8309
G1 X79.995 Y109.549 E3.7237
G1 X79.994 Y108.870 E3.7863
G1 X87.521 Y116.396 E4.7676
G1 X88.200 Y116.396 E4.8302
G1 X79.994 Y108.191 E5.9000
G1 X79.994 Y107.512 E5.9626
G1 X88.878 Y116.396 E7.1210
G1 X89.557 Y116.396 E7.1836
G1 X79.994 Y106.833 E8.4305
G1 X79.994 Y106.154 E8.4931
G1 X90.236 Y116.396 E9.8285
G1 X90.915 Y116.396 E9.8911
G1 X79.994 Y105.475 E11.3151
G1 X79.994 Y104.796 E11.3777
G1 X91.594 Y116.396 E12.8901
G1 X92.273 Y116.396 E12.9527
G1 X79.994 Y104.117 E14.5537
G1 X79.994 Y103.438 E14.6163
G1 X92.951 Y116.396 E16.3059
G1 X93.630 Y116.396 E16.3684
G1 X79.993 Y102.759 E18.1465
G1 X79.993 Y102.080 E18.2091
G1 X94.309 Y116.396 E20.0757
G1 X94.988 Y116.396 E20.1382
G1 X79.993 Y101.401 E22.0933
G1 X79.993 Y100.722 E22.1559
G1 X95.667 Y116.396 E24.1996
G1 X96.345 Y116.396 E24.2621
G1 X79.993 Y100.043 E26.3943
G1 X79.993 Y99.365 E26.4569
G1 X97.024 Y116.396 E28.6775
G1 X97.703 Y116.396 E28.7401
G1 X79.993 Y98.686 E31.0493
G1 X79.993 Y98.007 E31.1119
G1 X98.382 Y116.396 E33.5096
G1 X99.061 Y116.396 E33.5722
G1 X79.993 Y97.328 E36.0585
G1 X79.992 Y96.719 E36.1146
G1 X79.993 Y96.649 E36.1210
G1 X99.740 Y116.396 E38.6958
G1 X100.418 Y116.396 E38.7584
G1 X80.376 Y96.354 E41.3716
G1 X80.531 Y96.354 E41.3858
G1 X80.932 Y96.332 E41.4228
G1 X81.018 Y96.317 E41.4309
G1 X101.097 Y116.396 E44.0490
G1 X101.776 Y116.396 E44.1115
G1 X81.576 Y96.196 E46.7453
G1 X81.773 Y96.139 E46.7642
G1 X82.074 Y96.015 E46.7942
G1 X102.455 Y116.396 E49.4516
G1 X103.134 Y116.396 E49.5142
G1 X82.520 Y95.782 E52.2020
G1 X82.551 Y95.765 E52.2053
G1 X82.904 Y95.514 E52.2452
G1 X82.918 Y95.502 E52.2469
G1 X103.813 Y116.396 E54.9713
G1 X104.491 Y116.396 E55.0338
G1 X83.271 Y95.176 E57.8006
G1 X83.515 Y94.904 E57.8343
G1 X83.582 Y94.808 E57.8451
G1 X105.170 Y116.396 E60.6598
G1 X105.849 Y116.396 E60.7224
G1 X83.850 Y94.397 E63.5908
G1 X83.974 Y94.173 E63.6144
G1 X84.071 Y93.939 E63.6377
G1 X106.528 Y116.396 E66.5658
G1 X107.207 Y116.396 E66.6284
G1 X84.415 Y93.604 E69.6002
G1 X85.093 Y93.604 E69.6628
G1 X107.885 Y116.396 E72.6345
G1 X108.564 Y116.396 E72.6971
G1 X85.772 Y93.604 E75.6689
G1 X86.451 Y93.604 E75.7315
G1 X109.243 Y116.396 E78.7032
G1 X109.922 Y116.396 E78.7658
G1 X87.130 Y93.604 E81.7376
G1 X87.809 Y93.604 E81.8002
G1 X110.601 Y116.396 E84.7719
G1 X111.280 Y116.396 E84.8345
G1 X88.488 Y93.604 E87.8063
G1 X89.166 Y93.604 E87.8689
G1 X111.958 Y116.396 E90.8406
G1 X112.637 Y116.396 E90.9032
G1 X89.845 Y93.604 E93.8750
G1 X90.524 Y93.604 E93.9376
G1 X113.316 Y116.396 E96.9093
G1 X113.995 Y116.396 E96.9719
G1 X91.203 Y93.604 E99.9437
G1 X91.882 Y93.604 E100.0063
G1 X114.674 Y116.396 E102.9780
G1 X115.353 Y116.396 E103.0406
G1 X92.561 Y93.604 E106.0124
G1 X93.239 Y93.604 E106.0750
G1 X116.031 Y116.396 E109.0468
G1 X116.710 Y116.396 E109.1093
G1 X93.918 Y93.604 E112.0811
G1 X94.597 Y93.604 E112.1437
G1 X117.389 Y116.396 E115.1155
G1 X118.068 Y116.396 E115.1780
G1 X95.276 Y93.604 E118.1498
G1 X95.955 Y93.604 E118.2124
G1 X118.747 Y116.396 E121.1842
G1 X119.425 Y116.396 E121.2467
G1 X96.633 Y93.604 E124.2185
G1 X97.312 Y93.604 E124.2811
G1 X120.104 Y116.396 E127.2529
G1 X120.783 Y116.396 E127.3154
G1 X97.991 Y93.604 E130.2872
G1 X98.670 Y93.604 E130.3498
G1 X121.462 Y116.396 E133.3216
G1 X122.141 Y116.396 E133.3842
G1 X99.349 Y93.604 E136.3559
G1 X100.028 Y93.604 E136.4185
G1 X122.820 Y116.396 E139.3903
G1 X123.498 Y116.396 E139.4529
G1 X100.706 Y93.604 E142.4246
G1 X101.385 Y93.604 E142.4872
G1 X124.177 Y116.396 E145.4590
G1 X124.856 Y116.396 E145.5216
G1 X102.064 Y93.604 E148.4933
G1 X102.743 Y93.604 E148.5559
G1 X125.535 Y116.396 E151.5277
G1 X126.214 Y116.396 E151.5903
G1 X103.422 Y93.604 E154.5620
G1 X104.100 Y93.604 E154.6246
G1 X126.892 Y116.396 E157.5964
G1 X127.571 Y116.396 E157.6590
G1 X104.779 Y93.604 E160.6307
G1 X105.458 Y93.604 E160.6933
G1 X128.250 Y116.396 E163.6651
G1 X128.929 Y116.396 E163.7277
G1 X106.137 Y93.604 E166.6994
G1 X106.816 Y93.604 E166.7620
G1 X129.608 Y116.396 E169.7338
G1 X130.287 Y116.396 E169.7964
G1 X107.495 Y93.604 E172.7681
G1 X108.173 Y93.604 E172.8307
G1 X130.965 Y116.396 E175.8025
G1 X131.644 Y116.396 E175.8651
G1 X108.852 Y93.604 E178.8368
G1 X109.531 Y93.604 E178.8994
G1 X132.323 Y116.396 E181.8712
G1 X133.002 Y116.396 E181.9338
G1 X110.210 Y93.604 E184.9055
G1 X110.889 Y93.604 E184.9681
