; G-Code generated by Simplify3D(R) Version 4.0.0
; Jul 24, 2018 at 11:51:59 AM
; Settings Summary
;   processName,Process1
;   applyToModels,crank-bearing-removal-tool
;   profileName,Prusa Research Original Prusa i3 MK2 (modified)
;   profileVersion,2017-07-23 22:27:18
;   baseProfile,
;   printMaterial,PLA
;   printQuality,Fast
;   printExtruders,
;   extruderName,Primary Extruder
;   extruderToolheadNumber,0
;   extruderDiameter,0.4
;   extruderAutoWidth,1
;   extruderWidth,0.48
;   extrusionMultiplier,1.1
;   extruderUseRetract,1
;   extruderRetractionDistance,1.5
;   extruderExtraRestartDistance,0
;   extruderRetractionZLift,0
;   extruderRetractionSpeed,1800
;   extruderUseCoasting,1
;   extruderCoastingDistance,0.2
;   extruderUseWipe,1
;   extruderWipeDistance,2
;   primaryExtruder,0
;   layerHeight,0.35
;   topSolidLayers,4
;   bottomSolidLayers,4
;   perimeterOutlines,4
;   printPerimetersInsideOut,1
;   startPointOption,2
;   startPointOriginX,0
;   startPointOriginY,0
;   sequentialIslands,0
;   spiralVaseMode,0
;   firstLayerHeightPercentage,120
;   firstLayerWidthPercentage,100
;   firstLayerUnderspeed,0.5
;   useRaft,0
;   raftExtruder,0
;   raftTopLayers,3
;   raftBaseLayers,2
;   raftOffset,3
;   raftSeparationDistance,0.14
;   raftTopInfill,100
;   aboveRaftSpeedMultiplier,0.3
;   useSkirt,1
;   skirtExtruder,0
;   skirtLayers,1
;   skirtOutlines,4
;   skirtOffset,0
;   usePrimePillar,0
;   primePillarExtruder,999
;   primePillarWidth,12
;   primePillarLocation,7
;   primePillarSpeedMultiplier,1
;   useOozeShield,0
;   oozeShieldExtruder,999
;   oozeShieldOffset,2
;   oozeShieldOutlines,1
;   oozeShieldSidewallShape,1
;   oozeShieldSidewallAngle,30
;   oozeShieldSpeedMultiplier,1
;   infillExtruder,0
;   internalInfillPattern,Rectilinear
;   externalInfillPattern,Rectilinear
;   infillPercentage,12
;   outlineOverlapPercentage,20
;   infillExtrusionWidthPercentage,100
;   minInfillLength,5
;   infillLayerInterval,1
;   internalInfillAngles,45,-45
;   overlapInternalInfillAngles,0
;   externalInfillAngles,45,-45
;   generateSupport,1
;   supportExtruder,0
;   supportInfillPercentage,25
;   supportExtraInflation,0
;   supportBaseLayers,0
;   denseSupportExtruder,0
;   denseSupportLayers,0
;   denseSupportInfillPercentage,70
;   supportLayerInterval,1
;   supportHorizontalPartOffset,0.3
;   supportUpperSeparationLayers,1
;   supportLowerSeparationLayers,1
;   supportType,0
;   supportGridSpacing,4
;   maxOverhangAngle,45
;   supportAngles,0
;   temperatureName,Primary Extruder,Heated Bed
;   temperatureNumber,0,0
;   temperatureSetpointCount,1,1
;   temperatureSetpointLayers,1,1
;   temperatureSetpointTemperatures,210,55
;   temperatureStabilizeAtStartup,1,1
;   temperatureHeatedBed,0,1
;   temperatureRelayBetweenLayers,0,0
;   temperatureRelayBetweenLoops,0,0
;   fanLayers,1,2
;   fanSpeeds,0,100
;   blipFanToFullPower,0
;   adjustSpeedForCooling,1
;   minSpeedLayerTime,15
;   minCoolingSpeedSlowdown,20
;   increaseFanForCooling,0
;   minFanLayerTime,45
;   maxCoolingFanSpeed,100
;   increaseFanForBridging,0
;   bridgingFanSpeed,100
;   use5D,1
;   relativeEdistances,0
;   allowEaxisZeroing,1
;   independentExtruderAxes,0
;   includeM10123,0
;   stickySupport,1
;   applyToolheadOffsets,0
;   gcodeXoffset,0
;   gcodeYoffset,0
;   gcodeZoffset,0
;   overrideMachineDefinition,1
;   machineTypeOverride,0
;   strokeXoverride,250
;   strokeYoverride,210
;   strokeZoverride,200
;   originOffsetXoverride,0
;   originOffsetYoverride,0
;   originOffsetZoverride,0
;   homeXdirOverride,-1
;   homeYdirOverride,-1
;   homeZdirOverride,-1
;   flipXoverride,1
;   flipYoverride,-1
;   flipZoverride,1
;   toolheadOffsets,0,0|0,0|0,0|0,0|0,0|0,0
;   overrideFirmwareConfiguration,1
;   firmwareTypeOverride,RepRap (Marlin/Repetier/Sprinter)
;   GPXconfigOverride,r2
;   baudRateOverride,250000
;   overridePrinterModels,1
;   printerModelsOverride
;   startingGcode,M115 U3.0.7 ; use the latest firmware version,G28 W ; home all axes without mesh bed leveling,G80 ; run mesh bed leveling routine,G1 Y-3.0 F1000.0 ; prepare to prime,G92 E0 ; reset extrusion distance,G1 X60.0 E9.0  F1000.0 ; priming,G1 X100.0 E12.5  F1000.0 ; priming
;   layerChangeGcode,
;   retractionGcode,
;   toolChangeGcode,
;   endingGcode,M106 S0 ; turn off cooling fan,M104 S0 ; turn off extruder,M140 S0 ; turn off bed,G1 X0 Y200 ; part removal,M84 ; disable motors
;   exportFileFormat,gcode
;   celebration,0
;   celebrationSong,Random Song
;   postProcessing,
;   defaultSpeed,2400
;   outlineUnderspeed,0.8
;   solidInfillUnderspeed,0.8
;   supportUnderspeed,0.8
;   rapidXYspeed,4800
;   rapidZspeed,1002
;   minBridgingArea,50
;   bridgingExtraInflation,0
;   bridgingExtrusionMultiplier,1
;   bridgingSpeedMultiplier,1
;   useFixedBridgingAngle,0
;   fixedBridgingAngle,0
;   applyBridgingToPerimeters,0
;   filamentDiameters,1.75|1.75|1.75|1.75|1.75|1.75
;   filamentPricesPerKg,46|46|46|46|46|46
;   filamentDensities,1.25|1.25|1.25|1.25|1.25|1.25
;   useMinPrintHeight,1
;   minPrintHeight,0
;   useMaxPrintHeight,1
;   maxPrintHeight,235
;   useDiaphragm,0
;   diaphragmLayerInterval,20
;   robustSlicing,1
;   mergeAllIntoSolid,0
;   onlyRetractWhenCrossingOutline,1
;   retractBetweenLayers,1
;   useRetractionMinTravel,0
;   retractionMinTravel,3
;   retractWhileWiping,1
;   onlyWipeOutlines,1
;   avoidCrossingOutline,0
;   maxMovementDetourFactor,3
;   toolChangeRetractionDistance,12
;   toolChangeExtraRestartDistance,-0.5
;   toolChangeRetractionSpeed,600
;   externalThinWallType,0
;   internalThinWallType,1
;   thinWallAllowedOverlapPercentage,25
;   singleExtrusionMinLength,1
;   singleExtrusionMinPrintingWidthPercentage,50
;   singleExtrusionMaxPrintingWidthPercentage,200
;   singleExtrusionEndpointExtension,0.2
;   horizontalSizeCompensation,0
G90
M82
M106 S0
M140 S55
M190 S55
M104 S210 T0
M109 S210 T0
M115 U3.0.7 ; use the latest firmware version
G28 W ; home all axes without mesh bed leveling
G80 ; run mesh bed leveling routine
G1 Y-3.0 F1000.0 ; prepare to prime
G92 E0 ; reset extrusion distance
G1 X60.0 E9.0  F1000.0 ; priming
G1 X100.0 E12.5  F1000.0 ; priming
G92 E0
G1 E-1.5000 F1800
G1 Z0.420 F1002
; process Process1
; layer 1, Z = 0.420
T0
; tool H0.420 W0.480
; skirt
G1 X112.367 Y95.712 F4800
G1 E0.0000 F540
G92 E0
G1 X114.446 Y93.404 E0.2864 F1200
G1 X114.577 Y93.286 E0.3027
G1 X117.088 Y91.463 E0.5887
G1 X117.240 Y91.375 E0.6050
G1 X120.071 Y90.115 E0.8907
G1 X120.238 Y90.060 E0.9069
G1 X123.273 Y89.415 E1.1930
G1 X123.449 Y89.397 E1.2092
G1 X126.552 Y89.397 E1.4953
G1 X126.727 Y89.415 E1.5115
G1 X129.765 Y90.062 E1.7980
G1 X129.933 Y90.116 E1.8142
G1 X132.767 Y91.379 E2.1003
G1 X132.920 Y91.467 E2.1165
G1 X135.427 Y93.289 E2.4022
G1 X135.557 Y93.406 E2.4184
G1 X137.634 Y95.712 E2.7045
G1 X137.737 Y95.855 E2.7207
G1 X139.289 Y98.542 E3.0068
G1 X139.360 Y98.703 E3.0231
G1 X140.320 Y101.658 E3.3095
G1 X140.356 Y101.830 E3.3258
G1 X140.680 Y104.916 E3.6118
G1 X140.680 Y105.092 E3.6280
G1 X140.356 Y108.174 E3.9137
G1 X140.319 Y108.346 E3.9300
G1 X139.360 Y111.297 E4.2161
G1 X139.289 Y111.458 E4.2323
G1 X137.737 Y114.145 E4.5184
G1 X137.633 Y114.288 E4.5346
G1 X135.554 Y116.596 E4.8211
G1 X135.423 Y116.714 E4.8373
G1 X132.912 Y118.537 E5.1234
G1 X132.760 Y118.625 E5.1396
G1 X129.929 Y119.885 E5.4253
G1 X129.762 Y119.940 E5.4415
G1 X126.727 Y120.585 E5.7276
G1 X126.551 Y120.603 E5.7438
G1 X123.448 Y120.603 E6.0299
G1 X123.273 Y120.585 E6.0462
G1 X120.235 Y119.938 E6.3326
G1 X120.067 Y119.884 E6.3488
G1 X117.233 Y118.621 E6.6349
G1 X117.080 Y118.533 E6.6511
G1 X114.573 Y116.711 E6.9368
G1 X114.443 Y116.594 E6.9531
G1 X112.366 Y114.288 E7.2391
G1 X112.263 Y114.145 E7.2554
G1 X110.711 Y111.458 E7.5415
G1 X110.640 Y111.297 E7.5577
G1 X109.680 Y108.342 E7.8441
G1 X109.644 Y108.170 E7.8604
G1 X109.320 Y105.084 E8.1465
G1 X109.320 Y104.908 E8.1627
G1 X109.644 Y101.830 E8.4480
G1 X109.680 Y101.658 E8.4642
G1 X110.640 Y98.703 E8.7507
G1 X110.711 Y98.542 E8.7669
G1 X112.251 Y95.875 E9.0508
G1 X112.263 Y95.855 F1200
G1 X112.367 Y95.712 F1200
G1 X112.740 Y96.015 F4800
G92 E0
G1 X114.786 Y93.744 E0.2818 F1200
G1 X114.879 Y93.660 E0.2934
G1 X117.349 Y91.866 E0.5748
G1 X117.458 Y91.803 E0.5864
G1 X120.243 Y90.563 E0.8675
G1 X120.363 Y90.524 E0.8791
G1 X123.349 Y89.890 E1.1605
G1 X123.474 Y89.877 E1.1721
G1 X126.526 Y89.877 E1.4535
G1 X126.652 Y89.890 E1.4652
G1 X129.641 Y90.526 E1.7469
G1 X129.761 Y90.565 E1.7585
G1 X132.549 Y91.807 E2.0400
G1 X132.658 Y91.870 E2.0516
G1 X135.124 Y93.662 E2.3326
G1 X135.218 Y93.746 E2.3442
G1 X137.260 Y96.015 E2.6257
G1 X137.334 Y96.117 E2.6373
G1 X138.860 Y98.760 E2.9187
G1 X138.911 Y98.875 E2.9303
G1 X139.855 Y101.782 E3.2121
G1 X139.881 Y101.905 E3.2237
G1 X140.200 Y104.941 E3.5051
G1 X140.200 Y105.067 E3.5167
G1 X139.881 Y108.099 E3.7978
G1 X139.855 Y108.222 E3.8094
G1 X138.911 Y111.125 E4.0908
G1 X138.860 Y111.240 E4.1024
G1 X137.334 Y113.884 E4.3839
G1 X137.260 Y113.985 E4.3955
G1 X135.214 Y116.256 E4.6773
G1 X135.121 Y116.340 E4.6889
G1 X132.651 Y118.134 E4.9703
G1 X132.542 Y118.197 E4.9819
G1 X129.757 Y119.437 E5.2630
G1 X129.637 Y119.475 E5.2745
G1 X126.651 Y120.110 E5.5560
G1 X126.526 Y120.123 E5.5676
G1 X123.474 Y120.123 E5.8490
G1 X123.348 Y120.110 E5.8606
G1 X120.359 Y119.474 E6.1424
G1 X120.239 Y119.435 E6.1540
G1 X117.451 Y118.193 E6.4355
G1 X117.342 Y118.130 E6.4470
G1 X114.876 Y116.338 E6.7281
G1 X114.782 Y116.254 E6.7397
G1 X112.740 Y113.985 E7.0211
G1 X112.666 Y113.883 E7.0327
G1 X111.140 Y111.240 E7.3142
G1 X111.088 Y111.125 E7.3258
G1 X110.145 Y108.218 E7.6076
G1 X110.119 Y108.095 E7.6192
G1 X109.800 Y105.059 E7.9006
G1 X109.800 Y104.933 E7.9122
G1 X110.119 Y101.905 E8.1929
G1 X110.145 Y101.782 E8.2045
G1 X111.088 Y98.875 E8.4863
G1 X111.140 Y98.760 E8.4979
G1 X112.629 Y96.181 E8.7725
G1 X112.666 Y96.116 F1200
G1 X112.740 Y96.015 F1200
G1 X113.114 Y96.317 F4800
G92 E0
G1 X115.126 Y94.084 E0.2771 F1200
G1 X115.182 Y94.033 E0.2841
G1 X117.611 Y92.269 E0.5609
G1 X117.676 Y92.232 E0.5679
G1 X120.415 Y91.012 E0.8443
G1 X120.487 Y90.989 E0.8512
G1 X123.424 Y90.365 E1.1280
G1 X123.499 Y90.357 E1.1350
G1 X126.501 Y90.357 E1.4118
G1 X126.576 Y90.365 E1.4188
G1 X129.516 Y90.990 E1.6959
G1 X129.588 Y91.014 E1.7029
G1 X132.331 Y92.236 E1.9797
G1 X132.396 Y92.273 E1.9866
G1 X134.822 Y94.036 E2.2631
G1 X134.878 Y94.086 E2.2700
G1 X136.887 Y96.317 E2.5468
G1 X136.931 Y96.378 E2.5538
G1 X138.432 Y98.978 E2.8306
G1 X138.463 Y99.047 E2.8375
G1 X139.391 Y101.907 E3.1147
G1 X139.407 Y101.980 E3.1216
G1 X139.720 Y104.966 E3.3985
G1 X139.720 Y105.042 E3.4054
G1 X139.406 Y108.024 E3.6818
G1 X139.391 Y108.097 E3.6888
G1 X138.463 Y110.953 E3.9656
G1 X138.432 Y111.022 E3.9726
G1 X136.931 Y113.622 E4.2494
G1 X136.886 Y113.683 E4.2563
G1 X134.874 Y115.916 E4.5335
G1 X134.818 Y115.967 E4.5404
G1 X132.389 Y117.731 E4.8172
G1 X132.324 Y117.768 E4.8242
G1 X129.585 Y118.988 E5.1006
G1 X129.513 Y119.011 E5.1076
G1 X126.576 Y119.635 E5.3844
G1 X126.501 Y119.643 E5.3913
G1 X123.499 Y119.643 E5.6681
G1 X123.424 Y119.635 E5.6751
G1 X120.484 Y119.010 E5.9522
G1 X120.412 Y118.986 E5.9592
G1 X117.669 Y117.764 E6.2360
G1 X117.604 Y117.727 E6.2430
G1 X115.178 Y115.964 E6.5194
G1 X115.122 Y115.914 E6.5263
G1 X113.113 Y113.683 E6.8031
G1 X113.069 Y113.622 E6.8101
G1 X111.568 Y111.022 E7.0869
G1 X111.537 Y110.953 E7.0939
G1 X110.609 Y108.093 E7.3710
G1 X110.593 Y108.020 E7.3780
G1 X110.280 Y105.034 E7.6548
G1 X110.280 Y104.958 E7.6617
G1 X110.593 Y101.980 E7.9378
G1 X110.609 Y101.906 E7.9448
G1 X111.537 Y99.047 E8.2219
G1 X111.568 Y98.978 E8.2289
G1 X113.007 Y96.486 E8.4942
G1 X113.069 Y96.378 F1200
G1 X113.114 Y96.317 F1200
G1 X113.487 Y96.620 F4800
G92 E0
G1 X115.465 Y94.424 E0.2725 F1200
G1 X115.484 Y94.407 E0.2748
G1 X117.873 Y92.672 E0.5470
G1 X117.895 Y92.660 E0.5493
G1 X120.588 Y91.461 E0.8211
G1 X120.612 Y91.453 E0.8234
G1 X123.499 Y90.839 E1.0956
G1 X123.524 Y90.837 E1.0979
G1 X126.476 Y90.837 E1.3701
G1 X126.501 Y90.839 E1.3724
G1 X129.392 Y91.455 E1.6449
G1 X129.416 Y91.462 E1.6472
G1 X132.112 Y92.664 E1.9194
G1 X132.134 Y92.676 E1.9217
G1 X134.519 Y94.409 E2.1935
G1 X134.538 Y94.426 E2.1958
G1 X136.513 Y96.620 E2.4680
G1 X136.528 Y96.640 E2.4703
G1 X138.004 Y99.197 E2.7425
G1 X138.014 Y99.220 E2.7448
G1 X138.927 Y102.031 E3.0173
G1 X138.932 Y102.055 E3.0196
G1 X139.240 Y104.991 E3.2918
G1 X139.240 Y105.017 E3.2941
G1 X138.931 Y107.948 E3.5659
G1 X138.926 Y107.973 E3.5682
G1 X138.014 Y110.780 E3.8404
G1 X138.004 Y110.803 E3.8427
G1 X136.528 Y113.360 E4.1148
G1 X136.513 Y113.380 E4.1172
G1 X134.535 Y115.576 E4.3897
G1 X134.516 Y115.593 E4.3920
G1 X132.127 Y117.328 E4.6642
G1 X132.105 Y117.340 E4.6665
G1 X129.412 Y118.539 E4.9383
G1 X129.388 Y118.547 E4.9406
G1 X126.501 Y119.161 E5.2127
G1 X126.476 Y119.163 E5.2151
G1 X123.524 Y119.163 E5.4872
G1 X123.499 Y119.161 E5.4896
G1 X120.608 Y118.545 E5.7621
G1 X120.584 Y118.538 E5.7644
G1 X117.888 Y117.336 E6.0365
G1 X117.866 Y117.324 E6.0389
G1 X115.481 Y115.591 E6.3107
G1 X115.462 Y115.574 E6.3130
G1 X113.487 Y113.380 E6.5851
G1 X113.472 Y113.360 E6.5875
G1 X111.996 Y110.803 E6.8596
G1 X111.986 Y110.780 E6.8619
G1 X111.073 Y107.969 E7.1344
G1 X111.068 Y107.945 E7.1368
G1 X110.760 Y105.009 E7.4089
G1 X110.760 Y104.983 E7.4112
G1 X111.068 Y102.055 E7.6827
G1 X111.073 Y102.031 E7.6850
G1 X111.986 Y99.220 E7.9575
G1 X111.996 Y99.197 E7.9598
G1 X113.385 Y96.791 E8.2159
G1 X113.472 Y96.640 F1200
G1 X113.487 Y96.620 F1200
G92 E0
G1 E-1.5000 F1800
; inner perimeter
G1 X115.040 Y97.764 F4800
G1 E0.0000 F1800
G92 E0
G1 X116.765 Y95.850 E0.2376 F1080
G1 X118.848 Y94.337 E0.4749
G1 X121.196 Y93.292 E0.7118
G1 X123.713 Y92.757 E0.9491
G1 X126.287 Y92.757 E1.1864
G1 X128.807 Y93.293 E1.4240
G1 X131.158 Y94.341 E1.6613
G1 X133.237 Y95.851 E1.8982
G1 X134.960 Y97.764 E2.1355
G1 X136.246 Y99.993 E2.3728
G1 X137.042 Y102.444 E2.6104
G1 X137.310 Y105.004 E2.8477
G1 X137.042 Y107.560 E3.0846
G1 X136.246 Y110.007 E3.3219
G1 X134.960 Y112.236 E3.5592
G1 X133.235 Y114.151 E3.7968
G1 X131.152 Y115.663 E4.0341
G1 X128.804 Y116.708 E4.2710
G1 X126.287 Y117.243 E4.5083
G1 X123.713 Y117.243 E4.7456
G1 X121.193 Y116.707 E4.9832
G1 X118.842 Y115.659 E5.2205
G1 X116.763 Y114.149 E5.4574
G1 X115.040 Y112.236 E5.6947
G1 X113.754 Y110.007 E5.9320
G1 X112.958 Y107.556 E6.1696
G1 X112.690 Y104.996 E6.4069
G1 X112.958 Y102.444 E6.6435
G1 X113.754 Y99.993 E6.8811
G1 X114.940 Y97.937 E7.0999
G1 X115.040 Y97.764 F1080
G1 X114.650 Y97.480 F4800
G92 E0
G1 X116.442 Y95.491 E0.2469 F1080
G1 X118.607 Y93.919 E0.4935
G1 X121.047 Y92.833 E0.7398
G1 X123.663 Y92.277 E0.9863
G1 X126.337 Y92.277 E1.2329
G1 X128.956 Y92.834 E1.4798
G1 X131.400 Y93.923 E1.7264
G1 X133.560 Y95.493 E1.9727
G1 X135.350 Y97.480 E2.2192
G1 X136.687 Y99.796 E2.4658
G1 X137.514 Y102.344 E2.7127
G1 X137.793 Y105.004 E2.9593
G1 X137.514 Y107.660 E3.2056
G1 X136.687 Y110.204 E3.4522
G1 X135.350 Y112.520 E3.6987
G1 X133.558 Y114.509 E3.9456
G1 X131.393 Y116.081 E4.1923
G1 X128.953 Y117.167 E4.4385
G1 X126.337 Y117.723 E4.6851
G1 X123.663 Y117.723 E4.9316
G1 X121.044 Y117.166 E5.1786
G1 X118.600 Y116.077 E5.4252
G1 X116.440 Y114.507 E5.6714
G1 X114.650 Y112.520 E5.9180
G1 X113.313 Y110.204 E6.1646
G1 X112.486 Y107.656 E6.4115
G1 X112.207 Y104.996 E6.6581
G1 X112.486 Y102.344 E6.9040
G1 X113.313 Y99.796 E7.1509
G1 X114.550 Y97.654 E7.3790
G1 X114.650 Y97.480 F1080
G1 X114.259 Y97.197 F4800
G92 E0
G1 X116.119 Y95.132 E0.2562 F1080
G1 X118.366 Y93.501 E0.5121
G1 X120.897 Y92.374 E0.7677
G1 X123.612 Y91.797 E1.0235
G1 X126.388 Y91.797 E1.2794
G1 X129.106 Y92.375 E1.5356
G1 X131.641 Y93.505 E1.7915
G1 X133.883 Y95.134 E2.0471
G1 X135.741 Y97.197 E2.3030
G1 X137.128 Y99.600 E2.5588
G1 X137.986 Y102.243 E2.8151
G1 X138.276 Y105.004 E3.0710
G1 X137.986 Y107.760 E3.3265
G1 X137.128 Y110.400 E3.5824
G1 X135.741 Y112.803 E3.8383
G1 X133.881 Y114.868 E4.0945
G1 X131.634 Y116.499 E4.3504
G1 X129.103 Y117.626 E4.6059
G1 X126.388 Y118.203 E4.8618
G1 X123.612 Y118.203 E5.1177
G1 X120.894 Y117.625 E5.3739
G1 X118.359 Y116.495 E5.6298
G1 X116.117 Y114.866 E5.8854
