; G-Code generated by Simplify3D(R) Version 4.0.0
; Aug 2, 2017 at 2:01:32 PM
; Settings Summary
;   processName,Process1
;   applyToModels,8x195-rod
;   profileName,Prusa Research Original Prusa i3 MK2 (modified)
;   profileVersion,2017-07-23 22:27:18
;   baseProfile,
;   printMaterial,PLA
;   printQuality,Fast
;   printExtruders,
;   extruderName,Primary Extruder
;   extruderToolheadNumber,0
;   extruderDiameter,0.4
;   extruderAutoWidth,1
;   extruderWidth,0.48
;   extrusionMultiplier,1
;   extruderUseRetract,1
;   extruderRetractionDistance,1.5
;   extruderExtraRestartDistance,0
;   extruderRetractionZLift,0
;   extruderRetractionSpeed,1800
;   extruderUseCoasting,1
;   extruderCoastingDistance,0.2
;   extruderUseWipe,1
;   extruderWipeDistance,2
;   primaryExtruder,0
;   layerHeight,0.15
;   topSolidLayers,4
;   bottomSolidLayers,4
;   perimeterOutlines,4
;   printPerimetersInsideOut,1
;   startPointOption,2
;   startPointOriginX,0
;   startPointOriginY,0
;   sequentialIslands,0
;   spiralVaseMode,0
;   firstLayerHeightPercentage,120
;   firstLayerWidthPercentage,100
;   firstLayerUnderspeed,0.5
;   useRaft,0
;   raftExtruder,0
;   raftTopLayers,3
;   raftBaseLayers,2
;   raftOffset,3
;   raftSeparationDistance,0.14
;   raftTopInfill,100
;   aboveRaftSpeedMultiplier,0.3
;   useSkirt,1
;   skirtExtruder,0
;   skirtLayers,1
;   skirtOutlines,1
;   skirtOffset,4
;   usePrimePillar,0
;   primePillarExtruder,999
;   primePillarWidth,12
;   primePillarLocation,7
;   primePillarSpeedMultiplier,1
;   useOozeShield,0
;   oozeShieldExtruder,999
;   oozeShieldOffset,2
;   oozeShieldOutlines,1
;   oozeShieldSidewallShape,1
;   oozeShieldSidewallAngle,30
;   oozeShieldSpeedMultiplier,1
;   infillExtruder,0
;   internalInfillPattern,Full Honeycomb
;   externalInfillPattern,Rectilinear
;   infillPercentage,50
;   outlineOverlapPercentage,20
;   infillExtrusionWidthPercentage,100
;   minInfillLength,5
;   infillLayerInterval,1
;   internalInfillAngles,0,120,-120
;   overlapInternalInfillAngles,0
;   externalInfillAngles,45,-45
;   generateSupport,0
;   supportExtruder,0
;   supportInfillPercentage,25
;   supportExtraInflation,0
;   supportBaseLayers,0
;   denseSupportExtruder,0
;   denseSupportLayers,0
;   denseSupportInfillPercentage,70
;   supportLayerInterval,1
;   supportHorizontalPartOffset,0.3
;   supportUpperSeparationLayers,1
;   supportLowerSeparationLayers,1
;   supportType,1
;   supportGridSpacing,4
;   maxOverhangAngle,45
;   supportAngles,0
;   temperatureName,Primary Extruder,Heated Bed
;   temperatureNumber,0,0
;   temperatureSetpointCount,1,1
;   temperatureSetpointLayers,1,1
;   temperatureSetpointTemperatures,200,60
;   temperatureStabilizeAtStartup,1,1
;   temperatureHeatedBed,0,1
;   temperatureRelayBetweenLayers,0,0
;   temperatureRelayBetweenLoops,0,0
;   fanLayers,1,2
;   fanSpeeds,0,100
;   blipFanToFullPower,0
;   adjustSpeedForCooling,1
;   minSpeedLayerTime,15
;   minCoolingSpeedSlowdown,20
;   increaseFanForCooling,0
;   minFanLayerTime,45
;   maxCoolingFanSpeed,100
;   increaseFanForBridging,0
;   bridgingFanSpeed,100
;   use5D,1
;   relativeEdistances,0
;   allowEaxisZeroing,1
;   independentExtruderAxes,0
;   includeM10123,0
;   stickySupport,1
;   applyToolheadOffsets,0
;   gcodeXoffset,0
;   gcodeYoffset,0
;   gcodeZoffset,0
;   overrideMachineDefinition,1
;   machineTypeOverride,0
;   strokeXoverride,250
;   strokeYoverride,210
;   strokeZoverride,200
;   originOffsetXoverride,0
;   originOffsetYoverride,0
;   originOffsetZoverride,0
;   homeXdirOverride,-1
;   homeYdirOverride,-1
;   homeZdirOverride,-1
;   flipXoverride,1
;   flipYoverride,-1
;   flipZoverride,1
;   toolheadOffsets,0,0|0,0|0,0|0,0|0,0|0,0
;   overrideFirmwareConfiguration,1
;   firmwareTypeOverride,RepRap (Marlin/Repetier/Sprinter)
;   GPXconfigOverride,r2
;   baudRateOverride,250000
;   overridePrinterModels,1
;   printerModelsOverride
;   startingGcode,M115 U3.0.7 ; use the latest firmware version,G28 W ; home all axes without mesh bed leveling,G80 ; run mesh bed leveling routine,G1 Y-3.0 F1000.0 ; prepare to prime,G92 E0 ; reset extrusion distance,G1 X60.0 E9.0  F1000.0 ; priming,G1 X100.0 E12.5  F1000.0 ; priming
;   layerChangeGcode,
;   retractionGcode,
;   toolChangeGcode,
;   endingGcode,M106 S0 ; turn off cooling fan,M104 S0 ; turn off extruder,M140 S0 ; turn off bed,G1 X0 Y200 ; part removal,M84 ; disable motors
;   exportFileFormat,gcode
;   celebration,0
;   celebrationSong,Random Song
;   postProcessing,
;   defaultSpeed,2400
;   outlineUnderspeed,0.8
;   solidInfillUnderspeed,0.8
;   supportUnderspeed,0.8
;   rapidXYspeed,4800
;   rapidZspeed,1000
;   minBridgingArea,50
;   bridgingExtraInflation,0
;   bridgingExtrusionMultiplier,1
;   bridgingSpeedMultiplier,1
;   useFixedBridgingAngle,0
;   fixedBridgingAngle,0
;   applyBridgingToPerimeters,0
;   filamentDiameters,1.75|1.75|1.75|1.75|1.75|1.75
;   filamentPricesPerKg,46|46|46|46|46|46
;   filamentDensities,1.25|1.25|1.25|1.25|1.25|1.25
;   useMinPrintHeight,1
;   minPrintHeight,0
;   useMaxPrintHeight,1
;   maxPrintHeight,235
;   useDiaphragm,0
;   diaphragmLayerInterval,20
;   robustSlicing,1
;   mergeAllIntoSolid,0
;   onlyRetractWhenCrossingOutline,1
;   retractBetweenLayers,1
;   useRetractionMinTravel,0
;   retractionMinTravel,3
;   retractWhileWiping,1
;   onlyWipeOutlines,1
;   avoidCrossingOutline,0
;   maxMovementDetourFactor,3
;   toolChangeRetractionDistance,12
;   toolChangeExtraRestartDistance,-0.5
;   toolChangeRetractionSpeed,600
;   externalThinWallType,0
;   internalThinWallType,2
;   thinWallAllowedOverlapPercentage,25
;   singleExtrusionMinLength,1
;   singleExtrusionMinPrintingWidthPercentage,50
;   singleExtrusionMaxPrintingWidthPercentage,200
;   singleExtrusionEndpointExtension,0.2
;   horizontalSizeCompensation,0
G90
M82
M106 S0
M140 S60
M190 S60
M104 S200 T0
M109 S200 T0
M115 U3.0.7 ; use the latest firmware version
G28 W ; home all axes without mesh bed leveling
G80 ; run mesh bed leveling routine
G1 Y-3.0 F1000.0 ; prepare to prime
G92 E0 ; reset extrusion distance
G1 X60.0 E9.0  F1000.0 ; priming
G1 X100.0 E12.5  F1000.0 ; priming
G92 E0
G1 E-1.5000 F1800
G1 Z0.180 F1000
; process Process1
; layer 1, Z = 0.180
T0
; tool H0.180 W0.480
; skirt
G1 X13.296 Y99.266 F4800
G1 E0.0000 F540
G92 E0
G1 X236.704 Y99.266 E8.0250 F1200
G1 X236.792 Y99.303 E8.0285
G1 X239.203 Y101.714 E8.1509
G1 X239.239 Y101.802 E8.1544
G1 X239.239 Y108.198 E8.3841
G1 X239.203 Y108.286 E8.3875
G1 X236.792 Y110.697 E8.5100
G1 X236.704 Y110.734 E8.5134
G1 X13.296 Y110.734 E16.5385
G1 X13.208 Y110.697 E16.5419
G1 X10.797 Y108.286 E16.6644
G1 X10.760 Y108.198 E16.6678
G1 X10.760 Y101.802 E16.8975
G1 X10.797 Y101.714 E16.9010
G1 X13.134 Y99.377 E17.0197
G1 X13.208 Y99.303 F1200
G1 X13.296 Y99.266 F1200
G92 E0
G1 E-1.5000 F1800
; inner perimeter
G1 X16.200 Y104.706 F4800
G1 E0.0000 F1800
G92 E0
G1 X233.799 Y104.706 E7.8164 F1080
G1 X233.799 Y105.294 E7.8375
G1 X16.200 Y105.294 E15.6538
G1 X16.200 Y104.906 E15.6677
G1 X16.200 Y104.706 F1080
G1 X15.720 Y104.226 F4800
G92 E0
G1 X234.279 Y104.226 E7.8508 F1080
G1 X234.279 Y105.774 E7.9064
G1 X15.720 Y105.774 E15.7573
G1 X15.720 Y104.426 E15.8057
G1 X15.720 Y104.226 F1080
; outer perimeter
G1 X15.240 Y103.746 F4800
G92 E0
G1 X234.759 Y103.746 E7.8853 F960
G1 X234.759 Y106.254 E7.9754
G1 X15.240 Y106.254 E15.8607
G1 X15.240 Y103.946 E15.9436
G1 X15.240 Y103.746 F960
G92 E0
G1 X17.240 Y103.746 E-1.5000 F2400
; layer 2, Z = 0.330
M106 S255
; tool H0.150 W0.480
; inner perimeter
G1 X16.200 Y104.351 F4800
G1 Z0.330 F1000
G1 E0.0000 F1800
G92 E0
G1 X233.799 Y104.351 E6.5136 F2160
G1 X233.799 Y105.649 E6.5525
G1 X16.200 Y105.649 E13.0661
G1 X16.200 Y104.551 E13.0990
G1 X16.200 Y104.351 F2160
G1 X15.720 Y103.871 F4800
G92 E0
G1 X234.279 Y103.871 E6.5424 F2160
G1 X234.279 Y106.129 E6.6100
G1 X15.720 Y106.129 E13.1523
G1 X15.720 Y104.071 E13.2139
G1 X15.720 Y103.871 F2160
; outer perimeter
G1 X15.240 Y103.391 F4800
G92 E0
G1 X234.759 Y103.391 E6.5711 F1920
G1 X234.759 Y106.609 E6.6674
G1 X15.240 Y106.609 E13.2385
G1 X15.240 Y103.591 E13.3289
G1 X15.240 Y103.391 F1920
G1 X17.240 Y103.391 F2400
; gap fill
G1 X16.589 Y104.799 F4800
G92 E0
G1 X16.649 Y104.740 E0.0025 F1920
G1 X17.327 Y104.740 E0.0228
G1 X16.807 Y105.260 E0.0449
G1 X17.486 Y105.260 E0.0652
G1 X18.006 Y104.740 E0.0872
G1 X18.685 Y104.740 E0.1075
G1 X18.165 Y105.260 E0.1295
G1 X18.844 Y105.260 E0.1499
G1 X19.364 Y104.740 E0.1719
G1 X20.043 Y104.740 E0.1922
G1 X19.522 Y105.260 E0.2142
G1 X20.201 Y105.260 E0.2346
G1 X20.722 Y104.740 E0.2566
G1 X21.400 Y104.740 E0.2769
G1 X20.880 Y105.260 E0.2989
G1 X21.559 Y105.260 E0.3193
G1 X22.079 Y104.740 E0.3413
G1 X22.758 Y104.740 E0.3616
G1 X22.238 Y105.260 E0.3836
G1 X22.916 Y105.260 E0.4039
G1 X23.437 Y104.740 E0.4260
G1 X24.116 Y104.740 E0.4463
G1 X23.595 Y105.260 E0.4683
G1 X24.274 Y105.260 E0.4886
G1 X24.794 Y104.740 E0.5107
G1 X25.473 Y104.740 E0.5310
G1 X24.953 Y105.260 E0.5530
G1 X25.632 Y105.260 E0.5733
G1 X26.152 Y104.740 E0.5954
G1 X26.831 Y104.740 E0.6157
G1 X26.311 Y105.260 E0.6377
G1 X26.989 Y105.260 E0.6580
G1 X27.510 Y104.740 E0.6801
G1 X28.189 Y104.740 E0.7004
G1 X27.668 Y105.260 E0.7224
G1 X28.347 Y105.260 E0.7427
G1 X28.867 Y104.740 E0.7647
G1 X29.546 Y104.740 E0.7851
G1 X29.026 Y105.260 E0.8071
G1 X29.705 Y105.260 E0.8274
G1 X30.225 Y104.740 E0.8494
G1 X30.904 Y104.740 E0.8698
G1 X30.384 Y105.260 E0.8918
G1 X31.062 Y105.260 E0.9121
G1 X31.583 Y104.740 E0.9341
G1 X32.262 Y104.740 E0.9545
G1 X31.741 Y105.260 E0.9765
G1 X32.420 Y105.260 E0.9968
G1 X32.940 Y104.740 E1.0188
G1 X33.619 Y104.740 E1.0391
G1 X33.099 Y105.260 E1.0612
G1 X33.778 Y105.260 E1.0815
G1 X34.298 Y104.740 E1.1035
G1 X34.977 Y104.740 E1.1238
G1 X34.456 Y105.260 E1.1459
G1 X35.135 Y105.260 E1.1662
G1 X35.656 Y104.740 E1.1882
G1 X36.334 Y104.740 E1.2085
G1 X35.814 Y105.260 E1.2306
G1 X36.493 Y105.260 E1.2509
G1 X37.013 Y104.740 E1.2729
G1 X37.692 Y104.740 E1.2932
G1 X37.172 Y105.260 E1.3152
G1 X37.851 Y105.260 E1.3356
G1 X38.371 Y104.740 E1.3576
G1 X39.050 Y104.740 E1.3779
G1 X38.529 Y105.260 E1.3999
G1 X39.208 Y105.260 E1.4203
G1 X39.729 Y104.740 E1.4423
G1 X40.407 Y104.740 E1.4626
G1 X39.887 Y105.260 E1.4846
G1 X40.566 Y105.260 E1.5050
G1 X41.086 Y104.740 E1.5270
G1 X41.765 Y104.740 E1.5473
G1 X41.245 Y105.260 E1.5693
G1 X41.924 Y105.260 E1.5896
G1 X42.444 Y104.740 E1.6117
G1 X43.123 Y104.740 E1.6320
G1 X42.602 Y105.260 E1.6540
G1 X43.281 Y105.260 E1.6743
G1 X43.801 Y104.740 E1.6964
G1 X44.480 Y104.740 E1.7167
G1 X43.960 Y105.260 E1.7387
G1 X44.639 Y105.260 E1.7590
G1 X45.159 Y104.740 E1.7811
G1 X45.838 Y104.740 E1.8014
G1 X45.318 Y105.260 E1.8234
G1 X45.996 Y105.260 E1.8437
G1 X46.517 Y104.740 E1.8658
G1 X47.196 Y104.740 E1.8861
G1 X46.675 Y105.260 E1.9081
G1 X47.354 Y105.260 E1.9284
G1 X47.874 Y104.740 E1.9504
G1 X48.553 Y104.740 E1.9708
G1 X48.033 Y105.260 E1.9928
G1 X48.712 Y105.260 E2.0131
G1 X49.232 Y104.740 E2.0351
G1 X49.911 Y104.740 E2.0555
G1 X49.391 Y105.260 E2.0775
G1 X50.069 Y105.260 E2.0978
G1 X50.590 Y104.740 E2.1198
G1 X51.269 Y104.740 E2.1401
G1 X50.748 Y105.260 E2.1622
G1 X51.427 Y105.260 E2.1825
G1 X51.947 Y104.740 E2.2045
G1 X52.626 Y104.740 E2.2248
G1 X52.106 Y105.260 E2.2469
G1 X52.785 Y105.260 E2.2672
G1 X53.305 Y104.740 E2.2892
G1 X53.984 Y104.740 E2.3095
G1 X53.464 Y105.260 E2.3316
G1 X54.142 Y105.260 E2.3519
G1 X54.663 Y104.740 E2.3739
G1 X55.341 Y104.740 E2.3942
G1 X54.821 Y105.260 E2.4163
G1 X55.500 Y105.260 E2.4366
G1 X56.020 Y104.740 E2.4586
G1 X56.699 Y104.740 E2.4789
G1 X56.179 Y105.260 E2.5009
G1 X56.858 Y105.260 E2.5213
G1 X57.378 Y104.740 E2.5433
G1 X58.057 Y104.740 E2.5636
G1 X57.536 Y105.260 E2.5856
G1 X58.215 Y105.260 E2.6060
G1 X58.736 Y104.740 E2.6280
G1 X59.414 Y104.740 E2.6483
G1 X58.894 Y105.260 E2.6703
G1 X59.573 Y105.260 E2.6907
G1 X60.093 Y104.740 E2.7127
G1 X60.772 Y104.740 E2.7330
G1 X60.252 Y105.260 E2.7550
G1 X60.931 Y105.260 E2.7753
G1 X61.451 Y104.740 E2.7974
G1 X62.130 Y104.740 E2.8177
G1 X61.609 Y105.260 E2.8397
G1 X62.288 Y105.260 E2.8600
G1 X62.809 Y104.740 E2.8821
G1 X63.487 Y104.740 E2.9024
G1 X62.967 Y105.260 E2.9244
G1 X63.646 Y105.260 E2.9447
G1 X64.166 Y104.740 E2.9668
G1 X64.845 Y104.740 E2.9871
G1 X64.325 Y105.260 E3.0091
G1 X65.003 Y105.260 E3.0294
G1 X65.524 Y104.740 E3.0514
G1 X66.203 Y104.740 E3.0718
G1 X65.682 Y105.260 E3.0938
G1 X66.361 Y105.260 E3.1141
G1 X66.881 Y104.740 E3.1361
G1 X67.560 Y104.740 E3.1565
G1 X67.040 Y105.260 E3.1785
G1 X67.719 Y105.260 E3.1988
G1 X68.239 Y104.740 E3.2208
G1 X68.918 Y104.740 E3.2412
G1 X68.398 Y105.260 E3.2632
G1 X69.076 Y105.260 E3.2835
G1 X69.597 Y104.740 E3.3055
G1 X70.276 Y104.740 E3.3258
G1 X69.755 Y105.260 E3.3479
G1 X70.434 Y105.260 E3.3682
G1 X70.954 Y104.740 E3.3902
G1 X71.633 Y104.740 E3.4105
G1 X71.113 Y105.260 E3.4326
G1 X71.792 Y105.260 E3.4529
G1 X72.312 Y104.740 E3.4749
G1 X72.991 Y104.740 E3.4952
G1 X72.471 Y105.260 E3.5173
G1 X73.149 Y105.260 E3.5376
G1 X73.670 Y104.740 E3.5596
G1 X74.348 Y104.740 E3.5799
G1 X73.828 Y105.260 E3.6020
G1 X74.507 Y105.260 E3.6223
G1 X75.027 Y104.740 E3.6443
G1 X75.706 Y104.740 E3.6646
G1 X75.186 Y105.260 E3.6866
G1 X75.865 Y105.260 E3.7070
G1 X76.385 Y104.740 E3.7290
G1 X77.064 Y104.740 E3.7493
G1 X76.543 Y105.260 E3.7713
G1 X77.222 Y105.260 E3.7917
G1 X77.743 Y104.740 E3.8137
G1 X78.421 Y104.740 E3.8340
G1 X77.901 Y105.260 E3.8560
G1 X78.580 Y105.260 E3.8763
G1 X79.100 Y104.740 E3.8984
G1 X79.779 Y104.740 E3.9187
G1 X79.259 Y105.260 E3.9407
G1 X79.938 Y105.260 E3.9610
G1 X80.458 Y104.740 E3.9831
G1 X81.137 Y104.740 E4.0034
G1 X80.616 Y105.260 E4.0254
G1 X81.295 Y105.260 E4.0457
G1 X81.816 Y104.740 E4.0678
G1 X82.494 Y104.740 E4.0881
G1 X81.974 Y105.260 E4.1101
G1 X82.653 Y105.260 E4.1304
G1 X83.173 Y104.740 E4.1525
G1 X83.852 Y104.740 E4.1728
G1 X83.332 Y105.260 E4.1948
G1 X84.011 Y105.260 E4.2151
G1 X84.531 Y104.740 E4.2371
G1 X85.210 Y104.740 E4.2575
G1 X84.689 Y105.260 E4.2795
G1 X85.368 Y105.260 E4.2998
G1 X85.888 Y104.740 E4.3218
G1 X86.567 Y104.740 E4.3422
G1 X86.047 Y105.260 E4.3642
G1 X86.726 Y105.260 E4.3845
G1 X87.246 Y104.740 E4.4065
G1 X87.925 Y104.740 E4.4269
G1 X87.405 Y105.260 E4.4489
G1 X88.083 Y105.260 E4.4692
G1 X88.604 Y104.740 E4.4912
G1 X89.283 Y104.740 E4.5115
G1 X88.762 Y105.260 E4.5336
G1 X89.441 Y105.260 E4.5539
G1 X89.961 Y104.740 E4.5759
G1 X90.640 Y104.740 E4.5962
G1 X90.120 Y105.260 E4.6183
G1 X90.799 Y105.260 E4.6386
G1 X91.319 Y104.740 E4.6606
G1 X91.998 Y104.740 E4.6809
G1 X91.478 Y105.260 E4.7030
G1 X92.156 Y105.260 E4.7233
G1 X92.677 Y104.740 E4.7453
G1 X93.356 Y104.740 E4.7656
G1 X92.835 Y105.260 E4.7876
G1 X93.514 Y105.260 E4.8080
G1 X94.034 Y104.740 E4.8300
G1 X94.713 Y104.740 E4.8503
G1 X94.193 Y105.260 E4.8723
G1 X94.872 Y105.260 E4.8927
G1 X95.392 Y104.740 E4.9147
G1 X96.071 Y104.740 E4.9350
G1 X95.551 Y105.260 E4.9570
G1 X96.229 Y105.260 E4.9774
G1 X96.750 Y104.740 E4.9994
G1 X97.428 Y104.740 E5.0197
G1 X96.908 Y105.260 E5.0417
G1 X97.587 Y105.260 E5.0620
G1 X98.107 Y104.740 E5.0841
G1 X98.786 Y104.740 E5.1044
G1 X98.266 Y105.260 E5.1264
G1 X98.945 Y105.260 E5.1467
G1 X99.465 Y104.740 E5.1688
G1 X100.144 Y104.740 E5.1891
G1 X99.623 Y105.260 E5.2111
G1 X100.302 Y105.260 E5.2314
G1 X100.823 Y104.740 E5.2535
G1 X101.501 Y104.740 E5.2738
G1 X100.981 Y105.260 E5.2958
G1 X101.660 Y105.260 E5.3161
G1 X102.180 Y104.740 E5.3382
G1 X102.859 Y104.740 E5.3585
G1 X102.339 Y105.260 E5.3805
G1 X103.018 Y105.260 E5.4008
G1 X103.538 Y104.740 E5.4228
G1 X104.217 Y104.740 E5.4432
G1 X103.696 Y105.260 E5.4652
G1 X104.375 Y105.260 E5.4855
G1 X104.896 Y104.740 E5.5075
G1 X105.574 Y104.740 E5.5279
G1 X105.054 Y105.260 E5.5499
G1 X105.733 Y105.260 E5.5702
G1 X106.253 Y104.740 E5.5922
G1 X106.932 Y104.740 E5.6126
G1 X106.412 Y105.260 E5.6346
G1 X107.090 Y105.260 E5.6549
G1 X107.611 Y104.740 E5.6769
G1 X108.290 Y104.740 E5.6972
G1 X107.769 Y105.260 E5.7193
G1 X108.448 Y105.260 E5.7396
G1 X108.968 Y104.740 E5.7616
G1 X109.647 Y104.740 E5.7819
G1 X109.127 Y105.260 E5.8040
G1 X109.806 Y105.260 E5.8243
G1 X110.326 Y104.740 E5.8463
G1 X111.005 Y104.740 E5.8666
