; G-Code generated by Simplify3D(R) Version 4.0.0
; Aug 2, 2017 at 5:18:17 PM
; Settings Summary
;   processName,Process1
;   applyToModels,Wind_turbine
;   profileName,Prusa Research Original Prusa i3 MK2 (modified)
;   profileVersion,2017-07-23 22:27:18
;   baseProfile,
;   printMaterial,PLA
;   printQuality,Medium
;   printExtruders,
;   extruderName,Primary Extruder
;   extruderToolheadNumber,0
;   extruderDiameter,0.4
;   extruderAutoWidth,1
;   extruderWidth,0.48
;   extrusionMultiplier,1
;   extruderUseRetract,1
;   extruderRetractionDistance,1.5
;   extruderExtraRestartDistance,0
;   extruderRetractionZLift,0
;   extruderRetractionSpeed,1800
;   extruderUseCoasting,1
;   extruderCoastingDistance,0.2
;   extruderUseWipe,1
;   extruderWipeDistance,2
;   primaryExtruder,0
;   layerHeight,0.35
;   topSolidLayers,2
;   bottomSolidLayers,2
;   perimeterOutlines,2
;   printPerimetersInsideOut,1
;   startPointOption,2
;   startPointOriginX,0
;   startPointOriginY,0
;   sequentialIslands,0
;   spiralVaseMode,0
;   firstLayerHeightPercentage,120
;   firstLayerWidthPercentage,100
;   firstLayerUnderspeed,0.5
;   useRaft,0
;   raftExtruder,0
;   raftTopLayers,3
;   raftBaseLayers,2
;   raftOffset,3
;   raftSeparationDistance,0.14
;   raftTopInfill,100
;   aboveRaftSpeedMultiplier,0.3
;   useSkirt,1
;   skirtExtruder,0
;   skirtLayers,1
;   skirtOutlines,1
;   skirtOffset,4
;   usePrimePillar,0
;   primePillarExtruder,999
;   primePillarWidth,12
;   primePillarLocation,7
;   primePillarSpeedMultiplier,1
;   useOozeShield,0
;   oozeShieldExtruder,999
;   oozeShieldOffset,2
;   oozeShieldOutlines,1
;   oozeShieldSidewallShape,1
;   oozeShieldSidewallAngle,30
;   oozeShieldSpeedMultiplier,1
;   infillExtruder,0
;   internalInfillPattern,Rectilinear
;   externalInfillPattern,Rectilinear
;   infillPercentage,10
;   outlineOverlapPercentage,20
;   infillExtrusionWidthPercentage,100
;   minInfillLength,5
;   infillLayerInterval,1
;   internalInfillAngles,45,-45
;   overlapInternalInfillAngles,0
;   externalInfillAngles,45,-45
;   generateSupport,0
;   supportExtruder,0
;   supportInfillPercentage,30
;   supportExtraInflation,0
;   supportBaseLayers,0
;   denseSupportExtruder,0
;   denseSupportLayers,0
;   denseSupportInfillPercentage,70
;   supportLayerInterval,1
;   supportHorizontalPartOffset,0.3
;   supportUpperSeparationLayers,1
;   supportLowerSeparationLayers,1
;   supportType,1
;   supportGridSpacing,4
;   maxOverhangAngle,45
;   supportAngles,0
;   temperatureName,Primary Extruder,Heated Bed
;   temperatureNumber,0,0
;   temperatureSetpointCount,1,1
;   temperatureSetpointLayers,1,1
;   temperatureSetpointTemperatures,200,60
;   temperatureStabilizeAtStartup,1,1
;   temperatureHeatedBed,0,1
;   temperatureRelayBetweenLayers,0,0
;   temperatureRelayBetweenLoops,0,0
;   fanLayers,1,2
;   fanSpeeds,0,100
;   blipFanToFullPower,0
;   adjustSpeedForCooling,1
;   minSpeedLayerTime,15
;   minCoolingSpeedSlowdown,20
;   increaseFanForCooling,0
;   minFanLayerTime,45
;   maxCoolingFanSpeed,100
;   increaseFanForBridging,0
;   bridgingFanSpeed,100
;   use5D,1
;   relativeEdistances,0
;   allowEaxisZeroing,1
;   independentExtruderAxes,0
;   includeM10123,0
;   stickySupport,1
;   applyToolheadOffsets,0
;   gcodeXoffset,0
;   gcodeYoffset,0
;   gcodeZoffset,0
;   overrideMachineDefinition,1
;   machineTypeOverride,0
;   strokeXoverride,250
;   strokeYoverride,210
;   strokeZoverride,200
;   originOffsetXoverride,0
;   originOffsetYoverride,0
;   originOffsetZoverride,0
;   homeXdirOverride,-1
;   homeYdirOverride,-1
;   homeZdirOverride,-1
;   flipXoverride,1
;   flipYoverride,-1
;   flipZoverride,1
;   toolheadOffsets,0,0|0,0|0,0|0,0|0,0|0,0
;   overrideFirmwareConfiguration,1
;   firmwareTypeOverride,RepRap (Marlin/Repetier/Sprinter)
;   GPXconfigOverride,r2
;   baudRateOverride,250000
;   overridePrinterModels,1
;   printerModelsOverride
;   startingGcode,M115 U3.0.7 ; use the latest firmware version,G28 W ; home all axes without mesh bed leveling,G80 ; run mesh bed leveling routine,G1 Y-3.0 F1000.0 ; prepare to prime,G92 E0 ; reset extrusion distance,G1 X60.0 E9.0  F1000.0 ; priming,G1 X100.0 E12.5  F1000.0 ; priming
;   layerChangeGcode,
;   retractionGcode,
;   toolChangeGcode,
;   endingGcode,M106 S0 ; turn off cooling fan,M104 S0 ; turn off extruder,M140 S0 ; turn off bed,G1 X0 Y200 ; part removal,M84 ; disable motors
;   exportFileFormat,gcode
;   celebration,0
;   celebrationSong,Random Song
;   postProcessing,
;   defaultSpeed,2400
;   outlineUnderspeed,0.8
;   solidInfillUnderspeed,0.8
;   supportUnderspeed,0.8
;   rapidXYspeed,4800
;   rapidZspeed,1000
;   minBridgingArea,50
;   bridgingExtraInflation,0
;   bridgingExtrusionMultiplier,1
;   bridgingSpeedMultiplier,1
;   useFixedBridgingAngle,0
;   fixedBridgingAngle,0
;   applyBridgingToPerimeters,0
;   filamentDiameters,1.75|1.75|1.75|1.75|1.75|1.75
;   filamentPricesPerKg,46|46|46|46|46|46
;   filamentDensities,1.25|1.25|1.25|1.25|1.25|1.25
;   useMinPrintHeight,1
;   minPrintHeight,0
;   useMaxPrintHeight,1
;   maxPrintHeight,235
;   useDiaphragm,0
;   diaphragmLayerInterval,20
;   robustSlicing,1
;   mergeAllIntoSolid,0
;   onlyRetractWhenCrossingOutline,1
;   retractBetweenLayers,1
;   useRetractionMinTravel,0
;   retractionMinTravel,3
;   retractWhileWiping,1
;   onlyWipeOutlines,1
;   avoidCrossingOutline,0
;   maxMovementDetourFactor,3
;   toolChangeRetractionDistance,12
;   toolChangeExtraRestartDistance,-0.5
;   toolChangeRetractionSpeed,600
;   externalThinWallType,0
;   internalThinWallType,2
;   thinWallAllowedOverlapPercentage,25
;   singleExtrusionMinLength,1
;   singleExtrusionMinPrintingWidthPercentage,50
;   singleExtrusionMaxPrintingWidthPercentage,200
;   singleExtrusionEndpointExtension,0.2
;   horizontalSizeCompensation,0
G90
M82
M106 S0
M140 S60
M190 S60
M104 S200 T0
M109 S200 T0
M115 U3.0.7 ; use the latest firmware version
G28 W ; home all axes without mesh bed leveling
G80 ; run mesh bed leveling routine
G1 Y-3.0 F1000.0 ; prepare to prime
G92 E0 ; reset extrusion distance
G1 X60.0 E9.0  F1000.0 ; priming
G1 X100.0 E12.5  F1000.0 ; priming
G92 E0
G1 E-1.5000 F1800
G1 Z0.420 F1000
; process Process1
; layer 1, Z = 0.420
T0
; tool H0.420 W0.480
; skirt
G1 X115.775 Y28.019 F4800
G1 E0.0000 F540
G92 E0
G1 X118.164 Y23.986 E0.3929 F1200
G1 X118.274 Y23.923 E0.4035
G1 X122.767 Y23.924 E0.7800
G1 X122.826 Y23.939 E0.7852
G1 X124.710 Y25.002 E0.9665
G1 X124.755 Y25.045 E0.9717
G1 X125.000 Y25.451 E1.0115
G1 X125.245 Y25.045 E1.0512
G1 X125.290 Y25.002 E1.0564
G1 X127.174 Y23.939 E1.2377
G1 X127.234 Y23.924 E1.2429
G1 X131.721 Y23.924 E1.6190
G1 X131.831 Y23.987 E1.6296
G1 X134.222 Y28.006 E2.0216
G1 X134.224 Y28.133 E2.0322
G1 X132.627 Y31.073 E2.3127
G1 X132.622 Y31.081 E2.3135
G1 X132.439 Y31.361 E2.3415
G1 X132.433 Y31.369 E2.3423
G1 X132.154 Y31.729 E2.3805
G1 X132.165 Y120.465 E9.8179
G1 X132.165 Y120.476 E9.8188
G1 X132.122 Y128.716 E10.5095
G1 X132.122 Y128.732 E10.5108
G1 X131.956 Y141.627 E11.5916
G1 X131.956 Y141.640 E11.5927
G1 X131.526 Y164.515 E13.5103
G1 X131.526 Y164.524 E13.5110
G1 X130.580 Y205.284 E16.9282
G1 X130.542 Y205.370 E16.9361
G1 X128.143 Y207.714 E17.2172
G1 X128.056 Y207.749 E17.2251
G1 X121.935 Y207.749 E17.7382
G1 X121.847 Y207.714 E17.7461
G1 X119.449 Y205.370 E18.0271
G1 X119.411 Y205.284 E18.0350
G1 X118.467 Y164.525 E21.4522
G1 X118.467 Y164.515 E21.4529
G1 X118.045 Y142.057 E23.3356
G1 X118.045 Y142.045 E23.3366
G1 X117.873 Y128.729 E24.4528
G1 X117.873 Y128.712 E24.4541
G1 X117.830 Y120.472 E25.1447
G1 X117.830 Y120.460 E25.1457
G1 X117.863 Y59.463 E30.2582
G1 X117.846 Y31.731 E32.5825
G1 X117.589 Y31.401 E32.6176
G1 X117.584 Y31.394 E32.6184
G1 X117.402 Y31.117 E32.6462
G1 X117.397 Y31.109 E32.6470
G1 X115.805 Y28.205 E32.9245
G1 X115.773 Y28.146 F1200
G1 X115.775 Y28.019 F1200
G92 E0
G1 E-1.5000 F1800
; inner perimeter
G1 X122.780 Y30.465 F4800
G1 E0.0000 F1800
G92 E0
G1 X122.963 Y30.348 E0.0182 F1080
G1 X123.137 Y30.447 E0.0350
G1 X123.699 Y30.667 E0.0856
G1 X124.144 Y30.783 E0.1241
G1 X124.589 Y30.849 E0.1619
G1 X125.002 Y30.870 E0.1965
G1 X125.449 Y30.845 E0.2341
G1 X125.858 Y30.783 E0.2687
G1 X126.301 Y30.667 E0.3071
G1 X126.863 Y30.447 E0.3577
G1 X127.037 Y30.348 E0.3745
G1 X127.220 Y30.465 E0.3927
G1 X127.194 Y30.776 E0.4188
G1 X127.188 Y82.745 E4.7747
G1 X127.205 Y120.458 E7.9356
G1 X127.197 Y124.072 E8.2385
G1 X127.162 Y128.678 E8.6246
G1 X127.100 Y134.317 E9.0972
G1 X126.997 Y141.556 E9.7041
G1 X126.823 Y151.571 E10.5436
G1 X126.567 Y164.414 E11.6202
G1 X125.676 Y202.789 E14.8375
G1 X124.315 Y202.789 E14.9516
G1 X123.426 Y164.414 E18.1689
G1 X123.182 Y152.142 E19.1977
G1 X123.004 Y141.974 E20.0501
G1 X122.894 Y134.311 E20.6924
G1 X122.832 Y128.674 E21.1649
G1 X122.798 Y124.068 E21.5510
G1 X122.790 Y120.454 E21.8539
G1 X122.823 Y59.465 E26.9657
G1 X122.806 Y30.775 E29.3704
G1 X122.796 Y30.664 E29.3797
G1 X122.780 Y30.465 F1080
; outer perimeter
G1 X122.284 Y30.301 F4800
G92 E0
G1 X122.187 Y29.883 E0.0360 F960
G1 X121.762 Y29.467 E0.0858
G1 X121.236 Y28.793 E0.1574
G1 X121.023 Y28.403 E0.1947
G1 X121.549 Y28.403 E0.2388
G1 X121.664 Y28.593 E0.2574
G1 X122.197 Y29.210 E0.3257
G1 X122.814 Y29.711 E0.3924
G1 X123.344 Y30.012 E0.4434
G1 X123.848 Y30.210 E0.4888
G1 X124.240 Y30.312 E0.5228
G1 X124.637 Y30.371 E0.5564
G1 X125.000 Y30.390 E0.5869
G1 X125.400 Y30.367 E0.6204
G1 X125.760 Y30.312 E0.6510
G1 X126.152 Y30.210 E0.6850
G1 X126.656 Y30.012 E0.7303
G1 X127.186 Y29.712 E0.7814
G1 X127.803 Y29.211 E0.8480
G1 X128.336 Y28.593 E0.9163
G1 X128.450 Y28.404 E0.9349
G1 X128.979 Y28.404 E0.9792
G1 X128.780 Y28.770 E1.0142
G1 X128.263 Y29.436 E1.0848
G1 X127.804 Y29.887 E1.1387
G1 X127.715 Y30.303 E1.1744
G1 X127.674 Y30.796 E1.2158
G1 X127.668 Y82.745 E5.5700
G1 X127.685 Y120.459 E8.7310
G1 X127.677 Y124.073 E9.0339
G1 X127.642 Y128.684 E9.4204
G1 X127.580 Y134.322 E9.8930
G1 X127.477 Y141.563 E10.4999
G1 X127.303 Y151.581 E11.3397
G1 X127.047 Y164.425 E12.4165
G1 X126.145 Y203.269 E15.6731
G1 X123.846 Y203.269 E15.8658
G1 X122.946 Y164.425 E19.1224
G1 X122.702 Y152.152 E20.1513
G1 X122.524 Y141.980 E21.0040
G1 X122.414 Y134.317 E21.6464
G1 X122.352 Y128.679 E22.1189
G1 X122.318 Y124.070 E22.5053
G1 X122.310 Y120.456 E22.8081
G1 X122.343 Y59.465 E27.9201
G1 X122.326 Y30.796 E30.3231
G1 X122.301 Y30.500 E30.3479
G1 X122.284 Y30.301 F960
G92 E0
G1 X122.187 Y29.883 E-0.3222 F2400
G1 X121.762 Y29.467 E-0.7682
G1 X121.236 Y28.793 E-1.4089
G1 X121.178 Y28.686 E-1.5000
; solid layer
G1 X126.390 Y31.041 F4800
G1 E0.0000 F1800
G92 E0
G1 X126.810 Y31.461 E0.0498 F960
G1 X126.810 Y32.139 E0.1067
G1 X125.844 Y31.174 E0.2211
G1 X125.489 Y31.228 E0.2513
G1 X125.234 Y31.242 E0.2727
G1 X126.810 Y32.818 E0.4595
G1 X126.810 Y33.497 E0.5164
G1 X124.544 Y31.231 E0.7850
G1 X124.067 Y31.160 E0.8254
G1 X123.698 Y31.064 E0.8574
G1 X126.810 Y34.175 E1.2262
G1 X126.809 Y34.854 E1.2831
G1 X123.190 Y31.235 E1.7121
G1 X123.190 Y31.914 E1.7691
G1 X126.809 Y35.533 E2.1980
G1 X126.809 Y36.212 E2.2549
G1 X123.191 Y32.593 E2.6838
G1 X123.191 Y33.273 E2.7407
G1 X126.809 Y36.890 E3.1696
G1 X126.809 Y37.569 E3.2265
G1 X123.192 Y33.952 E3.6552
G1 X123.192 Y34.631 E3.7122
G1 X126.809 Y38.248 E4.1409
G1 X126.809 Y38.927 E4.1978
G1 X123.193 Y35.310 E4.6265
G1 X123.193 Y35.990 E4.6834
G1 X126.809 Y39.605 E5.1120
G1 X126.809 Y40.284 E5.1689
G1 X123.193 Y36.669 E5.5974
G1 X123.194 Y37.348 E5.6544
G1 X126.809 Y40.963 E6.0828
G1 X126.809 Y41.642 E6.1397
G1 X123.194 Y38.027 E6.5682
G1 X123.195 Y38.707 E6.6251
G1 X126.809 Y42.320 E7.0535
G1 X126.809 Y42.999 E7.1104
G1 X123.195 Y39.386 E7.5387
G1 X123.195 Y40.065 E7.5956
G1 X126.808 Y43.678 E8.0238
G1 X126.808 Y44.357 E8.0807
G1 X123.196 Y40.744 E8.5089
G1 X123.196 Y41.423 E8.5659
G1 X126.808 Y45.035 E8.9940
G1 X126.808 Y45.714 E9.0509
G1 X123.197 Y42.103 E9.4790
G1 X123.197 Y42.782 E9.5359
G1 X126.808 Y46.393 E9.9639
G1 X126.808 Y47.072 E10.0208
G1 X123.198 Y43.461 E10.4487
G1 X123.198 Y44.140 E10.5057
G1 X126.808 Y47.750 E10.9336
G1 X126.808 Y48.429 E10.9905
G1 X123.198 Y44.820 E11.4183
G1 X123.199 Y45.499 E11.4752
G1 X126.808 Y49.108 E11.9030
G1 X126.808 Y49.787 E11.9599
G1 X123.199 Y46.178 E12.3876
G1 X123.200 Y46.857 E12.4446
G1 X126.808 Y50.465 E12.8722
G1 X126.808 Y51.144 E12.9291
G1 X123.200 Y47.537 E13.3567
G1 X123.201 Y48.216 E13.4136
G1 X126.807 Y51.823 E13.8412
G1 X126.807 Y52.502 E13.8981
G1 X123.201 Y48.895 E14.3256
G1 X123.201 Y49.574 E14.3825
G1 X126.807 Y53.180 E14.8099
G1 X126.807 Y53.859 E14.8668
G1 X123.202 Y50.254 E15.2942
G1 X123.202 Y50.933 E15.3511
G1 X126.807 Y54.538 E15.7784
G1 X126.807 Y55.217 E15.8353
G1 X123.203 Y51.612 E16.2625
G1 X123.203 Y52.291 E16.3195
G1 X126.807 Y55.895 E16.7467
G1 X126.807 Y56.574 E16.8036
G1 X123.203 Y52.971 E17.2307
G1 X123.204 Y53.650 E17.2876
G1 X126.807 Y57.253 E17.7147
G1 X126.807 Y57.932 E17.7716
G1 X123.204 Y54.329 E18.1986
G1 X123.205 Y55.008 E18.2555
G1 X126.807 Y58.610 E18.6825
G1 X126.807 Y59.289 E18.7394
G1 X123.205 Y55.688 E19.1663
G1 X123.206 Y56.367 E19.2232
G1 X126.807 Y59.968 E19.6500
G1 X126.806 Y60.647 E19.7069
G1 X123.206 Y57.046 E20.1337
G1 X123.206 Y57.725 E20.1906
G1 X126.806 Y61.325 E20.6173
G1 X126.806 Y62.004 E20.6742
G1 X123.207 Y58.405 E21.1009
G1 X123.207 Y59.084 E21.1578
G1 X126.806 Y62.683 E21.5844
G1 X126.806 Y63.362 E21.6413
G1 X123.207 Y59.763 E22.0679
G1 X123.207 Y60.441 E22.1248
G1 X126.806 Y64.040 E22.5514
G1 X126.806 Y64.719 E22.6083
G1 X123.207 Y61.120 E23.0349
G1 X123.206 Y61.798 E23.0918
G1 X126.806 Y65.398 E23.5185
G1 X126.806 Y66.076 E23.5754
G1 X123.206 Y62.476 E24.0021
G1 X123.205 Y63.155 E24.0589
G1 X126.806 Y66.755 E24.4857
G1 X126.806 Y67.434 E24.5426
G1 X123.205 Y63.833 E24.9694
G1 X123.205 Y64.512 E25.0263
G1 X126.806 Y68.113 E25.4531
G1 X126.806 Y68.791 E25.5100
G1 X123.204 Y65.190 E25.9368
G1 X123.204 Y65.869 E25.9937
G1 X126.805 Y69.470 E26.4206
G1 X126.805 Y70.149 E26.4775
G1 X123.204 Y66.547 E26.9044
G1 X123.203 Y67.226 E26.9613
G1 X126.805 Y70.828 E27.3882
G1 X126.805 Y71.506 E27.4451
G1 X123.203 Y67.904 E27.8721
G1 X123.202 Y68.583 E27.9290
G1 X126.805 Y72.185 E28.3560
G1 X126.805 Y72.864 E28.4129
G1 X123.202 Y69.261 E28.8400
G1 X123.202 Y69.939 E28.8969
G1 X126.805 Y73.543 E29.3240
G1 X126.805 Y74.221 E29.3808
G1 X123.201 Y70.618 E29.8080
G1 X123.201 Y71.296 E29.8649
G1 X126.805 Y74.900 E30.2920
G1 X126.805 Y75.579 E30.3489
G1 X123.201 Y71.975 E30.7761
G1 X123.200 Y72.653 E30.8330
G1 X126.805 Y76.258 E31.2602
G1 X126.805 Y76.936 E31.3171
G1 X123.200 Y73.332 E31.7444
G1 X123.199 Y74.010 E31.8013
G1 X126.805 Y77.615 E32.2286
G1 X126.804 Y78.294 E32.2855
G1 X123.199 Y74.689 E32.7128
G1 X123.199 Y75.367 E32.7697
G1 X126.804 Y78.973 E33.1971
G1 X126.804 Y79.651 E33.2540
G1 X123.198 Y76.045 E33.6814
G1 X123.198 Y76.724 E33.7382
G1 X126.804 Y80.330 E34.1657
G1 X126.804 Y81.009 E34.2226
G1 X123.198 Y77.402 E34.6501
G1 X123.197 Y78.081 E34.7069
G1 X126.804 Y81.688 E35.1345
G1 X126.804 Y82.366 E35.1914
G1 X123.197 Y78.759 E35.6189
G1 X123.197 Y79.438 E35.6758
G1 X126.804 Y83.045 E36.1034
G1 X126.804 Y83.724 E36.1603
G1 X123.196 Y80.116 E36.5880
G1 X123.196 Y80.795 E36.6449
G1 X126.805 Y84.404 E37.0727
G1 X126.805 Y85.083 E37.1296
G1 X123.195 Y81.473 E37.5574
G1 X123.195 Y82.152 E37.6143
G1 X126.805 Y85.762 E38.0422
G1 X126.806 Y86.441 E38.0992
G1 X123.195 Y82.830 E38.5272
G1 X123.194 Y83.508 E38.5840
G1 X126.806 Y87.120 E39.0121
G1 X126.806 Y87.799 E39.0691
G1 X123.194 Y84.187 E39.4972
G1 X123.194 Y84.865 E39.5541
G1 X126.807 Y88.478 E39.9824
G1 X126.807 Y89.157 E40.0393
G1 X123.193 Y85.544 E40.4676
G1 X123.193 Y86.222 E40.5245
G1 X126.807 Y89.837 E40.9529
G1 X126.807 Y90.516 E41.0098
G1 X123.192 Y86.901 E41.4383
G1 X123.192 Y87.579 E41.4952
G1 X126.808 Y91.195 E41.9238
G1 X126.808 Y91.874 E41.9807
G1 X123.192 Y88.258 E42.4094
G1 X123.191 Y88.936 E42.4663
G1 X126.808 Y92.553 E42.8950
G1 X126.809 Y93.232 E42.9519
G1 X123.191 Y89.614 E43.3808
G1 X123.191 Y90.293 E43.4376
G1 X126.809 Y93.911 E43.8665
G1 X126.809 Y94.591 E43.9234
G1 X123.190 Y90.971 E44.3524
G1 X123.190 Y91.650 E44.4093
