; G-Code generated by Simplify3D(R) Version 4.0.0
; Aug 1, 2017 at 9:06:50 PM
; Settings Summary
;   processName,Process1
;   applyToModels,M8_mount_mod,M8_mount_mod(2),M8_mount_mod(3)
;   profileName,Prusa Research Original Prusa i3 MK2 (modified)
;   profileVersion,2017-07-23 22:27:18
;   baseProfile,
;   printMaterial,PLA
;   printQuality,Fast
;   printExtruders,
;   extruderName,Primary Extruder
;   extruderToolheadNumber,0
;   extruderDiameter,0.4
;   extruderAutoWidth,1
;   extruderWidth,0.48
;   extrusionMultiplier,1
;   extruderUseRetract,1
;   extruderRetractionDistance,1.5
;   extruderExtraRestartDistance,0
;   extruderRetractionZLift,0
;   extruderRetractionSpeed,1800
;   extruderUseCoasting,1
;   extruderCoastingDistance,0.2
;   extruderUseWipe,1
;   extruderWipeDistance,2
;   primaryExtruder,0
;   layerHeight,0.2
;   topSolidLayers,4
;   bottomSolidLayers,4
;   perimeterOutlines,4
;   printPerimetersInsideOut,1
;   startPointOption,2
;   startPointOriginX,0
;   startPointOriginY,0
;   sequentialIslands,0
;   spiralVaseMode,0
;   firstLayerHeightPercentage,120
;   firstLayerWidthPercentage,100
;   firstLayerUnderspeed,0.5
;   useRaft,0
;   raftExtruder,0
;   raftTopLayers,3
;   raftBaseLayers,2
;   raftOffset,3
;   raftSeparationDistance,0.14
;   raftTopInfill,100
;   aboveRaftSpeedMultiplier,0.3
;   useSkirt,1
;   skirtExtruder,0
;   skirtLayers,1
;   skirtOutlines,1
;   skirtOffset,4
;   usePrimePillar,0
;   primePillarExtruder,999
;   primePillarWidth,12
;   primePillarLocation,7
;   primePillarSpeedMultiplier,1
;   useOozeShield,0
;   oozeShieldExtruder,999
;   oozeShieldOffset,2
;   oozeShieldOutlines,1
;   oozeShieldSidewallShape,1
;   oozeShieldSidewallAngle,30
;   oozeShieldSpeedMultiplier,1
;   infillExtruder,0
;   internalInfillPattern,Full Honeycomb
;   externalInfillPattern,Rectilinear
;   infillPercentage,25
;   outlineOverlapPercentage,20
;   infillExtrusionWidthPercentage,100
;   minInfillLength,5
;   infillLayerInterval,1
;   internalInfillAngles,0,120,-120
;   overlapInternalInfillAngles,0
;   externalInfillAngles,45,-45
;   generateSupport,0
;   supportExtruder,0
;   supportInfillPercentage,25
;   supportExtraInflation,0
;   supportBaseLayers,0
;   denseSupportExtruder,0
;   denseSupportLayers,0
;   denseSupportInfillPercentage,70
;   supportLayerInterval,1
;   supportHorizontalPartOffset,0.3
;   supportUpperSeparationLayers,1
;   supportLowerSeparationLayers,1
;   supportType,1
;   supportGridSpacing,4
;   maxOverhangAngle,45
;   supportAngles,0
;   temperatureName,Primary Extruder,Heated Bed
;   temperatureNumber,0,0
;   temperatureSetpointCount,1,1
;   temperatureSetpointLayers,1,1
;   temperatureSetpointTemperatures,210,60
;   temperatureStabilizeAtStartup,1,1
;   temperatureHeatedBed,0,1
;   temperatureRelayBetweenLayers,0,0
;   temperatureRelayBetweenLoops,0,0
;   fanLayers,1,2
;   fanSpeeds,0,100
;   blipFanToFullPower,0
;   adjustSpeedForCooling,1
;   minSpeedLayerTime,15
;   minCoolingSpeedSlowdown,20
;   increaseFanForCooling,0
;   minFanLayerTime,45
;   maxCoolingFanSpeed,100
;   increaseFanForBridging,0
;   bridgingFanSpeed,100
;   use5D,1
;   relativeEdistances,0
;   allowEaxisZeroing,1
;   independentExtruderAxes,0
;   includeM10123,0
;   stickySupport,1
;   applyToolheadOffsets,0
;   gcodeXoffset,0
;   gcodeYoffset,0
;   gcodeZoffset,0
;   overrideMachineDefinition,1
;   machineTypeOverride,0
;   strokeXoverride,250
;   strokeYoverride,210
;   strokeZoverride,200
;   originOffsetXoverride,0
;   originOffsetYoverride,0
;   originOffsetZoverride,0
;   homeXdirOverride,-1
;   homeYdirOverride,-1
;   homeZdirOverride,-1
;   flipXoverride,1
;   flipYoverride,-1
;   flipZoverride,1
;   toolheadOffsets,0,0|0,0|0,0|0,0|0,0|0,0
;   overrideFirmwareConfiguration,1
;   firmwareTypeOverride,RepRap (Marlin/Repetier/Sprinter)
;   GPXconfigOverride,r2
;   baudRateOverride,250000
;   overridePrinterModels,1
;   printerModelsOverride
;   startingGcode,M115 U3.0.7 ; use the latest firmware version,G28 W ; home all axes without mesh bed leveling,G80 ; run mesh bed leveling routine,G1 Y-3.0 F1000.0 ; prepare to prime,G92 E0 ; reset extrusion distance,G1 X60.0 E9.0  F1000.0 ; priming,G1 X100.0 E12.5  F1000.0 ; priming
;   layerChangeGcode,
;   retractionGcode,
;   toolChangeGcode,
;   endingGcode,M106 S0 ; turn off cooling fan,M104 S0 ; turn off extruder,M140 S0 ; turn off bed,G1 X0 Y200 ; part removal,M84 ; disable motors
;   exportFileFormat,gcode
;   celebration,0
;   celebrationSong,Random Song
;   postProcessing,
;   defaultSpeed,2400
;   outlineUnderspeed,0.8
;   solidInfillUnderspeed,0.8
;   supportUnderspeed,0.8
;   rapidXYspeed,4800
;   rapidZspeed,1000
;   minBridgingArea,50
;   bridgingExtraInflation,0
;   bridgingExtrusionMultiplier,1
;   bridgingSpeedMultiplier,1
;   useFixedBridgingAngle,0
;   fixedBridgingAngle,0
;   applyBridgingToPerimeters,0
;   filamentDiameters,1.75|1.75|1.75|1.75|1.75|1.75
;   filamentPricesPerKg,46|46|46|46|46|46
;   filamentDensities,1.25|1.25|1.25|1.25|1.25|1.25
;   useMinPrintHeight,1
;   minPrintHeight,0
;   useMaxPrintHeight,1
;   maxPrintHeight,235
;   useDiaphragm,0
;   diaphragmLayerInterval,20
;   robustSlicing,1
;   mergeAllIntoSolid,0
;   onlyRetractWhenCrossingOutline,1
;   retractBetweenLayers,1
;   useRetractionMinTravel,0
;   retractionMinTravel,3
;   retractWhileWiping,1
;   onlyWipeOutlines,1
;   avoidCrossingOutline,0
;   maxMovementDetourFactor,3
;   toolChangeRetractionDistance,12
;   toolChangeExtraRestartDistance,-0.5
;   toolChangeRetractionSpeed,600
;   externalThinWallType,0
;   internalThinWallType,2
;   thinWallAllowedOverlapPercentage,25
;   singleExtrusionMinLength,1
;   singleExtrusionMinPrintingWidthPercentage,50
;   singleExtrusionMaxPrintingWidthPercentage,200
;   singleExtrusionEndpointExtension,0.2
;   horizontalSizeCompensation,0
G90
M82
M106 S0
M140 S60
M190 S60
M104 S210 T0
M109 S210 T0
M115 U3.0.7 ; use the latest firmware version
G28 W ; home all axes without mesh bed leveling
G80 ; run mesh bed leveling routine
G1 Y-3.0 F1000.0 ; prepare to prime
G92 E0 ; reset extrusion distance
G1 X60.0 E9.0  F1000.0 ; priming
G1 X100.0 E12.5  F1000.0 ; priming
G92 E0
G1 E-1.5000 F1800
G1 Z0.240 F1000
; process Process1
; layer 1, Z = 0.240
T0
; tool H0.240 W0.480
; skirt
G1 X101.640 Y53.202 F4800
G1 E0.0000 F540
G92 E0
G1 X101.677 Y53.114 E0.0046 F1200
G1 X104.087 Y50.703 E0.1679
G1 X104.175 Y50.667 E0.1724
G1 X122.505 Y50.667 E1.0503
G1 X122.593 Y50.703 E1.0549
G1 X125.000 Y53.110 E1.2179
G1 X127.407 Y50.703 E1.3810
G1 X127.495 Y50.667 E1.3855
G1 X145.825 Y50.667 E2.2634
G1 X145.913 Y50.703 E2.2680
G1 X148.323 Y53.114 E2.4313
G1 X148.360 Y53.202 E2.4358
G1 X148.360 Y60.695 E2.7947
G1 X148.360 Y60.698 E2.7949
G1 X148.357 Y60.808 E2.8001
G1 X148.357 Y60.811 E2.8003
G1 X148.308 Y61.731 E2.8444
G1 X148.307 Y61.737 E2.8447
G1 X148.284 Y61.955 E2.8552
G1 X148.283 Y61.961 E2.8555
G1 X148.133 Y62.898 E2.9009
G1 X148.132 Y62.902 E2.9011
G1 X148.099 Y63.063 E2.9090
G1 X148.098 Y63.068 E2.9092
G1 X147.970 Y63.595 E2.9352
G1 X147.968 Y63.600 E2.9355
G1 X147.923 Y63.758 E2.9433
G1 X147.922 Y63.763 E2.9436
G1 X147.624 Y64.663 E2.9890
G1 X147.622 Y64.669 E2.9893
G1 X147.542 Y64.873 E2.9998
G1 X147.540 Y64.879 E3.0001
G1 X147.137 Y65.768 E3.0468
G1 X147.134 Y65.774 E3.0471
G1 X147.034 Y65.968 E3.0576
G1 X147.030 Y65.974 E3.0579
G1 X146.536 Y66.815 E3.1047
G1 X146.533 Y66.820 E3.1050
G1 X146.412 Y67.002 E3.1154
G1 X146.408 Y67.007 E3.1157
G1 X133.267 Y84.747 E4.1731
G1 X133.259 Y84.757 E4.1737
G1 X132.964 Y85.078 E4.1946
G1 X132.954 Y85.087 E4.1952
G1 X132.225 Y85.729 E4.2418
G1 X145.825 Y85.729 E4.8931
G1 X145.913 Y85.765 E4.8977
G1 X148.323 Y88.176 E5.0610
G1 X148.360 Y88.264 E5.0655
G1 X148.360 Y95.757 E5.4244
G1 X148.360 Y95.760 E5.4246
G1 X148.357 Y95.870 E5.4298
G1 X148.357 Y95.873 E5.4300
G1 X148.308 Y96.793 E5.4741
G1 X148.307 Y96.799 E5.4744
G1 X148.284 Y97.017 E5.4849
G1 X148.283 Y97.023 E5.4852
G1 X148.133 Y97.960 E5.5306
G1 X148.132 Y97.965 E5.5308
G1 X148.099 Y98.126 E5.5387
G1 X148.098 Y98.130 E5.5389
G1 X147.970 Y98.658 E5.5649
G1 X147.968 Y98.662 E5.5652
G1 X147.923 Y98.820 E5.5730
G1 X147.922 Y98.825 E5.5733
G1 X147.624 Y99.726 E5.6187
G1 X147.622 Y99.732 E5.6190
G1 X147.542 Y99.936 E5.6295
G1 X147.540 Y99.942 E5.6298
G1 X147.137 Y100.830 E5.6765
G1 X147.134 Y100.836 E5.6768
G1 X147.033 Y101.031 E5.6873
G1 X147.030 Y101.036 E5.6876
G1 X146.536 Y101.877 E5.7344
G1 X146.532 Y101.882 E5.7347
G1 X146.412 Y102.064 E5.7451
G1 X146.408 Y102.070 E5.7454
G1 X133.267 Y119.809 E6.8028
G1 X133.259 Y119.819 E6.8034
G1 X132.964 Y120.140 E6.8243
G1 X132.954 Y120.149 E6.8249
G1 X132.225 Y120.791 E6.8715
G1 X145.825 Y120.791 E7.5228
G1 X145.913 Y120.828 E7.5274
G1 X148.323 Y123.238 E7.6907
G1 X148.360 Y123.327 E7.6952
G1 X148.360 Y130.819 E8.0541
G1 X148.360 Y130.823 E8.0543
G1 X148.357 Y130.932 E8.0595
G1 X148.357 Y130.935 E8.0597
G1 X148.308 Y131.855 E8.1038
G1 X148.307 Y131.862 E8.1041
G1 X148.284 Y132.079 E8.1146
G1 X148.283 Y132.086 E8.1149
G1 X148.133 Y133.022 E8.1603
G1 X148.132 Y133.027 E8.1605
G1 X148.099 Y133.188 E8.1684
G1 X148.098 Y133.193 E8.1686
G1 X147.970 Y133.720 E8.1946
G1 X147.968 Y133.725 E8.1949
G1 X147.923 Y133.883 E8.2027
G1 X147.922 Y133.887 E8.2030
G1 X147.624 Y134.788 E8.2484
G1 X147.622 Y134.794 E8.2487
G1 X147.542 Y134.998 E8.2592
G1 X147.540 Y135.004 E8.2595
G1 X147.137 Y135.893 E8.3062
G1 X147.134 Y135.898 E8.3065
G1 X147.033 Y136.093 E8.3170
G1 X147.030 Y136.099 E8.3173
G1 X146.536 Y136.939 E8.3641
G1 X146.533 Y136.945 E8.3644
G1 X146.412 Y137.127 E8.3748
G1 X146.408 Y137.132 E8.3751
G1 X133.267 Y154.871 E9.4325
G1 X133.259 Y154.881 E9.4331
G1 X132.964 Y155.203 E9.4540
G1 X132.954 Y155.211 E9.4546
G1 X132.118 Y155.947 E9.5080
G1 X132.113 Y155.951 E9.5083
G1 X131.935 Y156.091 E9.5191
G1 X131.930 Y156.095 E9.5194
G1 X131.124 Y156.661 E9.5666
G1 X131.120 Y156.663 E9.5668
G1 X130.970 Y156.759 E9.5753
G1 X130.966 Y156.762 E9.5756
G1 X130.431 Y157.072 E9.6052
G1 X130.426 Y157.074 E9.6054
G1 X130.270 Y157.156 E9.6139
G1 X130.265 Y157.158 E9.6141
G1 X129.401 Y157.565 E9.6599
G1 X129.396 Y157.567 E9.6601
G1 X129.240 Y157.633 E9.6683
G1 X129.235 Y157.635 E9.6685
G1 X128.709 Y157.831 E9.6954
G1 X128.705 Y157.833 E9.6956
G1 X128.543 Y157.886 E9.7038
G1 X128.539 Y157.887 E9.7040
G1 X127.595 Y158.153 E9.7510
G1 X127.588 Y158.155 E9.7513
G1 X127.367 Y158.205 E9.7621
G1 X127.361 Y158.206 E9.7624
G1 X126.366 Y158.371 E9.8108
G1 X126.359 Y158.372 E9.8111
G1 X126.134 Y158.397 E9.8219
G1 X126.127 Y158.398 E9.8222
G1 X125.120 Y158.453 E9.8706
G1 X125.113 Y158.453 E9.8709
G1 X124.887 Y158.453 E9.8817
G1 X124.880 Y158.453 E9.8821
G1 X123.873 Y158.398 E9.9304
G1 X123.866 Y158.397 E9.9307
G1 X123.641 Y158.372 E9.9415
G1 X123.634 Y158.371 E9.9419
G1 X122.639 Y158.206 E9.9902
G1 X122.633 Y158.205 E9.9905
G1 X122.412 Y158.155 E10.0014
G1 X122.405 Y158.153 E10.0017
G1 X121.461 Y157.887 E10.0486
G1 X121.457 Y157.886 E10.0489
G1 X121.295 Y157.833 E10.0570
G1 X121.291 Y157.831 E10.0572
G1 X120.791 Y157.645 E10.0828
G1 X120.788 Y157.644 E10.0829
G1 X120.683 Y157.601 E10.0883
G1 X120.680 Y157.600 E10.0885
G1 X120.189 Y157.385 E10.1142
G1 X120.184 Y157.383 E10.1144
G1 X120.025 Y157.305 E10.1229
G1 X120.021 Y157.303 E10.1232
G1 X119.109 Y156.807 E10.1729
G1 X119.103 Y156.804 E10.1732
G1 X118.905 Y156.680 E10.1844
G1 X118.899 Y156.677 E10.1847
G1 X118.070 Y156.095 E10.2332
G1 X118.065 Y156.091 E10.2335
G1 X117.887 Y155.951 E10.2443
G1 X117.882 Y155.947 E10.2447
G1 X117.046 Y155.211 E10.2980
G1 X117.036 Y155.203 E10.2986
G1 X116.741 Y154.881 E10.3195
G1 X116.733 Y154.871 E10.3201
G1 X103.592 Y137.132 E11.3775
G1 X103.588 Y137.127 E11.3778
G1 X103.467 Y136.945 E11.3883
G1 X103.464 Y136.939 E11.3886
G1 X102.970 Y136.099 E11.4353
G1 X102.967 Y136.093 E11.4356
G1 X102.866 Y135.899 E11.4461
G1 X102.863 Y135.893 E11.4464
G1 X102.460 Y135.004 E11.4931
G1 X102.458 Y134.998 E11.4934
G1 X102.378 Y134.794 E11.5039
G1 X102.376 Y134.788 E11.5042
G1 X102.070 Y133.861 E11.5510
G1 X102.068 Y133.855 E11.5513
G1 X102.010 Y133.644 E11.5618
G1 X102.009 Y133.637 E11.5621
G1 X101.803 Y132.683 E11.6088
G1 X101.802 Y132.677 E11.6091
G1 X101.767 Y132.461 E11.6196
G1 X101.766 Y132.455 E11.6199
G1 X101.665 Y131.511 E11.6653
G1 X101.665 Y131.507 E11.6656
G1 X101.654 Y131.343 E11.6734
G1 X101.654 Y131.338 E11.6737
G1 X101.641 Y130.850 E11.6971
G1 X101.641 Y130.848 E11.6971
G1 X101.640 Y130.794 E11.6997
G1 X101.640 Y130.792 E11.6998
G1 X101.640 Y123.327 E12.0574
G1 X101.677 Y123.238 E12.0620
G1 X104.087 Y120.828 E12.2252
G1 X104.175 Y120.791 E12.2298
G1 X117.775 Y120.791 E12.8812
G1 X117.046 Y120.149 E12.9277
G1 X117.036 Y120.140 E12.9283
G1 X116.741 Y119.819 E12.9492
G1 X116.733 Y119.809 E12.9498
G1 X103.592 Y102.070 E14.0072
G1 X103.588 Y102.064 E14.0075
G1 X103.468 Y101.882 E14.0180
G1 X103.464 Y101.877 E14.0183
G1 X102.970 Y101.036 E14.0650
G1 X102.967 Y101.031 E14.0653
G1 X102.866 Y100.836 E14.0758
G1 X102.863 Y100.830 E14.0761
G1 X102.460 Y99.942 E14.1228
G1 X102.458 Y99.936 E14.1231
G1 X102.378 Y99.732 E14.1336
G1 X102.376 Y99.726 E14.1339
G1 X102.070 Y98.799 E14.1807
G1 X102.068 Y98.793 E14.1810
G1 X102.010 Y98.581 E14.1915
G1 X102.009 Y98.575 E14.1918
G1 X101.803 Y97.621 E14.2385
G1 X101.802 Y97.615 E14.2388
G1 X101.767 Y97.399 E14.2493
G1 X101.766 Y97.392 E14.2496
G1 X101.665 Y96.449 E14.2950
G1 X101.665 Y96.444 E14.2953
G1 X101.654 Y96.280 E14.3031
G1 X101.654 Y96.276 E14.3034
G1 X101.641 Y95.788 E14.3268
G1 X101.641 Y95.786 E14.3268
G1 X101.640 Y95.731 E14.3295
G1 X101.640 Y95.730 E14.3295
G1 X101.640 Y88.264 E14.6871
G1 X101.677 Y88.176 E14.6917
G1 X104.087 Y85.765 E14.8549
G1 X104.175 Y85.729 E14.8595
G1 X117.775 Y85.729 E15.5109
G1 X117.046 Y85.087 E15.5574
G1 X117.036 Y85.078 E15.5580
G1 X116.741 Y84.757 E15.5789
G1 X116.733 Y84.747 E15.5795
G1 X103.592 Y67.007 E16.6369
G1 X103.588 Y67.002 E16.6372
G1 X103.468 Y66.820 E16.6477
G1 X103.464 Y66.815 E16.6480
G1 X102.970 Y65.974 E16.6947
G1 X102.966 Y65.968 E16.6950
G1 X102.866 Y65.774 E16.7055
G1 X102.863 Y65.768 E16.7058
G1 X102.460 Y64.879 E16.7525
G1 X102.458 Y64.873 E16.7528
G1 X102.378 Y64.669 E16.7633
G1 X102.376 Y64.663 E16.7636
G1 X102.070 Y63.737 E16.8104
G1 X102.068 Y63.730 E16.8107
G1 X102.010 Y63.519 E16.8212
G1 X102.009 Y63.513 E16.8215
G1 X101.809 Y62.586 E16.8669
G1 X101.808 Y62.581 E16.8671
G1 X101.779 Y62.419 E16.8750
G1 X101.779 Y62.414 E16.8752
G1 X101.707 Y61.876 E16.9012
G1 X101.706 Y61.872 E16.9015
G1 X101.691 Y61.708 E16.9093
G1 X101.691 Y61.703 E16.9096
G1 X101.643 Y60.811 E16.9524
G1 X101.643 Y60.808 E16.9525
G1 X101.640 Y60.698 E16.9578
G1 X101.640 Y60.695 E16.9579
G1 X101.640 Y53.402 E17.3072
G1 X101.640 Y53.202 F1200
G92 E0
G1 E-1.5000 F1800
G1 X125.000 Y75.436 F4800
G1 E0.0000 F1800
G92 E0
G1 X124.750 Y76.360 E0.0458 F1200
G1 X124.738 Y76.389 E0.0474
G1 X124.236 Y77.249 E0.0951
G1 X124.190 Y77.385 E0.1019
G1 X124.171 Y77.526 E0.1087
G1 X124.171 Y77.693 E0.1167
G1 X124.218 Y77.868 E0.1254
G1 X124.280 Y77.995 E0.1322
G1 X124.356 Y78.109 E0.1387
G1 X124.459 Y78.211 E0.1457
G1 X124.578 Y78.302 E0.1529
G1 X124.733 Y78.367 E0.1609
G1 X124.869 Y78.403 E0.1677
G1 X124.989 Y78.411 E0.1734
G1 X125.135 Y78.402 E0.1804
G1 X125.294 Y78.360 E0.1883
G1 X125.445 Y78.285 E0.1964
G1 X125.541 Y78.211 E0.2022
G1 X125.644 Y78.109 E0.2091
G1 X125.735 Y77.972 E0.2170
G1 X125.790 Y77.837 E0.2240
G1 X125.813 Y77.751 E0.2282
G1 X125.832 Y77.608 E0.2352
G1 X125.823 Y77.471 E0.2417
G1 X125.800 Y77.356 E0.2474
G1 X125.764 Y77.249 E0.2528
G1 X125.262 Y76.389 E0.3004
G1 X125.250 Y76.360 E0.3020
G1 X125.052 Y75.629 E0.3382
G1 X125.000 Y75.436 F1200
G92 E0
G1 E-1.5000 F1800
; inner perimeter
G1 X130.880 Y74.246 F4800
G1 E0.0000 F1800
G92 E0
G1 X130.880 Y56.587 E0.8458 F1080
G1 X142.440 Y56.587 E1.3995
G1 X142.440 Y60.618 E1.5925
G1 X142.432 Y60.929 E1.6074
G1 X142.409 Y61.217 E1.6213
G1 X142.370 Y61.504 E1.6351
G1 X142.317 Y61.788 E1.6490
G1 X142.248 Y62.069 E1.6628
G1 X142.165 Y62.346 E1.6767
G1 X142.067 Y62.618 E1.6906
G1 X141.955 Y62.885 E1.7044
G1 X141.828 Y63.145 E1.7182
