; G-Code generated by Simplify3D(R) Version 4.0.0
; Aug 1, 2017 at 9:37:46 PM
; Settings Summary
;   processName,bottom
;   applyToModels,SHOVEL,SHOVEL(2),SHOVEL(3)
;   profileName,Prusa Research Original Prusa i3 MK2 (modified)
;   profileVersion,2017-07-23 22:27:18
;   baseProfile,
;   printMaterial,PLA
;   printQuality,Fast
;   printExtruders,
;   extruderName,Primary Extruder
;   extruderToolheadNumber,0
;   extruderDiameter,0.4
;   extruderAutoWidth,1
;   extruderWidth,0.48
;   extrusionMultiplier,1
;   extruderUseRetract,1
;   extruderRetractionDistance,1.5
;   extruderExtraRestartDistance,0
;   extruderRetractionZLift,0
;   extruderRetractionSpeed,1800
;   extruderUseCoasting,1
;   extruderCoastingDistance,0.2
;   extruderUseWipe,1
;   extruderWipeDistance,2
;   primaryExtruder,0
;   layerHeight,0.35
;   topSolidLayers,3
;   bottomSolidLayers,4
;   perimeterOutlines,4
;   printPerimetersInsideOut,1
;   startPointOption,2
;   startPointOriginX,0
;   startPointOriginY,0
;   sequentialIslands,0
;   spiralVaseMode,0
;   firstLayerHeightPercentage,140
;   firstLayerWidthPercentage,100
;   firstLayerUnderspeed,0.5
;   useRaft,0
;   raftExtruder,0
;   raftTopLayers,3
;   raftBaseLayers,2
;   raftOffset,3
;   raftSeparationDistance,0.14
;   raftTopInfill,100
;   aboveRaftSpeedMultiplier,0.3
;   useSkirt,1
;   skirtExtruder,0
;   skirtLayers,1
;   skirtOutlines,1
;   skirtOffset,4
;   usePrimePillar,0
;   primePillarExtruder,999
;   primePillarWidth,12
;   primePillarLocation,7
;   primePillarSpeedMultiplier,1
;   useOozeShield,0
;   oozeShieldExtruder,999
;   oozeShieldOffset,2
;   oozeShieldOutlines,1
;   oozeShieldSidewallShape,1
;   oozeShieldSidewallAngle,30
;   oozeShieldSpeedMultiplier,1
;   infillExtruder,0
;   internalInfillPattern,Rectilinear
;   externalInfillPattern,Rectilinear
;   infillPercentage,15
;   outlineOverlapPercentage,20
;   infillExtrusionWidthPercentage,100
;   minInfillLength,5
;   infillLayerInterval,1
;   internalInfillAngles,45,-45
;   overlapInternalInfillAngles,0
;   externalInfillAngles,45,-45
;   generateSupport,1
;   supportExtruder,0
;   supportInfillPercentage,25
;   supportExtraInflation,0
;   supportBaseLayers,0
;   denseSupportExtruder,0
;   denseSupportLayers,0
;   denseSupportInfillPercentage,70
;   supportLayerInterval,1
;   supportHorizontalPartOffset,0.3
;   supportUpperSeparationLayers,1
;   supportLowerSeparationLayers,1
;   supportType,1
;   supportGridSpacing,4
;   maxOverhangAngle,45
;   supportAngles,0
;   temperatureName,Primary Extruder,Heated Bed
;   temperatureNumber,0,0
;   temperatureSetpointCount,1,1
;   temperatureSetpointLayers,1,1
;   temperatureSetpointTemperatures,210,60
;   temperatureStabilizeAtStartup,1,1
;   temperatureHeatedBed,0,1
;   temperatureRelayBetweenLayers,0,0
;   temperatureRelayBetweenLoops,0,0
;   fanLayers,1,2
;   fanSpeeds,0,100
;   blipFanToFullPower,0
;   adjustSpeedForCooling,1
;   minSpeedLayerTime,15
;   minCoolingSpeedSlowdown,20
;   increaseFanForCooling,0
;   minFanLayerTime,45
;   maxCoolingFanSpeed,100
;   increaseFanForBridging,0
;   bridgingFanSpeed,100
;   use5D,1
;   relativeEdistances,0
;   allowEaxisZeroing,1
;   independentExtruderAxes,0
;   includeM10123,0
;   stickySupport,1
;   applyToolheadOffsets,0
;   gcodeXoffset,0
;   gcodeYoffset,0
;   gcodeZoffset,0
;   overrideMachineDefinition,1
;   machineTypeOverride,0
;   strokeXoverride,250
;   strokeYoverride,210
;   strokeZoverride,200
;   originOffsetXoverride,0
;   originOffsetYoverride,0
;   originOffsetZoverride,0
;   homeXdirOverride,-1
;   homeYdirOverride,-1
;   homeZdirOverride,-1
;   flipXoverride,1
;   flipYoverride,-1
;   flipZoverride,1
;   toolheadOffsets,0,0|0,0|0,0|0,0|0,0|0,0
;   overrideFirmwareConfiguration,1
;   firmwareTypeOverride,RepRap (Marlin/Repetier/Sprinter)
;   GPXconfigOverride,r2
;   baudRateOverride,250000
;   overridePrinterModels,1
;   printerModelsOverride
;   startingGcode,M115 U3.0.7 ; use the latest firmware version,G28 W ; home all axes without mesh bed leveling,G80 ; run mesh bed leveling routine,G1 Y-3.0 F1000.0 ; prepare to prime,G92 E0 ; reset extrusion distance,G1 X60.0 E9.0  F1000.0 ; priming,G1 X100.0 E12.5  F1000.0 ; priming
;   layerChangeGcode,
;   retractionGcode,
;   toolChangeGcode,
;   endingGcode,M106 S0 ; turn off cooling fan,M104 S0 ; turn off extruder,M140 S0 ; turn off bed,G1 X0 Y200 ; part removal,M84 ; disable motors
;   exportFileFormat,gcode
;   celebration,0
;   celebrationSong,Random Song
;   postProcessing,
;   defaultSpeed,2400
;   outlineUnderspeed,0.8
;   solidInfillUnderspeed,0.8
;   supportUnderspeed,0.8
;   rapidXYspeed,4800
;   rapidZspeed,1000
;   minBridgingArea,50
;   bridgingExtraInflation,0
;   bridgingExtrusionMultiplier,1
;   bridgingSpeedMultiplier,1
;   useFixedBridgingAngle,0
;   fixedBridgingAngle,0
;   applyBridgingToPerimeters,0
;   filamentDiameters,1.75|1.75|1.75|1.75|1.75|1.75
;   filamentPricesPerKg,46|46|46|46|46|46
;   filamentDensities,1.25|1.25|1.25|1.25|1.25|1.25
;   useMinPrintHeight,1
;   minPrintHeight,0
;   useMaxPrintHeight,1
;   maxPrintHeight,9.6
;   useDiaphragm,0
;   diaphragmLayerInterval,20
;   robustSlicing,1
;   mergeAllIntoSolid,0
;   onlyRetractWhenCrossingOutline,1
;   retractBetweenLayers,1
;   useRetractionMinTravel,0
;   retractionMinTravel,3
;   retractWhileWiping,1
;   onlyWipeOutlines,1
;   avoidCrossingOutline,0
;   maxMovementDetourFactor,3
;   toolChangeRetractionDistance,12
;   toolChangeExtraRestartDistance,-0.5
;   toolChangeRetractionSpeed,600
;   externalThinWallType,0
;   internalThinWallType,2
;   thinWallAllowedOverlapPercentage,25
;   singleExtrusionMinLength,1
;   singleExtrusionMinPrintingWidthPercentage,50
;   singleExtrusionMaxPrintingWidthPercentage,200
;   singleExtrusionEndpointExtension,0.2
;   horizontalSizeCompensation,0
G90
M82
M106 S0
M140 S60
M190 S60
M104 S210 T0
M109 S210 T0
M115 U3.0.7 ; use the latest firmware version
G28 W ; home all axes without mesh bed leveling
G80 ; run mesh bed leveling routine
G1 Y-3.0 F1000.0 ; prepare to prime
G92 E0 ; reset extrusion distance
G1 X60.0 E9.0  F1000.0 ; priming
G1 X100.0 E12.5  F1000.0 ; priming
G92 E0
G1 E-1.5000 F1800
G1 Z0.490 F1000
; process bottom
; layer 1, Z = 0.490
T0
; tool H0.490 W0.480
; skirt
G1 X117.056 Y-1.715 F4800
G1 E0.0000 F540
G92 E0
G1 X117.091 Y-1.803 E0.0092 F1200
G1 X119.441 Y-4.217 E0.3386
G1 X119.527 Y-4.254 E0.3479
G1 X123.699 Y-4.346 E0.7559
G1 X123.788 Y-4.312 E0.7652
G1 X126.251 Y-1.955 E1.0986
G1 X126.290 Y-1.867 E1.1079
G1 X126.502 Y7.717 E2.0454
G1 X127.238 Y41.232 E5.3234
G1 X127.238 Y41.235 E5.3236
G1 X130.444 Y194.394 E20.3035
G1 X131.443 Y195.174 E20.4274
G1 X131.487 Y195.244 E20.4355
G1 X132.363 Y199.109 E20.8231
G1 X132.366 Y199.121 E20.8243
G1 X132.416 Y199.532 E20.8647
G1 X132.417 Y199.544 E20.8659
G1 X132.680 Y211.453 E22.0307
G1 X132.645 Y211.542 E22.0400
G1 X130.289 Y214.005 E22.3734
G1 X130.201 Y214.043 E22.3827
G1 X121.719 Y214.231 E23.2124
G1 X121.630 Y214.196 E23.2217
G1 X119.166 Y211.839 E23.5551
G1 X119.128 Y211.752 E23.5644
G1 X118.865 Y199.843 E24.7292
G1 X118.865 Y199.831 E24.7304
G1 X118.898 Y199.418 E24.7709
G1 X118.899 Y199.406 E24.7721
G1 X119.604 Y195.507 E25.1596
G1 X119.645 Y195.435 E25.1677
G1 X120.263 Y194.906 E25.2472
G1 X119.664 Y161.909 E28.4744
G1 X119.664 Y161.907 E28.4746
G1 X118.609 Y100.009 E34.5281
G1 X117.415 Y27.137 E41.6547
G1 X117.415 Y27.131 E41.6553
G1 X117.221 Y12.522 E43.0839
G1 X117.102 Y7.125 E43.6118
G1 X117.101 Y7.089 E43.6152
G1 X117.057 Y-1.520 E44.4569
G1 X117.056 Y-1.715 F1200
G1 X146.705 Y-1.715 F4800
G92 E0
G1 X146.741 Y-1.803 E0.0092 F1200
G1 X149.090 Y-4.217 E0.3386
G1 X149.177 Y-4.254 E0.3479
G1 X153.348 Y-4.346 E0.7559
G1 X153.437 Y-4.312 E0.7652
G1 X155.901 Y-1.955 E1.0986
G1 X155.939 Y-1.867 E1.1079
G1 X156.151 Y7.717 E2.0454
G1 X156.888 Y41.232 E5.3234
G1 X156.888 Y41.235 E5.3236
G1 X160.093 Y194.394 E20.3035
G1 X161.092 Y195.174 E20.4274
G1 X161.136 Y195.244 E20.4355
G1 X162.013 Y199.109 E20.8231
G1 X162.015 Y199.121 E20.8243
G1 X162.065 Y199.532 E20.8647
G1 X162.066 Y199.544 E20.8659
G1 X162.329 Y211.453 E22.0307
G1 X162.295 Y211.542 E22.0400
G1 X159.938 Y214.005 E22.3734
G1 X159.850 Y214.043 E22.3827
G1 X151.368 Y214.231 E23.2124
G1 X151.279 Y214.196 E23.2217
G1 X148.815 Y211.839 E23.5551
G1 X148.777 Y211.752 E23.5644
G1 X148.514 Y199.843 E24.7292
G1 X148.514 Y199.831 E24.7304
G1 X148.547 Y199.418 E24.7709
G1 X148.548 Y199.406 E24.7721
G1 X149.253 Y195.507 E25.1596
G1 X149.294 Y195.435 E25.1677
G1 X149.912 Y194.906 E25.2472
G1 X149.314 Y161.910 E28.4743
G1 X149.313 Y161.907 E28.4745
G1 X148.258 Y100.009 E34.5280
G1 X147.064 Y27.137 E41.6546
G1 X147.064 Y27.131 E41.6552
G1 X146.870 Y12.522 E43.0838
G1 X146.751 Y7.125 E43.6117
G1 X146.750 Y7.089 E43.6151
G1 X146.706 Y-1.521 E44.4569
G1 X146.705 Y-1.715 F1200
G1 X176.354 Y-1.715 F4800
G92 E0
G1 X176.390 Y-1.803 E0.0092 F1200
G1 X178.739 Y-4.217 E0.3386
G1 X178.826 Y-4.254 E0.3479
G1 X182.998 Y-4.346 E0.7559
G1 X183.087 Y-4.312 E0.7652
G1 X185.550 Y-1.955 E1.0986
G1 X185.588 Y-1.867 E1.1079
G1 X185.800 Y7.717 E2.0454
G1 X186.537 Y41.232 E5.3234
G1 X186.537 Y41.235 E5.3236
G1 X189.742 Y194.394 E20.3035
G1 X190.741 Y195.174 E20.4274
G1 X190.786 Y195.244 E20.4355
G1 X191.662 Y199.109 E20.8231
G1 X191.664 Y199.121 E20.8243
G1 X191.714 Y199.532 E20.8647
G1 X191.715 Y199.544 E20.8659
G1 X191.978 Y211.453 E22.0307
G1 X191.944 Y211.542 E22.0400
G1 X189.587 Y214.005 E22.3734
G1 X189.500 Y214.043 E22.3827
G1 X181.017 Y214.231 E23.2124
G1 X180.928 Y214.196 E23.2217
G1 X178.465 Y211.839 E23.5551
G1 X178.426 Y211.752 E23.5644
G1 X178.163 Y199.843 E24.7292
G1 X178.164 Y199.831 E24.7304
G1 X178.196 Y199.418 E24.7709
G1 X178.197 Y199.406 E24.7721
G1 X178.902 Y195.507 E25.1596
G1 X178.944 Y195.435 E25.1677
G1 X179.562 Y194.906 E25.2472
G1 X178.963 Y161.909 E28.4744
G1 X178.963 Y161.907 E28.4746
G1 X177.908 Y100.009 E34.5281
G1 X176.713 Y27.137 E41.6547
G1 X176.713 Y27.131 E41.6553
G1 X176.519 Y12.522 E43.0839
G1 X176.400 Y7.125 E43.6118
G1 X176.399 Y7.089 E43.6152
G1 X176.355 Y-1.520 E44.4569
G1 X176.354 Y-1.715 F1200
G92 E0
G1 E-1.5000 F1800
; inner perimeter
G1 X184.223 Y199.353 F4800
G1 E0.0000 F1800
G92 E0
G1 X185.640 Y199.322 E0.1386 F1080
G1 X185.805 Y200.051 E0.2117
G1 X185.985 Y208.199 E1.0087
G1 X184.270 Y208.237 E1.1764
G1 X184.090 Y200.089 E1.9734
G1 X184.188 Y199.549 E2.0270
G1 X184.223 Y199.353 F1080
G1 X184.395 Y198.869 F4800
G92 E0
G1 X186.021 Y198.833 E0.1590 F1080
G1 X186.284 Y199.992 E0.2752
G1 X186.476 Y208.669 E1.1239
G1 X183.801 Y208.728 E1.3855
G1 X183.609 Y200.051 E2.2342
G1 X183.820 Y198.881 E2.3504
G1 X184.196 Y198.873 E2.3871
G1 X184.395 Y198.868 F1080
G1 X184.865 Y198.378 F4800
G92 E0
G1 X186.403 Y198.345 E0.1504 F1080
G1 X186.763 Y199.933 E0.3096
G1 X186.966 Y209.138 E1.2100
G1 X183.331 Y209.218 E1.5654
G1 X183.128 Y200.013 E2.4658
G1 X183.418 Y198.410 E2.6251
G1 X184.666 Y198.382 E2.7472
G1 X184.865 Y198.377 F1080
; outer perimeter
G1 X185.335 Y197.888 F4800
G92 E0
G1 X186.784 Y197.856 E0.1418 F960
G1 X187.242 Y199.874 E0.3441
G1 X187.457 Y209.607 E1.2961
G1 X182.862 Y209.709 E1.7454
G1 X182.647 Y199.975 E2.6975
G1 X183.015 Y197.939 E2.8998
G1 X184.097 Y197.915 E3.0056
G1 X183.817 Y183.070 E4.4574
G1 X183.442 Y161.829 E6.5348
G1 X182.387 Y99.934 E12.5881
G1 X181.193 Y27.067 E19.7143
G1 X181.078 Y19.373 E20.4667
G1 X180.998 Y12.443 E21.1444
G1 X180.879 Y7.046 E21.6723
G1 X180.844 Y0.182 E22.3435
G1 X181.152 Y0.176 E22.3736
G1 X181.321 Y7.815 E23.1208
G1 X182.058 Y41.329 E26.3988
G1 X182.388 Y58.047 E28.0339
G1 X183.113 Y91.896 E31.3446
G1 X183.423 Y107.510 E32.8717
G1 X184.171 Y142.411 E36.2853
G1 X184.946 Y180.112 E39.9725
G1 X185.330 Y197.688 E41.6917
G1 X185.335 Y197.888 F960
G1 X186.784 Y197.856 F2400
G1 X186.906 Y198.393 F2400
; gap fill
G1 X184.708 Y197.992 F4800
G92 E0
G1 X184.483 Y197.767 E0.0311 F960
G1 X184.470 Y197.075 E0.0988
G1 X184.938 Y197.543 E0.1635
G1 X184.923 Y196.849 E0.2314
G1 X184.457 Y196.383 E0.2958
G1 X184.444 Y195.692 E0.3635
G1 X184.908 Y196.155 E0.4276
G1 X184.893 Y195.461 E0.4955
G1 X184.431 Y195.000 E0.5593
G1 X184.418 Y194.308 E0.6270
G1 X184.877 Y194.767 E0.6905
G1 X184.862 Y194.073 E0.7584
G1 X184.405 Y193.616 E0.8216
G1 X184.392 Y192.924 E0.8893
G1 X184.847 Y193.379 E0.9522
G1 X184.832 Y192.685 E1.0201
G1 X184.379 Y192.232 E1.0827
G1 X184.366 Y191.540 E1.1504
G1 X184.817 Y191.991 E1.2127
G1 X184.801 Y191.297 E1.2806
G1 X184.353 Y190.849 E1.3427
G1 X184.340 Y190.157 E1.4103
G1 X184.786 Y190.603 E1.4721
G1 X184.771 Y189.909 E1.5400
G1 X184.327 Y189.465 E1.6014
G1 X184.314 Y188.773 E1.6691
G1 X184.756 Y189.215 E1.7302
G1 X184.741 Y188.521 E1.7981
G1 X184.301 Y188.081 E1.8590
G1 X184.288 Y187.389 E1.9266
G1 X184.726 Y187.827 E1.9872
G1 X184.710 Y187.133 E2.0551
G1 X184.275 Y186.697 E2.1153
G1 X184.262 Y186.006 E2.1830
G1 X184.695 Y186.439 E2.2430
G1 X184.680 Y185.745 E2.3108
G1 X184.249 Y185.314 E2.3705
G1 X184.235 Y184.622 E2.4382
G1 X184.665 Y185.051 E2.4975
G1 X184.650 Y184.357 E2.5654
G1 X184.222 Y183.930 E2.6245
G1 X184.209 Y183.238 E2.6922
G1 X184.634 Y183.663 E2.7509
G1 X184.619 Y182.969 E2.8188
G1 X184.197 Y182.547 E2.8772
G1 X184.185 Y181.856 E2.9448
G1 X184.604 Y182.275 E3.0028
G1 X184.589 Y181.581 E3.0706
G1 X184.173 Y181.165 E3.1282
G1 X184.160 Y180.474 E3.1958
G1 X184.574 Y180.887 E3.2530
G1 X184.558 Y180.193 E3.3208
G1 X184.148 Y179.783 E3.3776
G1 X184.136 Y179.092 E3.4452
G1 X184.544 Y179.500 E3.5016
G1 X184.530 Y178.807 E3.5694
G1 X184.124 Y178.401 E3.6256
G1 X184.112 Y177.710 E3.6932
G1 X184.516 Y178.114 E3.7490
G1 X184.501 Y177.421 E3.8168
G1 X184.099 Y177.019 E3.8724
G1 X184.087 Y176.328 E3.9400
G1 X184.487 Y176.728 E3.9954
G1 X184.473 Y176.035 E4.0631
G1 X184.075 Y175.636 E4.1182
G1 X184.063 Y174.945 E4.1858
G1 X184.459 Y175.341 E4.2405
G1 X184.444 Y174.648 E4.3083
G1 X184.050 Y174.254 E4.3628
G1 X184.038 Y173.563 E4.4304
G1 X184.430 Y173.955 E4.4846
G1 X184.416 Y173.262 E4.5524
G1 X184.026 Y172.872 E4.6063
G1 X184.014 Y172.181 E4.6739
G1 X184.402 Y172.569 E4.7275
G1 X184.387 Y171.876 E4.7953
G1 X184.002 Y171.490 E4.8487
G1 X183.989 Y170.799 E4.9163
G1 X184.373 Y171.183 E4.9694
G1 X184.359 Y170.490 E5.0371
G1 X183.977 Y170.108 E5.0899
G1 X183.965 Y169.417 E5.1575
G1 X184.345 Y169.797 E5.2101
G1 X184.330 Y169.104 E5.2778
G1 X183.953 Y168.726 E5.3301
G1 X183.941 Y168.035 E5.3977
G1 X184.316 Y168.411 E5.4496
G1 X184.302 Y167.718 E5.5174
G1 X183.928 Y167.344 E5.5691
G1 X183.916 Y166.653 E5.6367
G1 X184.288 Y167.025 E5.6881
G1 X184.274 Y166.332 E5.7559
G1 X183.904 Y165.962 E5.8070
G1 X183.892 Y165.271 E5.8746
G1 X184.259 Y165.639 E5.9254
G1 X184.245 Y164.945 E5.9932
G1 X183.879 Y164.580 E6.0437
G1 X183.867 Y163.889 E6.1113
G1 X184.231 Y164.252 E6.1616
G1 X184.217 Y163.559 E6.2294
G1 X183.855 Y163.198 E6.2794
G1 X183.843 Y162.507 E6.3470
G1 X184.202 Y162.866 E6.3967
G1 X184.188 Y162.173 E6.4645
G1 X183.831 Y161.816 E6.5139
G1 X183.819 Y161.125 E6.5814
G1 X184.174 Y161.480 E6.6305
G1 X184.160 Y160.787 E6.6983
G1 X183.807 Y160.435 E6.7471
G1 X183.795 Y159.744 E6.8146
G1 X184.145 Y160.094 E6.8630
G1 X184.131 Y159.401 E6.9308
G1 X183.783 Y159.053 E6.9789
G1 X183.772 Y158.363 E7.0464
G1 X184.117 Y158.708 E7.0941
G1 X184.103 Y158.015 E7.1619
G1 X183.760 Y157.672 E7.2093
G1 X183.748 Y156.982 E7.2768
G1 X184.088 Y157.322 E7.3239
G1 X184.074 Y156.629 E7.3917
G1 X183.736 Y156.291 E7.4384
G1 X183.725 Y155.600 E7.5059
G1 X184.060 Y155.936 E7.5523
G1 X184.046 Y155.243 E7.6201
G1 X183.713 Y154.910 E7.6661
G1 X183.701 Y154.219 E7.7336
G1 X184.031 Y154.549 E7.7793
G1 X184.017 Y153.856 E7.8471
G1 X183.689 Y153.529 E7.8924
G1 X183.678 Y152.838 E7.9599
G1 X184.003 Y153.163 E8.0049
G1 X183.989 Y152.470 E8.0727
G1 X183.666 Y152.147 E8.1174
G1 X183.654 Y151.457 E8.1849
G1 X183.974 Y151.777 E8.2292
G1 X183.960 Y151.084 E8.2970
G1 X183.642 Y150.766 E8.3410
G1 X183.630 Y150.076 E8.4085
G1 X183.946 Y150.391 E8.4521
G1 X183.932 Y149.698 E8.5199
G1 X183.619 Y149.385 E8.5632
G1 X183.607 Y148.694 E8.6307
G1 X183.917 Y149.005 E8.6737
G1 X183.903 Y148.312 E8.7414
G1 X183.595 Y148.004 E8.7840
