; G-Code generated by Simplify3D(R) Version 4.0.0
; Aug 1, 2017 at 9:10:57 PM
; Settings Summary
;   processName,bottom
;   applyToModels,SHOVEL
;   profileName,Prusa Research Original Prusa i3 MK2 (modified)
;   profileVersion,2017-07-23 22:27:18
;   baseProfile,
;   printMaterial,PLA
;   printQuality,Fast
;   printExtruders,
;   extruderName,Primary Extruder
;   extruderToolheadNumber,0
;   extruderDiameter,0.4
;   extruderAutoWidth,1
;   extruderWidth,0.48
;   extrusionMultiplier,1
;   extruderUseRetract,1
;   extruderRetractionDistance,1.5
;   extruderExtraRestartDistance,0
;   extruderRetractionZLift,0
;   extruderRetractionSpeed,1800
;   extruderUseCoasting,1
;   extruderCoastingDistance,0.2
;   extruderUseWipe,1
;   extruderWipeDistance,2
;   primaryExtruder,0
;   layerHeight,0.35
;   topSolidLayers,3
;   bottomSolidLayers,4
;   perimeterOutlines,4
;   printPerimetersInsideOut,1
;   startPointOption,2
;   startPointOriginX,0
;   startPointOriginY,0
;   sequentialIslands,0
;   spiralVaseMode,0
;   firstLayerHeightPercentage,140
;   firstLayerWidthPercentage,100
;   firstLayerUnderspeed,0.5
;   useRaft,0
;   raftExtruder,0
;   raftTopLayers,3
;   raftBaseLayers,2
;   raftOffset,3
;   raftSeparationDistance,0.14
;   raftTopInfill,100
;   aboveRaftSpeedMultiplier,0.3
;   useSkirt,1
;   skirtExtruder,0
;   skirtLayers,1
;   skirtOutlines,1
;   skirtOffset,4
;   usePrimePillar,0
;   primePillarExtruder,999
;   primePillarWidth,12
;   primePillarLocation,7
;   primePillarSpeedMultiplier,1
;   useOozeShield,0
;   oozeShieldExtruder,999
;   oozeShieldOffset,2
;   oozeShieldOutlines,1
;   oozeShieldSidewallShape,1
;   oozeShieldSidewallAngle,30
;   oozeShieldSpeedMultiplier,1
;   infillExtruder,0
;   internalInfillPattern,Rectilinear
;   externalInfillPattern,Rectilinear
;   infillPercentage,15
;   outlineOverlapPercentage,20
;   infillExtrusionWidthPercentage,100
;   minInfillLength,5
;   infillLayerInterval,1
;   internalInfillAngles,45,-45
;   overlapInternalInfillAngles,0
;   externalInfillAngles,45,-45
;   generateSupport,1
;   supportExtruder,0
;   supportInfillPercentage,25
;   supportExtraInflation,0
;   supportBaseLayers,0
;   denseSupportExtruder,0
;   denseSupportLayers,0
;   denseSupportInfillPercentage,70
;   supportLayerInterval,1
;   supportHorizontalPartOffset,0.3
;   supportUpperSeparationLayers,1
;   supportLowerSeparationLayers,1
;   supportType,1
;   supportGridSpacing,4
;   maxOverhangAngle,45
;   supportAngles,0
;   temperatureName,Primary Extruder,Heated Bed
;   temperatureNumber,0,0
;   temperatureSetpointCount,1,1
;   temperatureSetpointLayers,1,1
;   temperatureSetpointTemperatures,210,60
;   temperatureStabilizeAtStartup,1,1
;   temperatureHeatedBed,0,1
;   temperatureRelayBetweenLayers,0,0
;   temperatureRelayBetweenLoops,0,0
;   fanLayers,1,2
;   fanSpeeds,0,100
;   blipFanToFullPower,0
;   adjustSpeedForCooling,1
;   minSpeedLayerTime,15
;   minCoolingSpeedSlowdown,20
;   increaseFanForCooling,0
;   minFanLayerTime,45
;   maxCoolingFanSpeed,100
;   increaseFanForBridging,0
;   bridgingFanSpeed,100
;   use5D,1
;   relativeEdistances,0
;   allowEaxisZeroing,1
;   independentExtruderAxes,0
;   includeM10123,0
;   stickySupport,1
;   applyToolheadOffsets,0
;   gcodeXoffset,0
;   gcodeYoffset,0
;   gcodeZoffset,0
;   overrideMachineDefinition,1
;   machineTypeOverride,0
;   strokeXoverride,250
;   strokeYoverride,210
;   strokeZoverride,200
;   originOffsetXoverride,0
;   originOffsetYoverride,0
;   originOffsetZoverride,0
;   homeXdirOverride,-1
;   homeYdirOverride,-1
;   homeZdirOverride,-1
;   flipXoverride,1
;   flipYoverride,-1
;   flipZoverride,1
;   toolheadOffsets,0,0|0,0|0,0|0,0|0,0|0,0
;   overrideFirmwareConfiguration,1
;   firmwareTypeOverride,RepRap (Marlin/Repetier/Sprinter)
;   GPXconfigOverride,r2
;   baudRateOverride,250000
;   overridePrinterModels,1
;   printerModelsOverride
;   startingGcode,M115 U3.0.7 ; use the latest firmware version,G28 W ; home all axes without mesh bed leveling,G80 ; run mesh bed leveling routine,G1 Y-3.0 F1000.0 ; prepare to prime,G92 E0 ; reset extrusion distance,G1 X60.0 E9.0  F1000.0 ; priming,G1 X100.0 E12.5  F1000.0 ; priming
;   layerChangeGcode,
;   retractionGcode,
;   toolChangeGcode,
;   endingGcode,M106 S0 ; turn off cooling fan,M104 S0 ; turn off extruder,M140 S0 ; turn off bed,G1 X0 Y200 ; part removal,M84 ; disable motors
;   exportFileFormat,gcode
;   celebration,0
;   celebrationSong,Random Song
;   postProcessing,
;   defaultSpeed,2400
;   outlineUnderspeed,0.8
;   solidInfillUnderspeed,0.8
;   supportUnderspeed,0.8
;   rapidXYspeed,4800
;   rapidZspeed,1000
;   minBridgingArea,50
;   bridgingExtraInflation,0
;   bridgingExtrusionMultiplier,1
;   bridgingSpeedMultiplier,1
;   useFixedBridgingAngle,0
;   fixedBridgingAngle,0
;   applyBridgingToPerimeters,0
;   filamentDiameters,1.75|1.75|1.75|1.75|1.75|1.75
;   filamentPricesPerKg,46|46|46|46|46|46
;   filamentDensities,1.25|1.25|1.25|1.25|1.25|1.25
;   useMinPrintHeight,1
;   minPrintHeight,0
;   useMaxPrintHeight,1
;   maxPrintHeight,9.6
;   useDiaphragm,0
;   diaphragmLayerInterval,20
;   robustSlicing,1
;   mergeAllIntoSolid,0
;   onlyRetractWhenCrossingOutline,1
;   retractBetweenLayers,1
;   useRetractionMinTravel,0
;   retractionMinTravel,3
;   retractWhileWiping,1
;   onlyWipeOutlines,1
;   avoidCrossingOutline,0
;   maxMovementDetourFactor,3
;   toolChangeRetractionDistance,12
;   toolChangeExtraRestartDistance,-0.5
;   toolChangeRetractionSpeed,600
;   externalThinWallType,0
;   internalThinWallType,2
;   thinWallAllowedOverlapPercentage,25
;   singleExtrusionMinLength,1
;   singleExtrusionMinPrintingWidthPercentage,50
;   singleExtrusionMaxPrintingWidthPercentage,200
;   singleExtrusionEndpointExtension,0.2
;   horizontalSizeCompensation,0
G90
M82
M106 S0
M140 S60
M190 S60
M104 S210 T0
M109 S210 T0
M115 U3.0.7 ; use the latest firmware version
G28 W ; home all axes without mesh bed leveling
G80 ; run mesh bed leveling routine
G1 Y-3.0 F1000.0 ; prepare to prime
G92 E0 ; reset extrusion distance
G1 X60.0 E9.0  F1000.0 ; priming
G1 X100.0 E12.5  F1000.0 ; priming
G92 E0
G1 E-1.5000 F1800
G1 Z0.490 F1000
; process bottom
; layer 1, Z = 0.490
T0
; tool H0.490 W0.480
; skirt
G1 X117.056 Y-1.715 F4800
G1 E0.0000 F540
G92 E0
G1 X117.091 Y-1.803 E0.0092 F1200
G1 X119.441 Y-4.217 E0.3386
G1 X119.527 Y-4.254 E0.3479
G1 X123.699 Y-4.346 E0.7559
G1 X123.788 Y-4.312 E0.7652
G1 X126.251 Y-1.955 E1.0986
G1 X126.290 Y-1.867 E1.1079
G1 X126.502 Y7.717 E2.0454
G1 X127.238 Y41.232 E5.3234
G1 X127.238 Y41.235 E5.3236
G1 X130.444 Y194.394 E20.3035
G1 X131.443 Y195.174 E20.4274
G1 X131.487 Y195.244 E20.4355
G1 X132.363 Y199.109 E20.8231
G1 X132.366 Y199.121 E20.8243
G1 X132.416 Y199.532 E20.8647
G1 X132.417 Y199.544 E20.8659
G1 X132.680 Y211.453 E22.0307
G1 X132.645 Y211.542 E22.0400
G1 X130.289 Y214.005 E22.3734
G1 X130.201 Y214.043 E22.3827
G1 X121.719 Y214.231 E23.2124
G1 X121.630 Y214.196 E23.2217
G1 X119.166 Y211.839 E23.5551
G1 X119.128 Y211.752 E23.5644
G1 X118.865 Y199.843 E24.7292
G1 X118.865 Y199.831 E24.7304
G1 X118.898 Y199.418 E24.7709
G1 X118.899 Y199.406 E24.7721
G1 X119.604 Y195.507 E25.1596
G1 X119.645 Y195.435 E25.1677
G1 X120.263 Y194.906 E25.2472
G1 X119.664 Y161.909 E28.4744
G1 X119.664 Y161.907 E28.4746
G1 X118.609 Y100.009 E34.5281
G1 X117.415 Y27.137 E41.6547
G1 X117.415 Y27.131 E41.6553
G1 X117.221 Y12.522 E43.0839
G1 X117.102 Y7.125 E43.6118
G1 X117.101 Y7.089 E43.6152
G1 X117.057 Y-1.520 E44.4569
G1 X117.056 Y-1.715 F1200
G92 E0
G1 E-1.5000 F1800
; inner perimeter
G1 X124.925 Y199.353 F4800
G1 E0.0000 F1800
G92 E0
G1 X126.341 Y199.322 E0.1386 F1080
G1 X126.507 Y200.051 E0.2117
G1 X126.687 Y208.199 E1.0087
G1 X124.972 Y208.237 E1.1764
G1 X124.792 Y200.089 E1.9734
G1 X124.889 Y199.549 E2.0270
G1 X124.925 Y199.353 F1080
G1 X125.097 Y198.869 F4800
G92 E0
G1 X126.723 Y198.833 E0.1590 F1080
G1 X126.986 Y199.992 E0.2752
G1 X127.177 Y208.669 E1.1239
G1 X124.502 Y208.728 E1.3855
G1 X124.311 Y200.051 E2.2342
G1 X124.522 Y198.881 E2.3504
G1 X124.898 Y198.873 E2.3871
G1 X125.097 Y198.868 F1080
G1 X125.567 Y198.378 F4800
G92 E0
G1 X127.104 Y198.345 E0.1504 F1080
G1 X127.464 Y199.933 E0.3096
G1 X127.668 Y209.138 E1.2100
G1 X124.033 Y209.218 E1.5654
G1 X123.830 Y200.013 E2.4658
G1 X124.119 Y198.410 E2.6251
G1 X125.368 Y198.382 E2.7472
G1 X125.567 Y198.377 F1080
; outer perimeter
G1 X126.036 Y197.888 F4800
G92 E0
G1 X127.486 Y197.856 E0.1418 F960
G1 X127.943 Y199.874 E0.3441
G1 X128.158 Y209.607 E1.2961
G1 X123.564 Y209.709 E1.7454
G1 X123.349 Y199.975 E2.6975
G1 X123.717 Y197.939 E2.8998
G1 X124.799 Y197.915 E3.0056
G1 X124.519 Y183.070 E4.4574
G1 X124.144 Y161.829 E6.5348
G1 X123.089 Y99.934 E12.5881
G1 X121.894 Y27.067 E19.7143
G1 X121.779 Y19.373 E20.4667
G1 X121.700 Y12.443 E21.1444
G1 X121.581 Y7.046 E21.6723
G1 X121.546 Y0.182 E22.3435
G1 X121.854 Y0.176 E22.3736
G1 X122.023 Y7.815 E23.1208
G1 X122.759 Y41.329 E26.3988
G1 X123.090 Y58.047 E28.0339
G1 X123.815 Y91.896 E31.3446
G1 X124.125 Y107.510 E32.8717
G1 X124.872 Y142.411 E36.2853
G1 X125.647 Y180.112 E39.9725
G1 X126.032 Y197.688 E41.6917
G1 X126.036 Y197.888 F960
G1 X127.486 Y197.856 F2400
G1 X127.607 Y198.393 F2400
; gap fill
G1 X125.196 Y197.997 F4800
G92 E0
G1 X125.189 Y197.990 E0.0009 F960
G1 X125.176 Y197.298 E0.0686
G1 X125.645 Y197.767 E0.1334
G1 X125.630 Y197.073 E0.2013
G1 X125.163 Y196.607 E0.2658
G1 X125.150 Y195.915 E0.3335
G1 X125.614 Y196.379 E0.3977
G1 X125.599 Y195.685 E0.4656
G1 X125.137 Y195.223 E0.5295
G1 X125.124 Y194.531 E0.5971
G1 X125.584 Y194.991 E0.6608
G1 X125.569 Y194.297 E0.7287
G1 X125.111 Y193.839 E0.7920
G1 X125.098 Y193.147 E0.8597
G1 X125.554 Y193.603 E0.9227
G1 X125.538 Y192.909 E0.9906
G1 X125.085 Y192.455 E1.0533
G1 X125.072 Y191.764 E1.1210
G1 X125.523 Y192.215 E1.1834
G1 X125.508 Y191.521 E1.2513
G1 X125.059 Y191.072 E1.3134
G1 X125.046 Y190.380 E1.3811
G1 X125.493 Y190.827 E1.4429
G1 X125.478 Y190.133 E1.5108
G1 X125.033 Y189.688 E1.5724
G1 X125.020 Y188.996 E1.6400
G1 X125.462 Y189.439 E1.7013
G1 X125.447 Y188.745 E1.7692
G1 X125.007 Y188.304 E1.8301
G1 X124.994 Y187.612 E1.8978
G1 X125.432 Y188.051 E1.9584
G1 X125.417 Y187.357 E2.0263
G1 X124.980 Y186.921 E2.0867
G1 X124.967 Y186.229 E2.1543
G1 X125.402 Y186.663 E2.2144
G1 X125.387 Y185.969 E2.2823
G1 X124.954 Y185.537 E2.3420
G1 X124.941 Y184.845 E2.4097
G1 X125.371 Y185.275 E2.4692
G1 X125.356 Y184.581 E2.5370
G1 X124.928 Y184.153 E2.5962
G1 X124.915 Y183.461 E2.6639
G1 X125.341 Y183.887 E2.7227
G1 X125.326 Y183.193 E2.7906
G1 X124.903 Y182.770 E2.8492
G1 X124.890 Y182.079 E2.9167
G1 X125.311 Y182.499 E2.9748
G1 X125.295 Y181.805 E3.0427
G1 X124.878 Y181.388 E3.1004
G1 X124.866 Y180.697 E3.1680
G1 X125.280 Y181.111 E3.2253
G1 X125.265 Y180.417 E3.2932
G1 X124.854 Y180.006 E3.3501
G1 X124.842 Y179.315 E3.4176
G1 X125.250 Y179.723 E3.4742
G1 X125.236 Y179.030 E3.5420
G1 X124.829 Y178.624 E3.5982
G1 X124.817 Y177.933 E3.6658
G1 X125.222 Y178.337 E3.7218
G1 X125.208 Y177.644 E3.7896
G1 X124.805 Y177.242 E3.8453
G1 X124.793 Y176.550 E3.9129
G1 X125.193 Y176.951 E3.9683
G1 X125.179 Y176.258 E4.0361
G1 X124.780 Y175.859 E4.0912
G1 X124.768 Y175.168 E4.1588
G1 X125.165 Y175.565 E4.2137
G1 X125.151 Y174.872 E4.2814
G1 X124.756 Y174.477 E4.3360
G1 X124.744 Y173.786 E4.4036
G1 X125.136 Y174.179 E4.4579
G1 X125.122 Y173.486 E4.5257
G1 X124.732 Y173.095 E4.5797
G1 X124.719 Y172.404 E4.6473
G1 X125.108 Y172.793 E4.7010
G1 X125.094 Y172.100 E4.7688
G1 X124.707 Y171.713 E4.8223
G1 X124.695 Y171.022 E4.8898
G1 X125.079 Y171.407 E4.9430
G1 X125.065 Y170.714 E5.0108
G1 X124.683 Y170.331 E5.0637
G1 X124.671 Y169.640 E5.1313
G1 X125.051 Y170.021 E5.1839
G1 X125.037 Y169.328 E5.2517
G1 X124.658 Y168.949 E5.3040
G1 X124.646 Y168.258 E5.3716
G1 X125.023 Y168.634 E5.4236
G1 X125.008 Y167.941 E5.4914
G1 X124.634 Y167.567 E5.5432
G1 X124.622 Y166.876 E5.6108
G1 X124.994 Y167.248 E5.6623
G1 X124.980 Y166.555 E5.7301
G1 X124.609 Y166.185 E5.7813
G1 X124.597 Y165.494 E5.8489
G1 X124.966 Y165.862 E5.8998
G1 X124.951 Y165.169 E5.9676
G1 X124.585 Y164.803 E6.0182
G1 X124.573 Y164.112 E6.0858
G1 X124.937 Y164.476 E6.1362
G1 X124.923 Y163.783 E6.2040
G1 X124.561 Y163.421 E6.2540
G1 X124.548 Y162.730 E6.3216
G1 X124.909 Y163.090 E6.3714
G1 X124.894 Y162.397 E6.4392
G1 X124.536 Y162.039 E6.4887
G1 X124.532 Y161.822 E6.5099
G1 X124.524 Y161.348 E6.5563
G1 X124.880 Y161.704 E6.6055
G1 X124.866 Y161.011 E6.6733
G1 X124.512 Y160.657 E6.7221
G1 X124.501 Y159.967 E6.7897
G1 X124.852 Y160.318 E6.8382
G1 X124.837 Y159.625 E6.9060
G1 X124.489 Y159.276 E6.9542
G1 X124.477 Y158.586 E7.0217
G1 X124.823 Y158.932 E7.0695
G1 X124.809 Y158.238 E7.1373
G1 X124.465 Y157.895 E7.1848
G1 X124.454 Y157.204 E7.2524
G1 X124.795 Y157.545 E7.2995
G1 X124.780 Y156.852 E7.3673
G1 X124.442 Y156.514 E7.4141
G1 X124.430 Y155.823 E7.4816
G1 X124.766 Y156.159 E7.5281
G1 X124.752 Y155.466 E7.5959
G1 X124.418 Y155.133 E7.6420
G1 X124.407 Y154.442 E7.7096
G1 X124.738 Y154.773 E7.7553
G1 X124.723 Y154.080 E7.8231
G1 X124.395 Y153.751 E7.8686
G1 X124.383 Y153.061 E7.9361
G1 X124.709 Y153.387 E7.9812
G1 X124.695 Y152.694 E8.0490
G1 X124.371 Y152.370 E8.0938
G1 X124.359 Y151.680 E8.1613
G1 X124.681 Y152.001 E8.2057
G1 X124.666 Y151.308 E8.2735
G1 X124.348 Y150.989 E8.3176
G1 X124.336 Y150.298 E8.3851
G1 X124.652 Y150.615 E8.4288
G1 X124.638 Y149.922 E8.4966
G1 X124.324 Y149.608 E8.5400
G1 X124.312 Y148.917 E8.6076
G1 X124.624 Y149.229 E8.6506
G1 X124.609 Y148.536 E8.7184
G1 X124.301 Y148.227 E8.7611
G1 X124.289 Y147.536 E8.8286
G1 X124.595 Y147.842 E8.8710
G1 X124.581 Y147.149 E8.9388
G1 X124.277 Y146.846 E8.9808
G1 X124.265 Y146.155 E9.0484
G1 X124.567 Y146.456 E9.0900
G1 X124.552 Y145.763 E9.1578
G1 X124.254 Y145.464 E9.1992
G1 X124.242 Y144.774 E9.2667
G1 X124.538 Y145.070 E9.3077
G1 X124.524 Y144.377 E9.3755
G1 X124.230 Y144.083 E9.4161
G1 X124.218 Y143.393 E9.4837
G1 X124.510 Y143.684 E9.5240
G1 X124.495 Y142.991 E9.5918
G1 X124.206 Y142.702 E9.6318
G1 X124.195 Y142.011 E9.6993
G1 X124.481 Y142.298 E9.7389
G1 X124.466 Y141.604 E9.8068
G1 X124.183 Y141.321 E9.8459
G1 X124.171 Y140.630 E9.9135
G1 X124.451 Y140.910 E9.9522
G1 X124.437 Y140.217 E10.0201
G1 X124.159 Y139.940 E10.0584
G1 X124.148 Y139.249 E10.1260
G1 X124.422 Y139.523 E10.1639
G1 X124.407 Y138.829 E10.2317
G1 X124.136 Y138.558 E10.2692
G1 X124.124 Y137.868 E10.3367
G1 X124.392 Y138.136 E10.3738
G1 X124.377 Y137.442 E10.4416
G1 X124.112 Y137.177 E10.4782
G1 X124.100 Y136.487 E10.5458
G1 X124.362 Y136.748 E10.5820
G1 X124.347 Y136.055 E10.6498
G1 X124.089 Y135.796 E10.6856
G1 X124.077 Y135.105 E10.7531
G1 X124.332 Y135.361 E10.7885
G1 X124.318 Y134.667 E10.8563
G1 X124.065 Y134.415 E10.8912
G1 X124.053 Y133.724 E10.9588
G1 X124.303 Y133.974 E10.9932
G1 X124.288 Y133.280 E11.0611
G1 X124.042 Y133.034 E11.0952
G1 X124.030 Y132.343 E11.1627
G1 X124.273 Y132.586 E11.1963
G1 X124.258 Y131.893 E11.2642
G1 X124.018 Y131.652 E11.2974
G1 X124.006 Y130.962 E11.3649
G1 X124.243 Y131.199 E11.3977
G1 X124.228 Y130.505 E11.4655
G1 X123.995 Y130.271 E11.4979
G1 X123.983 Y129.581 E11.5654
G1 X124.214 Y129.811 E11.5973
G1 X124.199 Y129.118 E11.6652
G1 X123.971 Y128.890 E11.6967
G1 X123.959 Y128.199 E11.7642
G1 X124.184 Y128.424 E11.7953
G1 X124.169 Y127.730 E11.8631
G1 X123.947 Y127.509 E11.8937
G1 X123.936 Y126.818 E11.9613
G1 X124.154 Y127.037 E11.9915
G1 X124.139 Y126.343 E12.0593
G1 X123.924 Y126.128 E12.0891
G1 X123.912 Y125.437 E12.1566
G1 X124.124 Y125.649 E12.1860
G1 X124.110 Y124.956 E12.2538
G1 X123.900 Y124.746 E12.2828
G1 X123.889 Y124.056 E12.3503
G1 X124.095 Y124.262 E12.3788
G1 X124.080 Y123.568 E12.4466
G1 X123.877 Y123.365 E12.4747
G1 X123.865 Y122.675 E12.5423
G1 X124.065 Y122.875 E12.5699
G1 X124.050 Y122.181 E12.6377
G1 X123.853 Y121.984 E12.6650
G1 X123.842 Y121.294 E12.7325
G1 X124.035 Y121.487 E12.7593
G1 X124.020 Y120.794 E12.8271
G1 X123.830 Y120.603 E12.8535
G1 X123.818 Y119.912 E12.9210
G1 X124.005 Y120.100 E12.9469
G1 X123.991 Y119.406 E13.0148
G1 X123.806 Y119.222 E13.0403
G1 X123.794 Y118.531 E13.1078
