; G-Code generated by Simplify3D(R) Version 4.0.0
; Jan 7, 2018 at 6:50:40 PM
; Settings Summary
;   processName,Process1
;   applyToModels,angle-bracket
;   profileName,Prusa Research Original Prusa i3 MK2 (modified)
;   profileVersion,2017-07-23 22:27:18
;   baseProfile,
;   printMaterial,PLA
;   printQuality,Fast
;   printExtruders,
;   extruderName,Primary Extruder
;   extruderToolheadNumber,0
;   extruderDiameter,0.4
;   extruderAutoWidth,1
;   extruderWidth,0.48
;   extrusionMultiplier,1
;   extruderUseRetract,1
;   extruderRetractionDistance,1.5
;   extruderExtraRestartDistance,0
;   extruderRetractionZLift,0
;   extruderRetractionSpeed,1800
;   extruderUseCoasting,1
;   extruderCoastingDistance,0.2
;   extruderUseWipe,1
;   extruderWipeDistance,2
;   primaryExtruder,0
;   layerHeight,0.35
;   topSolidLayers,4
;   bottomSolidLayers,4
;   perimeterOutlines,4
;   printPerimetersInsideOut,1
;   startPointOption,2
;   startPointOriginX,0
;   startPointOriginY,0
;   sequentialIslands,0
;   spiralVaseMode,0
;   firstLayerHeightPercentage,120
;   firstLayerWidthPercentage,100
;   firstLayerUnderspeed,0.5
;   useRaft,0
;   raftExtruder,0
;   raftTopLayers,3
;   raftBaseLayers,2
;   raftOffset,3
;   raftSeparationDistance,0.14
;   raftTopInfill,100
;   aboveRaftSpeedMultiplier,0.3
;   useSkirt,1
;   skirtExtruder,0
;   skirtLayers,1
;   skirtOutlines,1
;   skirtOffset,4
;   usePrimePillar,0
;   primePillarExtruder,999
;   primePillarWidth,12
;   primePillarLocation,7
;   primePillarSpeedMultiplier,1
;   useOozeShield,0
;   oozeShieldExtruder,999
;   oozeShieldOffset,2
;   oozeShieldOutlines,1
;   oozeShieldSidewallShape,1
;   oozeShieldSidewallAngle,30
;   oozeShieldSpeedMultiplier,1
;   infillExtruder,0
;   internalInfillPattern,Rectilinear
;   externalInfillPattern,Rectilinear
;   infillPercentage,10
;   outlineOverlapPercentage,20
;   infillExtrusionWidthPercentage,100
;   minInfillLength,5
;   infillLayerInterval,1
;   internalInfillAngles,45,-45
;   overlapInternalInfillAngles,0
;   externalInfillAngles,45,-45
;   generateSupport,1
;   supportExtruder,0
;   supportInfillPercentage,25
;   supportExtraInflation,0
;   supportBaseLayers,0
;   denseSupportExtruder,0
;   denseSupportLayers,0
;   denseSupportInfillPercentage,70
;   supportLayerInterval,1
;   supportHorizontalPartOffset,0.3
;   supportUpperSeparationLayers,1
;   supportLowerSeparationLayers,1
;   supportType,0
;   supportGridSpacing,4
;   maxOverhangAngle,45
;   supportAngles,0
;   temperatureName,Primary Extruder,Heated Bed
;   temperatureNumber,0,0
;   temperatureSetpointCount,1,1
;   temperatureSetpointLayers,1,1
;   temperatureSetpointTemperatures,210,60
;   temperatureStabilizeAtStartup,1,1
;   temperatureHeatedBed,0,1
;   temperatureRelayBetweenLayers,0,0
;   temperatureRelayBetweenLoops,0,0
;   fanLayers,1,2
;   fanSpeeds,0,100
;   blipFanToFullPower,0
;   adjustSpeedForCooling,1
;   minSpeedLayerTime,15
;   minCoolingSpeedSlowdown,20
;   increaseFanForCooling,0
;   minFanLayerTime,45
;   maxCoolingFanSpeed,100
;   increaseFanForBridging,0
;   bridgingFanSpeed,100
;   use5D,1
;   relativeEdistances,0
;   allowEaxisZeroing,1
;   independentExtruderAxes,0
;   includeM10123,0
;   stickySupport,1
;   applyToolheadOffsets,0
;   gcodeXoffset,0
;   gcodeYoffset,0
;   gcodeZoffset,0
;   overrideMachineDefinition,1
;   machineTypeOverride,0
;   strokeXoverride,250
;   strokeYoverride,210
;   strokeZoverride,200
;   originOffsetXoverride,0
;   originOffsetYoverride,0
;   originOffsetZoverride,0
;   homeXdirOverride,-1
;   homeYdirOverride,-1
;   homeZdirOverride,-1
;   flipXoverride,1
;   flipYoverride,-1
;   flipZoverride,1
;   toolheadOffsets,0,0|0,0|0,0|0,0|0,0|0,0
;   overrideFirmwareConfiguration,1
;   firmwareTypeOverride,RepRap (Marlin/Repetier/Sprinter)
;   GPXconfigOverride,r2
;   baudRateOverride,250000
;   overridePrinterModels,1
;   printerModelsOverride
;   startingGcode,M115 U3.0.7 ; use the latest firmware version,G28 W ; home all axes without mesh bed leveling,G80 ; run mesh bed leveling routine,G1 Y-3.0 F1000.0 ; prepare to prime,G92 E0 ; reset extrusion distance,G1 X60.0 E9.0  F1000.0 ; priming,G1 X100.0 E12.5  F1000.0 ; priming
;   layerChangeGcode,
;   retractionGcode,
;   toolChangeGcode,
;   endingGcode,M106 S0 ; turn off cooling fan,M104 S0 ; turn off extruder,M140 S0 ; turn off bed,G1 X0 Y200 ; part removal,M84 ; disable motors
;   exportFileFormat,gcode
;   celebration,0
;   celebrationSong,Random Song
;   postProcessing,
;   defaultSpeed,2400
;   outlineUnderspeed,0.8
;   solidInfillUnderspeed,0.8
;   supportUnderspeed,0.8
;   rapidXYspeed,4800
;   rapidZspeed,1002
;   minBridgingArea,50
;   bridgingExtraInflation,0
;   bridgingExtrusionMultiplier,1
;   bridgingSpeedMultiplier,1
;   useFixedBridgingAngle,0
;   fixedBridgingAngle,0
;   applyBridgingToPerimeters,0
;   filamentDiameters,1.75|1.75|1.75|1.75|1.75|1.75
;   filamentPricesPerKg,199|46|46|46|46|46
;   filamentDensities,1.25|1.25|1.25|1.25|1.25|1.25
;   useMinPrintHeight,0
;   minPrintHeight,0
;   useMaxPrintHeight,1
;   maxPrintHeight,235
;   useDiaphragm,0
;   diaphragmLayerInterval,20
;   robustSlicing,1
;   mergeAllIntoSolid,0
;   onlyRetractWhenCrossingOutline,1
;   retractBetweenLayers,1
;   useRetractionMinTravel,0
;   retractionMinTravel,3
;   retractWhileWiping,1
;   onlyWipeOutlines,1
;   avoidCrossingOutline,0
;   maxMovementDetourFactor,3
;   toolChangeRetractionDistance,12
;   toolChangeExtraRestartDistance,-0.5
;   toolChangeRetractionSpeed,600
;   externalThinWallType,0
;   internalThinWallType,2
;   thinWallAllowedOverlapPercentage,25
;   singleExtrusionMinLength,1
;   singleExtrusionMinPrintingWidthPercentage,50
;   singleExtrusionMaxPrintingWidthPercentage,200
;   singleExtrusionEndpointExtension,0.2
;   horizontalSizeCompensation,0
G90
M82
M106 S0
M140 S60
M190 S60
M104 S210 T0
M109 S210 T0
M115 U3.0.7 ; use the latest firmware version
G28 W ; home all axes without mesh bed leveling
G80 ; run mesh bed leveling routine
G1 Y-3.0 F1000.0 ; prepare to prime
G92 E0 ; reset extrusion distance
G1 X60.0 E9.0  F1000.0 ; priming
G1 X100.0 E12.5  F1000.0 ; priming
G92 E0
G1 E-1.5000 F1800
G1 Z0.420 F1002
; process Process1
; layer 1, Z = 0.420
T0
; tool H0.420 W0.480
; skirt
G1 X108.297 Y90.781 F4800
G1 E0.0000 F540
G92 E0
G1 X110.707 Y88.371 E0.2857 F1200
G1 X110.795 Y88.334 E0.2937
G1 X139.205 Y88.334 E2.6749
G1 X139.293 Y88.371 E2.6829
G1 X141.703 Y90.781 E2.9686
G1 X141.740 Y90.869 E2.9766
G1 X141.740 Y116.050 E5.0871
G1 X141.739 Y116.057 E5.0877
G1 X141.727 Y116.285 E5.1069
G1 X141.726 Y116.292 E5.1075
G1 X141.655 Y116.932 E5.1615
G1 X141.653 Y116.945 E5.1625
G1 X141.560 Y117.367 E5.1988
G1 X141.557 Y117.379 E5.1998
G1 X141.323 Y118.082 E5.2619
G1 X141.318 Y118.094 E5.2629
G1 X141.145 Y118.478 E5.2983
G1 X141.140 Y118.489 E5.2993
G1 X140.775 Y119.119 E5.3603
G1 X140.768 Y119.129 E5.3614
G1 X140.516 Y119.475 E5.3972
G1 X140.508 Y119.485 E5.3983
G1 X139.974 Y120.078 E5.4652
G1 X139.963 Y120.089 E5.4665
G1 X139.552 Y120.440 E5.5118
G1 X139.539 Y120.450 E5.5132
G1 X138.691 Y121.000 E5.5979
G1 X138.678 Y121.008 E5.5992
G1 X138.189 Y121.240 E5.6445
G1 X138.175 Y121.246 E5.6458
G1 X137.414 Y121.493 E5.7129
G1 X137.402 Y121.496 E5.7139
G1 X136.980 Y121.586 E5.7501
G1 X136.967 Y121.588 E5.7511
G1 X136.335 Y121.654 E5.8044
G1 X136.329 Y121.654 E5.8049
G1 X136.114 Y121.666 E5.8230
G1 X136.108 Y121.666 E5.8235
G1 X113.876 Y121.665 E7.6868
G1 X113.869 Y121.665 E7.6874
G1 X113.641 Y121.653 E7.7066
G1 X113.634 Y121.652 E7.7072
G1 X112.993 Y121.580 E7.7612
G1 X112.981 Y121.578 E7.7622
G1 X112.559 Y121.486 E7.7985
G1 X112.547 Y121.482 E7.7995
G1 X111.844 Y121.249 E7.8616
G1 X111.832 Y121.244 E7.8627
G1 X111.448 Y121.071 E7.8980
G1 X111.437 Y121.066 E7.8990
G1 X110.807 Y120.700 E7.9600
G1 X110.797 Y120.694 E7.9611
G1 X110.451 Y120.442 E7.9970
G1 X110.441 Y120.434 E7.9980
G1 X109.848 Y119.900 E8.0649
G1 X109.837 Y119.889 E8.0662
G1 X109.485 Y119.477 E8.1115
G1 X109.476 Y119.465 E8.1129
G1 X108.926 Y118.617 E8.1976
G1 X108.918 Y118.603 E8.1989
G1 X108.686 Y118.115 E8.2442
G1 X108.680 Y118.101 E8.2455
G1 X108.433 Y117.340 E8.3126
G1 X108.430 Y117.328 E8.3136
G1 X108.340 Y116.905 E8.3498
G1 X108.338 Y116.893 E8.3508
G1 X108.272 Y116.261 E8.4041
G1 X108.271 Y116.254 E8.4047
G1 X108.260 Y116.040 E8.4227
G1 X108.260 Y116.033 E8.4232
G1 X108.260 Y90.974 E10.5236
G1 X108.260 Y90.869 F1200
G1 X108.297 Y90.781 F1200
G92 E0
G1 E-1.5000 F1800
; inner perimeter
G1 X114.180 Y94.254 F4800
G1 E0.0000 F1800
G92 E0
G1 X135.820 Y94.254 E1.8138 F1080
G1 X135.820 Y115.746 E3.6151
G1 X114.180 Y115.745 E5.4288
G1 X114.180 Y94.454 E7.2134
G1 X114.180 Y94.254 F1080
G1 X113.700 Y93.774 F4800
G92 E0
G1 X136.300 Y93.774 E1.8942 F1080
G1 X136.300 Y115.868 E3.7461
G1 X136.286 Y115.989 E3.7562
G1 X136.266 Y116.050 E3.7616
G1 X136.238 Y116.097 E3.7662
G1 X136.186 Y116.155 E3.7728
G1 X136.119 Y116.194 E3.7792
G1 X136.060 Y116.213 E3.7844
G1 X135.937 Y116.226 E3.7948
G1 X114.057 Y116.225 E5.6287
G1 X113.937 Y116.212 E5.6388
G1 X113.876 Y116.192 E5.6442
G1 X113.829 Y116.164 E5.6488
G1 X113.770 Y116.112 E5.6554
G1 X113.732 Y116.045 E5.6618
G1 X113.713 Y115.986 E5.6670
G1 X113.700 Y115.863 E5.6774
G1 X113.700 Y93.974 E7.5120
G1 X113.700 Y93.774 F1080
G1 X113.220 Y93.294 F4800
G92 E0
G1 X136.780 Y93.294 E1.9747 F1080
G1 X136.780 Y115.895 E3.8690
G1 X136.758 Y116.092 E3.8856
G1 X136.706 Y116.248 E3.8994
G1 X136.628 Y116.381 E3.9123
G1 X136.507 Y116.517 E3.9276
G1 X136.472 Y116.544 E3.9313
G1 X136.315 Y116.635 E3.9465
G1 X136.161 Y116.685 E3.9601
G1 X135.962 Y116.706 E3.9768
G1 X114.031 Y116.705 E5.8150
G1 X113.834 Y116.683 E5.8316
G1 X113.678 Y116.632 E5.8454
G1 X113.545 Y116.554 E5.8583
G1 X113.409 Y116.432 E5.8736
G1 X113.382 Y116.398 E5.8773
G1 X113.291 Y116.241 E5.8925
G1 X113.241 Y116.087 E5.9061
G1 X113.220 Y115.888 E5.9228
G1 X113.220 Y93.494 E7.7998
G1 X113.220 Y93.294 F1080
; outer perimeter
G1 X112.740 Y92.814 F4800
G92 E0
G1 X137.260 Y92.814 E2.0552 F960
G1 X137.260 Y115.922 E3.9920
G1 X137.229 Y116.195 E4.0150
G1 X137.146 Y116.446 E4.0371
G1 X137.019 Y116.665 E4.0584
G1 X136.838 Y116.866 E4.0810
G1 X136.745 Y116.941 E4.0910
G1 X136.511 Y117.076 E4.1137
G1 X136.261 Y117.157 E4.1357
G1 X135.987 Y117.186 E4.1588
G1 X114.004 Y117.185 E6.0013
G1 X113.730 Y117.155 E6.0244
G1 X113.480 Y117.072 E6.0465
G1 X113.261 Y116.944 E6.0678
G1 X113.060 Y116.764 E6.0904
G1 X112.985 Y116.671 E6.1004
G1 X112.850 Y116.437 E6.1230
G1 X112.769 Y116.187 E6.1451
G1 X112.740 Y115.913 E6.1682
G1 X112.740 Y93.014 E8.0875
G1 X112.740 Y92.814 F960
G1 X114.740 Y92.814 F2400
; inner perimeter
G1 X122.764 Y104.567 F4800
G92 E0
G1 X122.295 Y104.999 E0.0534 F1080
G1 X122.035 Y105.312 E0.0875
G1 X121.692 Y105.870 E0.1424
G1 X121.449 Y106.507 E0.1996
G1 X121.327 Y107.176 E0.2566
G1 X121.331 Y107.856 E0.3136
G1 X121.459 Y108.525 E0.3706
G1 X121.708 Y109.158 E0.4277
G1 X122.069 Y109.735 E0.4847
G1 X122.529 Y110.235 E0.5417
G1 X123.074 Y110.642 E0.5987
G1 X123.685 Y110.943 E0.6557
G1 X124.302 Y111.115 E0.7095
G1 X124.717 Y111.171 E0.7445
G1 X125.358 Y111.168 E0.7983
G1 X126.026 Y111.040 E0.8553
G1 X126.659 Y110.791 E0.9123
G1 X127.236 Y110.430 E0.9693
G1 X127.708 Y109.996 E1.0231
G1 X127.973 Y109.673 E1.0581
G1 X128.308 Y109.126 E1.1119
G1 X128.551 Y108.490 E1.1689
G1 X128.673 Y107.821 E1.2259
G1 X128.669 Y107.141 E1.2829
G1 X128.541 Y106.472 E1.3400
G1 X128.292 Y105.839 E1.3970
G1 X127.931 Y105.262 E1.4540
G1 X127.471 Y104.762 E1.5110
G1 X126.926 Y104.355 E1.5681
G1 X126.350 Y104.071 E1.6218
G1 X125.953 Y103.941 E1.6568
G1 X125.322 Y103.826 E1.7106
G1 X124.642 Y103.829 E1.7676
G1 X123.974 Y103.957 E1.8246
G1 X123.341 Y104.206 E1.8817
G1 X122.934 Y104.461 E1.9219
G1 X122.764 Y104.567 F1080
G1 X123.056 Y104.950 F4800
G92 E0
G1 X122.644 Y105.330 E0.0470 F1080
G1 X122.426 Y105.592 E0.0756
G1 X122.125 Y106.083 E0.1238
G1 X121.913 Y106.636 E0.1735
G1 X121.808 Y107.218 E0.2230
G1 X121.810 Y107.810 E0.2726
G1 X121.922 Y108.390 E0.3222
G1 X122.138 Y108.941 E0.3717
G1 X122.452 Y109.442 E0.4213
G1 X122.852 Y109.877 E0.4709
G1 X123.326 Y110.231 E0.5204
G1 X123.857 Y110.492 E0.5700
G1 X124.400 Y110.644 E0.6172
G1 X124.748 Y110.691 E0.6467
G1 X125.311 Y110.688 E0.6939
G1 X125.892 Y110.577 E0.7435
G1 X126.442 Y110.360 E0.7930
G1 X126.944 Y110.047 E0.8426
G1 X127.358 Y109.665 E0.8898
G1 X127.581 Y109.394 E0.9193
G1 X127.876 Y108.913 E0.9665
G1 X128.087 Y108.361 E1.0161
G1 X128.192 Y107.779 E1.0656
G1 X128.190 Y107.187 E1.1152
G1 X128.078 Y106.607 E1.1648
G1 X127.862 Y106.056 E1.2144
G1 X127.548 Y105.555 E1.2639
G1 X127.147 Y105.120 E1.3135
G1 X126.674 Y104.766 E1.3630
G1 X126.168 Y104.517 E1.4103
G1 X125.835 Y104.407 E1.4397
G1 X125.280 Y104.306 E1.4869
G1 X124.689 Y104.309 E1.5365
G1 X124.108 Y104.420 E1.5861
G1 X123.558 Y104.637 E1.6357
G1 X123.226 Y104.844 E1.6685
G1 X123.056 Y104.950 F1080
G1 X123.349 Y105.334 F4800
G92 E0
G1 X122.993 Y105.662 E0.0406 F1080
G1 X122.817 Y105.873 E0.0636
G1 X122.557 Y106.296 E0.1052
G1 X122.378 Y106.766 E0.1474
G1 X122.288 Y107.260 E0.1895
G1 X122.290 Y107.763 E0.2316
G1 X122.385 Y108.256 E0.2737
G1 X122.569 Y108.724 E0.3158
G1 X122.835 Y109.150 E0.3579
G1 X123.175 Y109.519 E0.4001
G1 X123.578 Y109.820 E0.4422
G1 X124.029 Y110.042 E0.4843
G1 X124.497 Y110.173 E0.5250
G1 X124.779 Y110.211 E0.5488
G1 X125.264 Y110.208 E0.5896
G1 X125.758 Y110.114 E0.6317
G1 X126.225 Y109.930 E0.6738
G1 X126.651 Y109.663 E0.7159
G1 X127.009 Y109.334 E0.7566
G1 X127.189 Y109.114 E0.7805
G1 X127.443 Y108.700 E0.8212
G1 X127.622 Y108.231 E0.8633
G1 X127.712 Y107.737 E0.9054
G1 X127.710 Y107.234 E0.9475
G1 X127.615 Y106.741 E0.9896
G1 X127.431 Y106.273 E1.0317
G1 X127.165 Y105.847 E1.0738
G1 X126.824 Y105.478 E1.1159
G1 X126.422 Y105.177 E1.1581
G1 X125.986 Y104.962 E1.1988
G1 X125.716 Y104.873 E1.2226
G1 X125.238 Y104.786 E1.2633
G1 X124.736 Y104.789 E1.3054
G1 X124.242 Y104.883 E1.3476
G1 X123.775 Y105.067 E1.3897
G1 X123.518 Y105.228 E1.4150
G1 X123.349 Y105.334 F1080
; outer perimeter
G1 X123.641 Y105.717 F4800
G92 E0
G1 X123.341 Y105.993 E0.0341 F960
G1 X123.208 Y106.153 E0.0516
G1 X122.990 Y106.509 E0.0866
G1 X122.842 Y106.896 E0.1213
G1 X122.768 Y107.303 E0.1560
G1 X122.770 Y107.716 E0.1906
G1 X122.848 Y108.122 E0.2253
G1 X122.999 Y108.507 E0.2599
G1 X123.219 Y108.857 E0.2946
G1 X123.499 Y109.162 E0.3292
G1 X123.830 Y109.409 E0.3639
G1 X124.201 Y109.592 E0.3986
G1 X124.594 Y109.701 E0.4327
G1 X124.810 Y109.731 E0.4510
G1 X125.218 Y109.729 E0.4852
G1 X125.624 Y109.651 E0.5199
G1 X126.008 Y109.499 E0.5545
G1 X126.359 Y109.280 E0.5892
G1 X126.659 Y109.004 E0.6234
G1 X126.797 Y108.835 E0.6416
G1 X127.011 Y108.487 E0.6758
G1 X127.158 Y108.101 E0.7105
G1 X127.232 Y107.694 E0.7451
G1 X127.230 Y107.281 E0.7798
G1 X127.152 Y106.875 E0.8144
G1 X127.001 Y106.490 E0.8491
G1 X126.781 Y106.140 E0.8837
G1 X126.501 Y105.835 E0.9184
G1 X126.170 Y105.588 E0.9531
G1 X125.804 Y105.408 E0.9872
G1 X125.597 Y105.339 E1.0055
G1 X125.196 Y105.266 E1.0397
G1 X124.782 Y105.268 E1.0744
G1 X124.376 Y105.346 E1.1090
G1 X123.992 Y105.498 E1.1437
G1 X123.811 Y105.611 E1.1616
G1 X123.641 Y105.717 F960
G1 X123.341 Y105.993 F2400
G1 X123.208 Y106.153 F2400
G1 X122.990 Y106.509 F2400
G1 X122.842 Y106.896 F2400
G1 X122.768 Y107.303 F2400
G1 X122.769 Y107.442 F2400
; solid layer
G1 X123.948 Y111.415 F4800
G92 E0
G1 X127.895 Y115.362 E0.4678 F960
G1 X128.574 Y115.362 E0.5247
G1 X124.767 Y111.555 E0.9760
G1 X125.395 Y111.552 E1.0287
G1 X125.435 Y111.544 E1.0320
G1 X129.252 Y115.362 E1.4846
G1 X129.931 Y115.362 E1.5415
G1 X126.004 Y111.435 E2.0069
G1 X126.133 Y111.410 E2.0180
G1 X126.510 Y111.262 E2.0519
G1 X130.610 Y115.362 E2.5378
G1 X131.289 Y115.362 E2.5947
G1 X126.974 Y111.047 E3.1062
G1 X127.391 Y110.786 E3.1475
G1 X131.968 Y115.362 E3.6899
G1 X132.647 Y115.362 E3.7468
G1 X127.757 Y110.472 E4.3264
G1 X127.987 Y110.260 E4.3527
G1 X128.094 Y110.130 E4.3667
G1 X133.325 Y115.362 E4.9868
G1 X134.004 Y115.362 E5.0437
G1 X128.382 Y109.740 E5.7101
G1 X128.640 Y109.319 E5.7515
G1 X134.683 Y115.362 E6.4677
G1 X135.362 Y115.362 E6.5246
