; G-Code generated by Simplify3D(R) Version 4.0.0
; May 20, 2018 at 6:28:33 PM
; Settings Summary
;   processName,PLA Fast
;   applyToModels,bbq-machine-component-mount
;   profileName,Prusa Research Original Prusa i3 MK2 (modified)
;   profileVersion,2017-07-23 22:27:18
;   baseProfile,
;   printMaterial,PLA
;   printQuality,Fast
;   printExtruders,
;   extruderName,Primary Extruder
;   extruderToolheadNumber,0
;   extruderDiameter,0.4
;   extruderAutoWidth,1
;   extruderWidth,0.48
;   extrusionMultiplier,1
;   extruderUseRetract,1
;   extruderRetractionDistance,1.5
;   extruderExtraRestartDistance,0
;   extruderRetractionZLift,0
;   extruderRetractionSpeed,1800
;   extruderUseCoasting,1
;   extruderCoastingDistance,0.2
;   extruderUseWipe,1
;   extruderWipeDistance,2
;   primaryExtruder,0
;   layerHeight,0.35
;   topSolidLayers,3
;   bottomSolidLayers,3
;   perimeterOutlines,3
;   printPerimetersInsideOut,1
;   startPointOption,2
;   startPointOriginX,0
;   startPointOriginY,0
;   sequentialIslands,0
;   spiralVaseMode,0
;   firstLayerHeightPercentage,120
;   firstLayerWidthPercentage,100
;   firstLayerUnderspeed,0.5
;   useRaft,0
;   raftExtruder,0
;   raftTopLayers,3
;   raftBaseLayers,2
;   raftOffset,3
;   raftSeparationDistance,0.14
;   raftTopInfill,100
;   aboveRaftSpeedMultiplier,0.3
;   useSkirt,1
;   skirtExtruder,0
;   skirtLayers,1
;   skirtOutlines,1
;   skirtOffset,4
;   usePrimePillar,0
;   primePillarExtruder,999
;   primePillarWidth,12
;   primePillarLocation,7
;   primePillarSpeedMultiplier,1
;   useOozeShield,0
;   oozeShieldExtruder,999
;   oozeShieldOffset,2
;   oozeShieldOutlines,1
;   oozeShieldSidewallShape,1
;   oozeShieldSidewallAngle,30
;   oozeShieldSpeedMultiplier,1
;   infillExtruder,0
;   internalInfillPattern,Rectilinear
;   externalInfillPattern,Rectilinear
;   infillPercentage,20
;   outlineOverlapPercentage,20
;   infillExtrusionWidthPercentage,100
;   minInfillLength,5
;   infillLayerInterval,1
;   internalInfillAngles,45,-45
;   overlapInternalInfillAngles,0
;   externalInfillAngles,45,-45
;   generateSupport,0
;   supportExtruder,0
;   supportInfillPercentage,25
;   supportExtraInflation,0
;   supportBaseLayers,0
;   denseSupportExtruder,0
;   denseSupportLayers,0
;   denseSupportInfillPercentage,70
;   supportLayerInterval,1
;   supportHorizontalPartOffset,0.3
;   supportUpperSeparationLayers,1
;   supportLowerSeparationLayers,1
;   supportType,0
;   supportGridSpacing,4
;   maxOverhangAngle,45
;   supportAngles,0
;   temperatureName,Primary Extruder,Heated Bed
;   temperatureNumber,0,0
;   temperatureSetpointCount,1,1
;   temperatureSetpointLayers,1,1
;   temperatureSetpointTemperatures,210,55
;   temperatureStabilizeAtStartup,1,1
;   temperatureHeatedBed,0,1
;   temperatureRelayBetweenLayers,0,0
;   temperatureRelayBetweenLoops,0,0
;   fanLayers,1,2
;   fanSpeeds,0,100
;   blipFanToFullPower,0
;   adjustSpeedForCooling,1
;   minSpeedLayerTime,15
;   minCoolingSpeedSlowdown,20
;   increaseFanForCooling,0
;   minFanLayerTime,45
;   maxCoolingFanSpeed,100
;   increaseFanForBridging,0
;   bridgingFanSpeed,100
;   use5D,1
;   relativeEdistances,0
;   allowEaxisZeroing,1
;   independentExtruderAxes,0
;   includeM10123,0
;   stickySupport,1
;   applyToolheadOffsets,0
;   gcodeXoffset,0
;   gcodeYoffset,0
;   gcodeZoffset,0
;   overrideMachineDefinition,1
;   machineTypeOverride,0
;   strokeXoverride,250
;   strokeYoverride,210
;   strokeZoverride,200
;   originOffsetXoverride,0
;   originOffsetYoverride,0
;   originOffsetZoverride,0
;   homeXdirOverride,-1
;   homeYdirOverride,-1
;   homeZdirOverride,-1
;   flipXoverride,1
;   flipYoverride,-1
;   flipZoverride,1
;   toolheadOffsets,0,0|0,0|0,0|0,0|0,0|0,0
;   overrideFirmwareConfiguration,1
;   firmwareTypeOverride,RepRap (Marlin/Repetier/Sprinter)
;   GPXconfigOverride,r2
;   baudRateOverride,250000
;   overridePrinterModels,1
;   printerModelsOverride
;   startingGcode,M115 U3.0.7 ; use the latest firmware version,G28 W ; home all axes without mesh bed leveling,G80 ; run mesh bed leveling routine,G1 Y-3.0 F1000.0 ; prepare to prime,G92 E0 ; reset extrusion distance,G1 X60.0 E9.0  F1000.0 ; priming,G1 X100.0 E12.5  F1000.0 ; priming
;   layerChangeGcode,
;   retractionGcode,
;   toolChangeGcode,
;   endingGcode,M106 S0 ; turn off cooling fan,M104 S0 ; turn off extruder,M140 S0 ; turn off bed,G1 X0 Y200 ; part removal,M84 ; disable motors
;   exportFileFormat,gcode
;   celebration,0
;   celebrationSong,Random Song
;   postProcessing,
;   defaultSpeed,2400
;   outlineUnderspeed,0.8
;   solidInfillUnderspeed,0.8
;   supportUnderspeed,0.8
;   rapidXYspeed,4800
;   rapidZspeed,1002
;   minBridgingArea,50
;   bridgingExtraInflation,0
;   bridgingExtrusionMultiplier,1
;   bridgingSpeedMultiplier,1
;   useFixedBridgingAngle,0
;   fixedBridgingAngle,0
;   applyBridgingToPerimeters,0
;   filamentDiameters,1.75|1.75|1.75|1.75|1.75|1.75
;   filamentPricesPerKg,46|46|46|46|46|46
;   filamentDensities,1.25|1.25|1.25|1.25|1.25|1.25
;   useMinPrintHeight,1
;   minPrintHeight,0
;   useMaxPrintHeight,1
;   maxPrintHeight,235
;   useDiaphragm,0
;   diaphragmLayerInterval,20
;   robustSlicing,1
;   mergeAllIntoSolid,0
;   onlyRetractWhenCrossingOutline,1
;   retractBetweenLayers,1
;   useRetractionMinTravel,0
;   retractionMinTravel,3
;   retractWhileWiping,1
;   onlyWipeOutlines,1
;   avoidCrossingOutline,0
;   maxMovementDetourFactor,3
;   toolChangeRetractionDistance,12
;   toolChangeExtraRestartDistance,-0.5
;   toolChangeRetractionSpeed,600
;   externalThinWallType,0
;   internalThinWallType,1
;   thinWallAllowedOverlapPercentage,25
;   singleExtrusionMinLength,1
;   singleExtrusionMinPrintingWidthPercentage,50
;   singleExtrusionMaxPrintingWidthPercentage,200
;   singleExtrusionEndpointExtension,0.2
;   horizontalSizeCompensation,0
G90
M82
M106 S0
M140 S55
M190 S55
M104 S210 T0
M109 S210 T0
M115 U3.0.7 ; use the latest firmware version
G28 W ; home all axes without mesh bed leveling
G80 ; run mesh bed leveling routine
G1 Y-3.0 F1000.0 ; prepare to prime
G92 E0 ; reset extrusion distance
G1 X60.0 E9.0  F1000.0 ; priming
G1 X100.0 E12.5  F1000.0 ; priming
G92 E0
G1 E-1.5000 F1800
G1 Z0.420 F1002
; process PLA Fast
; layer 1, Z = 0.420
T0
; tool H0.420 W0.480
; skirt
G1 X90.797 Y65.707 F4800
G1 E0.0000 F540
G92 E0
G1 X93.207 Y63.297 E0.2857 F1200
G1 X93.295 Y63.260 E0.2937
G1 X156.705 Y63.260 E5.6084
G1 X156.793 Y63.297 E5.6164
G1 X159.203 Y65.707 E5.9022
G1 X159.240 Y65.795 E5.9102
G1 X159.240 Y144.205 E12.4821
G1 X159.203 Y144.293 E12.4901
G1 X156.793 Y146.703 E12.7758
G1 X156.705 Y146.740 E12.7838
G1 X93.295 Y146.740 E18.0985
G1 X93.207 Y146.703 E18.1065
G1 X90.797 Y144.293 E18.3922
G1 X90.760 Y144.205 E18.4002
G1 X90.760 Y65.900 E24.9634
G1 X90.760 Y65.795 F1200
G1 X90.797 Y65.707 F1200
G92 E0
G1 E-1.5000 F1800
; inner perimeter
G1 X96.200 Y68.700 F4800
G1 E0.0000 F1800
G92 E0
G1 X153.800 Y68.700 E4.8278 F1080
G1 X153.800 Y141.300 E10.9128
G1 X96.200 Y141.300 E15.7406
G1 X96.200 Y68.900 E21.8088
G1 X96.200 Y68.700 F1080
G1 X95.720 Y68.220 F4800
G92 E0
G1 X154.280 Y68.220 E4.9082 F1080
G1 X154.280 Y141.780 E11.0737
G1 X95.720 Y141.780 E15.9819
G1 X95.720 Y68.420 E22.1307
G1 X95.720 Y68.220 F1080
; outer perimeter
G1 X95.240 Y67.740 F4800
G92 E0
G1 X154.760 Y67.740 E4.9887 F960
G1 X154.760 Y142.260 E11.2346
G1 X95.240 Y142.260 E16.2233
G1 X95.240 Y67.940 E22.4525
G1 X95.240 Y67.740 F960
G1 X97.240 Y67.740 F2400
; solid layer
G1 X152.893 Y69.084 F4800
G92 E0
G1 X153.416 Y69.607 E0.0620 F960
G1 X153.416 Y70.285 E0.1188
G1 X152.215 Y69.084 E0.2613
G1 X151.536 Y69.084 E0.3182
G1 X153.416 Y70.964 E0.5410
G1 X153.416 Y71.643 E0.5979
G1 X150.857 Y69.084 E0.9013
G1 X150.178 Y69.084 E0.9582
G1 X153.416 Y72.322 E1.3420
G1 X153.416 Y73.001 E1.3989
G1 X149.499 Y69.084 E1.8631
G1 X148.820 Y69.084 E1.9200
G1 X153.416 Y73.680 E2.4648
G1 X153.416 Y74.358 E2.5217
G1 X148.142 Y69.084 E3.1469
G1 X147.463 Y69.084 E3.2038
G1 X153.416 Y75.037 E3.9094
G1 X153.416 Y75.716 E3.9663
G1 X146.784 Y69.084 E4.7524
G1 X146.105 Y69.084 E4.8093
G1 X153.416 Y76.395 E5.6759
G1 X153.416 Y77.074 E5.7328
G1 X145.426 Y69.084 E6.6799
G1 X144.747 Y69.084 E6.7367
G1 X153.416 Y77.753 E7.7643
G1 X153.416 Y78.431 E7.8212
G1 X144.069 Y69.084 E8.9291
G1 X143.390 Y69.084 E8.9860
G1 X153.416 Y79.110 E10.1745
G1 X153.416 Y79.789 E10.2314
G1 X142.711 Y69.084 E11.5002
G1 X142.032 Y69.084 E11.5571
G1 X153.416 Y80.468 E12.9065
G1 X153.416 Y81.147 E12.9634
G1 X141.353 Y69.084 E14.3932
G1 X140.675 Y69.084 E14.4501
G1 X153.416 Y81.825 E15.9604
G1 X153.416 Y82.504 E16.0173
G1 X139.996 Y69.084 E17.6081
G1 X139.317 Y69.084 E17.6649
G1 X153.416 Y83.183 E19.3362
G1 X153.416 Y83.862 E19.3931
G1 X138.638 Y69.084 E21.1447
G1 X137.959 Y69.084 E21.2016
G1 X153.416 Y84.541 E23.0338
G1 X153.416 Y85.220 E23.0907
G1 X137.280 Y69.084 E25.0033
G1 X136.602 Y69.084 E25.0602
G1 X153.416 Y85.898 E27.0532
G1 X153.416 Y86.577 E27.1101
G1 X135.923 Y69.084 E29.1836
G1 X135.244 Y69.084 E29.2405
G1 X153.416 Y87.256 E31.3945
G1 X153.416 Y87.935 E31.4514
G1 X134.565 Y69.084 E33.6859
G1 X133.886 Y69.084 E33.7428
G1 X153.416 Y88.614 E36.0577
G1 X153.416 Y89.293 E36.1146
G1 X133.207 Y69.084 E38.5100
G1 X132.529 Y69.084 E38.5669
G1 X153.416 Y89.971 E41.0427
G1 X153.416 Y90.650 E41.0996
G1 X131.850 Y69.084 E43.6559
G1 X131.171 Y69.084 E43.7128
G1 X153.416 Y91.329 E46.3496
G1 X153.416 Y92.008 E46.4065
G1 X130.492 Y69.084 E49.1237
G1 X129.813 Y69.084 E49.1806
G1 X153.416 Y92.687 E51.9783
G1 X153.416 Y93.365 E52.0352
G1 X129.135 Y69.084 E54.9133
G1 X128.456 Y69.084 E54.9702
G1 X153.416 Y94.044 E57.9288
G1 X153.416 Y94.723 E57.9857
G1 X127.777 Y69.084 E61.0248
G1 X127.098 Y69.084 E61.0817
G1 X153.416 Y95.402 E64.2013
G1 X153.416 Y96.081 E64.2582
G1 X126.419 Y69.084 E67.4582
G1 X125.740 Y69.084 E67.5151
G1 X153.416 Y96.760 E70.7955
G1 X153.416 Y97.438 E70.8524
G1 X125.062 Y69.084 E74.2134
G1 X124.383 Y69.084 E74.2703
G1 X153.416 Y98.117 E77.7117
G1 X153.416 Y98.796 E77.7685
G1 X123.704 Y69.084 E81.2904
G1 X123.025 Y69.084 E81.3473
G1 X153.416 Y99.475 E84.9496
G1 X153.416 Y100.154 E85.0065
G1 X122.346 Y69.084 E88.6893
G1 X121.667 Y69.084 E88.7462
G1 X153.416 Y100.833 E92.5095
G1 X153.416 Y101.511 E92.5663
G1 X120.989 Y69.084 E96.4101
G1 X120.310 Y69.084 E96.4670
G1 X153.416 Y102.190 E100.3911
G1 X153.416 Y102.869 E100.4480
G1 X119.631 Y69.084 E104.4527
G1 X118.952 Y69.084 E104.5096
G1 X153.416 Y103.548 E108.5947
G1 X153.416 Y104.227 E108.6516
G1 X118.273 Y69.084 E112.8171
G1 X117.595 Y69.084 E112.8740
G1 X153.416 Y104.905 E117.1200
G1 X153.416 Y105.584 E117.1769
G1 X116.916 Y69.084 E121.5034
G1 X116.237 Y69.084 E121.5603
G1 X153.416 Y106.263 E125.9673
G1 X153.416 Y106.942 E126.0242
G1 X115.558 Y69.084 E130.5116
G1 X114.879 Y69.084 E130.5685
G1 X153.416 Y107.621 E135.1364
G1 X153.416 Y108.300 E135.1932
G1 X114.200 Y69.084 E139.8416
G1 X113.522 Y69.084 E139.8985
G1 X153.416 Y108.978 E144.6273
G1 X153.416 Y109.657 E144.6842
G1 X112.843 Y69.084 E149.4934
G1 X112.164 Y69.084 E149.5503
G1 X153.416 Y110.336 E154.4401
G1 X153.416 Y111.015 E154.4970
G1 X111.485 Y69.084 E159.4672
G1 X110.806 Y69.084 E159.5241
G1 X153.416 Y111.694 E164.5747
G1 X153.416 Y112.372 E164.6316
G1 X110.128 Y69.084 E169.7627
G1 X109.449 Y69.084 E169.8196
G1 X153.416 Y113.051 E175.0312
G1 X153.416 Y113.730 E175.0881
G1 X108.770 Y69.084 E180.3801
G1 X108.091 Y69.084 E180.4370
G1 X153.416 Y114.409 E185.8095
G1 X153.416 Y115.088 E185.8664
G1 X107.412 Y69.084 E191.3194
G1 X106.733 Y69.084 E191.3763
G1 X153.416 Y115.767 E196.9097
G1 X153.416 Y116.445 E196.9666
G1 X106.055 Y69.084 E202.5805
G1 X105.376 Y69.084 E202.6374
G1 X153.416 Y117.124 E208.3318
G1 X153.416 Y117.803 E208.3887
G1 X104.697 Y69.084 E214.1635
G1 X104.018 Y69.084 E214.2204
G1 X153.416 Y118.482 E220.0757
G1 X153.416 Y119.161 E220.1326
G1 X103.339 Y69.084 E226.0683
G1 X102.660 Y69.084 E226.1252
G1 X153.416 Y119.840 E232.1414
G1 X153.416 Y120.518 E232.1983
G1 X101.982 Y69.084 E238.2950
G1 X101.303 Y69.084 E238.3519
G1 X153.416 Y121.197 E244.5290
G1 X153.416 Y121.876 E244.5859
G1 X100.624 Y69.084 E250.8435
G1 X99.945 Y69.084 E250.9004
G1 X153.416 Y122.555 E257.2385
G1 X153.416 Y123.234 E257.2954
G1 X99.266 Y69.084 E263.7139
G1 X98.588 Y69.084 E263.7708
G1 X153.416 Y123.912 E270.2698
G1 X153.416 Y124.591 E270.3267
G1 X97.909 Y69.084 E276.9061
G1 X97.230 Y69.084 E276.9630
G1 X153.416 Y125.270 E283.6229
G1 X153.416 Y125.949 E283.6798
G1 X96.584 Y69.117 E290.4163
G1 X96.584 Y69.796 E290.4732
G1 X153.416 Y126.628 E297.2097
G1 X153.416 Y127.307 E297.2666
G1 X96.584 Y70.475 E304.0030
G1 X96.584 Y71.153 E304.0599
G1 X153.416 Y127.985 E310.7964
G1 X153.416 Y128.664 E310.8533
G1 X96.584 Y71.832 E317.5898
G1 X96.584 Y72.511 E317.6467
G1 X153.416 Y129.343 E324.3831
G1 X153.416 Y130.022 E324.4400
G1 X96.584 Y73.190 E331.1765
G1 X96.584 Y73.869 E331.2334
G1 X153.416 Y130.701 E337.9699
G1 X153.416 Y131.380 E338.0268
G1 X96.584 Y74.548 E344.7632
G1 X96.584 Y75.226 E344.8201
G1 X153.416 Y132.058 E351.5566
G1 X153.416 Y132.737 E351.6135
G1 X96.584 Y75.905 E358.3500
G1 X96.584 Y76.584 E358.4069
G1 X153.416 Y133.416 E365.1433
G1 X153.416 Y134.095 E365.2002
G1 X96.584 Y77.263 E371.9367
G1 X96.584 Y77.942 E371.9936
G1 X153.416 Y134.774 E378.7301
G1 X153.416 Y135.452 E378.7870
G1 X96.584 Y78.620 E385.5234
G1 X96.584 Y79.299 E385.5803
G1 X153.416 Y136.131 E392.3168
G1 X153.416 Y136.810 E392.3737
G1 X96.584 Y79.978 E399.1102
G1 X96.584 Y80.657 E399.1671
G1 X153.416 Y137.489 E405.9036
G1 X153.416 Y138.168 E405.9604
G1 X96.584 Y81.336 E412.6969
G1 X96.584 Y82.015 E412.7538
G1 X153.416 Y138.847 E419.4903
G1 X153.416 Y139.525 E419.5472
G1 X96.584 Y82.693 E426.2837
G1 X96.584 Y83.372 E426.3405
G1 X153.416 Y140.204 E433.0770
G1 X153.416 Y140.883 E433.1339
G1 X96.584 Y84.051 E439.8704
G1 X96.584 Y84.730 E439.9273
G1 X152.770 Y140.916 E446.5872
G1 X152.091 Y140.916 E446.6441
G1 X96.584 Y85.409 E453.2235
G1 X96.584 Y86.088 E453.2804
G1 X151.412 Y140.916 E459.7794
G1 X150.734 Y140.916 E459.8363
G1 X96.584 Y86.766 E466.2549
G1 X96.584 Y87.445 E466.3118
G1 X150.055 Y140.916 E472.6498
G1 X149.376 Y140.916 E472.7067
G1 X96.584 Y88.124 E478.9643
G1 X96.584 Y88.803 E479.0212
G1 X148.697 Y140.916 E485.1984
G1 X148.018 Y140.916 E485.2552
G1 X96.584 Y89.482 E491.3519
G1 X96.584 Y90.160 E491.4088
G1 X147.340 Y140.916 E497.4250
G1 X146.661 Y140.916 E497.4819
G1 X96.584 Y90.839 E503.4177
G1 X96.584 Y91.518 E503.4746
G1 X145.982 Y140.916 E509.3299
G1 X145.303 Y140.916 E509.3868
G1 X96.584 Y92.197 E515.1616
G1 X96.584 Y92.876 E515.2185
G1 X144.624 Y140.916 E520.9128
G1 X143.945 Y140.916 E520.9697
G1 X96.584 Y93.555 E526.5836
G1 X96.584 Y94.233 E526.6405
G1 X143.267 Y140.916 E532.1740
G1 X142.588 Y140.916 E532.2309
G1 X96.584 Y94.912 E537.6838
G1 X96.584 Y95.591 E537.7407
G1 X141.909 Y140.916 E543.1132
G1 X141.230 Y140.916 E543.1701
G1 X96.584 Y96.270 E548.4622
G1 X96.584 Y96.949 E548.5191
G1 X140.551 Y140.916 E553.7307
G1 X139.873 Y140.916 E553.7876
G1 X96.584 Y97.627 E558.9187
G1 X96.584 Y98.306 E558.9756
G1 X139.194 Y140.916 E564.0262
G1 X138.515 Y140.916 E564.0831
G1 X96.584 Y98.985 E569.0533
G1 X96.584 Y99.664 E569.1102
G1 X137.836 Y140.916 E573.9999
G1 X137.157 Y140.916 E574.0568
G1 X96.584 Y100.343 E578.8661
G1 X96.584 Y101.022 E578.9230
G1 X136.478 Y140.916 E583.6518
G1 X135.800 Y140.916 E583.7087
G1 X96.584 Y101.700 E588.3571
G1 X96.584 Y102.379 E588.4140
G1 X135.121 Y140.916 E592.9818
G1 X134.442 Y140.916 E593.0387
G1 X96.584 Y103.058 E597.5261
G1 X96.584 Y103.737 E597.5830
G1 X133.763 Y140.916 E601.9900
G1 X133.084 Y140.916 E602.0469
G1 X96.584 Y104.416 E606.3734
G1 X96.584 Y105.095 E606.4303
G1 X132.405 Y140.916 E610.6763
G1 X131.727 Y140.916 E610.7332
G1 X96.584 Y105.773 E614.8988
G1 X96.584 Y106.452 E614.9557
G1 X131.048 Y140.916 E619.0408
G1 X130.369 Y140.916 E619.0977
G1 X96.584 Y107.131 E623.1023
G1 X96.584 Y107.810 E623.1592
G1 X129.690 Y140.916 E627.0834
G1 X129.011 Y140.916 E627.1403
G1 X96.584 Y108.489 E630.9840
G1 X96.584 Y109.167 E631.0409
G1 X128.333 Y140.916 E634.8041
G1 X127.654 Y140.916 E634.8610
