; G-Code generated by Simplify3D(R) Version 4.0.0
; May 22, 2018 at 10:43:02 AM
; Settings Summary
;   processName,PLA Fast
;   applyToModels,bbq-machine-components-lid
;   profileName,Prusa Research Original Prusa i3 MK2 (modified)
;   profileVersion,2017-07-23 22:27:18
;   baseProfile,
;   printMaterial,PLA
;   printQuality,Fast
;   printExtruders,
;   extruderName,Primary Extruder
;   extruderToolheadNumber,0
;   extruderDiameter,0.4
;   extruderAutoWidth,1
;   extruderWidth,0.48
;   extrusionMultiplier,1
;   extruderUseRetract,1
;   extruderRetractionDistance,1.5
;   extruderExtraRestartDistance,0
;   extruderRetractionZLift,0
;   extruderRetractionSpeed,1800
;   extruderUseCoasting,1
;   extruderCoastingDistance,0.2
;   extruderUseWipe,1
;   extruderWipeDistance,2
;   primaryExtruder,0
;   layerHeight,0.35
;   topSolidLayers,3
;   bottomSolidLayers,3
;   perimeterOutlines,3
;   printPerimetersInsideOut,1
;   startPointOption,2
;   startPointOriginX,0
;   startPointOriginY,0
;   sequentialIslands,0
;   spiralVaseMode,0
;   firstLayerHeightPercentage,120
;   firstLayerWidthPercentage,100
;   firstLayerUnderspeed,0.5
;   useRaft,0
;   raftExtruder,0
;   raftTopLayers,3
;   raftBaseLayers,2
;   raftOffset,3
;   raftSeparationDistance,0.14
;   raftTopInfill,100
;   aboveRaftSpeedMultiplier,0.3
;   useSkirt,1
;   skirtExtruder,0
;   skirtLayers,1
;   skirtOutlines,1
;   skirtOffset,4
;   usePrimePillar,0
;   primePillarExtruder,999
;   primePillarWidth,12
;   primePillarLocation,7
;   primePillarSpeedMultiplier,1
;   useOozeShield,0
;   oozeShieldExtruder,999
;   oozeShieldOffset,2
;   oozeShieldOutlines,1
;   oozeShieldSidewallShape,1
;   oozeShieldSidewallAngle,30
;   oozeShieldSpeedMultiplier,1
;   infillExtruder,0
;   internalInfillPattern,Rectilinear
;   externalInfillPattern,Rectilinear
;   infillPercentage,20
;   outlineOverlapPercentage,20
;   infillExtrusionWidthPercentage,100
;   minInfillLength,5
;   infillLayerInterval,1
;   internalInfillAngles,45,-45
;   overlapInternalInfillAngles,0
;   externalInfillAngles,45,-45
;   generateSupport,0
;   supportExtruder,0
;   supportInfillPercentage,25
;   supportExtraInflation,0
;   supportBaseLayers,0
;   denseSupportExtruder,0
;   denseSupportLayers,0
;   denseSupportInfillPercentage,70
;   supportLayerInterval,1
;   supportHorizontalPartOffset,0.3
;   supportUpperSeparationLayers,1
;   supportLowerSeparationLayers,1
;   supportType,0
;   supportGridSpacing,4
;   maxOverhangAngle,45
;   supportAngles,0
;   temperatureName,Primary Extruder,Heated Bed
;   temperatureNumber,0,0
;   temperatureSetpointCount,1,1
;   temperatureSetpointLayers,1,1
;   temperatureSetpointTemperatures,210,55
;   temperatureStabilizeAtStartup,1,1
;   temperatureHeatedBed,0,1
;   temperatureRelayBetweenLayers,0,0
;   temperatureRelayBetweenLoops,0,0
;   fanLayers,1,2
;   fanSpeeds,0,100
;   blipFanToFullPower,0
;   adjustSpeedForCooling,1
;   minSpeedLayerTime,15
;   minCoolingSpeedSlowdown,20
;   increaseFanForCooling,0
;   minFanLayerTime,45
;   maxCoolingFanSpeed,100
;   increaseFanForBridging,0
;   bridgingFanSpeed,100
;   use5D,1
;   relativeEdistances,0
;   allowEaxisZeroing,1
;   independentExtruderAxes,0
;   includeM10123,0
;   stickySupport,1
;   applyToolheadOffsets,0
;   gcodeXoffset,0
;   gcodeYoffset,0
;   gcodeZoffset,0
;   overrideMachineDefinition,1
;   machineTypeOverride,0
;   strokeXoverride,250
;   strokeYoverride,210
;   strokeZoverride,200
;   originOffsetXoverride,0
;   originOffsetYoverride,0
;   originOffsetZoverride,0
;   homeXdirOverride,-1
;   homeYdirOverride,-1
;   homeZdirOverride,-1
;   flipXoverride,1
;   flipYoverride,-1
;   flipZoverride,1
;   toolheadOffsets,0,0|0,0|0,0|0,0|0,0|0,0
;   overrideFirmwareConfiguration,1
;   firmwareTypeOverride,RepRap (Marlin/Repetier/Sprinter)
;   GPXconfigOverride,r2
;   baudRateOverride,250000
;   overridePrinterModels,1
;   printerModelsOverride
;   startingGcode,M115 U3.0.7 ; use the latest firmware version,G28 W ; home all axes without mesh bed leveling,G80 ; run mesh bed leveling routine,G1 Y-3.0 F1000.0 ; prepare to prime,G92 E0 ; reset extrusion distance,G1 X60.0 E9.0  F1000.0 ; priming,G1 X100.0 E12.5  F1000.0 ; priming
;   layerChangeGcode,
;   retractionGcode,
;   toolChangeGcode,
;   endingGcode,M106 S0 ; turn off cooling fan,M104 S0 ; turn off extruder,M140 S0 ; turn off bed,G1 X0 Y200 ; part removal,M84 ; disable motors
;   exportFileFormat,gcode
;   celebration,0
;   celebrationSong,Random Song
;   postProcessing,
;   defaultSpeed,2400
;   outlineUnderspeed,0.8
;   solidInfillUnderspeed,0.8
;   supportUnderspeed,0.8
;   rapidXYspeed,4800
;   rapidZspeed,1002
;   minBridgingArea,50
;   bridgingExtraInflation,0
;   bridgingExtrusionMultiplier,1
;   bridgingSpeedMultiplier,1
;   useFixedBridgingAngle,0
;   fixedBridgingAngle,0
;   applyBridgingToPerimeters,0
;   filamentDiameters,1.75|1.75|1.75|1.75|1.75|1.75
;   filamentPricesPerKg,46|46|46|46|46|46
;   filamentDensities,1.25|1.25|1.25|1.25|1.25|1.25
;   useMinPrintHeight,1
;   minPrintHeight,0
;   useMaxPrintHeight,1
;   maxPrintHeight,235
;   useDiaphragm,0
;   diaphragmLayerInterval,20
;   robustSlicing,1
;   mergeAllIntoSolid,0
;   onlyRetractWhenCrossingOutline,1
;   retractBetweenLayers,1
;   useRetractionMinTravel,0
;   retractionMinTravel,3
;   retractWhileWiping,1
;   onlyWipeOutlines,1
;   avoidCrossingOutline,0
;   maxMovementDetourFactor,3
;   toolChangeRetractionDistance,12
;   toolChangeExtraRestartDistance,-0.5
;   toolChangeRetractionSpeed,600
;   externalThinWallType,0
;   internalThinWallType,1
;   thinWallAllowedOverlapPercentage,25
;   singleExtrusionMinLength,1
;   singleExtrusionMinPrintingWidthPercentage,50
;   singleExtrusionMaxPrintingWidthPercentage,200
;   singleExtrusionEndpointExtension,0.2
;   horizontalSizeCompensation,0
G90
M82
M106 S0
M140 S55
M190 S55
M104 S210 T0
M109 S210 T0
M115 U3.0.7 ; use the latest firmware version
G28 W ; home all axes without mesh bed leveling
G80 ; run mesh bed leveling routine
G1 Y-3.0 F1000.0 ; prepare to prime
G92 E0 ; reset extrusion distance
G1 X60.0 E9.0  F1000.0 ; priming
G1 X100.0 E12.5  F1000.0 ; priming
G92 E0
G1 E-1.5000 F1800
G1 Z0.420 F1002
; process PLA Fast
; layer 1, Z = 0.420
T0
; tool H0.420 W0.480
; skirt
G1 X90.797 Y63.207 F4800
G1 E0.0000 F540
G92 E0
G1 X93.207 Y60.797 E0.2857 F1200
G1 X93.295 Y60.760 E0.2937
G1 X156.705 Y60.760 E5.6084
G1 X156.793 Y60.797 E5.6164
G1 X159.203 Y63.207 E5.9022
G1 X159.240 Y63.295 E5.9102
G1 X159.240 Y146.705 E12.9012
G1 X159.203 Y146.793 E12.9092
G1 X156.793 Y149.203 E13.1949
G1 X156.705 Y149.240 E13.2029
G1 X93.295 Y149.240 E18.5176
G1 X93.207 Y149.203 E18.5256
G1 X90.797 Y146.793 E18.8113
G1 X90.760 Y146.705 E18.8193
G1 X90.760 Y63.400 E25.8015
G1 X90.760 Y63.295 F1200
G1 X90.797 Y63.207 F1200
G92 E0
G1 E-1.5000 F1800
; inner perimeter
G1 X96.200 Y66.200 F4800
G1 E0.0000 F1800
G92 E0
G1 X97.298 Y66.200 E0.0921 F1080
G1 X97.376 Y66.456 E0.1144
G1 X96.824 Y66.824 E0.1701
G1 X96.456 Y67.376 E0.2257
G1 X96.200 Y67.298 E0.2481
G1 X96.200 Y66.400 E0.3234
G1 X96.200 Y66.200 F1080
G1 X96.456 Y70.124 F4800
G92 E0
G1 X96.824 Y70.676 E0.0556 F1080
G1 X97.708 Y71.266 E0.1447
G1 X98.750 Y71.474 E0.2338
G1 X99.792 Y71.266 E0.3228
G1 X100.676 Y70.676 E0.4119
G1 X101.266 Y69.792 E0.5010
G1 X101.474 Y68.750 E0.5900
G1 X101.266 Y67.708 E0.6791
G1 X100.676 Y66.824 E0.7682
G1 X100.124 Y66.456 E0.8238
G1 X100.202 Y66.200 E0.8462
G1 X149.798 Y66.200 E5.0031
G1 X149.876 Y66.456 E5.0255
G1 X149.324 Y66.824 E5.0811
G1 X148.734 Y67.708 E5.1702
G1 X148.526 Y68.750 E5.2593
G1 X148.734 Y69.792 E5.3483
G1 X149.324 Y70.676 E5.4374
G1 X150.208 Y71.266 E5.5265
G1 X151.250 Y71.474 E5.6156
G1 X152.292 Y71.266 E5.7046
G1 X153.176 Y70.676 E5.7937
G1 X153.544 Y70.124 E5.8493
G1 X153.800 Y70.202 E5.8717
G1 X153.800 Y139.798 E11.7050
G1 X153.544 Y139.876 E11.7274
G1 X153.176 Y139.324 E11.7830
G1 X152.292 Y138.734 E11.8721
G1 X151.250 Y138.526 E11.9611
G1 X150.208 Y138.734 E12.0502
G1 X149.324 Y139.324 E12.1393
G1 X148.734 Y140.208 E12.2283
G1 X148.526 Y141.250 E12.3174
G1 X148.734 Y142.292 E12.4065
G1 X149.324 Y143.176 E12.4955
G1 X149.876 Y143.544 E12.5512
G1 X149.798 Y143.800 E12.5735
G1 X100.201 Y143.800 E16.7305
G1 X100.124 Y143.544 E16.7529
G1 X100.676 Y143.176 E16.8085
G1 X101.266 Y142.292 E16.8976
G1 X101.474 Y141.250 E16.9867
G1 X101.266 Y140.208 E17.0757
G1 X100.676 Y139.324 E17.1648
G1 X99.792 Y138.734 E17.2539
G1 X98.750 Y138.526 E17.3429
G1 X97.708 Y138.734 E17.4320
G1 X96.824 Y139.324 E17.5211
G1 X96.456 Y139.876 E17.5767
G1 X96.200 Y139.798 E17.5991
G1 X96.200 Y70.202 E23.4324
G1 X96.264 Y70.182 E23.4380
G1 X96.456 Y70.124 F1080
G92 E0
G1 E-1.5000 F1800
G1 X152.624 Y66.456 F4800
G1 E0.0000 F1800
G92 E0
G1 X152.702 Y66.200 E0.0224 F1080
G1 X153.800 Y66.200 E0.1144
G1 X153.800 Y67.298 E0.2065
G1 X153.544 Y67.376 E0.2289
G1 X153.176 Y66.824 E0.2845
G1 X152.790 Y66.567 E0.3234
G1 X152.624 Y66.456 F1080
G92 E0
G1 E-1.5000 F1800
G1 X153.544 Y142.624 F4800
G1 E0.0000 F1800
G92 E0
G1 X153.800 Y142.702 E0.0224 F1080
G1 X153.800 Y143.800 E0.1145
G1 X152.702 Y143.800 E0.2065
G1 X152.624 Y143.544 E0.2289
G1 X153.176 Y143.176 E0.2845
G1 X153.433 Y142.790 E0.3234
G1 X153.544 Y142.624 F1080
G92 E0
G1 E-1.5000 F1800
G1 X97.376 Y143.544 F4800
G1 E0.0000 F1800
G92 E0
G1 X97.298 Y143.800 E0.0224 F1080
G1 X96.200 Y143.800 E0.1145
G1 X96.200 Y142.702 E0.2065
G1 X96.456 Y142.624 E0.2289
G1 X96.824 Y143.176 E0.2845
G1 X97.210 Y143.433 E0.3234
G1 X97.376 Y143.544 F1080
G1 X95.720 Y144.280 F4800
G92 E0
G1 X95.720 Y65.720 E6.5845 F1080
G1 X154.280 Y65.720 E11.4928
G1 X154.280 Y144.280 E18.0773
G1 X95.920 Y144.280 E22.9688
G1 X95.720 Y144.280 F1080
; outer perimeter
G1 X95.240 Y144.760 F4800
G92 E0
G1 X95.240 Y65.240 E6.6650 F960
G1 X154.760 Y65.240 E11.6537
G1 X154.760 Y144.760 E18.3187
G1 X95.440 Y144.760 E23.2907
G1 X95.240 Y144.760 F960
G1 X95.240 Y142.760 F2400
; inner perimeter
G1 X96.686 Y142.105 F4800
G92 E0
G1 X97.170 Y142.830 E0.0731 F1080
G1 X97.895 Y143.314 E0.1461
G1 X98.750 Y143.484 E0.2192
G1 X99.605 Y143.314 E0.2923
G1 X100.330 Y142.830 E0.3653
G1 X100.814 Y142.105 E0.4384
G1 X100.984 Y141.250 E0.5114
G1 X100.814 Y140.395 E0.5845
G1 X100.330 Y139.670 E0.6576
G1 X99.605 Y139.186 E0.7306
G1 X98.750 Y139.016 E0.8037
G1 X97.895 Y139.186 E0.8767
G1 X97.170 Y139.670 E0.9498
G1 X96.686 Y140.395 E1.0229
G1 X96.516 Y141.250 E1.0959
G1 X96.647 Y141.909 E1.1522
G1 X96.686 Y142.105 F1080
; outer perimeter
G1 X97.138 Y141.918 F4800
G92 E0
G1 X97.516 Y142.484 E0.0571 F960
G1 X98.082 Y142.862 E0.1141
G1 X98.750 Y142.995 E0.1712
G1 X99.418 Y142.862 E0.2282
G1 X99.984 Y142.484 E0.2853
G1 X100.362 Y141.918 E0.3423
G1 X100.495 Y141.250 E0.3994
G1 X100.362 Y140.582 E0.4565
G1 X99.984 Y140.016 E0.5135
G1 X99.418 Y139.638 E0.5706
G1 X98.750 Y139.505 E0.6276
G1 X98.082 Y139.638 E0.6847
G1 X97.516 Y140.016 E0.7417
G1 X97.138 Y140.582 E0.7988
G1 X97.005 Y141.250 E0.8559
G1 X97.099 Y141.721 E0.8962
G1 X97.138 Y141.918 F960
G92 E0
G1 X97.516 Y142.484 E-0.5106 F2400
G1 X98.082 Y142.862 E-1.0212
G1 X98.709 Y142.986 E-1.5000
; inner perimeter
G1 X111.130 Y133.870 F4800
G1 E0.0000 F1800
G92 E0
G1 X112.905 Y135.057 E0.1790 F1080
G1 X115.000 Y135.474 E0.3580
G1 X117.095 Y135.057 E0.5370
G1 X118.870 Y133.870 E0.7160
G1 X120.057 Y132.095 E0.8950
G1 X120.474 Y130.000 E1.0740
G1 X120.057 Y127.905 E1.2530
G1 X118.870 Y126.130 E1.4320
G1 X117.095 Y124.943 E1.6110
G1 X115.000 Y124.526 E1.7900
G1 X112.905 Y124.943 E1.9690
G1 X111.130 Y126.130 E2.1480
G1 X109.943 Y127.905 E2.3270
G1 X109.526 Y130.000 E2.5060
G1 X109.943 Y132.095 E2.6850
G1 X111.019 Y133.704 E2.8473
G1 X111.130 Y133.870 F1080
G1 X111.476 Y133.524 F4800
G92 E0
G1 X113.093 Y134.605 E0.1630 F1080
G1 X115.000 Y134.984 E0.3260
G1 X116.907 Y134.605 E0.4890
G1 X118.524 Y133.524 E0.6520
G1 X119.605 Y131.907 E0.8150
G1 X119.984 Y130.000 E0.9780
G1 X119.605 Y128.093 E1.1410
G1 X118.524 Y126.476 E1.3040
G1 X116.907 Y125.395 E1.4670
G1 X115.000 Y125.016 E1.6300
G1 X113.093 Y125.395 E1.7930
G1 X111.476 Y126.476 E1.9560
G1 X110.395 Y128.093 E2.1190
G1 X110.016 Y130.000 E2.2819
G1 X110.395 Y131.907 E2.4449
G1 X111.365 Y133.358 E2.5912
G1 X111.476 Y133.524 F1080
; outer perimeter
G1 X111.822 Y133.178 F4800
G92 E0
G1 X113.280 Y134.153 E0.1470 F960
G1 X115.000 Y134.495 E0.2940
G1 X116.720 Y134.153 E0.4410
G1 X118.178 Y133.178 E0.5880
G1 X119.153 Y131.720 E0.7350
G1 X119.495 Y130.000 E0.8819
G1 X119.153 Y128.280 E1.0289
G1 X118.178 Y126.822 E1.1759
G1 X116.720 Y125.847 E1.3229
G1 X115.000 Y125.505 E1.4699
G1 X113.280 Y125.847 E1.6169
G1 X111.822 Y126.822 E1.7639
G1 X110.847 Y128.280 E1.9109
G1 X110.505 Y130.000 E2.0579
G1 X110.847 Y131.720 E2.2049
G1 X111.711 Y133.012 E2.3351
G1 X111.822 Y133.178 F960
G92 E0
G1 X113.280 Y134.153 E-1.3153 F2400
G1 X113.521 Y134.201 E-1.5000
; inner perimeter
G1 X129.526 Y130.000 F4800
G1 E0.0000 F1800
G92 E0
G1 X129.943 Y132.095 E0.1790 F1080
G1 X131.130 Y133.870 E0.3580
G1 X132.905 Y135.057 E0.5370
G1 X135.000 Y135.474 E0.7160
G1 X137.095 Y135.057 E0.8950
G1 X138.870 Y133.870 E1.0740
G1 X140.057 Y132.095 E1.2530
G1 X140.474 Y130.000 E1.4320
G1 X140.057 Y127.905 E1.6110
G1 X138.870 Y126.130 E1.7900
G1 X137.095 Y124.943 E1.9690
G1 X135.000 Y124.526 E2.1480
G1 X132.905 Y124.943 E2.3270
G1 X131.130 Y126.130 E2.5060
G1 X129.943 Y127.905 E2.6850
G1 X129.566 Y129.804 E2.8473
G1 X129.526 Y130.000 F1080
G1 X130.016 Y130.000 F4800
G92 E0
G1 X130.395 Y131.907 E0.1630 F1080
G1 X131.476 Y133.524 E0.3260
G1 X133.093 Y134.605 E0.4890
G1 X135.000 Y134.984 E0.6520
G1 X136.907 Y134.605 E0.8150
G1 X138.524 Y133.524 E0.9780
G1 X139.605 Y131.907 E1.1410
G1 X139.984 Y130.000 E1.3040
G1 X139.605 Y128.093 E1.4670
G1 X138.524 Y126.476 E1.6300
G1 X136.907 Y125.395 E1.7930
G1 X135.000 Y125.016 E1.9560
G1 X133.093 Y125.395 E2.1189
G1 X131.476 Y126.476 E2.2819
G1 X130.395 Y128.093 E2.4449
G1 X130.055 Y129.804 E2.5912
G1 X130.016 Y130.000 F1080
; outer perimeter
G1 X130.505 Y130.000 F4800
G92 E0
G1 X130.847 Y131.720 E0.1470 F960
G1 X131.822 Y133.178 E0.2940
G1 X133.280 Y134.153 E0.4410
G1 X135.000 Y134.495 E0.5880
G1 X136.720 Y134.153 E0.7350
G1 X138.178 Y133.178 E0.8819
G1 X139.153 Y131.720 E1.0289
G1 X139.495 Y130.000 E1.1759
G1 X139.153 Y128.280 E1.3229
G1 X138.178 Y126.822 E1.4699
G1 X136.720 Y125.847 E1.6169
G1 X135.000 Y125.505 E1.7639
G1 X133.280 Y125.847 E1.9109
G1 X131.822 Y126.822 E2.0579
G1 X130.847 Y128.280 E2.2049
G1 X130.544 Y129.804 E2.3351
G1 X130.505 Y130.000 F960
G92 E0
G1 X130.847 Y131.720 E-1.3153 F2400
G1 X130.984 Y131.925 E-1.5000
; inner perimeter
G1 X149.186 Y140.395 F4800
G1 E0.0000 F1800
G92 E0
G1 X149.016 Y141.250 E0.0731 F1080
G1 X149.186 Y142.105 E0.1461
G1 X149.670 Y142.830 E0.2192
G1 X150.395 Y143.314 E0.2922
G1 X151.250 Y143.484 E0.3653
G1 X152.105 Y143.314 E0.4384
G1 X152.830 Y142.830 E0.5114
G1 X153.314 Y142.105 E0.5845
G1 X153.484 Y141.250 E0.6576
G1 X153.314 Y140.395 E0.7306
G1 X152.830 Y139.670 E0.8037
G1 X152.105 Y139.186 E0.8767
G1 X151.250 Y139.016 E0.9498
G1 X150.395 Y139.186 E1.0229
G1 X149.670 Y139.670 E1.0959
G1 X149.297 Y140.229 E1.1522
G1 X149.186 Y140.395 F1080
; outer perimeter
G1 X149.638 Y140.582 F4800
G92 E0
G1 X149.505 Y141.250 E0.0571 F960
G1 X149.638 Y141.918 E0.1141
G1 X150.016 Y142.484 E0.1712
G1 X150.582 Y142.862 E0.2282
G1 X151.250 Y142.995 E0.2853
G1 X151.918 Y142.862 E0.3423
G1 X152.484 Y142.484 E0.3994
G1 X152.862 Y141.918 E0.4565
G1 X152.995 Y141.250 E0.5135
G1 X152.862 Y140.582 E0.5706
G1 X152.484 Y140.016 E0.6276
G1 X151.918 Y139.638 E0.6847
G1 X151.250 Y139.505 E0.7417
G1 X150.582 Y139.638 E0.7988
G1 X150.016 Y140.016 E0.8559
G1 X149.749 Y140.416 E0.8962
G1 X149.638 Y140.582 F960
G1 X149.505 Y141.250 F2400
G1 X149.638 Y141.918 F2400
G1 X149.993 Y142.449 F2400
; inner perimeter
G1 X121.700 Y97.950 F4800
G92 E0
G1 X121.700 Y85.050 E1.0812 F1080
G1 X108.300 Y85.050 E2.2043
G1 X108.300 Y97.950 E3.2856
G1 X121.500 Y97.950 E4.3919
G1 X121.700 Y97.950 F1080
G1 X121.220 Y97.470 F4800
G92 E0
G1 X121.220 Y85.530 E1.0008 F1080
G1 X108.780 Y85.530 E2.0434
G1 X108.780 Y97.470 E3.0442
