; generated by Slic3r Prusa Edition 1.40.0+ on 2019-01-16 at 18:20:56

; 

; external perimeters extrusion width = 0.45mm
; perimeters extrusion width = 0.45mm
; infill extrusion width = 0.45mm
; solid infill extrusion width = 0.45mm
; top infill extrusion width = 0.40mm
; first layer extrusion width = 0.42mm

M107
M115 U3.1.0 ; tell printer latest fw version
M201 X9000 Y9000 Z500 E10000 ; sets maximum accelerations, mm/sec^2
M203 X500 Y500 Z12 E120 ; sets maximum feedrates, mm/sec
M204 S1500 T1500 ; sets acceleration (S) and retract acceleration (T)
M205 X10 Y10 Z0.2 E2.5 ; sets the jerk limits, mm/sec
M205 S0 T0 ; sets the minimum extruding and travel feed rate, mm/sec
M83  ; extruder relative mode
M104 S230 ; set extruder temp
M140 S75 ; set bed temp
M190 S75 ; wait for bed temp
M109 S230 ; wait for extruder temp
G28 W ; home all without mesh bed level
G80 ; mesh bed leveling
G1 Y-3.0 F1000.0 ; go outside print area
G92 E0.0
G1 X60.0 E9.0  F1000.0 ; intro line
G1 X100.0 E12.5  F1000.0 ; intro line
G92 E0.0
M900 K45; Filament gcode
G21 ; set units to millimeters
G90 ; use absolute coordinates
M83 ; use relative distances for extrusion
;BEFORE_LAYER_CHANGE
G92 E0.0
;0.2


G1 E-0.80000 F2100.00000
G1 Z0.600 F10800.000
;AFTER_LAYER_CHANGE
;0.2
G1 X100.214 Y84.437
G1 Z0.200
G1 E0.80000 F2100.00000
M204 S1000
G1 F1800
G1 X102.400 Y82.057 E0.10133
G1 X104.640 Y80.048 E0.09434
G1 X107.233 Y78.140 E0.10094
G1 X110.046 Y76.477 E0.10245
G1 X113.062 Y75.091 E0.10410
G1 X116.106 Y74.049 E0.10087
G1 X119.228 Y73.319 E0.10053
G1 X122.410 Y72.902 E0.10064
G1 X125.416 Y72.800 E0.09429
G1 X128.646 Y73.004 E0.10147
G1 X131.814 Y73.526 E0.10067
G1 X134.917 Y74.362 E0.10078
G1 X137.949 Y75.513 E0.10170
G1 X140.945 Y77.020 E0.10513
G1 X143.486 Y78.630 E0.09433
G1 X145.388 Y80.071 E0.07483
G1 X147.770 Y82.225 E0.10066
G1 X149.906 Y84.582 E0.09974
G1 X151.815 Y87.162 E0.10064
G1 X153.458 Y89.919 E0.10064
G1 X154.820 Y92.830 E0.10075
G1 X155.834 Y95.689 E0.09511
G1 X156.632 Y98.919 E0.10434
G1 X157.085 Y102.158 E0.10255
G1 X157.209 Y105.395 E0.10155
G1 X157.013 Y108.577 E0.09995
G1 X156.499 Y111.745 E0.10064
G1 X155.672 Y114.846 E0.10064
G1 X154.539 Y117.853 E0.10075
G1 X153.203 Y120.571 E0.09497
G1 X151.509 Y123.308 E0.10089
G1 X149.488 Y125.938 E0.10399
G1 X147.233 Y128.317 E0.10277
G1 X144.800 Y130.416 E0.10076
G1 X142.173 Y132.260 E0.10064
G1 X139.373 Y133.836 E0.10076
G1 X136.436 Y135.121 E0.10052
G1 X133.551 Y136.064 E0.09517
G1 X130.413 Y136.762 E0.10078
G1 X127.232 Y137.143 E0.10044
G1 X123.927 Y137.204 E0.10365
G1 X120.639 Y136.924 E0.10346
G1 X117.492 Y136.333 E0.10041
G1 X114.408 Y135.429 E0.10076
G1 X111.617 Y134.308 E0.09432
G1 X108.744 Y132.817 E0.10147
G1 X106.080 Y131.078 E0.09975
G1 X103.579 Y129.065 E0.10067
G1 X101.857 Y127.413 E0.07483
G1 X100.511 Y125.937 E0.06263
G1 X99.187 Y124.278 E0.06656
G1 X97.891 Y122.406 E0.07138
G1 X96.294 Y119.622 E0.10064
G1 X94.984 Y116.696 E0.10053
G1 X93.970 Y113.650 E0.10064
G1 X93.293 Y110.686 E0.09533
G1 X92.886 Y107.510 E0.10040
G1 X92.796 Y104.297 E0.10078
G1 X92.935 Y101.948 E0.07380
G1 X93.376 Y98.875 E0.09731
G1 X94.168 Y95.681 E0.10318
G1 X95.263 Y92.629 E0.10168
G1 X96.628 Y89.757 E0.09971
G1 X98.289 Y87.006 E0.10075
G1 X100.178 Y84.485 E0.09876
G1 F8640
G1 X102.400 Y82.057 E-0.75998
G1 X102.400 Y82.057 E-0.00002
G1 E-0.04000 F2100.00000
G1 Z0.800 F10800.000
G1 X134.394 Y80.122
G1 Z0.200
G1 E0.80000 F2100.00000
G1 F1800
G1 X132.878 Y83.570 E0.11809
G1 X132.804 Y83.802 E0.00766
G1 X132.756 Y84.041 E0.00762
G1 X132.735 Y84.283 E0.00762
G1 X132.740 Y84.526 E0.00762
G1 X132.772 Y84.767 E0.00762
G1 X132.831 Y85.003 E0.00762
G1 X132.915 Y85.232 E0.00762
G1 X133.023 Y85.449 E0.00762
G1 X133.155 Y85.654 E0.00762
G1 X133.308 Y85.842 E0.00762
G1 X133.481 Y86.013 E0.00762
G1 X133.672 Y86.164 E0.00762
G1 X133.878 Y86.293 E0.00762
G1 X134.097 Y86.398 E0.00763
G1 X134.326 Y86.479 E0.00762
G1 X134.562 Y86.534 E0.00759
G1 X134.814 Y86.563 E0.00794
G1 X135.048 Y86.565 E0.00734
G1 X135.290 Y86.541 E0.00762
G1 X135.528 Y86.490 E0.00762
G1 X135.758 Y86.413 E0.00763
G1 X135.979 Y86.312 E0.00762
G1 X136.188 Y86.186 E0.00762
G1 X136.380 Y86.040 E0.00759
G1 X136.563 Y85.864 E0.00794
G1 X136.714 Y85.685 E0.00734
G1 X136.850 Y85.482 E0.00766
G1 X138.600 Y82.147 E0.11809
G1 X139.922 Y83.010 E0.04949
G1 X140.693 Y83.553 E0.02957
G1 X141.419 Y84.105 E0.02860
G1 X142.174 Y84.719 E0.03053
G1 X142.883 Y85.342 E0.02958
G1 X143.570 Y85.988 E0.02957
G1 X144.233 Y86.659 E0.02957
G1 X144.872 Y87.353 E0.02957
G1 X145.465 Y88.046 E0.02860
G1 X146.073 Y88.806 E0.03053
G1 X146.635 Y89.564 E0.02958
G1 X147.169 Y90.341 E0.02957
G1 X147.675 Y91.137 E0.02957
G1 X148.153 Y91.950 E0.02957
G1 X148.602 Y92.780 E0.02957
G1 X149.021 Y93.625 E0.02958
G1 X149.421 Y94.512 E0.03053
G1 X149.768 Y95.356 E0.02860
G1 X150.314 Y96.837 E0.04949
G1 X146.674 Y97.801 E0.11809
G1 X146.446 Y97.888 E0.00766
G1 X146.229 Y98.000 E0.00762
G1 X146.027 Y98.134 E0.00763
G1 X145.840 Y98.290 E0.00762
G1 X145.671 Y98.465 E0.00762
G1 X145.523 Y98.658 E0.00762
G1 X145.397 Y98.866 E0.00762
G1 X145.294 Y99.086 E0.00763
G1 X145.217 Y99.317 E0.00762
G1 X145.165 Y99.553 E0.00759
G1 X145.139 Y99.805 E0.00794
G1 X145.140 Y100.039 E0.00734
G1 X145.168 Y100.281 E0.00762
G1 X145.222 Y100.518 E0.00762
G1 X145.302 Y100.748 E0.00762
G1 X145.406 Y100.967 E0.00762
G1 X145.534 Y101.174 E0.00762
G1 X145.684 Y101.365 E0.00762
G1 X145.854 Y101.539 E0.00762
G1 X146.042 Y101.693 E0.00762
G1 X146.246 Y101.826 E0.00762
G1 X146.463 Y101.935 E0.00762
G1 X146.691 Y102.020 E0.00762
G1 X146.926 Y102.079 E0.00759
G1 X147.177 Y102.113 E0.00794
G1 X147.411 Y102.119 E0.00734
G1 X147.655 Y102.099 E0.00766
G1 X151.353 Y101.388 E0.11809
G1 X151.503 Y102.959 E0.04949
G1 X151.559 Y103.900 E0.02957
G1 X151.581 Y104.843 E0.02957
G1 X151.571 Y105.786 E0.02957
G1 X151.526 Y106.728 E0.02957
G1 X151.451 Y107.637 E0.02860
G1 X151.338 Y108.604 E0.03053
G1 X151.193 Y109.537 E0.02958
G1 X151.016 Y110.463 E0.02957
G1 X150.806 Y111.382 E0.02957
G1 X150.564 Y112.294 E0.02957
G1 X150.290 Y113.196 E0.02957
G1 X149.983 Y114.088 E0.02958
G1 X149.633 Y114.997 E0.03053
G1 X149.277 Y115.837 E0.02860
G1 X148.877 Y116.691 E0.02957
G1 X148.448 Y117.531 E0.02957
G1 X147.989 Y118.354 E0.02957
G1 X147.172 Y119.705 E0.04949
G1 X144.148 Y117.460 E0.11809
G1 X143.938 Y117.336 E0.00766
G1 X143.716 Y117.236 E0.00762
G1 X143.485 Y117.162 E0.00762
G1 X143.248 Y117.113 E0.00759
G1 X142.995 Y117.091 E0.00794
G1 X142.761 Y117.095 E0.00734
G1 X142.521 Y117.126 E0.00759
G1 X142.275 Y117.186 E0.00794
G1 X142.055 Y117.266 E0.00734
G1 X141.838 Y117.373 E0.00759
G1 X141.625 Y117.510 E0.00794
G1 X141.442 Y117.656 E0.00734
G1 X141.271 Y117.829 E0.00762
G1 X141.119 Y118.019 E0.00762
G1 X140.989 Y118.224 E0.00762
G1 X140.883 Y118.443 E0.00762
G1 X140.801 Y118.672 E0.00762
G1 X140.745 Y118.909 E0.00762
G1 X140.715 Y119.150 E0.00762
G1 X140.712 Y119.393 E0.00762
G1 X140.735 Y119.635 E0.00762
G1 X140.785 Y119.873 E0.00762
G1 X140.861 Y120.104 E0.00763
G1 X140.962 Y120.326 E0.00762
G1 X141.086 Y120.535 E0.00762
G1 X141.232 Y120.729 E0.00762
G1 X141.400 Y120.906 E0.00766
G1 X144.262 Y123.355 E0.11809
G1 X143.127 Y124.451 E0.04949
G1 X142.426 Y125.082 E0.02957
G1 X141.703 Y125.688 E0.02957
G1 X140.983 Y126.248 E0.02860
G1 X140.195 Y126.820 E0.03053
G1 X139.411 Y127.345 E0.02958
G1 X138.610 Y127.842 E0.02957
G1 X137.791 Y128.311 E0.02957
G1 X136.957 Y128.750 E0.02957
G1 X136.135 Y129.146 E0.02860
G1 X135.243 Y129.538 E0.03053
G1 X134.367 Y129.886 E0.02958
G1 X133.478 Y130.202 E0.02957
G1 X132.579 Y130.487 E0.02957
G1 X131.670 Y130.740 E0.02958
G1 X130.723 Y130.967 E0.03053
G1 X129.829 Y131.148 E0.02860
G1 X128.899 Y131.303 E0.02957
G1 X127.334 Y131.507 E0.04949
G1 X127.204 Y127.744 E0.11806
G1 X127.167 Y127.492 E0.00798
G1 X127.109 Y127.265 E0.00734
G1 X127.023 Y127.038 E0.00762
G1 X126.913 Y126.821 E0.00762
G1 X126.780 Y126.618 E0.00762
G1 X126.625 Y126.430 E0.00762
G1 X126.450 Y126.261 E0.00762
G1 X126.258 Y126.112 E0.00762
G1 X126.051 Y125.985 E0.00762
G1 X125.831 Y125.881 E0.00762
G1 X125.602 Y125.803 E0.00759
G1 X125.354 Y125.749 E0.00794
G1 X125.122 Y125.723 E0.00734
G1 X124.878 Y125.723 E0.00762
G1 X124.637 Y125.750 E0.00762
G1 X124.399 Y125.803 E0.00762
G1 X124.169 Y125.881 E0.00762
G1 X123.949 Y125.985 E0.00762
G1 X123.742 Y126.112 E0.00762
G1 X123.550 Y126.261 E0.00762
G1 X123.375 Y126.430 E0.00762
G1 X123.220 Y126.618 E0.00762
G1 X123.087 Y126.821 E0.00762
G1 X122.977 Y127.038 E0.00762
G1 X122.891 Y127.265 E0.00762
G1 X122.830 Y127.501 E0.00762
G1 X122.796 Y127.743 E0.00766
G1 X122.666 Y131.507 E0.11809
G1 X121.101 Y131.303 E0.04949
G1 X120.171 Y131.148 E0.02957
G1 X119.246 Y130.960 E0.02957
G1 X118.329 Y130.740 E0.02957
G1 X117.421 Y130.487 E0.02957
G1 X116.522 Y130.202 E0.02957
G1 X115.633 Y129.886 E0.02957
G1 X114.757 Y129.538 E0.02957
G1 X113.893 Y129.159 E0.02957
G1 X113.044 Y128.750 E0.02957
G1 X112.209 Y128.311 E0.02957
G1 X111.390 Y127.842 E0.02957
G1 X110.589 Y127.345 E0.02957
G1 X109.806 Y126.820 E0.02957
G1 X109.041 Y126.267 E0.02958
G1 X108.274 Y125.668 E0.03053
G1 X107.574 Y125.082 E0.02860
G1 X106.873 Y124.451 E0.02957
G1 X105.738 Y123.355 E0.04949
G1 X108.600 Y120.906 E0.11809
G1 X108.768 Y120.729 E0.00766
G1 X108.914 Y120.535 E0.00762
G1 X109.038 Y120.326 E0.00762
G1 X109.139 Y120.105 E0.00759
G1 X109.217 Y119.864 E0.00794
G1 X109.265 Y119.635 E0.00734
G1 X109.288 Y119.393 E0.00762
G1 X109.285 Y119.150 E0.00762
G1 X109.255 Y118.909 E0.00762
G1 X109.199 Y118.672 E0.00762
G1 X109.117 Y118.443 E0.00762
G1 X109.011 Y118.224 E0.00762
G1 X108.881 Y118.019 E0.00762
G1 X108.729 Y117.829 E0.00762
G1 X108.558 Y117.657 E0.00759
G1 X108.360 Y117.499 E0.00794
G1 X108.163 Y117.373 E0.00734
G1 X107.946 Y117.266 E0.00759
G1 X107.707 Y117.181 E0.00794
G1 X107.480 Y117.126 E0.00734
G1 X107.239 Y117.095 E0.00762
G1 X106.996 Y117.090 E0.00762
G1 X106.753 Y117.113 E0.00762
G1 X106.515 Y117.162 E0.00762
G1 X106.284 Y117.236 E0.00762
G1 X106.062 Y117.336 E0.00762
G1 X105.852 Y117.460 E0.00766
G1 X102.828 Y119.705 E0.11809
G1 X102.011 Y118.355 E0.04949
G1 X101.552 Y117.531 E0.02957
G1 X101.123 Y116.691 E0.02957
G1 X100.736 Y115.865 E0.02860
G1 X100.355 Y114.969 E0.03053
G1 X100.017 Y114.088 E0.02958
G1 X99.710 Y113.196 E0.02957
G1 X99.436 Y112.294 E0.02957
G1 X99.193 Y111.382 E0.02958
G1 X98.978 Y110.433 E0.03053
G1 X98.807 Y109.537 E0.02860
G1 X98.662 Y108.605 E0.02957
G1 X98.551 Y107.668 E0.02957
G1 X98.474 Y106.728 E0.02957
G1 X98.429 Y105.786 E0.02958
G1 X98.419 Y104.812 E0.03053
G1 X98.441 Y103.900 E0.02860
G1 X98.497 Y102.959 E0.02957
G1 X98.647 Y101.388 E0.04949
G1 X102.345 Y102.099 E0.11809
G1 X102.589 Y102.119 E0.00766
G1 X102.832 Y102.112 E0.00762
G1 X103.073 Y102.079 E0.00762
G1 X103.308 Y102.020 E0.00759
G1 X103.545 Y101.931 E0.00794
G1 X103.754 Y101.826 E0.00734
G1 X103.958 Y101.693 E0.00762
G1 X104.146 Y101.539 E0.00762
G1 X104.316 Y101.365 E0.00762
G1 X104.466 Y101.174 E0.00762
G1 X104.594 Y100.967 E0.00762
G1 X104.698 Y100.748 E0.00762
G1 X104.778 Y100.518 E0.00762
G1 X104.832 Y100.281 E0.00762
G1 X104.860 Y100.039 E0.00762
G1 X104.861 Y99.796 E0.00762
G1 X104.835 Y99.554 E0.00762
G1 X104.783 Y99.317 E0.00762
G1 X104.706 Y99.087 E0.00759
G1 X104.598 Y98.858 E0.00794
G1 X104.477 Y98.658 E0.00734
G1 X104.329 Y98.465 E0.00762
G1 X104.160 Y98.290 E0.00762
G1 X103.973 Y98.134 E0.00762
G1 X103.771 Y98.000 E0.00762
G1 X103.554 Y97.888 E0.00762
G1 X103.326 Y97.801 E0.00766
G1 X99.686 Y96.837 E0.11809
G1 X100.232 Y95.356 E0.04949
G1 X100.579 Y94.512 E0.02860
G1 X100.979 Y93.625 E0.03053
G1 X101.398 Y92.780 E0.02958
G1 X101.832 Y91.977 E0.02860
G1 X102.324 Y91.137 E0.03053
G1 X102.831 Y90.341 E0.02958
G1 X103.348 Y89.590 E0.02860
G1 X103.926 Y88.807 E0.03053
G1 X104.515 Y88.069 E0.02959
G1 X105.149 Y87.330 E0.03053
G1 X105.767 Y86.659 E0.02860
G1 X106.430 Y85.989 E0.02957
G1 X107.117 Y85.342 E0.02957
G1 X107.826 Y84.720 E0.02957
G1 X108.556 Y84.123 E0.02957
G1 X109.307 Y83.553 E0.02957
G1 X110.078 Y83.010 E0.02957
G1 X111.400 Y82.147 E0.04949
G1 X113.150 Y85.482 E0.11809
G1 X113.286 Y85.685 E0.00766
G1 X113.443 Y85.871 E0.00762
G1 X113.619 Y86.039 E0.00762
G1 X113.811 Y86.186 E0.00759
G1 X114.029 Y86.315 E0.00794
G1 X114.242 Y86.413 E0.00734
G1 X114.472 Y86.490 E0.00762
G1 X114.710 Y86.541 E0.00762
G1 X114.952 Y86.565 E0.00762
G1 X115.195 Y86.563 E0.00762
G1 X115.437 Y86.534 E0.00762
G1 X115.674 Y86.479 E0.00762
G1 X115.902 Y86.399 E0.00759
G1 X116.130 Y86.288 E0.00794
G1 X116.328 Y86.164 E0.00734
G1 X116.519 Y86.013 E0.00762
G1 X116.692 Y85.842 E0.00762
G1 X116.845 Y85.654 E0.00762
G1 X116.977 Y85.449 E0.00762
G1 X117.085 Y85.232 E0.00759
G1 X117.171 Y84.994 E0.00794
G1 X117.228 Y84.767 E0.00734
G1 X117.260 Y84.526 E0.00762
G1 X117.265 Y84.283 E0.00762
G1 X117.244 Y84.041 E0.00762
G1 X117.196 Y83.802 E0.00762
G1 X117.122 Y83.570 E0.00766
G1 X115.606 Y80.122 E0.11809
G1 X117.104 Y79.626 E0.04949
G1 X118.010 Y79.362 E0.02957
G1 X118.924 Y79.130 E0.02957
G1 X119.846 Y78.931 E0.02957
G1 X120.743 Y78.770 E0.02860
G1 X121.707 Y78.631 E0.03053
G1 X122.645 Y78.531 E0.02958
G1 X123.586 Y78.464 E0.02957
G1 X124.528 Y78.431 E0.02957
G1 X125.472 Y78.431 E0.02958
G1 X126.445 Y78.467 E0.03053
G1 X127.355 Y78.531 E0.02860
G1 X128.292 Y78.631 E0.02957
G1 X129.226 Y78.765 E0.02957
G1 X130.155 Y78.931 E0.02958
G1 X131.106 Y79.138 E0.03053
G1 X131.990 Y79.362 E0.02860
G1 X132.896 Y79.626 E0.02957
G1 X134.337 Y80.103 E0.04761
G1 X133.882 Y80.350 F10800.000
G1 F1800
G1 X132.525 Y83.436 E0.10572
G1 X132.439 Y83.708 E0.00894
G1 X132.383 Y83.987 E0.00893
G1 X132.358 Y84.271 E0.00893
G1 X132.364 Y84.555 E0.00893
G1 X132.401 Y84.837 E0.00893
G1 X132.470 Y85.114 E0.00893
G1 X132.568 Y85.381 E0.00893
G1 X132.695 Y85.636 E0.00893
G1 X132.849 Y85.875 E0.00893
G1 X133.028 Y86.096 E0.00893
G1 X133.231 Y86.296 E0.00893
G1 X133.454 Y86.473 E0.00893
G1 X133.696 Y86.624 E0.00893
G1 X133.952 Y86.747 E0.00893
G1 X134.221 Y86.842 E0.00893
G1 X134.498 Y86.906 E0.00891
G1 X134.791 Y86.940 E0.00925
G1 X135.065 Y86.943 E0.00862
G1 X135.349 Y86.914 E0.00893
G1 X135.627 Y86.854 E0.00893
G1 X135.897 Y86.764 E0.00893
G1 X136.156 Y86.645 E0.00893
G1 X136.400 Y86.499 E0.00893
G1 X136.626 Y86.326 E0.00891
G1 X136.839 Y86.122 E0.00925
G1 X137.016 Y85.912 E0.00862
G1 X137.174 Y85.675 E0.00894
G1 X138.741 Y82.690 E0.10572
G1 X139.710 Y83.322 E0.03628
G1 X140.470 Y83.857 E0.02915
G1 X141.186 Y84.401 E0.02819
G1 X141.931 Y85.007 E0.03011
G1 X142.630 Y85.621 E0.02915
G1 X143.306 Y86.258 E0.02915
G1 X143.960 Y86.920 E0.02915
G1 X144.590 Y87.603 E0.02915
G1 X145.175 Y88.286 E0.02819
G1 X145.774 Y89.036 E0.03011
G1 X146.328 Y89.783 E0.02915
G1 X146.855 Y90.549 E0.02915
G1 X147.354 Y91.334 E0.02915
G1 X147.825 Y92.135 E0.02915
G1 X148.267 Y92.953 E0.02915
G1 X148.680 Y93.786 E0.02915
G1 X149.075 Y94.661 E0.03011
G1 X149.416 Y95.493 E0.02819
G1 X149.817 Y96.578 E0.03628
G1 X146.558 Y97.442 E0.10572
G1 X146.291 Y97.544 E0.00894
G1 X146.038 Y97.674 E0.00893
G1 X145.801 Y97.831 E0.00893
G1 X145.582 Y98.013 E0.00893
G1 X145.385 Y98.219 E0.00893
G1 X145.212 Y98.444 E0.00893
G1 X145.064 Y98.688 E0.00893
G1 X144.944 Y98.946 E0.00893
G1 X144.853 Y99.216 E0.00893
G1 X144.792 Y99.493 E0.00891
G1 X144.762 Y99.787 E0.00925
G1 X144.763 Y100.062 E0.00862
G1 X144.796 Y100.344 E0.00893
G1 X144.859 Y100.622 E0.00893
G1 X144.952 Y100.891 E0.00893
G1 X145.075 Y101.148 E0.00893
G1 X145.225 Y101.390 E0.00893
G1 X145.400 Y101.614 E0.00893
G1 X145.599 Y101.818 E0.00893
G1 X145.819 Y101.998 E0.00893
G1 X146.058 Y102.153 E0.00893
G1 X146.312 Y102.281 E0.00893
G1 X146.579 Y102.381 E0.00893
G1 X146.855 Y102.450 E0.00891
G1 X147.147 Y102.489 E0.00925
G1 X147.422 Y102.496 E0.00862
G1 X147.706 Y102.473 E0.00894
G1 X151.017 Y101.836 E0.10572
G1 X151.127 Y102.988 E0.03628
G1 X151.182 Y103.916 E0.02915
G1 X151.204 Y104.845 E0.02915
G1 X151.194 Y105.775 E0.02915
G1 X151.150 Y106.704 E0.02915
G1 X151.076 Y107.600 E0.02819
G1 X150.964 Y108.554 E0.03011
G1 X150.822 Y109.472 E0.02915
G1 X150.647 Y110.386 E0.02915
G1 X150.440 Y111.292 E0.02915
G1 X150.201 Y112.190 E0.02915
G1 X149.931 Y113.080 E0.02915
