; G-Code generated by Simplify3D(R) Version 4.0.0
; Aug 17, 2017 at 9:33:13 PM
; Settings Summary
;   processName,Process1
;   applyToModels,cap
;   profileName,Prusa Research Original Prusa i3 MK2 (modified)
;   profileVersion,2017-07-23 22:27:18
;   baseProfile,
;   printMaterial,PLA
;   printQuality,Medium
;   printExtruders,
;   extruderName,Primary Extruder
;   extruderToolheadNumber,0
;   extruderDiameter,0.4
;   extruderAutoWidth,1
;   extruderWidth,0.48
;   extrusionMultiplier,1
;   extruderUseRetract,1
;   extruderRetractionDistance,1.5
;   extruderExtraRestartDistance,0
;   extruderRetractionZLift,0
;   extruderRetractionSpeed,1800
;   extruderUseCoasting,1
;   extruderCoastingDistance,0.2
;   extruderUseWipe,1
;   extruderWipeDistance,2
;   primaryExtruder,0
;   layerHeight,0.095
;   topSolidLayers,3
;   bottomSolidLayers,3
;   perimeterOutlines,3
;   printPerimetersInsideOut,1
;   startPointOption,2
;   startPointOriginX,0
;   startPointOriginY,0
;   sequentialIslands,0
;   spiralVaseMode,0
;   firstLayerHeightPercentage,120
;   firstLayerWidthPercentage,100
;   firstLayerUnderspeed,0.5
;   useRaft,0
;   raftExtruder,0
;   raftTopLayers,3
;   raftBaseLayers,2
;   raftOffset,3
;   raftSeparationDistance,0.14
;   raftTopInfill,100
;   aboveRaftSpeedMultiplier,0.3
;   useSkirt,1
;   skirtExtruder,0
;   skirtLayers,1
;   skirtOutlines,1
;   skirtOffset,4
;   usePrimePillar,0
;   primePillarExtruder,999
;   primePillarWidth,12
;   primePillarLocation,7
;   primePillarSpeedMultiplier,1
;   useOozeShield,0
;   oozeShieldExtruder,999
;   oozeShieldOffset,2
;   oozeShieldOutlines,1
;   oozeShieldSidewallShape,1
;   oozeShieldSidewallAngle,30
;   oozeShieldSpeedMultiplier,1
;   infillExtruder,0
;   internalInfillPattern,Rectilinear
;   externalInfillPattern,Rectilinear
;   infillPercentage,10
;   outlineOverlapPercentage,20
;   infillExtrusionWidthPercentage,100
;   minInfillLength,5
;   infillLayerInterval,1
;   internalInfillAngles,45,-45
;   overlapInternalInfillAngles,0
;   externalInfillAngles,45,-45
;   generateSupport,1
;   supportExtruder,0
;   supportInfillPercentage,30
;   supportExtraInflation,0
;   supportBaseLayers,0
;   denseSupportExtruder,0
;   denseSupportLayers,0
;   denseSupportInfillPercentage,70
;   supportLayerInterval,1
;   supportHorizontalPartOffset,0.3
;   supportUpperSeparationLayers,1
;   supportLowerSeparationLayers,1
;   supportType,0
;   supportGridSpacing,4
;   maxOverhangAngle,45
;   supportAngles,0
;   temperatureName,Primary Extruder,Heated Bed
;   temperatureNumber,0,0
;   temperatureSetpointCount,1,1
;   temperatureSetpointLayers,1,1
;   temperatureSetpointTemperatures,200,60
;   temperatureStabilizeAtStartup,1,1
;   temperatureHeatedBed,0,1
;   temperatureRelayBetweenLayers,0,0
;   temperatureRelayBetweenLoops,0,0
;   fanLayers,1,2
;   fanSpeeds,0,100
;   blipFanToFullPower,0
;   adjustSpeedForCooling,1
;   minSpeedLayerTime,15
;   minCoolingSpeedSlowdown,20
;   increaseFanForCooling,0
;   minFanLayerTime,45
;   maxCoolingFanSpeed,100
;   increaseFanForBridging,0
;   bridgingFanSpeed,100
;   use5D,1
;   relativeEdistances,0
;   allowEaxisZeroing,1
;   independentExtruderAxes,0
;   includeM10123,0
;   stickySupport,1
;   applyToolheadOffsets,0
;   gcodeXoffset,0
;   gcodeYoffset,0
;   gcodeZoffset,0
;   overrideMachineDefinition,1
;   machineTypeOverride,0
;   strokeXoverride,250
;   strokeYoverride,210
;   strokeZoverride,200
;   originOffsetXoverride,0
;   originOffsetYoverride,0
;   originOffsetZoverride,0
;   homeXdirOverride,-1
;   homeYdirOverride,-1
;   homeZdirOverride,-1
;   flipXoverride,1
;   flipYoverride,-1
;   flipZoverride,1
;   toolheadOffsets,0,0|0,0|0,0|0,0|0,0|0,0
;   overrideFirmwareConfiguration,1
;   firmwareTypeOverride,RepRap (Marlin/Repetier/Sprinter)
;   GPXconfigOverride,r2
;   baudRateOverride,250000
;   overridePrinterModels,1
;   printerModelsOverride
;   startingGcode,M115 U3.0.7 ; use the latest firmware version,G28 W ; home all axes without mesh bed leveling,G80 ; run mesh bed leveling routine,G1 Y-3.0 F1000.0 ; prepare to prime,G92 E0 ; reset extrusion distance,G1 X60.0 E9.0  F1000.0 ; priming,G1 X100.0 E12.5  F1000.0 ; priming
;   layerChangeGcode,
;   retractionGcode,
;   toolChangeGcode,
;   endingGcode,M106 S0 ; turn off cooling fan,M104 S0 ; turn off extruder,M140 S0 ; turn off bed,G1 X0 Y200 ; part removal,M84 ; disable motors
;   exportFileFormat,gcode
;   celebration,0
;   celebrationSong,Random Song
;   postProcessing,
;   defaultSpeed,2400
;   outlineUnderspeed,0.8
;   solidInfillUnderspeed,0.8
;   supportUnderspeed,0.8
;   rapidXYspeed,4800
;   rapidZspeed,1002
;   minBridgingArea,50
;   bridgingExtraInflation,0
;   bridgingExtrusionMultiplier,1
;   bridgingSpeedMultiplier,1
;   useFixedBridgingAngle,0
;   fixedBridgingAngle,0
;   applyBridgingToPerimeters,0
;   filamentDiameters,1.75|1.75|1.75|1.75|1.75|1.75
;   filamentPricesPerKg,46|46|46|46|46|46
;   filamentDensities,1.25|1.25|1.25|1.25|1.25|1.25
;   useMinPrintHeight,1
;   minPrintHeight,0
;   useMaxPrintHeight,1
;   maxPrintHeight,235
;   useDiaphragm,0
;   diaphragmLayerInterval,20
;   robustSlicing,1
;   mergeAllIntoSolid,0
;   onlyRetractWhenCrossingOutline,1
;   retractBetweenLayers,1
;   useRetractionMinTravel,0
;   retractionMinTravel,3
;   retractWhileWiping,1
;   onlyWipeOutlines,1
;   avoidCrossingOutline,0
;   maxMovementDetourFactor,3
;   toolChangeRetractionDistance,12
;   toolChangeExtraRestartDistance,-0.5
;   toolChangeRetractionSpeed,600
;   externalThinWallType,0
;   internalThinWallType,0
;   thinWallAllowedOverlapPercentage,25
;   singleExtrusionMinLength,1
;   singleExtrusionMinPrintingWidthPercentage,50
;   singleExtrusionMaxPrintingWidthPercentage,200
;   singleExtrusionEndpointExtension,0.2
;   horizontalSizeCompensation,0
G90
M82
M106 S0
M140 S60
M190 S60
M104 S200 T0
M109 S200 T0
M115 U3.0.7 ; use the latest firmware version
G28 W ; home all axes without mesh bed leveling
G80 ; run mesh bed leveling routine
G1 Y-3.0 F1000.0 ; prepare to prime
G92 E0 ; reset extrusion distance
G1 X60.0 E9.0  F1000.0 ; priming
G1 X100.0 E12.5  F1000.0 ; priming
G92 E0
G1 E-1.5000 F1800
G1 Z0.114 F1002
; process Process1
; layer 1, Z = 0.114
T0
; tool H0.114 W0.480
; skirt
G1 X112.894 Y94.896 F4800
G1 E0.0000 F540
G92 E0
G1 X113.459 Y94.256 E0.0194 F1200
G1 X113.461 Y94.253 E0.0195
G1 X113.550 Y94.159 E0.0225
G1 X113.552 Y94.156 E0.0225
G1 X114.156 Y93.552 E0.0420
G1 X114.159 Y93.550 E0.0420
G1 X114.253 Y93.461 E0.0450
G1 X114.256 Y93.459 E0.0451
G1 X114.896 Y92.894 E0.0645
G1 X114.899 Y92.891 E0.0646
G1 X114.999 Y92.809 E0.0675
G1 X115.002 Y92.807 E0.0676
G1 X115.676 Y92.283 E0.0870
G1 X115.679 Y92.281 E0.0871
G1 X115.784 Y92.205 E0.0901
G1 X115.787 Y92.203 E0.0901
G1 X116.493 Y91.723 E0.1096
G1 X116.496 Y91.721 E0.1097
G1 X116.606 Y91.652 E0.1126
G1 X116.609 Y91.650 E0.1127
G1 X117.344 Y91.215 E0.1321
G1 X117.347 Y91.213 E0.1322
G1 X117.460 Y91.151 E0.1351
G1 X117.464 Y91.149 E0.1352
G1 X118.224 Y90.762 E0.1546
G1 X118.228 Y90.760 E0.1547
G1 X118.345 Y90.705 E0.1577
G1 X118.348 Y90.703 E0.1578
G1 X119.132 Y90.364 E0.1772
G1 X119.135 Y90.363 E0.1773
G1 X119.256 Y90.315 E0.1802
G1 X119.259 Y90.314 E0.1803
G1 X120.062 Y90.025 E0.1997
G1 X120.066 Y90.023 E0.1998
G1 X120.189 Y89.984 E0.2027
G1 X120.192 Y89.982 E0.2028
G1 X121.012 Y89.744 E0.2223
G1 X121.016 Y89.743 E0.2223
G1 X121.141 Y89.711 E0.2253
G1 X121.145 Y89.710 E0.2254
G1 X121.978 Y89.524 E0.2448
G1 X121.982 Y89.523 E0.2449
G1 X122.109 Y89.499 E0.2478
G1 X122.113 Y89.498 E0.2479
G1 X122.956 Y89.365 E0.2673
G1 X122.960 Y89.364 E0.2674
G1 X123.088 Y89.348 E0.2704
G1 X123.092 Y89.347 E0.2704
G1 X123.941 Y89.267 E0.2899
G1 X123.945 Y89.267 E0.2900
G1 X124.074 Y89.259 E0.2929
G1 X124.078 Y89.259 E0.2930
G1 X124.931 Y89.232 E0.3124
G1 X124.935 Y89.232 E0.3125
G1 X125.065 Y89.232 E0.3154
G1 X125.069 Y89.232 E0.3155
G1 X125.922 Y89.259 E0.3349
G1 X125.926 Y89.259 E0.3350
G1 X126.055 Y89.267 E0.3380
G1 X126.059 Y89.267 E0.3381
G1 X126.908 Y89.347 E0.3575
G1 X126.912 Y89.348 E0.3576
G1 X127.040 Y89.364 E0.3605
G1 X127.044 Y89.365 E0.3606
G1 X127.887 Y89.498 E0.3800
G1 X127.891 Y89.499 E0.3801
G1 X128.018 Y89.523 E0.3830
G1 X128.022 Y89.524 E0.3831
G1 X128.855 Y89.710 E0.4026
G1 X128.859 Y89.711 E0.4026
G1 X128.984 Y89.743 E0.4056
G1 X128.988 Y89.744 E0.4057
G1 X129.808 Y89.982 E0.4251
G1 X129.811 Y89.984 E0.4252
G1 X129.934 Y90.023 E0.4281
G1 X129.938 Y90.025 E0.4282
G1 X130.741 Y90.314 E0.4476
G1 X130.744 Y90.315 E0.4477
G1 X130.865 Y90.363 E0.4507
G1 X130.868 Y90.364 E0.4507
G1 X131.652 Y90.703 E0.4702
G1 X131.655 Y90.705 E0.4703
G1 X131.772 Y90.760 E0.4732
G1 X131.776 Y90.762 E0.4733
G1 X132.536 Y91.149 E0.4927
G1 X132.540 Y91.151 E0.4928
G1 X132.653 Y91.213 E0.4957
G1 X132.656 Y91.215 E0.4958
G1 X133.391 Y91.650 E0.5152
G1 X133.394 Y91.652 E0.5153
G1 X133.504 Y91.721 E0.5183
G1 X133.507 Y91.723 E0.5184
G1 X134.213 Y92.203 E0.5378
G1 X134.216 Y92.205 E0.5379
G1 X134.321 Y92.281 E0.5408
G1 X134.324 Y92.283 E0.5409
G1 X134.998 Y92.807 E0.5603
G1 X135.001 Y92.809 E0.5604
G1 X135.101 Y92.892 E0.5633
G1 X135.104 Y92.894 E0.5634
G1 X135.744 Y93.459 E0.5829
G1 X135.747 Y93.461 E0.5829
G1 X135.841 Y93.550 E0.5859
G1 X135.844 Y93.552 E0.5860
G1 X136.448 Y94.156 E0.6054
G1 X136.450 Y94.159 E0.6055
G1 X136.539 Y94.253 E0.6084
G1 X136.541 Y94.256 E0.6085
G1 X137.106 Y94.896 E0.6279
G1 X137.108 Y94.899 E0.6280
G1 X137.191 Y94.999 E0.6310
G1 X137.193 Y95.002 E0.6310
G1 X137.717 Y95.676 E0.6505
G1 X137.719 Y95.679 E0.6506
G1 X137.795 Y95.784 E0.6535
G1 X137.797 Y95.787 E0.6536
G1 X138.277 Y96.493 E0.6730
G1 X138.279 Y96.496 E0.6731
G1 X138.348 Y96.606 E0.6760
G1 X138.350 Y96.609 E0.6761
G1 X138.785 Y97.344 E0.6955
G1 X138.787 Y97.347 E0.6956
G1 X138.849 Y97.460 E0.6986
G1 X138.851 Y97.464 E0.6987
G1 X139.238 Y98.224 E0.7181
G1 X139.240 Y98.228 E0.7182
G1 X139.295 Y98.345 E0.7211
G1 X139.297 Y98.348 E0.7212
G1 X139.636 Y99.132 E0.7406
G1 X139.637 Y99.135 E0.7407
G1 X139.685 Y99.256 E0.7436
G1 X139.686 Y99.259 E0.7437
G1 X139.975 Y100.062 E0.7632
G1 X139.977 Y100.066 E0.7632
G1 X140.016 Y100.189 E0.7662
G1 X140.018 Y100.192 E0.7663
G1 X140.256 Y101.012 E0.7857
G1 X140.257 Y101.016 E0.7858
G1 X140.289 Y101.141 E0.7887
G1 X140.290 Y101.145 E0.7888
G1 X140.476 Y101.978 E0.8082
G1 X140.477 Y101.982 E0.8083
G1 X140.501 Y102.109 E0.8113
G1 X140.502 Y102.113 E0.8113
G1 X140.635 Y102.956 E0.8308
G1 X140.636 Y102.960 E0.8309
G1 X140.652 Y103.088 E0.8338
G1 X140.653 Y103.092 E0.8339
G1 X140.733 Y103.942 E0.8533
G1 X140.733 Y103.945 E0.8534
G1 X140.741 Y104.075 E0.8563
G1 X140.741 Y104.078 E0.8564
G1 X140.768 Y104.932 E0.8758
G1 X140.768 Y104.935 E0.8759
G1 X140.768 Y105.065 E0.8789
G1 X140.768 Y105.068 E0.8790
G1 X140.741 Y105.922 E0.8984
G1 X140.741 Y105.925 E0.8985
G1 X140.733 Y106.055 E0.9014
G1 X140.733 Y106.058 E0.9015
G1 X140.653 Y106.908 E0.9209
G1 X140.652 Y106.912 E0.9210
G1 X140.636 Y107.040 E0.9239
G1 X140.635 Y107.044 E0.9240
G1 X140.502 Y107.887 E0.9435
G1 X140.501 Y107.891 E0.9435
G1 X140.477 Y108.018 E0.9465
G1 X140.476 Y108.022 E0.9466
G1 X140.290 Y108.855 E0.9660
G1 X140.289 Y108.859 E0.9661
G1 X140.257 Y108.984 E0.9690
G1 X140.256 Y108.988 E0.9691
G1 X140.018 Y109.808 E0.9885
G1 X140.016 Y109.811 E0.9886
G1 X139.977 Y109.934 E0.9916
G1 X139.975 Y109.938 E0.9916
G1 X139.686 Y110.741 E1.0111
G1 X139.685 Y110.744 E1.0111
G1 X139.637 Y110.865 E1.0141
G1 X139.636 Y110.868 E1.0142
G1 X139.297 Y111.652 E1.0336
G1 X139.295 Y111.655 E1.0337
G1 X139.240 Y111.772 E1.0366
G1 X139.238 Y111.776 E1.0367
G1 X138.851 Y112.536 E1.0561
G1 X138.849 Y112.540 E1.0562
G1 X138.787 Y112.653 E1.0592
G1 X138.785 Y112.656 E1.0593
G1 X138.350 Y113.391 E1.0787
G1 X138.348 Y113.394 E1.0788
G1 X138.279 Y113.504 E1.0817
G1 X138.277 Y113.507 E1.0818
G1 X137.797 Y114.213 E1.1012
G1 X137.795 Y114.216 E1.1013
G1 X137.719 Y114.321 E1.1042
G1 X137.717 Y114.324 E1.1043
G1 X137.193 Y114.998 E1.1238
G1 X137.191 Y115.001 E1.1238
G1 X137.108 Y115.101 E1.1268
G1 X137.106 Y115.104 E1.1269
G1 X136.541 Y115.744 E1.1463
G1 X136.539 Y115.747 E1.1464
G1 X136.450 Y115.841 E1.1493
G1 X136.448 Y115.844 E1.1494
G1 X135.844 Y116.448 E1.1688
G1 X135.841 Y116.450 E1.1689
G1 X135.747 Y116.539 E1.1719
G1 X135.744 Y116.541 E1.1719
G1 X135.104 Y117.106 E1.1914
G1 X135.101 Y117.108 E1.1914
G1 X135.001 Y117.191 E1.1944
G1 X134.998 Y117.193 E1.1945
G1 X134.324 Y117.717 E1.2139
G1 X134.321 Y117.719 E1.2140
G1 X134.216 Y117.795 E1.2169
G1 X134.213 Y117.797 E1.2170
G1 X133.507 Y118.277 E1.2364
G1 X133.504 Y118.279 E1.2365
G1 X133.394 Y118.348 E1.2395
G1 X133.391 Y118.350 E1.2396
G1 X132.656 Y118.785 E1.2590
G1 X132.653 Y118.787 E1.2591
G1 X132.540 Y118.849 E1.2620
G1 X132.536 Y118.851 E1.2621
G1 X131.776 Y119.238 E1.2815
G1 X131.772 Y119.240 E1.2816
G1 X131.655 Y119.295 E1.2845
G1 X131.652 Y119.297 E1.2846
G1 X130.868 Y119.636 E1.3041
G1 X130.865 Y119.637 E1.3041
G1 X130.744 Y119.685 E1.3071
G1 X130.741 Y119.686 E1.3072
G1 X129.938 Y119.975 E1.3266
G1 X129.934 Y119.977 E1.3267
G1 X129.811 Y120.016 E1.3296
G1 X129.808 Y120.018 E1.3297
G1 X128.988 Y120.256 E1.3491
G1 X128.984 Y120.257 E1.3492
G1 X128.859 Y120.289 E1.3522
G1 X128.855 Y120.290 E1.3522
G1 X128.022 Y120.476 E1.3717
G1 X128.018 Y120.477 E1.3717
G1 X127.891 Y120.501 E1.3747
G1 X127.887 Y120.502 E1.3748
G1 X127.044 Y120.635 E1.3942
G1 X127.040 Y120.636 E1.3943
G1 X126.912 Y120.652 E1.3972
G1 X126.908 Y120.653 E1.3973
G1 X126.059 Y120.733 E1.4167
G1 X126.055 Y120.733 E1.4168
G1 X125.926 Y120.741 E1.4198
G1 X125.922 Y120.741 E1.4199
G1 X125.069 Y120.768 E1.4393
G1 X125.065 Y120.768 E1.4394
G1 X124.935 Y120.768 E1.4423
G1 X124.931 Y120.768 E1.4424
G1 X124.078 Y120.741 E1.4618
G1 X124.074 Y120.741 E1.4619
G1 X123.945 Y120.733 E1.4648
G1 X123.941 Y120.733 E1.4649
G1 X123.092 Y120.653 E1.4844
G1 X123.088 Y120.652 E1.4844
G1 X122.960 Y120.636 E1.4874
G1 X122.956 Y120.635 E1.4875
G1 X122.113 Y120.502 E1.5069
G1 X122.109 Y120.501 E1.5070
G1 X121.982 Y120.477 E1.5099
G1 X121.978 Y120.476 E1.5100
G1 X121.145 Y120.290 E1.5294
G1 X121.141 Y120.289 E1.5295
G1 X121.016 Y120.257 E1.5325
G1 X121.012 Y120.256 E1.5325
G1 X120.192 Y120.018 E1.5520
G1 X120.189 Y120.016 E1.5521
G1 X120.066 Y119.977 E1.5550
G1 X120.062 Y119.975 E1.5551
G1 X119.259 Y119.686 E1.5745
G1 X119.256 Y119.685 E1.5746
G1 X119.135 Y119.637 E1.5775
G1 X119.132 Y119.636 E1.5776
G1 X118.348 Y119.297 E1.5970
G1 X118.345 Y119.295 E1.5971
G1 X118.228 Y119.240 E1.6001
G1 X118.224 Y119.238 E1.6002
G1 X117.464 Y118.851 E1.6196
G1 X117.460 Y118.849 E1.6197
G1 X117.347 Y118.787 E1.6226
G1 X117.344 Y118.785 E1.6227
G1 X116.609 Y118.350 E1.6421
G1 X116.606 Y118.348 E1.6422
G1 X116.496 Y118.279 E1.6451
G1 X116.493 Y118.277 E1.6452
G1 X115.787 Y117.797 E1.6646
G1 X115.784 Y117.795 E1.6647
G1 X115.679 Y117.719 E1.6677
G1 X115.676 Y117.717 E1.6678
G1 X115.002 Y117.193 E1.6872
G1 X114.999 Y117.191 E1.6873
G1 X114.899 Y117.108 E1.6902
G1 X114.896 Y117.106 E1.6903
G1 X114.256 Y116.541 E1.7097
G1 X114.253 Y116.539 E1.7098
G1 X114.159 Y116.450 E1.7128
G1 X114.156 Y116.448 E1.7128
G1 X113.552 Y115.844 E1.7323
G1 X113.550 Y115.841 E1.7323
G1 X113.461 Y115.747 E1.7353
G1 X113.459 Y115.744 E1.7354
G1 X112.894 Y115.104 E1.7548
G1 X112.891 Y115.101 E1.7549
G1 X112.809 Y115.001 E1.7578
G1 X112.807 Y114.998 E1.7579
G1 X112.283 Y114.324 E1.7773
G1 X112.281 Y114.321 E1.7774
G1 X112.205 Y114.216 E1.7804
G1 X112.203 Y114.213 E1.7805
G1 X111.723 Y113.507 E1.7999
G1 X111.721 Y113.504 E1.8000
G1 X111.652 Y113.394 E1.8029
G1 X111.650 Y113.391 E1.8030
G1 X111.215 Y112.656 E1.8224
G1 X111.213 Y112.653 E1.8225
G1 X111.151 Y112.540 E1.8254
G1 X111.149 Y112.536 E1.8255
G1 X110.762 Y111.776 E1.8449
G1 X110.760 Y111.772 E1.8450
G1 X110.705 Y111.655 E1.8480
G1 X110.703 Y111.652 E1.8481
G1 X110.364 Y110.868 E1.8675
G1 X110.363 Y110.865 E1.8676
G1 X110.315 Y110.744 E1.8705
G1 X110.314 Y110.741 E1.8706
G1 X110.025 Y109.938 E1.8900
G1 X110.023 Y109.934 E1.8901
G1 X109.984 Y109.811 E1.8930
G1 X109.982 Y109.808 E1.8931
G1 X109.744 Y108.988 E1.9126
G1 X109.743 Y108.984 E1.9126
G1 X109.711 Y108.859 E1.9156
