; G-Code generated by Simplify3D(R) Version 4.0.0
; Apr 30, 2018 at 7:51:29 AM
; Settings Summary
;   processName,Process1
;   applyToModels,backdoor-handle
;   profileName,Original Prusa i3 MK2 RC4 (modified)
;   profileVersion,2016-08-30 14:21:19
;   baseProfile,Prusa Mendel (modified)
;   printMaterial,PET
;   printQuality,NORMAL 0.2mm
;   printExtruders,
;   extruderName,Primary Extruder
;   extruderToolheadNumber,0
;   extruderDiameter,0.4
;   extruderAutoWidth,0
;   extruderWidth,0.45
;   extrusionMultiplier,1
;   extruderUseRetract,1
;   extruderRetractionDistance,0.8
;   extruderExtraRestartDistance,0
;   extruderRetractionZLift,0
;   extruderRetractionSpeed,1800
;   extruderUseCoasting,1
;   extruderCoastingDistance,0.2
;   extruderUseWipe,1
;   extruderWipeDistance,2
;   primaryExtruder,0
;   layerHeight,0.2
;   topSolidLayers,4
;   bottomSolidLayers,4
;   perimeterOutlines,4
;   printPerimetersInsideOut,1
;   startPointOption,2
;   startPointOriginX,0
;   startPointOriginY,0
;   sequentialIslands,0
;   spiralVaseMode,0
;   firstLayerHeightPercentage,100
;   firstLayerWidthPercentage,95
;   firstLayerUnderspeed,0.6
;   useRaft,0
;   raftExtruder,0
;   raftTopLayers,3
;   raftBaseLayers,2
;   raftOffset,3
;   raftSeparationDistance,0.14
;   raftTopInfill,100
;   aboveRaftSpeedMultiplier,0.3
;   useSkirt,1
;   skirtExtruder,0
;   skirtLayers,1
;   skirtOutlines,1
;   skirtOffset,1.8
;   usePrimePillar,0
;   primePillarExtruder,999
;   primePillarWidth,12
;   primePillarLocation,7
;   primePillarSpeedMultiplier,1
;   useOozeShield,0
;   oozeShieldExtruder,999
;   oozeShieldOffset,2
;   oozeShieldOutlines,1
;   oozeShieldSidewallShape,1
;   oozeShieldSidewallAngle,30
;   oozeShieldSpeedMultiplier,1
;   infillExtruder,0
;   internalInfillPattern,Rectilinear
;   externalInfillPattern,Rectilinear
;   infillPercentage,15
;   outlineOverlapPercentage,21
;   infillExtrusionWidthPercentage,100
;   minInfillLength,2
;   infillLayerInterval,1
;   internalInfillAngles,45,-45
;   overlapInternalInfillAngles,0
;   externalInfillAngles,45,-45
;   generateSupport,1
;   supportExtruder,0
;   supportInfillPercentage,30
;   supportExtraInflation,1.4
;   supportBaseLayers,0
;   denseSupportExtruder,0
;   denseSupportLayers,0
;   denseSupportInfillPercentage,70
;   supportLayerInterval,1
;   supportHorizontalPartOffset,0.2
;   supportUpperSeparationLayers,1
;   supportLowerSeparationLayers,1
;   supportType,0
;   supportGridSpacing,4
;   maxOverhangAngle,45
;   supportAngles,0
;   temperatureName,Primary Extruder,Heated Bed
;   temperatureNumber,0,1
;   temperatureSetpointCount,1,1
;   temperatureSetpointLayers,1,1
;   temperatureSetpointTemperatures,230,75
;   temperatureStabilizeAtStartup,1,1
;   temperatureHeatedBed,0,1
;   temperatureRelayBetweenLayers,0,0
;   temperatureRelayBetweenLoops,0,0
;   fanLayers,1,2
;   fanSpeeds,0,50
;   blipFanToFullPower,1
;   adjustSpeedForCooling,1
;   minSpeedLayerTime,15
;   minCoolingSpeedSlowdown,5
;   increaseFanForCooling,0
;   minFanLayerTime,45
;   maxCoolingFanSpeed,100
;   increaseFanForBridging,1
;   bridgingFanSpeed,100
;   use5D,1
;   relativeEdistances,1
;   allowEaxisZeroing,1
;   independentExtruderAxes,0
;   includeM10123,0
;   stickySupport,1
;   applyToolheadOffsets,0
;   gcodeXoffset,0
;   gcodeYoffset,0
;   gcodeZoffset,0
;   overrideMachineDefinition,1
;   machineTypeOverride,0
;   strokeXoverride,250
;   strokeYoverride,210
;   strokeZoverride,200
;   originOffsetXoverride,0
;   originOffsetYoverride,0
;   originOffsetZoverride,0
;   homeXdirOverride,-1
;   homeYdirOverride,-1
;   homeZdirOverride,-1
;   flipXoverride,1
;   flipYoverride,-1
;   flipZoverride,1
;   toolheadOffsets,0,0|0,0|0,0|0,0|0,0|0,0
;   overrideFirmwareConfiguration,0
;   firmwareTypeOverride,RepRap (Marlin/Repetier/Sprinter)
;   GPXconfigOverride,r2
;   baudRateOverride,250000
;   overridePrinterModels,1
;   printerModelsOverride
;   startingGcode,M115 U3.0.7 ; tell the printer latest firmware varsion available,G28 W ; home all without mesh bed level,G80 ; mesh bed leveling,G1 Y-3.0 F1000.0 ; go outside printing area,G1 X60.0 E9.0  F1000.0 ; intro line,G1 X100.0 E12.5  F1000.0 ; intro line
;   layerChangeGcode,
;   retractionGcode,
;   toolChangeGcode,
;   endingGcode,M104 S0 ; turn off temperature,M140 S0 ; turn off heatbed,M107 ; turn off fan,G1 X0 Y200; home X axis,M84 ; disable motors
;   exportFileFormat,gcode
;   celebration,0
;   celebrationSong,Random Song
;   postProcessing,{REPLACE "; outer perimeter\n" "; outer perimeter\nM204 S600\n"},{REPLACE "; inner perimeter\n" "; inner perimeter\nM204 S1200\n"},{REPLACE "; solid layer\n" "; solid layer\nM204 S1500\n"},{REPLACE "; infill\n" "; infill\nM204 S2000\n"}
;   defaultSpeed,2400
;   outlineUnderspeed,0.8
;   solidInfillUnderspeed,0.8
;   supportUnderspeed,0.8
;   rapidXYspeed,4800
;   rapidZspeed,1002
;   minBridgingArea,50
;   bridgingExtraInflation,1
;   bridgingExtrusionMultiplier,1
;   bridgingSpeedMultiplier,1
;   useFixedBridgingAngle,0
;   fixedBridgingAngle,0
;   applyBridgingToPerimeters,0
;   filamentDiameters,1.75|1.75|1.75|1.75|1.75|1.75
;   filamentPricesPerKg,215|215|215|215|215|215
;   filamentDensities,1.25|1.25|1.25|1.25|1.25|1.25
;   useMinPrintHeight,0
;   minPrintHeight,0
;   useMaxPrintHeight,0
;   maxPrintHeight,0
;   useDiaphragm,0
;   diaphragmLayerInterval,20
;   robustSlicing,1
;   mergeAllIntoSolid,0
;   onlyRetractWhenCrossingOutline,0
;   retractBetweenLayers,1
;   useRetractionMinTravel,1
;   retractionMinTravel,3
;   retractWhileWiping,1
;   onlyWipeOutlines,1
;   avoidCrossingOutline,0
;   maxMovementDetourFactor,3
;   toolChangeRetractionDistance,12
;   toolChangeExtraRestartDistance,-0.5
;   toolChangeRetractionSpeed,600
;   externalThinWallType,0
;   internalThinWallType,2
;   thinWallAllowedOverlapPercentage,25
;   singleExtrusionMinLength,1
;   singleExtrusionMinPrintingWidthPercentage,50
;   singleExtrusionMaxPrintingWidthPercentage,200
;   singleExtrusionEndpointExtension,0.2
;   horizontalSizeCompensation,0
G90
M83
M106 S255
G4 P500
M106 S0
M140 S75
M190 S75
M104 S230 T0
M109 S230 T0
M115 U3.0.7 ; tell the printer latest firmware varsion available
G28 W ; home all without mesh bed level
G80 ; mesh bed leveling
G1 Y-3.0 F1000.0 ; go outside printing area
G1 X60.0 E9.0  F1000.0 ; intro line
G1 X100.0 E12.5  F1000.0 ; intro line
G1 E-0.8000 F1800
G1 Z0.200 F1002
; process Process1
; layer 1, Z = 0.200
T0
; tool H0.200 W0.428
; skirt
G1 X91.369 Y80.428 F4800
G1 E0.8000 F540
G1 X92.487 Y79.310 E0.0562 F1440
G1 X92.570 Y79.276 E0.0032
G1 X157.430 Y79.276 E2.3056
G1 X157.513 Y79.310 E0.0032
G1 X158.631 Y80.428 E0.0562
G1 X158.665 Y80.511 E0.0032
G1 X158.665 Y89.372 E0.3150
G1 X158.631 Y89.454 E0.0032
G1 X157.513 Y90.572 E0.0562
G1 X157.430 Y90.606 E0.0032
G1 X130.777 Y90.606 E0.9474
G1 X130.944 Y106.712 E0.5725
G1 X130.944 Y106.714 E0.0001
G1 X130.980 Y111.278 E0.1622
G1 X153.430 Y111.278 E0.7980
G1 X153.513 Y111.313 E0.0032
G1 X154.631 Y112.430 E0.0562
G1 X154.665 Y112.513 E0.0032
G1 X154.665 Y115.279 E0.0983
G1 X157.430 Y115.279 E0.0983
G1 X157.513 Y115.313 E0.0032
G1 X158.631 Y116.431 E0.0562
G1 X158.665 Y116.513 E0.0032
G1 X158.665 Y125.374 E0.3150
G1 X158.631 Y125.457 E0.0032
G1 X157.513 Y126.575 E0.0562
G1 X157.430 Y126.609 E0.0032
G1 X132.570 Y126.609 E0.8837
G1 X132.487 Y126.575 E0.0032
G1 X131.369 Y125.457 E0.0562
G1 X131.335 Y125.374 E0.0032
G1 X131.335 Y122.609 E0.0983
G1 X128.570 Y122.609 E0.0983
G1 X128.487 Y122.574 E0.0032
G1 X128.156 Y122.243 E0.0167
G1 X121.845 Y122.242 E0.2243
G1 X121.513 Y122.574 E0.0167
G1 X121.430 Y122.609 E0.0032
G1 X118.665 Y122.609 E0.0983
G1 X118.665 Y125.374 E0.0983
G1 X118.631 Y125.457 E0.0032
G1 X117.513 Y126.575 E0.0562
G1 X117.430 Y126.609 E0.0032
G1 X92.570 Y126.609 E0.8837
G1 X92.487 Y126.575 E0.0032
G1 X91.369 Y125.457 E0.0562
G1 X91.335 Y125.374 E0.0032
G1 X91.335 Y116.513 E0.3150
G1 X91.369 Y116.431 E0.0032
G1 X92.487 Y115.313 E0.0562
G1 X92.570 Y115.279 E0.0032
G1 X95.335 Y115.279 E0.0983
G1 X95.335 Y112.513 E0.0983
G1 X95.369 Y112.430 E0.0032
G1 X96.487 Y111.313 E0.0562
G1 X96.570 Y111.278 E0.0032
G1 X119.022 Y111.278 E0.7981
G1 X119.056 Y106.715 E0.1622
G1 X119.056 Y106.712 E0.0001
G1 X119.223 Y90.606 E0.5725
G1 X92.570 Y90.606 E0.9474
G1 X92.487 Y90.572 E0.0032
G1 X91.369 Y89.454 E0.0562
G1 X91.335 Y89.372 E0.0032
G1 X91.335 Y80.621 E0.3111
G1 X91.335 Y80.511 F1440
G1 X91.369 Y80.428 F1440
G1 E-0.8000 F1800
; inner perimeter
M204 S1200
G1 X122.767 Y88.385 F4800
G1 E0.8000 F1800
G1 X127.233 Y88.385 E0.1587 F1296
G1 X127.423 Y106.743 E0.6526
G1 X127.519 Y118.722 E0.4258
G1 X122.488 Y118.721 E0.1788
G1 X122.577 Y106.742 E0.4258
G1 X122.765 Y88.585 E0.6455
G1 X122.767 Y88.385 F1296
G1 X122.344 Y87.958 F4800
G1 X127.656 Y87.958 E0.1888 F1296
G1 X127.850 Y106.743 E0.6678
G1 X127.950 Y119.149 E0.4410
G1 X122.057 Y119.148 E0.2095
G1 X122.150 Y106.743 E0.4410
G1 X122.342 Y88.158 E0.6607
G1 X122.344 Y87.958 F1296
G1 X121.921 Y87.530 F4800
G1 X128.079 Y87.530 E0.2189 F1296
G1 X128.278 Y106.736 E0.6828
G1 X128.378 Y119.335 E0.4478
G1 X128.360 Y119.469 E0.0048
G1 X128.244 Y119.533 E0.0047
G1 X128.156 Y119.562 E0.0033
G1 X128.048 Y119.577 E0.0039
G1 X121.945 Y119.576 E0.2170
G1 X121.830 Y119.559 E0.0041
G1 X121.785 Y119.545 E0.0017
G1 X121.736 Y119.524 E0.0019
G1 X121.691 Y119.494 E0.0019
G1 X121.627 Y119.425 E0.0033
G1 X121.722 Y106.738 E0.4510
G1 X121.919 Y87.730 E0.6757
G1 X121.921 Y87.530 F1296
; outer perimeter
M204 S600
G1 X121.498 Y87.103 F4800
G1 X128.502 Y87.103 E0.2490 F1152
G1 X128.705 Y106.734 E0.6979
G1 X128.806 Y119.362 E0.4489
G1 X128.781 Y119.544 E0.0065
G1 X128.755 Y119.614 E0.0026
G1 X128.713 Y119.688 E0.0030
G1 X128.636 Y119.782 E0.0043
G1 X128.552 Y119.851 E0.0039
G1 X128.415 Y119.927 E0.0056
G1 X128.253 Y119.980 E0.0061
G1 X128.078 Y120.004 E0.0063
G1 X121.913 Y120.003 E0.2191
G1 X121.736 Y119.977 E0.0064
G1 X121.637 Y119.947 E0.0037
G1 X121.533 Y119.901 E0.0041
G1 X121.412 Y119.822 E0.0051
G1 X121.284 Y119.683 E0.0067
G1 X121.248 Y119.621 E0.0026
G1 X121.200 Y119.458 E0.0061
G1 X121.295 Y106.734 E0.4523
G1 X121.496 Y87.303 E0.6907
G1 X121.498 Y87.103 F1152
G1 X122.564 Y87.103 E-0.8000 F2400
G1 X123.498 Y87.103 F2400
; solid layer
M204 S1500
G1 X126.806 Y88.723 F4800
G1 E0.8000 F1800
G1 X126.900 Y88.817 E0.0047 F1152
G1 X126.906 Y89.428 E0.0217
G1 X126.201 Y88.723 E0.0354
G1 X125.596 Y88.723 E0.0215
G1 X126.912 Y90.039 E0.0661
G1 X126.919 Y90.650 E0.0217
G1 X124.992 Y88.723 E0.0969
G1 X124.387 Y88.723 E0.0215
G1 X126.925 Y91.260 E0.1276
G1 X126.931 Y91.871 E0.0217
G1 X123.783 Y88.723 E0.1583
G1 X123.178 Y88.723 E0.0215
G1 X126.938 Y92.482 E0.1890
G1 X126.944 Y93.093 E0.0217
G1 X123.096 Y89.245 E0.1934
G1 X123.090 Y89.844 E0.0213
G1 X126.950 Y93.704 E0.1941
G1 X126.957 Y94.315 E0.0217
G1 X123.084 Y90.442 E0.1947
G1 X123.077 Y91.040 E0.0213
G1 X126.963 Y94.926 E0.1953
G1 X126.969 Y95.537 E0.0217
G1 X123.071 Y91.639 E0.1960
G1 X123.065 Y92.237 E0.0213
G1 X126.975 Y96.148 E0.1966
G1 X126.982 Y96.758 E0.0217
G1 X123.059 Y92.835 E0.1972
G1 X123.053 Y93.434 E0.0213
G1 X126.988 Y97.369 E0.1978
G1 X126.994 Y97.980 E0.0217
G1 X123.046 Y94.032 E0.1985
G1 X123.040 Y94.631 E0.0213
G1 X127.001 Y98.591 E0.1991
G1 X127.007 Y99.202 E0.0217
G1 X123.034 Y95.229 E0.1997
G1 X123.028 Y95.827 E0.0213
G1 X127.013 Y99.813 E0.2004
G1 X127.020 Y100.424 E0.0217
G1 X123.022 Y96.426 E0.2010
G1 X123.015 Y97.024 E0.0213
G1 X127.026 Y101.035 E0.2016
G1 X127.032 Y101.646 E0.0217
G1 X123.009 Y97.623 E0.2022
G1 X123.003 Y98.221 E0.0213
G1 X127.039 Y102.257 E0.2029
G1 X127.045 Y102.867 E0.0217
G1 X122.997 Y98.819 E0.2035
G1 X122.991 Y99.418 E0.0213
G1 X127.051 Y103.478 E0.2041
G1 X127.058 Y104.089 E0.0217
G1 X122.985 Y100.016 E0.2048
G1 X122.978 Y100.615 E0.0213
G1 X127.064 Y104.700 E0.2054
G1 X127.070 Y105.311 E0.0217
G1 X122.972 Y101.213 E0.2060
G1 X122.966 Y101.811 E0.0213
G1 X127.076 Y105.922 E0.2066
G1 X127.083 Y106.533 E0.0217
G1 X122.960 Y102.410 E0.2073
G1 X122.954 Y103.008 E0.0213
G1 X127.088 Y107.143 E0.2078
G1 X127.093 Y107.752 E0.0217
G1 X122.947 Y103.607 E0.2084
G1 X122.941 Y104.205 E0.0213
G1 X127.098 Y108.362 E0.2090
G1 X127.103 Y108.971 E0.0217
G1 X122.935 Y104.803 E0.2095
G1 X122.929 Y105.402 E0.0213
G1 X127.108 Y109.581 E0.2101
G1 X127.113 Y110.190 E0.0217
G1 X122.923 Y106.000 E0.2106
G1 X122.917 Y106.598 E0.0213
G1 X127.117 Y110.799 E0.2112
G1 X127.122 Y111.409 E0.0217
G1 X122.912 Y107.198 E0.2117
G1 X122.907 Y107.798 E0.0213
G1 X127.127 Y112.018 E0.2121
G1 X127.132 Y112.628 E0.0217
G1 X122.903 Y108.398 E0.2126
G1 X122.898 Y108.998 E0.0213
G1 X127.137 Y113.237 E0.2131
G1 X127.142 Y113.847 E0.0217
G1 X122.894 Y109.598 E0.2136
G1 X122.889 Y110.199 E0.0213
G1 X127.147 Y114.456 E0.2140
G1 X127.152 Y115.066 E0.0217
G1 X122.885 Y110.799 E0.2145
G1 X122.880 Y111.399 E0.0213
G1 X127.156 Y115.675 E0.2150
G1 X127.161 Y116.285 E0.0217
G1 X122.876 Y111.999 E0.2154
G1 X122.871 Y112.599 E0.0213
G1 X127.166 Y116.894 E0.2159
G1 X127.171 Y117.503 E0.0217
G1 X122.867 Y113.199 E0.2164
G1 X122.862 Y113.799 E0.0213
G1 X127.176 Y118.113 E0.2169
G1 X127.178 Y118.384 E0.0096
G1 X126.842 Y118.384 E0.0119
G1 X122.858 Y114.399 E0.2003
G1 X122.853 Y114.999 E0.0213
G1 X126.238 Y118.384 E0.1701
G1 X125.633 Y118.384 E0.0215
G1 X122.849 Y115.599 E0.1400
G1 X122.844 Y116.199 E0.0213
G1 X125.028 Y118.384 E0.1098
G1 X124.424 Y118.383 E0.0215
G1 X122.840 Y116.799 E0.0796
G1 X122.835 Y117.400 E0.0213
G1 X123.819 Y118.383 E0.0495
G1 X123.214 Y118.383 E0.0215
G1 X122.972 Y118.141 E0.0122
G1 X122.831 Y118.000 F1152
G1 E-0.8000 F1800
; support
G1 X129.694 Y114.055 F4800
G1 E0.8000 F1800
G1 X152.415 Y114.055 E0.8077 F1152
G1 X152.415 Y115.555 E0.0533
G1 X129.703 Y115.555 E0.8073
G1 X129.712 Y117.055 E0.0533
G1 X152.415 Y117.055 E0.8070
G1 X152.415 Y117.531 E0.0169
G1 X156.415 Y117.531 E0.1422
G1 X156.415 Y118.555 E0.0364
G1 X129.721 Y118.555 E0.9489
G1 X129.722 Y118.770 E0.0076
G1 X129.767 Y118.793 E0.0018
G1 X129.999 Y118.956 E0.0101
G1 X130.145 Y119.102 E0.0074
G1 X130.247 Y119.242 E0.0062
G1 X130.329 Y119.498 E0.0095
G1 X130.279 Y119.860 E0.0130
G1 X130.107 Y120.055 E0.0092
G1 X156.415 Y120.055 E0.9352
G1 X156.415 Y121.555 E0.0533
G1 X133.585 Y121.555 E0.8115
G1 X133.585 Y123.055 E0.0533
G1 X156.215 Y123.055 E0.8044
G1 X156.415 Y123.055 F1152
G1 E-0.8000 F1800
G1 X116.415 Y123.055 F4800
G1 E0.8000 F1800
G1 X93.585 Y123.055 E0.8115 F1152
G1 X93.585 Y121.555 E0.0533
G1 X116.415 Y121.555 E0.8115
G1 X116.415 Y120.359 E0.0425
G1 X120.373 Y120.359 E0.1407
G1 X120.149 Y120.256 E0.0088
G1 X119.950 Y120.120 E0.0086
G1 X119.893 Y120.055 E0.0031
G1 X93.585 Y120.055 E0.9352
G1 X93.585 Y118.555 E0.0533
G1 X120.279 Y118.555 E0.9489
G1 X120.288 Y117.055 E0.0533
G1 X97.585 Y117.055 E0.8070
G1 X97.585 Y115.555 E0.0533
G1 X120.297 Y115.555 E0.8073
G1 X120.306 Y114.055 E0.0533
G1 X97.785 Y114.055 E0.8006
G1 X97.585 Y114.055 F1152
G1 E-0.8000 F1800
G1 X93.585 Y87.055 F4800
G1 E0.8000 F1800
G1 X120.470 Y87.055 E0.9557 F1152
G1 X120.476 Y86.042 E0.0360
G1 X129.524 Y86.042 E0.3216
G1 X129.530 Y87.055 E0.0360
G1 X156.415 Y87.055 E0.9557
G1 X156.415 Y85.555 E0.0533
G1 X93.585 Y85.555 E2.2334
G1 X93.585 Y84.055 E0.0533
G1 X156.415 Y84.055 E2.2334
G1 X156.415 Y82.555 E0.0533
G1 X93.785 Y82.555 E2.2263
G1 X93.585 Y82.555 F1152
G1 E-0.8000 F1800
; layer 2, Z = 0.400
M106 S255
G4 P500
M106 S127
; tool H0.200 W0.450
; inner perimeter
M204 S1200
G1 X122.464 Y88.042 F4800
G1 Z0.400 F1002
G1 E0.8000 F1800
G1 X127.536 Y88.042 E0.1898 F2160
G1 X127.723 Y118.864 E1.1533
G1 X122.277 Y118.873 E0.2038
G1 X122.463 Y88.242 E1.1462
G1 X122.464 Y88.042 F2160
G1 X122.017 Y87.592 F4800
G1 X127.983 Y87.592 E0.2233 F2160
G1 X128.176 Y119.314 E1.1870
G1 X122.006 Y119.323 E0.2309
G1 X121.824 Y119.307 E0.0068
G1 X122.015 Y87.792 E1.1792
G1 X122.017 Y87.592 F2160
G1 X121.569 Y87.142 F4800
G1 X128.431 Y87.142 E0.2567 F2160
G1 X128.627 Y119.546 E1.2125
G1 X128.453 Y119.679 E0.0082
G1 X128.408 Y119.702 E0.0019
G1 X128.327 Y119.731 E0.0032
G1 X128.150 Y119.764 E0.0068
G1 X121.986 Y119.773 E0.2306
G1 X121.777 Y119.754 E0.0079
