; G-Code generated by Simplify3D(R) Version 4.0.0
; Oct 20, 2017 at 8:47:26 AM
; Settings Summary
;   processName,Skirt
;   applyToModels,608_spacer
;   profileName,Prusa Research Original Prusa i3 MK2 (modified)
;   profileVersion,2016-11-25 08:00:00
;   baseProfile,
;   printMaterial,PLA
;   printQuality,Medium
;   printExtruders,
;   extruderName,Primary Extruder
;   extruderToolheadNumber,0
;   extruderDiameter,0.4
;   extruderAutoWidth,1
;   extruderWidth,0.48
;   extrusionMultiplier,1
;   extruderUseRetract,1
;   extruderRetractionDistance,1.5
;   extruderExtraRestartDistance,0
;   extruderRetractionZLift,0
;   extruderRetractionSpeed,1800
;   extruderUseCoasting,1
;   extruderCoastingDistance,0.2
;   extruderUseWipe,1
;   extruderWipeDistance,2
;   primaryExtruder,0
;   layerHeight,0.2
;   topSolidLayers,4
;   bottomSolidLayers,4
;   perimeterOutlines,4
;   printPerimetersInsideOut,1
;   startPointOption,2
;   startPointOriginX,0
;   startPointOriginY,0
;   sequentialIslands,0
;   spiralVaseMode,0
;   firstLayerHeightPercentage,150
;   firstLayerWidthPercentage,100
;   firstLayerUnderspeed,0.5
;   useRaft,0
;   raftExtruder,0
;   raftTopLayers,3
;   raftBaseLayers,2
;   raftOffset,3
;   raftSeparationDistance,0.14
;   raftTopInfill,100
;   aboveRaftSpeedMultiplier,0.3
;   useSkirt,1
;   skirtExtruder,0
;   skirtLayers,1
;   skirtOutlines,4
;   skirtOffset,0
;   usePrimePillar,0
;   primePillarExtruder,999
;   primePillarWidth,12
;   primePillarLocation,7
;   primePillarSpeedMultiplier,1
;   useOozeShield,0
;   oozeShieldExtruder,999
;   oozeShieldOffset,2
;   oozeShieldOutlines,1
;   oozeShieldSidewallShape,1
;   oozeShieldSidewallAngle,30
;   oozeShieldSpeedMultiplier,1
;   infillExtruder,0
;   internalInfillPattern,Full Honeycomb
;   externalInfillPattern,Rectilinear
;   infillPercentage,25
;   outlineOverlapPercentage,20
;   infillExtrusionWidthPercentage,100
;   minInfillLength,5
;   infillLayerInterval,1
;   internalInfillAngles,0,120,-120
;   overlapInternalInfillAngles,0
;   externalInfillAngles,45,-45
;   generateSupport,0
;   supportExtruder,0
;   supportInfillPercentage,30
;   supportExtraInflation,0
;   supportBaseLayers,0
;   denseSupportExtruder,0
;   denseSupportLayers,0
;   denseSupportInfillPercentage,70
;   supportLayerInterval,1
;   supportHorizontalPartOffset,0.3
;   supportUpperSeparationLayers,1
;   supportLowerSeparationLayers,1
;   supportType,0
;   supportGridSpacing,4
;   maxOverhangAngle,45
;   supportAngles,0
;   temperatureName,Primary Extruder,Heated Bed
;   temperatureNumber,0,0
;   temperatureSetpointCount,1,1
;   temperatureSetpointLayers,1,1
;   temperatureSetpointTemperatures,200,60
;   temperatureStabilizeAtStartup,1,1
;   temperatureHeatedBed,0,1
;   temperatureRelayBetweenLayers,0,0
;   temperatureRelayBetweenLoops,0,0
;   fanLayers,1,2
;   fanSpeeds,0,100
;   blipFanToFullPower,0
;   adjustSpeedForCooling,1
;   minSpeedLayerTime,15
;   minCoolingSpeedSlowdown,20
;   increaseFanForCooling,0
;   minFanLayerTime,45
;   maxCoolingFanSpeed,100
;   increaseFanForBridging,0
;   bridgingFanSpeed,100
;   use5D,1
;   relativeEdistances,0
;   allowEaxisZeroing,1
;   independentExtruderAxes,0
;   includeM10123,0
;   stickySupport,1
;   applyToolheadOffsets,0
;   gcodeXoffset,0
;   gcodeYoffset,0
;   gcodeZoffset,0
;   overrideMachineDefinition,1
;   machineTypeOverride,0
;   strokeXoverride,250
;   strokeYoverride,210
;   strokeZoverride,200
;   originOffsetXoverride,0
;   originOffsetYoverride,0
;   originOffsetZoverride,0
;   homeXdirOverride,-1
;   homeYdirOverride,-1
;   homeZdirOverride,-1
;   flipXoverride,1
;   flipYoverride,-1
;   flipZoverride,1
;   toolheadOffsets,0,0|0,0|0,0|0,0|0,0|0,0
;   overrideFirmwareConfiguration,1
;   firmwareTypeOverride,RepRap (Marlin/Repetier/Sprinter)
;   GPXconfigOverride,r2
;   baudRateOverride,250000
;   overridePrinterModels,1
;   printerModelsOverride
;   startingGcode,M115 U3.0.7 ; use the latest firmware version,G28 W ; home all axes without mesh bed leveling,G80 ; run mesh bed leveling routine,G1 Y-3.0 F1000.0 ; prepare to prime,G92 E0 ; reset extrusion distance,G1 X60.0 E9.0  F1000.0 ; priming,G1 X100.0 E12.5  F1000.0 ; priming
;   layerChangeGcode,
;   retractionGcode,
;   toolChangeGcode,
;   endingGcode,M106 S0 ; turn off cooling fan,M104 S0 ; turn off extruder,M140 S0 ; turn off bed,G1 X0 Y200 ; part removal,M84 ; disable motors
;   exportFileFormat,gcode
;   celebration,0
;   celebrationSong,Random Song
;   postProcessing,
;   defaultSpeed,2400
;   outlineUnderspeed,0.8
;   solidInfillUnderspeed,0.8
;   supportUnderspeed,0.8
;   rapidXYspeed,4800
;   rapidZspeed,1002
;   minBridgingArea,50
;   bridgingExtraInflation,0
;   bridgingExtrusionMultiplier,1
;   bridgingSpeedMultiplier,1
;   useFixedBridgingAngle,0
;   fixedBridgingAngle,0
;   applyBridgingToPerimeters,0
;   filamentDiameters,1.75|1.75|1.75|1.75|1.75|1.75
;   filamentPricesPerKg,46|46|46|46|46|46
;   filamentDensities,1.25|1.25|1.25|1.25|1.25|1.25
;   useMinPrintHeight,0
;   minPrintHeight,0
;   useMaxPrintHeight,0
;   maxPrintHeight,0
;   useDiaphragm,0
;   diaphragmLayerInterval,20
;   robustSlicing,1
;   mergeAllIntoSolid,0
;   onlyRetractWhenCrossingOutline,1
;   retractBetweenLayers,1
;   useRetractionMinTravel,0
;   retractionMinTravel,3
;   retractWhileWiping,1
;   onlyWipeOutlines,1
;   avoidCrossingOutline,0
;   maxMovementDetourFactor,3
;   toolChangeRetractionDistance,12
;   toolChangeExtraRestartDistance,-0.5
;   toolChangeRetractionSpeed,600
;   externalThinWallType,0
;   internalThinWallType,2
;   thinWallAllowedOverlapPercentage,25
;   singleExtrusionMinLength,1
;   singleExtrusionMinPrintingWidthPercentage,50
;   singleExtrusionMaxPrintingWidthPercentage,200
;   singleExtrusionEndpointExtension,0.2
;   horizontalSizeCompensation,0
G90
M82
M106 S0
M140 S60
M190 S60
M104 S200 T0
M109 S200 T0
M115 U3.0.7 ; use the latest firmware version
G28 W ; home all axes without mesh bed leveling
G80 ; run mesh bed leveling routine
G1 Y-3.0 F1000.0 ; prepare to prime
G92 E0 ; reset extrusion distance
G1 X60.0 E9.0  F1000.0 ; priming
G1 X100.0 E12.5  F1000.0 ; priming
G92 E0
G1 E-1.5000 F1800
G1 Z0.300 F1002
; process Skirt
; layer 1, Z = 0.300
T0
; tool H0.300 W0.480
; skirt
G1 X119.547 Y100.329 F4800
G1 E0.0000 F540
G92 E0
G1 X120.329 Y99.547 E0.0662 F486
G1 X120.441 Y99.453 E0.0750
G1 X121.346 Y98.819 E0.1411
G1 X121.474 Y98.745 E0.1499
G1 X122.475 Y98.278 E0.2161
G1 X122.613 Y98.228 E0.2249
G1 X123.681 Y97.942 E0.2911
G1 X123.825 Y97.916 E0.2998
G1 X124.927 Y97.820 E0.3660
G1 X125.073 Y97.820 E0.3748
G1 X126.175 Y97.916 E0.4410
G1 X126.319 Y97.942 E0.4498
G1 X127.387 Y98.228 E0.5160
G1 X127.525 Y98.278 E0.5247
G1 X128.526 Y98.745 E0.5909
G1 X128.654 Y98.819 E0.5997
G1 X129.559 Y99.453 E0.6659
G1 X129.671 Y99.547 E0.6747
G1 X130.453 Y100.329 E0.7408
G1 X130.547 Y100.441 E0.7496
G1 X131.181 Y101.346 E0.8158
G1 X131.255 Y101.474 E0.8246
G1 X131.722 Y102.475 E0.8908
G1 X131.772 Y102.613 E0.8995
G1 X132.058 Y103.681 E0.9657
G1 X132.084 Y103.825 E0.9745
G1 X132.180 Y104.927 E1.0407
G1 X132.180 Y105.073 E1.0495
G1 X132.084 Y106.175 E1.1156
G1 X132.058 Y106.319 E1.1244
G1 X131.772 Y107.387 E1.1906
G1 X131.722 Y107.525 E1.1994
G1 X131.255 Y108.526 E1.2656
G1 X131.181 Y108.654 E1.2744
G1 X130.547 Y109.559 E1.3405
G1 X130.453 Y109.671 E1.3493
G1 X129.671 Y110.453 E1.4155
G1 X129.559 Y110.547 E1.4243
G1 X128.654 Y111.181 E1.4905
G1 X128.526 Y111.255 E1.4992
G1 X127.525 Y111.722 E1.5654
G1 X127.387 Y111.772 E1.5742
G1 X126.319 Y112.058 E1.6404
G1 X126.175 Y112.084 E1.6492
G1 X125.073 Y112.180 E1.7153
G1 X124.927 Y112.180 E1.7241
G1 X123.825 Y112.084 E1.7903
G1 X123.681 Y112.058 E1.7991
G1 X122.613 Y111.772 E1.8653
G1 X122.475 Y111.722 E1.8740
G1 X121.474 Y111.255 E1.9402
G1 X121.346 Y111.181 E1.9490
G1 X120.441 Y110.547 E2.0152
G1 X120.329 Y110.453 E2.0240
G1 X119.547 Y109.671 E2.0902
G1 X119.453 Y109.559 E2.0989
G1 X118.819 Y108.653 E2.1651
G1 X118.745 Y108.526 E2.1739
G1 X118.278 Y107.525 E2.2401
G1 X118.228 Y107.387 E2.2489
G1 X117.942 Y106.319 E2.3150
G1 X117.916 Y106.175 E2.3238
G1 X117.820 Y105.073 E2.3900
G1 X117.820 Y104.927 E2.3988
G1 X117.916 Y103.825 E2.4650
G1 X117.942 Y103.681 E2.4737
G1 X118.228 Y102.613 E2.5399
G1 X118.278 Y102.475 E2.5487
G1 X118.745 Y101.474 E2.6149
G1 X118.819 Y101.346 E2.6237
G1 X119.422 Y100.485 E2.6867
G1 X119.453 Y100.441 F486
G1 X119.547 Y100.329 F486
G1 X119.901 Y100.653 F4800
G92 E0
G1 X120.653 Y99.901 E0.0637 F486
G1 X120.733 Y99.834 E0.0699
G1 X121.605 Y99.224 E0.1336
G1 X121.695 Y99.171 E0.1399
G1 X122.659 Y98.722 E0.2036
G1 X122.758 Y98.686 E0.2098
G1 X123.785 Y98.411 E0.2735
G1 X123.888 Y98.393 E0.2798
G1 X124.948 Y98.300 E0.3434
G1 X125.052 Y98.300 E0.3497
G1 X126.112 Y98.393 E0.4134
G1 X126.215 Y98.411 E0.4197
G1 X127.242 Y98.686 E0.4833
G1 X127.341 Y98.722 E0.4896
G1 X128.305 Y99.171 E0.5533
G1 X128.395 Y99.224 E0.5595
G1 X129.267 Y99.834 E0.6232
G1 X129.347 Y99.901 E0.6295
G1 X130.099 Y100.653 E0.6932
G1 X130.166 Y100.733 E0.6994
G1 X130.776 Y101.605 E0.7631
G1 X130.829 Y101.695 E0.7694
G1 X131.278 Y102.659 E0.8330
G1 X131.314 Y102.758 E0.8393
G1 X131.589 Y103.785 E0.9030
G1 X131.607 Y103.888 E0.9093
G1 X131.700 Y104.948 E0.9729
G1 X131.700 Y105.052 E0.9792
G1 X131.607 Y106.112 E1.0429
G1 X131.589 Y106.215 E1.0491
G1 X131.314 Y107.242 E1.1128
G1 X131.278 Y107.341 E1.1191
G1 X130.829 Y108.305 E1.1828
G1 X130.776 Y108.395 E1.1890
G1 X130.166 Y109.267 E1.2527
G1 X130.099 Y109.347 E1.2590
G1 X129.347 Y110.099 E1.3226
G1 X129.267 Y110.166 E1.3289
G1 X128.395 Y110.776 E1.3926
G1 X128.305 Y110.829 E1.3989
G1 X127.341 Y111.278 E1.4625
G1 X127.242 Y111.314 E1.4688
G1 X126.215 Y111.589 E1.5325
G1 X126.112 Y111.607 E1.5388
G1 X125.052 Y111.700 E1.6024
G1 X124.948 Y111.700 E1.6087
G1 X123.888 Y111.607 E1.6724
G1 X123.785 Y111.589 E1.6786
G1 X122.758 Y111.314 E1.7423
G1 X122.659 Y111.278 E1.7486
G1 X121.695 Y110.829 E1.8123
G1 X121.605 Y110.776 E1.8185
G1 X120.733 Y110.166 E1.8822
G1 X120.653 Y110.099 E1.8885
G1 X119.901 Y109.347 E1.9521
G1 X119.834 Y109.267 E1.9584
G1 X119.224 Y108.395 E2.0221
G1 X119.171 Y108.305 E2.0284
G1 X118.722 Y107.341 E2.0920
G1 X118.686 Y107.242 E2.0983
G1 X118.411 Y106.215 E2.1620
G1 X118.393 Y106.112 E2.1682
G1 X118.300 Y105.052 E2.2319
G1 X118.300 Y104.948 E2.2382
G1 X118.393 Y103.888 E2.3019
G1 X118.411 Y103.785 E2.3081
G1 X118.686 Y102.758 E2.3718
G1 X118.722 Y102.659 E2.3781
G1 X119.171 Y101.695 E2.4417
G1 X119.224 Y101.605 E2.4480
G1 X119.779 Y100.811 E2.5060
G1 X119.834 Y100.733 F486
G1 X119.901 Y100.653 F486
G1 X120.255 Y100.978 F4800
G92 E0
G1 X120.978 Y100.255 E0.0612 F486
G1 X121.026 Y100.215 E0.0649
G1 X121.863 Y99.629 E0.1261
G1 X121.917 Y99.598 E0.1298
G1 X122.843 Y99.166 E0.1910
G1 X122.902 Y99.144 E0.1948
G1 X123.889 Y98.880 E0.2559
G1 X123.951 Y98.869 E0.2597
G1 X124.969 Y98.780 E0.3209
G1 X125.031 Y98.780 E0.3246
G1 X126.049 Y98.869 E0.3858
G1 X126.111 Y98.880 E0.3895
G1 X127.098 Y99.144 E0.4507
G1 X127.157 Y99.166 E0.4545
G1 X128.083 Y99.598 E0.5156
G1 X128.137 Y99.629 E0.5194
G1 X128.974 Y100.215 E0.5806
G1 X129.022 Y100.255 E0.5843
G1 X129.745 Y100.978 E0.6455
G1 X129.785 Y101.026 E0.6492
G1 X130.371 Y101.863 E0.7104
G1 X130.402 Y101.917 E0.7142
G1 X130.834 Y102.843 E0.7753
G1 X130.856 Y102.902 E0.7791
G1 X131.120 Y103.889 E0.8403
G1 X131.131 Y103.951 E0.8440
G1 X131.220 Y104.969 E0.9052
G1 X131.220 Y105.031 E0.9089
G1 X131.131 Y106.049 E0.9701
G1 X131.120 Y106.111 E0.9739
G1 X130.856 Y107.098 E1.0350
G1 X130.834 Y107.157 E1.0388
G1 X130.402 Y108.083 E1.1000
G1 X130.371 Y108.137 E1.1037
G1 X129.785 Y108.974 E1.1649
G1 X129.745 Y109.022 E1.1686
G1 X129.022 Y109.745 E1.2298
G1 X128.974 Y109.785 E1.2336
G1 X128.137 Y110.371 E1.2947
G1 X128.083 Y110.402 E1.2985
G1 X127.157 Y110.834 E1.3597
G1 X127.098 Y110.856 E1.3634
G1 X126.111 Y111.120 E1.4246
G1 X126.049 Y111.131 E1.4283
G1 X125.031 Y111.220 E1.4895
G1 X124.969 Y111.220 E1.4933
G1 X123.951 Y111.131 E1.5544
G1 X123.889 Y111.120 E1.5582
G1 X122.902 Y110.856 E1.6194
G1 X122.843 Y110.834 E1.6231
G1 X121.917 Y110.402 E1.6843
G1 X121.863 Y110.371 E1.6880
G1 X121.026 Y109.785 E1.7492
G1 X120.978 Y109.745 E1.7530
G1 X120.255 Y109.022 E1.8141
G1 X120.215 Y108.974 E1.8179
G1 X119.629 Y108.137 E1.8790
G1 X119.598 Y108.083 E1.8828
G1 X119.166 Y107.157 E1.9440
G1 X119.144 Y107.098 E1.9477
G1 X118.880 Y106.111 E2.0089
G1 X118.869 Y106.049 E2.0127
G1 X118.780 Y105.031 E2.0738
G1 X118.780 Y104.969 E2.0776
G1 X118.869 Y103.951 E2.1387
G1 X118.880 Y103.889 E2.1425
G1 X119.144 Y102.902 E2.2037
G1 X119.166 Y102.843 E2.2074
G1 X119.598 Y101.917 E2.2686
G1 X119.629 Y101.863 E2.2724
G1 X120.136 Y101.138 E2.3253
G1 X120.215 Y101.026 F486
G1 X120.255 Y100.978 F486
G1 X120.610 Y101.302 F4800
G92 E0
G1 X121.302 Y100.610 E0.0587 F486
G1 X121.318 Y100.596 E0.0599
G1 X122.121 Y100.034 E0.1186
G1 X122.139 Y100.024 E0.1198
G1 X123.027 Y99.610 E0.1785
G1 X123.047 Y99.603 E0.1797
G1 X123.993 Y99.349 E0.2384
G1 X124.014 Y99.345 E0.2396
G1 X124.990 Y99.260 E0.2983
G1 X125.010 Y99.260 E0.2995
G1 X125.986 Y99.345 E0.3582
G1 X126.007 Y99.349 E0.3594
G1 X126.953 Y99.603 E0.4181
G1 X126.973 Y99.610 E0.4193
G1 X127.861 Y100.024 E0.4780
G1 X127.879 Y100.034 E0.4792
G1 X128.682 Y100.596 E0.5379
G1 X128.698 Y100.610 E0.5392
G1 X129.390 Y101.302 E0.5978
G1 X129.404 Y101.318 E0.5991
G1 X129.966 Y102.121 E0.6577
G1 X129.976 Y102.139 E0.6590
G1 X130.390 Y103.027 E0.7176
G1 X130.397 Y103.047 E0.7189
G1 X130.651 Y103.993 E0.7775
G1 X130.655 Y104.014 E0.7788
G1 X130.740 Y104.990 E0.8374
G1 X130.740 Y105.010 E0.8387
G1 X130.655 Y105.986 E0.8973
G1 X130.651 Y106.007 E0.8986
G1 X130.397 Y106.953 E0.9572
G1 X130.390 Y106.973 E0.9585
G1 X129.976 Y107.861 E1.0171
G1 X129.966 Y107.879 E1.0184
G1 X129.404 Y108.682 E1.0771
G1 X129.390 Y108.698 E1.0783
G1 X128.698 Y109.390 E1.1370
G1 X128.682 Y109.404 E1.1382
G1 X127.879 Y109.966 E1.1969
G1 X127.861 Y109.976 E1.1981
G1 X126.973 Y110.390 E1.2568
G1 X126.953 Y110.397 E1.2580
G1 X126.007 Y110.651 E1.3167
G1 X125.986 Y110.655 E1.3179
G1 X125.010 Y110.740 E1.3766
G1 X124.990 Y110.740 E1.3778
G1 X124.014 Y110.655 E1.4365
G1 X123.993 Y110.651 E1.4377
G1 X123.047 Y110.397 E1.4964
G1 X123.027 Y110.390 E1.4976
G1 X122.139 Y109.976 E1.5563
G1 X122.121 Y109.966 E1.5576
G1 X121.318 Y109.404 E1.6162
G1 X121.302 Y109.390 E1.6175
G1 X120.610 Y108.698 E1.6761
G1 X120.596 Y108.682 E1.6774
G1 X120.034 Y107.879 E1.7360
G1 X120.024 Y107.861 E1.7373
G1 X119.610 Y106.973 E1.7959
G1 X119.603 Y106.953 E1.7972
G1 X119.349 Y106.007 E1.8558
G1 X119.345 Y105.986 E1.8571
G1 X119.260 Y105.010 E1.9157
G1 X119.260 Y104.990 E1.9170
G1 X119.345 Y104.014 E1.9756
G1 X119.349 Y103.993 E1.9769
G1 X119.603 Y103.047 E2.0355
G1 X119.610 Y103.027 E2.0368
G1 X120.024 Y102.139 E2.0955
G1 X120.034 Y102.121 E2.0967
G1 X120.493 Y101.465 E2.1446
G1 X120.596 Y101.318 F486
G1 X120.610 Y101.302 F486
G92 E0
G1 E-1.5000 F1800
; outer perimeter
G1 X120.971 Y101.620 F4800
G1 E0.0000 F1800
G92 E0
G1 X121.620 Y100.971 E0.0549 F389
G1 X122.370 Y100.445 E0.1098
G1 X123.201 Y100.058 E0.1646
G1 X124.087 Y99.821 E0.2195
G1 X125.000 Y99.741 E0.2744
G1 X125.913 Y99.821 E0.3293
G1 X126.799 Y100.058 E0.3842
G1 X127.629 Y100.445 E0.4391
G1 X128.380 Y100.971 E0.4939
G1 X129.029 Y101.620 E0.5488
G1 X129.554 Y102.370 E0.6037
G1 X129.942 Y103.201 E0.6586
G1 X130.179 Y104.087 E0.7135
G1 X130.259 Y105.000 E0.7684
G1 X130.179 Y105.913 E0.8232
G1 X129.942 Y106.799 E0.8781
G1 X129.555 Y107.629 E0.9330
G1 X129.029 Y108.380 E0.9879
G1 X128.380 Y109.029 E1.0428
G1 X127.629 Y109.555 E1.0977
G1 X126.799 Y109.942 E1.1525
G1 X125.913 Y110.179 E1.2074
G1 X125.000 Y110.259 E1.2623
G1 X124.087 Y110.179 E1.3172
G1 X123.201 Y109.942 E1.3721
G1 X122.370 Y109.555 E1.4269
G1 X121.620 Y109.029 E1.4818
G1 X120.971 Y108.380 E1.5367
G1 X120.445 Y107.629 E1.5916
G1 X120.058 Y106.799 E1.6465
G1 X119.821 Y105.913 E1.7014
G1 X119.741 Y105.000 E1.7562
G1 X119.821 Y104.087 E1.8111
G1 X120.058 Y103.201 E1.8660
G1 X120.445 Y102.370 E1.9209
G1 X120.857 Y101.783 E1.9638
G1 X120.971 Y101.620 F389
G1 X121.620 Y100.971 F2400
