; G-Code generated by Simplify3D(R) Version 4.0.0
; Oct 20, 2017 at 8:45:05 AM
; Settings Summary
;   processName,PLA Medium 4 layers hex
;   applyToModels,608_core1
;   profileName,Prusa Research Original Prusa i3 MK2 (modified)
;   profileVersion,2016-11-25 08:00:00
;   baseProfile,
;   printMaterial,PLA
;   printQuality,Medium
;   printExtruders,
;   extruderName,Primary Extruder
;   extruderToolheadNumber,0
;   extruderDiameter,0.4
;   extruderAutoWidth,1
;   extruderWidth,0.48
;   extrusionMultiplier,1
;   extruderUseRetract,1
;   extruderRetractionDistance,1.5
;   extruderExtraRestartDistance,0
;   extruderRetractionZLift,0
;   extruderRetractionSpeed,1800
;   extruderUseCoasting,1
;   extruderCoastingDistance,0.2
;   extruderUseWipe,1
;   extruderWipeDistance,2
;   primaryExtruder,0
;   layerHeight,0.2
;   topSolidLayers,4
;   bottomSolidLayers,4
;   perimeterOutlines,4
;   printPerimetersInsideOut,1
;   startPointOption,2
;   startPointOriginX,0
;   startPointOriginY,0
;   sequentialIslands,0
;   spiralVaseMode,0
;   firstLayerHeightPercentage,150
;   firstLayerWidthPercentage,100
;   firstLayerUnderspeed,0.5
;   useRaft,0
;   raftExtruder,0
;   raftTopLayers,3
;   raftBaseLayers,2
;   raftOffset,3
;   raftSeparationDistance,0.14
;   raftTopInfill,100
;   aboveRaftSpeedMultiplier,0.3
;   useSkirt,1
;   skirtExtruder,0
;   skirtLayers,1
;   skirtOutlines,2
;   skirtOffset,4
;   usePrimePillar,0
;   primePillarExtruder,999
;   primePillarWidth,12
;   primePillarLocation,7
;   primePillarSpeedMultiplier,1
;   useOozeShield,0
;   oozeShieldExtruder,999
;   oozeShieldOffset,2
;   oozeShieldOutlines,1
;   oozeShieldSidewallShape,1
;   oozeShieldSidewallAngle,30
;   oozeShieldSpeedMultiplier,1
;   infillExtruder,0
;   internalInfillPattern,Full Honeycomb
;   externalInfillPattern,Rectilinear
;   infillPercentage,25
;   outlineOverlapPercentage,20
;   infillExtrusionWidthPercentage,100
;   minInfillLength,5
;   infillLayerInterval,1
;   internalInfillAngles,0,120,-120
;   overlapInternalInfillAngles,0
;   externalInfillAngles,45,-45
;   generateSupport,0
;   supportExtruder,0
;   supportInfillPercentage,30
;   supportExtraInflation,0
;   supportBaseLayers,0
;   denseSupportExtruder,0
;   denseSupportLayers,0
;   denseSupportInfillPercentage,70
;   supportLayerInterval,1
;   supportHorizontalPartOffset,0.3
;   supportUpperSeparationLayers,1
;   supportLowerSeparationLayers,1
;   supportType,0
;   supportGridSpacing,4
;   maxOverhangAngle,45
;   supportAngles,0
;   temperatureName,Primary Extruder,Heated Bed
;   temperatureNumber,0,0
;   temperatureSetpointCount,1,1
;   temperatureSetpointLayers,1,1
;   temperatureSetpointTemperatures,200,60
;   temperatureStabilizeAtStartup,1,1
;   temperatureHeatedBed,0,1
;   temperatureRelayBetweenLayers,0,0
;   temperatureRelayBetweenLoops,0,0
;   fanLayers,1,2
;   fanSpeeds,0,100
;   blipFanToFullPower,0
;   adjustSpeedForCooling,1
;   minSpeedLayerTime,15
;   minCoolingSpeedSlowdown,20
;   increaseFanForCooling,0
;   minFanLayerTime,45
;   maxCoolingFanSpeed,100
;   increaseFanForBridging,0
;   bridgingFanSpeed,100
;   use5D,1
;   relativeEdistances,0
;   allowEaxisZeroing,1
;   independentExtruderAxes,0
;   includeM10123,0
;   stickySupport,1
;   applyToolheadOffsets,0
;   gcodeXoffset,0
;   gcodeYoffset,0
;   gcodeZoffset,0
;   overrideMachineDefinition,1
;   machineTypeOverride,0
;   strokeXoverride,250
;   strokeYoverride,210
;   strokeZoverride,200
;   originOffsetXoverride,0
;   originOffsetYoverride,0
;   originOffsetZoverride,0
;   homeXdirOverride,-1
;   homeYdirOverride,-1
;   homeZdirOverride,-1
;   flipXoverride,1
;   flipYoverride,-1
;   flipZoverride,1
;   toolheadOffsets,0,0|0,0|0,0|0,0|0,0|0,0
;   overrideFirmwareConfiguration,1
;   firmwareTypeOverride,RepRap (Marlin/Repetier/Sprinter)
;   GPXconfigOverride,r2
;   baudRateOverride,250000
;   overridePrinterModels,1
;   printerModelsOverride
;   startingGcode,M115 U3.0.7 ; use the latest firmware version,G28 W ; home all axes without mesh bed leveling,G80 ; run mesh bed leveling routine,G1 Y-3.0 F1000.0 ; prepare to prime,G92 E0 ; reset extrusion distance,G1 X60.0 E9.0  F1000.0 ; priming,G1 X100.0 E12.5  F1000.0 ; priming
;   layerChangeGcode,
;   retractionGcode,
;   toolChangeGcode,
;   endingGcode,M106 S0 ; turn off cooling fan,M104 S0 ; turn off extruder,M140 S0 ; turn off bed,G1 X0 Y200 ; part removal,M84 ; disable motors
;   exportFileFormat,gcode
;   celebration,0
;   celebrationSong,Random Song
;   postProcessing,
;   defaultSpeed,2400
;   outlineUnderspeed,0.8
;   solidInfillUnderspeed,0.8
;   supportUnderspeed,0.8
;   rapidXYspeed,4800
;   rapidZspeed,1002
;   minBridgingArea,50
;   bridgingExtraInflation,0
;   bridgingExtrusionMultiplier,1
;   bridgingSpeedMultiplier,1
;   useFixedBridgingAngle,0
;   fixedBridgingAngle,0
;   applyBridgingToPerimeters,0
;   filamentDiameters,1.75|1.75|1.75|1.75|1.75|1.75
;   filamentPricesPerKg,46|46|46|46|46|46
;   filamentDensities,1.25|1.25|1.25|1.25|1.25|1.25
;   useMinPrintHeight,0
;   minPrintHeight,0
;   useMaxPrintHeight,0
;   maxPrintHeight,0
;   useDiaphragm,0
;   diaphragmLayerInterval,20
;   robustSlicing,1
;   mergeAllIntoSolid,0
;   onlyRetractWhenCrossingOutline,1
;   retractBetweenLayers,1
;   useRetractionMinTravel,0
;   retractionMinTravel,3
;   retractWhileWiping,1
;   onlyWipeOutlines,1
;   avoidCrossingOutline,0
;   maxMovementDetourFactor,3
;   toolChangeRetractionDistance,12
;   toolChangeExtraRestartDistance,-0.5
;   toolChangeRetractionSpeed,600
;   externalThinWallType,0
;   internalThinWallType,2
;   thinWallAllowedOverlapPercentage,25
;   singleExtrusionMinLength,1
;   singleExtrusionMinPrintingWidthPercentage,50
;   singleExtrusionMaxPrintingWidthPercentage,200
;   singleExtrusionEndpointExtension,0.2
;   horizontalSizeCompensation,0
G90
M82
M106 S0
M140 S60
M190 S60
M104 S200 T0
M109 S200 T0
M115 U3.0.7 ; use the latest firmware version
G28 W ; home all axes without mesh bed leveling
G80 ; run mesh bed leveling routine
G1 Y-3.0 F1000.0 ; prepare to prime
G92 E0 ; reset extrusion distance
G1 X60.0 E9.0  F1000.0 ; priming
G1 X100.0 E12.5  F1000.0 ; priming
G92 E0
G1 E-1.5000 F1800
G1 Z0.300 F1002
; process PLA Medium 4 layers hex
; layer 1, Z = 0.300
T0
; tool H0.300 W0.480
; skirt
G1 X96.634 Y81.448 F4800
G1 E0.0000 F540
G92 E0
G1 X98.947 Y78.922 E0.2051 F1200
G1 X98.953 Y78.917 E0.2055
G1 X99.019 Y78.847 E0.2113
G1 X99.024 Y78.842 E0.2117
G1 X99.372 Y78.494 E0.2412
G1 X99.381 Y78.486 E0.2419
G1 X99.488 Y78.385 E0.2507
G1 X99.497 Y78.377 E0.2514
G1 X102.101 Y76.103 E0.4584
G1 X102.116 Y76.091 E0.4596
G1 X102.302 Y75.945 E0.4737
G1 X102.318 Y75.933 E0.4749
G1 X105.490 Y73.719 E0.7065
G1 X105.506 Y73.708 E0.7076
G1 X105.702 Y73.586 E0.7215
G1 X105.719 Y73.577 E0.7226
G1 X108.778 Y71.891 E0.9317
G1 X108.794 Y71.882 E0.9328
G1 X108.996 Y71.784 E0.9463
G1 X109.013 Y71.777 E0.9474
G1 X112.230 Y70.414 E1.1566
G1 X112.248 Y70.407 E1.1577
G1 X112.466 Y70.328 E1.1716
G1 X112.485 Y70.322 E1.1728
G1 X116.187 Y69.200 E1.4044
G1 X116.206 Y69.195 E1.4055
G1 X116.434 Y69.139 E1.4196
G1 X116.453 Y69.135 E1.4208
G1 X119.892 Y68.486 E1.6303
G1 X119.912 Y68.483 E1.6315
G1 X120.144 Y68.452 E1.6455
G1 X120.163 Y68.450 E1.6467
G1 X124.020 Y68.145 E1.8783
G1 X124.039 Y68.144 E1.8794
G1 X124.272 Y68.138 E1.8934
G1 X124.291 Y68.138 E1.8945
G1 X127.784 Y68.236 E2.1037
G1 X127.802 Y68.237 E2.1048
G1 X128.026 Y68.254 E2.1182
G1 X128.044 Y68.256 E2.1193
G1 X131.507 Y68.712 E2.3285
G1 X131.526 Y68.715 E2.3296
G1 X131.753 Y68.757 E2.3434
G1 X131.771 Y68.761 E2.3445
G1 X135.532 Y69.667 E2.5762
G1 X135.551 Y69.672 E2.5773
G1 X135.778 Y69.740 E2.5915
G1 X135.797 Y69.746 E2.5927
G1 X139.049 Y70.915 E2.7996
G1 X139.060 Y70.919 E2.8003
G1 X139.195 Y70.973 E2.8089
G1 X139.206 Y70.977 E2.8097
G1 X139.656 Y71.174 E2.8391
G1 X139.663 Y71.177 E2.8396
G1 X139.753 Y71.218 E2.8454
G1 X139.760 Y71.222 E2.8459
G1 X142.836 Y72.732 E3.0511
G1 X142.852 Y72.741 E3.0522
G1 X143.048 Y72.850 E3.0656
G1 X143.064 Y72.859 E3.0667
G1 X146.027 Y74.714 E3.2760
G1 X146.043 Y74.725 E3.2771
G1 X146.235 Y74.860 E3.2912
G1 X146.251 Y74.872 E3.2924
G1 X149.290 Y77.265 E3.5240
G1 X149.305 Y77.278 E3.5251
G1 X149.479 Y77.431 E3.5390
G1 X149.493 Y77.444 E3.5402
G1 X151.993 Y79.885 E3.7493
G1 X152.006 Y79.898 E3.7505
G1 X152.158 Y80.063 E3.7639
G1 X152.170 Y80.077 E3.7650
G1 X154.405 Y82.761 E3.9741
G1 X154.417 Y82.776 E3.9753
G1 X154.555 Y82.961 E3.9891
G1 X154.566 Y82.977 E3.9902
G1 X156.713 Y86.195 E4.2219
G1 X156.723 Y86.212 E4.2230
G1 X156.844 Y86.415 E4.2372
G1 X156.853 Y86.432 E4.2383
G1 X158.450 Y89.500 E4.4454
G1 X158.456 Y89.511 E4.4461
G1 X158.520 Y89.646 E4.4551
G1 X158.525 Y89.657 E4.4558
G1 X158.721 Y90.106 E4.4852
G1 X158.724 Y90.113 E4.4856
G1 X158.759 Y90.197 E4.4911
G1 X158.762 Y90.204 E4.4915
G1 X159.962 Y93.302 E4.6904
G1 X159.968 Y93.319 E4.6915
G1 X160.038 Y93.530 E4.7048
G1 X160.043 Y93.547 E4.7058
G1 X160.995 Y97.016 E4.9212
G1 X160.999 Y97.035 E4.9224
G1 X161.050 Y97.270 E4.9367
G1 X161.054 Y97.289 E4.9379
G1 X161.662 Y101.112 E5.1697
G1 X161.664 Y101.131 E5.1708
G1 X161.688 Y101.361 E5.1847
G1 X161.690 Y101.380 E5.1858
G1 X161.870 Y104.869 E5.3950
G1 X161.870 Y104.888 E5.3961
G1 X161.870 Y105.112 E5.4095
G1 X161.870 Y105.131 E5.4106
G1 X161.690 Y108.620 E5.6198
G1 X161.688 Y108.639 E5.6209
G1 X161.664 Y108.869 E5.6348
G1 X161.662 Y108.888 E5.6359
G1 X161.054 Y112.709 E5.8675
G1 X161.051 Y112.728 E5.8687
G1 X161.001 Y112.958 E5.8828
G1 X160.997 Y112.977 E5.8840
G1 X160.079 Y116.350 E6.0932
G1 X160.073 Y116.367 E6.0944
G1 X160.003 Y116.581 E6.1078
G1 X159.997 Y116.598 E6.1089
G1 X158.763 Y119.792 E6.3139
G1 X158.760 Y119.799 E6.3144
G1 X158.725 Y119.886 E6.3199
G1 X158.722 Y119.893 E6.3204
G1 X158.525 Y120.343 E6.3498
G1 X158.520 Y120.354 E6.3506
G1 X158.456 Y120.489 E6.3595
G1 X158.450 Y120.500 E6.3603
G1 X156.853 Y123.568 E6.5673
G1 X156.844 Y123.585 E6.5685
G1 X156.723 Y123.788 E6.5826
G1 X156.713 Y123.805 E6.5838
G1 X154.566 Y127.023 E6.8154
G1 X154.555 Y127.039 E6.8165
G1 X154.417 Y127.224 E6.8304
G1 X154.405 Y127.239 E6.8315
G1 X152.170 Y129.923 E7.0406
G1 X152.158 Y129.937 E7.0417
G1 X152.006 Y130.102 E7.0552
G1 X151.993 Y130.115 E7.0563
G1 X149.493 Y132.556 E7.2654
G1 X149.479 Y132.569 E7.2666
G1 X149.305 Y132.722 E7.2805
G1 X149.290 Y132.735 E7.2816
G1 X146.251 Y135.128 E7.5132
G1 X146.235 Y135.140 E7.5144
G1 X146.043 Y135.275 E7.5285
G1 X146.027 Y135.286 E7.5297
G1 X143.060 Y137.143 E7.7392
G1 X143.043 Y137.153 E7.7404
G1 X142.838 Y137.267 E7.7544
G1 X142.821 Y137.276 E7.7556
G1 X139.340 Y138.965 E7.9872
G1 X139.323 Y138.973 E7.9883
G1 X139.108 Y139.063 E8.0023
G1 X139.090 Y139.070 E8.0034
G1 X135.797 Y140.254 E8.2130
G1 X135.778 Y140.260 E8.2141
G1 X135.551 Y140.328 E8.2283
G1 X135.532 Y140.333 E8.2295
G1 X131.771 Y141.239 E8.4611
G1 X131.753 Y141.243 E8.4622
G1 X131.526 Y141.285 E8.4760
G1 X131.507 Y141.288 E8.4772
G1 X128.044 Y141.744 E8.6863
G1 X128.026 Y141.746 E8.6874
G1 X127.802 Y141.763 E8.7008
G1 X127.784 Y141.764 E8.7019
G1 X124.291 Y141.862 E8.9111
G1 X124.272 Y141.862 E8.9123
G1 X124.039 Y141.856 E8.9262
G1 X124.020 Y141.855 E8.9273
G1 X120.163 Y141.550 E9.1589
G1 X120.144 Y141.548 E9.1601
G1 X119.912 Y141.517 E9.1741
G1 X119.892 Y141.514 E9.1753
G1 X116.453 Y140.865 E9.3849
G1 X116.434 Y140.861 E9.3860
G1 X116.206 Y140.805 E9.4001
G1 X116.187 Y140.800 E9.4012
G1 X112.485 Y139.678 E9.6328
G1 X112.466 Y139.672 E9.6340
G1 X112.248 Y139.593 E9.6479
G1 X112.230 Y139.586 E9.6491
G1 X109.013 Y138.223 E9.8582
G1 X108.996 Y138.216 E9.8593
G1 X108.794 Y138.118 E9.8728
G1 X108.778 Y138.109 E9.8739
G1 X105.719 Y136.423 E10.0830
G1 X105.702 Y136.414 E10.0841
G1 X105.506 Y136.292 E10.0980
G1 X105.490 Y136.281 E10.0991
G1 X102.318 Y134.067 E10.3307
G1 X102.302 Y134.055 E10.3319
G1 X102.116 Y133.909 E10.3460
G1 X102.101 Y133.897 E10.3472
G1 X99.465 Y131.595 E10.5568
G1 X99.451 Y131.582 E10.5579
G1 X99.284 Y131.419 E10.5719
G1 X99.270 Y131.405 E10.5730
G1 X96.645 Y128.564 E10.8046
G1 X96.632 Y128.549 E10.8058
G1 X96.482 Y128.369 E10.8198
G1 X96.470 Y128.354 E10.8210
G1 X94.384 Y125.544 E11.0305
G1 X94.373 Y125.528 E11.0317
G1 X94.243 Y125.331 E11.0458
G1 X94.233 Y125.315 E11.0469
G1 X92.275 Y121.978 E11.2786
G1 X92.265 Y121.961 E11.2797
G1 X92.159 Y121.755 E11.2936
G1 X92.150 Y121.738 E11.2947
G1 X90.710 Y118.548 E11.5043
G1 X90.703 Y118.531 E11.5054
G1 X90.621 Y118.322 E11.5188
G1 X90.615 Y118.305 E11.5199
G1 X89.513 Y114.997 E11.7287
G1 X89.508 Y114.978 E11.7298
G1 X89.446 Y114.755 E11.7437
G1 X89.442 Y114.737 E11.7448
G1 X88.615 Y110.957 E11.9764
G1 X88.612 Y110.938 E11.9776
G1 X88.574 Y110.706 E11.9917
G1 X88.571 Y110.686 E11.9929
G1 X88.201 Y107.247 E12.2000
G1 X88.200 Y107.234 E12.2007
G1 X88.189 Y107.083 E12.2098
G1 X88.189 Y107.070 E12.2106
G1 X88.170 Y106.580 E12.2399
G1 X88.170 Y106.573 E12.2404
G1 X88.168 Y106.484 E12.2457
G1 X88.168 Y106.477 E12.2461
G1 X88.179 Y103.163 E12.4445
G1 X88.179 Y103.145 E12.4456
G1 X88.191 Y102.923 E12.4589
G1 X88.193 Y102.905 E12.4600
G1 X88.570 Y99.322 E12.6757
G1 X88.573 Y99.302 E12.6769
G1 X88.611 Y99.064 E12.6913
G1 X88.615 Y99.045 E12.6925
G1 X89.442 Y95.263 E12.9242
G1 X89.447 Y95.245 E12.9254
G1 X89.508 Y95.021 E12.9392
G1 X89.513 Y95.003 E12.9404
G1 X90.617 Y91.689 E13.1495
G1 X90.623 Y91.671 E13.1506
G1 X90.705 Y91.462 E13.1640
G1 X90.712 Y91.445 E13.1652
G1 X92.151 Y88.262 E13.3743
G1 X92.159 Y88.244 E13.3755
G1 X92.265 Y88.038 E13.3893
G1 X92.275 Y88.022 E13.3905
G1 X94.233 Y84.685 E13.6221
G1 X94.243 Y84.669 E13.6233
G1 X94.373 Y84.472 E13.6373
G1 X94.384 Y84.456 E13.6385
G1 X96.468 Y81.650 E13.8478
G1 X96.479 Y81.635 E13.8489
G1 X96.506 Y81.602 E13.8514
G1 X96.622 Y81.462 F1200
G1 X96.634 Y81.448 F1200
G1 X96.988 Y81.773 F4800
G92 E0
G1 X96.992 Y81.768 E0.0004 F1200
G1 X99.300 Y79.248 E0.2049
G1 X99.301 Y79.247 E0.2051
G1 X99.364 Y79.181 E0.2105
G1 X99.366 Y79.179 E0.2106
G1 X99.709 Y78.837 E0.2397
G1 X99.711 Y78.834 E0.2399
G1 X99.813 Y78.739 E0.2482
G1 X99.816 Y78.736 E0.2485
G1 X102.412 Y76.469 E0.4548
G1 X102.417 Y76.465 E0.4552
G1 X102.593 Y76.327 E0.4686
G1 X102.598 Y76.323 E0.4690
G1 X105.760 Y74.116 E0.6998
G1 X105.765 Y74.112 E0.7002
G1 X105.950 Y73.997 E0.7133
G1 X105.956 Y73.994 E0.7136
G1 X109.004 Y72.314 E0.9220
G1 X109.010 Y72.311 E0.9224
G1 X109.200 Y72.219 E0.9351
G1 X109.206 Y72.216 E0.9354
G1 X112.411 Y70.858 E1.1439
G1 X112.417 Y70.856 E1.1442
G1 X112.624 Y70.781 E1.1574
G1 X112.630 Y70.779 E1.1578
G1 X116.320 Y69.661 E1.3886
G1 X116.326 Y69.659 E1.3890
G1 X116.542 Y69.607 E1.4023
G1 X116.548 Y69.605 E1.4027
G1 X119.975 Y68.959 E1.6114
G1 X119.981 Y68.958 E1.6118
G1 X120.201 Y68.929 E1.6251
G1 X120.208 Y68.928 E1.6255
G1 X124.052 Y68.624 E1.8563
G1 X124.058 Y68.624 E1.8567
G1 X124.278 Y68.618 E1.8699
G1 X124.284 Y68.618 E1.8703
G1 X127.764 Y68.715 E2.0787
G1 X127.770 Y68.715 E2.0791
G1 X127.982 Y68.732 E2.0918
G1 X127.988 Y68.733 E2.0921
G1 X131.438 Y69.187 E2.3005
G1 X131.445 Y69.188 E2.3009
G1 X131.659 Y69.227 E2.3139
G1 X131.665 Y69.229 E2.3143
G1 X135.414 Y70.132 E2.5451
G1 X135.420 Y70.134 E2.5455
G1 X135.634 Y70.198 E2.5589
G1 X135.640 Y70.200 E2.5593
G1 X138.883 Y71.365 E2.7656
G1 X138.887 Y71.367 E2.7658
G1 X139.014 Y71.417 E2.7740
G1 X139.017 Y71.419 E2.7742
G1 X139.462 Y71.613 E2.8033
G1 X139.464 Y71.614 E2.8034
G1 X139.548 Y71.653 E2.8090
G1 X139.551 Y71.654 E2.8091
G1 X142.619 Y73.160 E3.0138
G1 X142.624 Y73.163 E3.0141
G1 X142.809 Y73.266 E3.0268
G1 X142.815 Y73.269 E3.0272
G1 X145.767 Y75.117 E3.2357
G1 X145.772 Y75.121 E3.2361
G1 X145.954 Y75.249 E3.2494
G1 X145.959 Y75.253 E3.2498
G1 X148.988 Y77.638 E3.4806
G1 X148.993 Y77.642 E3.4810
G1 X149.158 Y77.787 E3.4941
G1 X149.162 Y77.792 E3.4945
G1 X151.653 Y80.224 E3.7029
G1 X151.657 Y80.228 E3.7033
G1 X151.801 Y80.384 E3.7160
G1 X151.805 Y80.389 E3.7163
G1 X154.032 Y83.064 E3.9247
G1 X154.036 Y83.068 E3.9251
G1 X154.167 Y83.243 E3.9382
G1 X154.170 Y83.249 E3.9386
G1 X156.310 Y86.456 E4.1694
G1 X156.314 Y86.462 E4.1698
G1 X156.427 Y86.654 E4.1831
G1 X156.430 Y86.660 E4.1835
G1 X158.023 Y89.718 E4.3899
