; generated by Slic3r Prusa Edition 1.40.0+ on 2019-02-02 at 19:46:59

; 

; external perimeters extrusion width = 0.60mm
; perimeters extrusion width = 0.43mm
; infill extrusion width = 0.45mm
; solid infill extrusion width = 0.70mm
; top infill extrusion width = 0.43mm
; support material extrusion width = 0.35mm
; first layer extrusion width = 0.42mm

M107
M115 U3.1.0 ; tell printer latest fw version
M201 X9000 Y9000 Z500 E10000 ; sets maximum accelerations, mm/sec^2
M203 X500 Y500 Z12 E120 ; sets maximum feedrates, mm/sec
M204 S1500 T1500 ; sets acceleration (S) and retract acceleration (T)
M205 X10 Y10 Z0.2 E2.5 ; sets the jerk limits, mm/sec
M205 S0 T0 ; sets the minimum extruding and travel feed rate, mm/sec
M83  ; extruder relative mode
M104 S210 ; set extruder temp
M140 S55 ; set bed temp
M190 S55 ; wait for bed temp
M109 S210 ; wait for extruder temp
G28 W ; home all without mesh bed level
G80 ; mesh bed leveling
G1 Y-3.0 F1000.0 ; go outside print area
G92 E0.0
G1 X60.0 E9.0  F1000.0 ; intro line
G1 X100.0 E12.5  F1000.0 ; intro line
G92 E0.0
M900 K30; Filament gcode
G21 ; set units to millimeters
G90 ; use absolute coordinates
M83 ; use relative distances for extrusion
;BEFORE_LAYER_CHANGE
G92 E0.0
;0.32


G1 E-0.80000 F2100.00000
G1 Z0.600 F10800.000
;AFTER_LAYER_CHANGE
;0.32
G1 X48.757 Y38.698
G1 Z0.320
G1 E0.80000 F2100.00000
M204 S1000
G1 F1800
G1 X49.222 Y38.239 E0.03054
G1 X49.803 Y37.939 E0.03054
G1 X50.446 Y37.825 E0.03054
G1 X54.504 Y37.824 E0.18966
G1 X55.298 Y37.886 E0.03722
G1 X56.064 Y38.067 E0.03682
G1 X56.811 Y38.369 E0.03764
G1 X57.403 Y38.720 E0.03219
G1 X193.531 Y123.614 E7.49864
G1 X194.615 Y124.367 E0.06166
G1 X195.632 Y125.193 E0.06127
G1 X197.306 Y126.867 E0.11065
G1 X198.869 Y128.943 E0.12144
G1 X200.108 Y131.226 E0.12144
G1 X200.936 Y133.446 E0.11074
G1 X201.263 Y134.706 E0.06085
G1 X201.505 Y136.056 E0.06408
G1 X201.674 Y138.427 E0.11112
G1 X201.674 Y147.084 E0.40463
G1 X201.609 Y147.826 E0.03484
G1 X201.414 Y148.623 E0.03834
G1 X201.106 Y149.360 E0.03730
G1 X200.654 Y150.086 E0.04001
G1 X200.052 Y150.760 E0.04220
G1 X198.985 Y151.536 E0.06169
G1 X198.132 Y151.911 E0.04356
G1 X197.279 Y152.116 E0.04104
G1 X55.250 Y172.120 E6.70404
G1 X50.358 Y172.171 E0.22867
G1 X49.733 Y172.036 E0.02987
G1 X49.175 Y171.726 E0.02987
G1 X48.822 Y171.385 E0.02295
G1 X48.552 Y170.970 E0.02311
G1 X48.384 Y170.505 E0.02311
G1 X48.324 Y170.014 E0.02311
G1 X48.326 Y39.913 E6.08104
G1 X48.449 Y39.274 E0.03037
G1 X48.729 Y38.751 E0.02774
G1 F8640
G1 X49.222 Y38.239 E-0.16416
G1 X49.803 Y37.939 E-0.15088
G1 X50.446 Y37.825 E-0.15088
G1 X51.720 Y37.825 E-0.29407
G1 E-0.04000 F2100.00000
G1 Z0.920 F10800.000
G1 X56.939 Y66.957
G1 Z0.320
G1 E0.80000 F2100.00000
G1 F1800
G1 X164.746 Y122.627 E5.67118
G1 X164.519 Y123.561 E0.04492
G1 X67.488 Y123.561 E4.53531
G1 X66.576 Y123.521 E0.04267
G1 X65.662 Y123.401 E0.04307
G1 X64.762 Y123.201 E0.04307
G1 X63.884 Y122.923 E0.04307
G1 X63.032 Y122.570 E0.04307
G1 X62.215 Y122.144 E0.04307
G1 X61.438 Y121.649 E0.04307
G1 X60.707 Y121.088 E0.04307
G1 X60.035 Y120.472 E0.04262
G1 X59.412 Y119.793 E0.04307
G1 X58.851 Y119.062 E0.04307
G1 X58.356 Y118.285 E0.04307
G1 X57.930 Y117.468 E0.04307
G1 X57.577 Y116.616 E0.04307
G1 X57.299 Y115.738 E0.04307
G1 X57.099 Y114.838 E0.04307
G1 X56.979 Y113.924 E0.04307
G1 X56.939 Y113.012 E0.04267
G1 X56.939 Y67.017 E2.14988
G1 X57.290 Y67.533 F10800.000
G1 F1800
G1 X164.339 Y122.813 E5.63131
G1 X164.243 Y123.210 E0.01910
G1 X67.495 Y123.210 E4.52204
G1 X66.606 Y123.171 E0.04159
G1 X65.723 Y123.054 E0.04164
G1 X64.854 Y122.861 E0.04164
G1 X64.004 Y122.593 E0.04164
G1 X63.181 Y122.252 E0.04164
G1 X62.391 Y121.840 E0.04164
G1 X61.640 Y121.361 E0.04164
G1 X60.934 Y120.818 E0.04164
G1 X60.284 Y120.223 E0.04119
G1 X59.682 Y119.567 E0.04164
G1 X59.139 Y118.860 E0.04164
G1 X58.660 Y118.109 E0.04164
G1 X58.248 Y117.319 E0.04164
G1 X57.907 Y116.496 E0.04164
G1 X57.639 Y115.646 E0.04164
G1 X57.446 Y114.777 E0.04164
G1 X57.329 Y113.894 E0.04164
G1 X57.290 Y113.005 E0.04159
G1 X57.290 Y67.593 E2.12255
G1 X57.415 Y67.153 F10800.000
G1 F8640
G1 X60.215 Y69.102 E-0.76000
G1 E-0.04000 F2100.00000
G1 Z0.920 F10800.000
G1 X56.939 Y60.342
G1 Z0.320
G1 E0.80000 F2100.00000
G1 F1800
G1 X179.364 Y123.561 E6.44016
G1 X183.990 Y123.561 E0.21624
G1 X185.066 Y123.600 E0.05031
G1 X186.126 Y123.714 E0.04984
G1 X187.175 Y123.903 E0.04984
G1 X188.209 Y124.167 E0.04984
G1 X189.220 Y124.504 E0.04984
G1 X190.206 Y124.912 E0.04984
G1 X191.159 Y125.389 E0.04984
G1 X192.076 Y125.933 E0.04984
G1 X192.952 Y126.541 E0.04984
G1 X193.782 Y127.210 E0.04983
G1 X194.571 Y127.945 E0.05039
G1 X195.290 Y128.717 E0.04930
G1 X195.959 Y129.548 E0.04984
G1 X196.567 Y130.424 E0.04984
G1 X197.111 Y131.341 E0.04984
G1 X197.588 Y132.294 E0.04984
G1 X197.996 Y133.280 E0.04984
G1 X198.333 Y134.291 E0.04984
G1 X198.597 Y135.324 E0.04983
G1 X198.788 Y136.386 E0.05039
G1 X198.900 Y137.434 E0.04930
G1 X198.939 Y138.510 E0.05031
G1 X198.939 Y146.978 E0.39579
G1 X198.906 Y147.384 E0.01904
G1 X198.817 Y147.756 E0.01788
G1 X198.670 Y148.109 E0.01788
G1 X198.470 Y148.435 E0.01788
G1 X198.221 Y148.726 E0.01790
G1 X197.935 Y148.969 E0.01756
G1 X197.609 Y149.170 E0.01788
G1 X197.249 Y149.319 E0.01822
G1 X196.884 Y149.406 E0.01754
G1 X196.478 Y149.439 E0.01905
G1 X195.519 Y149.439 E0.04479
G1 X195.116 Y149.406 E0.01890
G1 X194.744 Y149.317 E0.01788
G1 X194.391 Y149.170 E0.01788
G1 X194.065 Y148.970 E0.01788
G1 X193.774 Y148.721 E0.01790
G1 X193.531 Y148.435 E0.01755
G1 X193.330 Y148.109 E0.01790
G1 X193.183 Y147.756 E0.01788
G1 X193.094 Y147.384 E0.01788
G1 X193.061 Y146.981 E0.01890
G1 X193.061 Y139.988 E0.32685
G1 X193.021 Y139.076 E0.04267
G1 X192.901 Y138.162 E0.04307
G1 X192.701 Y137.262 E0.04307
G1 X192.423 Y136.384 E0.04307
G1 X192.070 Y135.532 E0.04307
G1 X191.645 Y134.715 E0.04307
G1 X191.155 Y133.946 E0.04263
G1 X190.588 Y133.208 E0.04351
G1 X189.972 Y132.535 E0.04263
G1 X189.293 Y131.912 E0.04307
G1 X188.562 Y131.351 E0.04308
G1 X187.776 Y130.851 E0.04352
G1 X186.967 Y130.430 E0.04263
G1 X186.116 Y130.077 E0.04307
G1 X185.237 Y129.799 E0.04308
G1 X184.328 Y129.598 E0.04352
G1 X183.424 Y129.479 E0.04263
G1 X182.512 Y129.439 E0.04266
G1 X67.488 Y129.439 E5.37634
G1 X66.576 Y129.479 E0.04267
G1 X65.672 Y129.598 E0.04263
G1 X64.763 Y129.799 E0.04352
G1 X63.884 Y130.077 E0.04308
G1 X63.032 Y130.430 E0.04307
G1 X62.215 Y130.855 E0.04307
G1 X61.446 Y131.345 E0.04263
G1 X60.708 Y131.912 E0.04351
G1 X60.035 Y132.528 E0.04263
G1 X59.412 Y133.207 E0.04307
G1 X58.851 Y133.938 E0.04307
G1 X58.356 Y134.715 E0.04307
G1 X57.930 Y135.532 E0.04307
G1 X57.577 Y136.384 E0.04308
G1 X57.297 Y137.272 E0.04352
G1 X57.099 Y138.162 E0.04263
G1 X56.979 Y139.076 E0.04307
G1 X56.939 Y139.988 E0.04267
G1 X56.939 Y166.978 E1.26154
G1 X56.906 Y167.384 E0.01904
G1 X56.817 Y167.756 E0.01788
G1 X56.670 Y168.109 E0.01790
G1 X56.474 Y168.429 E0.01754
G1 X56.220 Y168.726 E0.01824
G1 X55.935 Y168.969 E0.01754
G1 X55.609 Y169.170 E0.01788
G1 X55.249 Y169.319 E0.01823
G1 X54.884 Y169.406 E0.01754
G1 X54.478 Y169.439 E0.01905
G1 X51.061 Y169.439 E0.15969
G1 X51.061 Y40.561 E6.02383
G1 X54.479 Y40.561 E0.15975
G1 X54.884 Y40.594 E0.01897
G1 X55.256 Y40.683 E0.01788
G1 X55.609 Y40.830 E0.01788
G1 X55.935 Y41.031 E0.01790
G1 X56.221 Y41.274 E0.01755
G1 X56.470 Y41.565 E0.01790
G1 X56.670 Y41.891 E0.01788
G1 X56.817 Y42.244 E0.01788
G1 X56.906 Y42.616 E0.01788
G1 X56.939 Y43.022 E0.01904
G1 X56.939 Y60.282 E0.80673
G1 X57.290 Y60.128 F10800.000
G1 F1800
G1 X179.449 Y123.210 E6.42616
G1 X183.996 Y123.210 E0.21254
G1 X185.091 Y123.249 E0.05119
G1 X186.176 Y123.366 E0.05102
G1 X187.250 Y123.560 E0.05102
G1 X188.308 Y123.829 E0.05102
G1 X189.343 Y124.174 E0.05102
G1 X190.352 Y124.592 E0.05102
G1 X191.328 Y125.080 E0.05102
G1 X192.266 Y125.637 E0.05102
G1 X193.163 Y126.260 E0.05102
G1 X194.013 Y126.945 E0.05101
G1 X194.820 Y127.697 E0.05157
G1 X195.555 Y128.487 E0.05047
G1 X196.240 Y129.337 E0.05102
G1 X196.863 Y130.234 E0.05102
G1 X197.420 Y131.172 E0.05102
G1 X197.908 Y132.148 E0.05102
G1 X198.326 Y133.157 E0.05102
G1 X198.671 Y134.192 E0.05102
G1 X198.940 Y135.250 E0.05101
G1 X199.136 Y136.336 E0.05157
G1 X199.251 Y137.409 E0.05047
G1 X199.290 Y138.504 E0.05119
G1 X199.290 Y146.992 E0.39673
G1 X199.254 Y147.439 E0.02098
G1 X199.152 Y147.865 E0.02046
G1 X198.984 Y148.269 E0.02047
G1 X198.755 Y148.642 E0.02047
G1 X198.470 Y148.975 E0.02047
G1 X198.142 Y149.254 E0.02012
G1 X197.769 Y149.484 E0.02046
G1 X197.358 Y149.654 E0.02082
G1 X196.939 Y149.754 E0.02011
G1 X196.492 Y149.790 E0.02099
G1 X195.505 Y149.790 E0.04610
G1 X195.061 Y149.754 E0.02085
G1 X194.635 Y149.652 E0.02047
G1 X194.231 Y149.484 E0.02047
G1 X193.858 Y149.255 E0.02047
G1 X193.525 Y148.970 E0.02047
G1 X193.246 Y148.642 E0.02012
G1 X193.016 Y148.269 E0.02047
G1 X192.848 Y147.865 E0.02047
G1 X192.746 Y147.439 E0.02047
G1 X192.710 Y146.995 E0.02085
G1 X192.710 Y139.995 E0.32715
G1 X192.671 Y139.106 E0.04159
G1 X192.554 Y138.223 E0.04164
G1 X192.361 Y137.354 E0.04164
G1 X192.093 Y136.504 E0.04164
G1 X191.752 Y135.681 E0.04164
G1 X191.340 Y134.891 E0.04164
G1 X190.866 Y134.148 E0.04120
G1 X190.318 Y133.434 E0.04208
G1 X189.723 Y132.784 E0.04120
G1 X189.067 Y132.182 E0.04164
G1 X188.360 Y131.639 E0.04164
G1 X187.601 Y131.155 E0.04208
G1 X186.819 Y130.748 E0.04120
G1 X185.996 Y130.407 E0.04164
G1 X185.146 Y130.139 E0.04164
G1 X184.267 Y129.944 E0.04208
G1 X183.394 Y129.829 E0.04120
G1 X182.505 Y129.790 E0.04159
G1 X67.495 Y129.790 E5.37562
G1 X66.606 Y129.829 E0.04159
G1 X65.733 Y129.944 E0.04120
G1 X64.854 Y130.139 E0.04208
G1 X64.004 Y130.407 E0.04164
G1 X63.181 Y130.748 E0.04164
G1 X62.391 Y131.160 E0.04164
G1 X61.648 Y131.634 E0.04120
G1 X60.934 Y132.182 E0.04208
G1 X60.284 Y132.777 E0.04120
G1 X59.682 Y133.433 E0.04164
G1 X59.139 Y134.140 E0.04164
G1 X58.660 Y134.891 E0.04164
G1 X58.248 Y135.681 E0.04164
G1 X57.907 Y136.504 E0.04164
G1 X57.636 Y137.363 E0.04208
G1 X57.446 Y138.223 E0.04120
G1 X57.329 Y139.106 E0.04164
G1 X57.290 Y139.995 E0.04159
G1 X57.290 Y166.992 E1.26183
G1 X57.254 Y167.439 E0.02098
G1 X57.152 Y167.865 E0.02046
G1 X56.984 Y168.269 E0.02047
G1 X56.759 Y168.636 E0.02011
G1 X56.470 Y168.975 E0.02083
G1 X56.142 Y169.254 E0.02011
G1 X55.769 Y169.484 E0.02047
G1 X55.358 Y169.654 E0.02082
G1 X54.939 Y169.754 E0.02011
G1 X54.492 Y169.790 E0.02099
G1 X50.710 Y169.790 E0.17676
G1 X50.710 Y40.210 E6.05667
G1 X54.493 Y40.210 E0.17683
G1 X54.939 Y40.246 E0.02092
G1 X55.365 Y40.348 E0.02046
G1 X55.769 Y40.516 E0.02047
G1 X56.142 Y40.746 E0.02047
G1 X56.470 Y41.025 E0.02012
G1 X56.755 Y41.358 E0.02047
G1 X56.984 Y41.731 E0.02047
G1 X57.152 Y42.135 E0.02047
G1 X57.254 Y42.561 E0.02046
G1 X57.290 Y43.008 E0.02098
G1 X57.290 Y60.068 E0.79738
G1 X57.165 Y60.508 F10800.000
G1 X57.093 Y60.540
G1 F1800
G1 X70.281 Y73.728 E0.87346
G1 F8640
G1 X67.953 Y71.400 E-0.76000
G1 E-0.04000 F2100.00000
G1 Z0.920 F10800.000
G1 X71.310 Y74.259
G1 Z0.320
G1 E0.80000 F2100.00000
G1 F1800
G1 X58.123 Y61.072 E0.87346
G1 F8640
G1 X60.450 Y63.399 E-0.76000
G1 E-0.04000 F2100.00000
G1 Z0.920 F10800.000
G1 X59.152 Y61.604
G1 Z0.320
G1 E0.80000 F2100.00000
G1 F1800
G1 X72.340 Y74.791 E0.87346
G1 F8640
G1 X70.012 Y72.464 E-0.76000
G1 E-0.04000 F2100.00000
G1 Z0.920 F10800.000
G1 X73.369 Y75.323
G1 Z0.320
G1 E0.80000 F2100.00000
G1 F1800
G1 X60.182 Y62.135 E0.87346
G1 F8640
G1 X62.509 Y64.463 E-0.76000
G1 E-0.04000 F2100.00000
G1 Z0.920 F10800.000
G1 X61.211 Y62.667
G1 Z0.320
G1 E0.80000 F2100.00000
G1 F1800
G1 X74.399 Y75.854 E0.87346
G1 F8640
G1 X72.071 Y73.527 E-0.76000
G1 E-0.04000 F2100.00000
G1 Z0.920 F10800.000
G1 X75.428 Y76.386
G1 Z0.320
G1 E0.80000 F2100.00000
G1 F1800
G1 X62.241 Y63.198 E0.87346
G1 F8640
G1 X64.568 Y65.526 E-0.76000
G1 E-0.04000 F2100.00000
G1 Z0.920 F10800.000
G1 X63.270 Y63.730
G1 Z0.320
G1 E0.80000 F2100.00000
G1 F1800
G1 X76.457 Y76.917 E0.87346
G1 F8640
G1 X74.130 Y74.590 E-0.76000
G1 E-0.04000 F2100.00000
G1 Z0.920 F10800.000
G1 X77.487 Y77.449
G1 Z0.320
G1 E0.80000 F2100.00000
G1 F1800
G1 X64.299 Y64.262 E0.87346
G1 F8640
G1 X66.627 Y66.589 E-0.76000
G1 E-0.04000 F2100.00000
G1 Z0.920 F10800.000
G1 X65.329 Y64.793
G1 Z0.320
G1 E0.80000 F2100.00000
G1 F1800
G1 X78.516 Y77.981 E0.87346
G1 F8640
G1 X76.189 Y75.653 E-0.76000
G1 E-0.04000 F2100.00000
G1 Z0.920 F10800.000
G1 X79.546 Y78.512
G1 Z0.320
G1 E0.80000 F2100.00000
G1 F1800
G1 X66.358 Y65.325 E0.87346
G1 F8640
G1 X68.686 Y67.652 E-0.76000
G1 E-0.04000 F2100.00000
G1 Z0.920 F10800.000
G1 X67.388 Y65.856
G1 Z0.320
G1 E0.80000 F2100.00000
G1 F1800
G1 X80.575 Y79.044 E0.87346
G1 F8640
G1 X78.248 Y76.716 E-0.76000
G1 E-0.04000 F2100.00000
G1 Z0.920 F10800.000
G1 X81.605 Y79.575
G1 Z0.320
G1 E0.80000 F2100.00000
G1 F1800
G1 X68.417 Y66.388 E0.87346
G1 F8640
G1 X70.745 Y68.715 E-0.76000
G1 E-0.04000 F2100.00000
G1 Z0.920 F10800.000
G1 X69.447 Y66.920
G1 Z0.320
G1 E0.80000 F2100.00000
G1 F1800
G1 X82.634 Y80.107 E0.87346
G1 F8640
G1 X80.307 Y77.780 E-0.76000
G1 E-0.04000 F2100.00000
G1 Z0.920 F10800.000
G1 X83.664 Y80.639
G1 Z0.320
G1 E0.80000 F2100.00000
G1 F1800
G1 X70.476 Y67.451 E0.87346
G1 F8640
G1 X72.804 Y69.779 E-0.76000
G1 E-0.04000 F2100.00000
G1 Z0.920 F10800.000
G1 X71.506 Y67.983
G1 Z0.320
G1 E0.80000 F2100.00000
G1 F1800
G1 X84.693 Y81.170 E0.87346
G1 F8640
G1 X82.366 Y78.843 E-0.76000
G1 E-0.04000 F2100.00000
G1 Z0.920 F10800.000
G1 X85.723 Y81.702
G1 Z0.320
G1 E0.80000 F2100.00000
G1 F1800
G1 X72.535 Y68.514 E0.87346
G1 F8640
G1 X74.863 Y70.842 E-0.76000
G1 E-0.04000 F2100.00000
G1 Z0.920 F10800.000
G1 X73.565 Y69.046
G1 Z0.320
G1 E0.80000 F2100.00000
G1 F1800
G1 X86.752 Y82.233 E0.87346
G1 F8640
G1 X84.425 Y79.906 E-0.76000
G1 E-0.04000 F2100.00000
G1 Z0.920 F10800.000
G1 X87.781 Y82.765
G1 Z0.320
G1 E0.80000 F2100.00000
G1 F1800
G1 X74.594 Y69.578 E0.87346
G1 F8640
G1 X76.921 Y71.905 E-0.76000
G1 E-0.04000 F2100.00000
G1 Z0.920 F10800.000
G1 X75.623 Y70.109
G1 Z0.320
G1 E0.80000 F2100.00000
G1 F1800
G1 X88.811 Y83.297 E0.87346
G1 F8640
G1 X86.484 Y80.969 E-0.76000
G1 E-0.04000 F2100.00000
G1 Z0.920 F10800.000
G1 X89.840 Y83.828
G1 Z0.320
G1 E0.80000 F2100.00000
G1 F1800
G1 X76.653 Y70.641 E0.87346
G1 F8640
G1 X78.980 Y72.968 E-0.76000
G1 E-0.04000 F2100.00000
G1 Z0.920 F10800.000
G1 X77.682 Y71.172
G1 Z0.320
G1 E0.80000 F2100.00000
G1 F1800
G1 X90.870 Y84.360 E0.87346
G1 F8640
G1 X88.542 Y82.032 E-0.76000
G1 E-0.04000 F2100.00000
G1 Z0.920 F10800.000
G1 X91.899 Y84.891
G1 Z0.320
G1 E0.80000 F2100.00000
G1 F1800
G1 X78.712 Y71.704 E0.87346
G1 F8640
G1 X81.039 Y74.031 E-0.76000
G1 E-0.04000 F2100.00000
G1 Z0.920 F10800.000
G1 X79.741 Y72.236
G1 Z0.320
G1 E0.80000 F2100.00000
G1 F1800
G1 X92.929 Y85.423 E0.87346
G1 F8640
G1 X90.601 Y83.096 E-0.76000
G1 E-0.04000 F2100.00000
G1 Z0.920 F10800.000
G1 X93.958 Y85.955
G1 Z0.320
G1 E0.80000 F2100.00000
G1 F1800
G1 X80.771 Y72.767 E0.87346
G1 F8640
G1 X83.098 Y75.095 E-0.76000
G1 E-0.04000 F2100.00000
G1 Z0.920 F10800.000
G1 X81.800 Y73.299
G1 Z0.320
G1 E0.80000 F2100.00000
G1 F1800
G1 X94.988 Y86.486 E0.87346
G1 F8640
G1 X92.660 Y84.159 E-0.76000
G1 E-0.04000 F2100.00000
G1 Z0.920 F10800.000
G1 X96.017 Y87.018
G1 Z0.320
G1 E0.80000 F2100.00000
G1 F1800
G1 X82.830 Y73.830 E0.87346
G1 F8640
G1 X85.157 Y76.158 E-0.76000
G1 E-0.04000 F2100.00000
G1 Z0.920 F10800.000
G1 X83.859 Y74.362
G1 Z0.320
G1 E0.80000 F2100.00000
G1 F1800
G1 X97.047 Y87.549 E0.87346
G1 F8640
G1 X94.719 Y85.222 E-0.76000
G1 E-0.04000 F2100.00000
G1 Z0.920 F10800.000
G1 X98.076 Y88.081
G1 Z0.320
G1 E0.80000 F2100.00000
G1 F1800
G1 X84.889 Y74.894 E0.87346
G1 F8640
G1 X87.216 Y77.221 E-0.76000
G1 E-0.04000 F2100.00000
G1 Z0.920 F10800.000
G1 X85.918 Y75.425
G1 Z0.320
G1 E0.80000 F2100.00000
G1 F1800
G1 X99.105 Y88.613 E0.87346
G1 F8640
G1 X96.778 Y86.285 E-0.76000
G1 E-0.04000 F2100.00000
G1 Z0.920 F10800.000
G1 X100.135 Y89.144
G1 Z0.320
G1 E0.80000 F2100.00000
G1 F1800
G1 X86.947 Y75.957 E0.87346
G1 F8640
G1 X89.275 Y78.284 E-0.76000
G1 E-0.04000 F2100.00000
G1 Z0.920 F10800.000
G1 X87.977 Y76.488
G1 Z0.320
G1 E0.80000 F2100.00000
G1 F1800
G1 X101.164 Y89.676 E0.87346
G1 F8640
