; G-Code generated by Simplify3D(R) Version 4.0.0
; Mar 1, 2018 at 10:09:09 PM
; Settings Summary
;   processName,Process1
;   applyToModels,DD007,DH010
;   profileName,Prusa Research Original Prusa i3 MK2 (modified)
;   profileVersion,2017-07-23 22:27:18
;   baseProfile,
;   printMaterial,PET
;   printQuality,Medium
;   printExtruders,
;   extruderName,Primary Extruder
;   extruderToolheadNumber,0
;   extruderDiameter,0.4
;   extruderAutoWidth,1
;   extruderWidth,0.48
;   extrusionMultiplier,1
;   extruderUseRetract,1
;   extruderRetractionDistance,1.5
;   extruderExtraRestartDistance,0
;   extruderRetractionZLift,0
;   extruderRetractionSpeed,1800
;   extruderUseCoasting,1
;   extruderCoastingDistance,0.2
;   extruderUseWipe,1
;   extruderWipeDistance,2
;   primaryExtruder,0
;   layerHeight,0.15
;   topSolidLayers,5
;   bottomSolidLayers,5
;   perimeterOutlines,5
;   printPerimetersInsideOut,1
;   startPointOption,2
;   startPointOriginX,0
;   startPointOriginY,0
;   sequentialIslands,0
;   spiralVaseMode,0
;   firstLayerHeightPercentage,100
;   firstLayerWidthPercentage,100
;   firstLayerUnderspeed,0.5
;   useRaft,0
;   raftExtruder,0
;   raftTopLayers,3
;   raftBaseLayers,2
;   raftOffset,3
;   raftSeparationDistance,0.14
;   raftTopInfill,100
;   aboveRaftSpeedMultiplier,0.3
;   useSkirt,1
;   skirtExtruder,0
;   skirtLayers,1
;   skirtOutlines,1
;   skirtOffset,4
;   usePrimePillar,0
;   primePillarExtruder,999
;   primePillarWidth,12
;   primePillarLocation,7
;   primePillarSpeedMultiplier,1
;   useOozeShield,0
;   oozeShieldExtruder,999
;   oozeShieldOffset,2
;   oozeShieldOutlines,1
;   oozeShieldSidewallShape,1
;   oozeShieldSidewallAngle,30
;   oozeShieldSpeedMultiplier,1
;   infillExtruder,0
;   internalInfillPattern,Rectilinear
;   externalInfillPattern,Rectilinear
;   infillPercentage,15
;   outlineOverlapPercentage,20
;   infillExtrusionWidthPercentage,100
;   minInfillLength,5
;   infillLayerInterval,1
;   internalInfillAngles,45,-45
;   overlapInternalInfillAngles,0
;   externalInfillAngles,45,-45
;   generateSupport,0
;   supportExtruder,0
;   supportInfillPercentage,30
;   supportExtraInflation,0
;   supportBaseLayers,0
;   denseSupportExtruder,0
;   denseSupportLayers,0
;   denseSupportInfillPercentage,70
;   supportLayerInterval,1
;   supportHorizontalPartOffset,0.3
;   supportUpperSeparationLayers,1
;   supportLowerSeparationLayers,1
;   supportType,0
;   supportGridSpacing,4
;   maxOverhangAngle,45
;   supportAngles,0
;   temperatureName,Primary Extruder,Heated Bed
;   temperatureNumber,0,0
;   temperatureSetpointCount,1,1
;   temperatureSetpointLayers,1,1
;   temperatureSetpointTemperatures,230,75
;   temperatureStabilizeAtStartup,1,1
;   temperatureHeatedBed,0,1
;   temperatureRelayBetweenLayers,0,0
;   temperatureRelayBetweenLoops,0,0
;   fanLayers,1,2
;   fanSpeeds,0,50
;   blipFanToFullPower,0
;   adjustSpeedForCooling,1
;   minSpeedLayerTime,15
;   minCoolingSpeedSlowdown,20
;   increaseFanForCooling,0
;   minFanLayerTime,45
;   maxCoolingFanSpeed,100
;   increaseFanForBridging,0
;   bridgingFanSpeed,100
;   use5D,1
;   relativeEdistances,0
;   allowEaxisZeroing,1
;   independentExtruderAxes,0
;   includeM10123,0
;   stickySupport,1
;   applyToolheadOffsets,0
;   gcodeXoffset,0
;   gcodeYoffset,0
;   gcodeZoffset,0
;   overrideMachineDefinition,1
;   machineTypeOverride,0
;   strokeXoverride,250
;   strokeYoverride,210
;   strokeZoverride,200
;   originOffsetXoverride,0
;   originOffsetYoverride,0
;   originOffsetZoverride,0
;   homeXdirOverride,-1
;   homeYdirOverride,-1
;   homeZdirOverride,-1
;   flipXoverride,1
;   flipYoverride,-1
;   flipZoverride,1
;   toolheadOffsets,0,0|0,0|0,0|0,0|0,0|0,0
;   overrideFirmwareConfiguration,1
;   firmwareTypeOverride,RepRap (Marlin/Repetier/Sprinter)
;   GPXconfigOverride,r2
;   baudRateOverride,250000
;   overridePrinterModels,1
;   printerModelsOverride
;   startingGcode,M115 U3.0.7 ; use the latest firmware version,G28 W ; home all axes without mesh bed leveling,G80 ; run mesh bed leveling routine,G1 Y-3.0 F1000.0 ; prepare to prime,G92 E0 ; reset extrusion distance,G1 X60.0 E9.0  F1000.0 ; priming,G1 X100.0 E12.5  F1000.0 ; priming
;   layerChangeGcode,
;   retractionGcode,
;   toolChangeGcode,
;   endingGcode,M106 S0 ; turn off cooling fan,M104 S0 ; turn off extruder,M140 S0 ; turn off bed,G1 X0 Y200 ; part removal,M84 ; disable motors
;   exportFileFormat,gcode
;   celebration,0
;   celebrationSong,Random Song
;   postProcessing,
;   defaultSpeed,2400
;   outlineUnderspeed,0.8
;   solidInfillUnderspeed,0.8
;   supportUnderspeed,0.8
;   rapidXYspeed,4800
;   rapidZspeed,1002
;   minBridgingArea,50
;   bridgingExtraInflation,0
;   bridgingExtrusionMultiplier,1
;   bridgingSpeedMultiplier,1
;   useFixedBridgingAngle,0
;   fixedBridgingAngle,0
;   applyBridgingToPerimeters,0
;   filamentDiameters,1.75|1.75|1.75|1.75|1.75|1.75
;   filamentPricesPerKg,46|46|46|46|46|46
;   filamentDensities,1.25|1.25|1.25|1.25|1.25|1.25
;   useMinPrintHeight,0
;   minPrintHeight,0
;   useMaxPrintHeight,0
;   maxPrintHeight,0
;   useDiaphragm,0
;   diaphragmLayerInterval,20
;   robustSlicing,1
;   mergeAllIntoSolid,0
;   onlyRetractWhenCrossingOutline,1
;   retractBetweenLayers,1
;   useRetractionMinTravel,0
;   retractionMinTravel,3
;   retractWhileWiping,1
;   onlyWipeOutlines,1
;   avoidCrossingOutline,0
;   maxMovementDetourFactor,3
;   toolChangeRetractionDistance,12
;   toolChangeExtraRestartDistance,-0.5
;   toolChangeRetractionSpeed,600
;   externalThinWallType,0
;   internalThinWallType,2
;   thinWallAllowedOverlapPercentage,25
;   singleExtrusionMinLength,1
;   singleExtrusionMinPrintingWidthPercentage,50
;   singleExtrusionMaxPrintingWidthPercentage,200
;   singleExtrusionEndpointExtension,0.2
;   horizontalSizeCompensation,0
G90
M82
M106 S0
M140 S75
M190 S75
M104 S230 T0
M109 S230 T0
M115 U3.0.7 ; use the latest firmware version
G28 W ; home all axes without mesh bed leveling
G80 ; run mesh bed leveling routine
G1 Y-3.0 F1000.0 ; prepare to prime
G92 E0 ; reset extrusion distance
G1 X60.0 E9.0  F1000.0 ; priming
G1 X100.0 E12.5  F1000.0 ; priming
G92 E0
G1 E-1.5000 F1800
G1 Z0.150 F1002
; process Process1
; layer 1, Z = 0.150
T0
; tool H0.150 W0.480
; skirt
G1 X86.241 Y66.941 F4800
G1 E0.0000 F540
G92 E0
G1 X86.639 Y66.436 E0.0193 F1200
G1 X86.652 Y66.422 E0.0198
G1 X87.433 Y65.699 E0.0517
G1 X87.443 Y65.690 E0.0521
G1 X87.829 Y65.409 E0.0664
G1 X87.840 Y65.401 E0.0668
G1 X88.340 Y65.118 E0.0840
G1 X88.344 Y65.116 E0.0841
G1 X88.481 Y65.045 E0.0887
G1 X88.485 Y65.043 E0.0889
G1 X110.035 Y54.891 E0.8019
G1 X110.040 Y54.889 E0.8021
G1 X110.235 Y54.809 E0.8084
G1 X110.241 Y54.807 E0.8086
G1 X111.130 Y54.494 E0.8368
G1 X111.140 Y54.491 E0.8371
G1 X111.467 Y54.406 E0.8472
G1 X111.477 Y54.404 E0.8475
G1 X112.111 Y54.292 E0.8668
G1 X112.118 Y54.291 E0.8670
G1 X112.362 Y54.263 E0.8744
G1 X112.369 Y54.263 E0.8746
G1 X112.965 Y54.230 E0.8925
G1 X112.973 Y54.230 E0.8927
G1 X113.221 Y54.232 E0.9001
G1 X113.228 Y54.232 E0.9003
G1 X113.825 Y54.271 E0.9182
G1 X113.832 Y54.272 E0.9185
G1 X114.077 Y54.303 E0.9258
G1 X114.084 Y54.304 E0.9261
G1 X114.672 Y54.415 E0.9440
G1 X114.679 Y54.416 E0.9442
G1 X114.914 Y54.475 E0.9514
G1 X114.921 Y54.477 E0.9516
G1 X115.491 Y54.655 E0.9695
G1 X115.497 Y54.657 E0.9697
G1 X115.715 Y54.739 E0.9767
G1 X115.722 Y54.742 E0.9769
G1 X116.216 Y54.960 E0.9931
G1 X116.219 Y54.962 E0.9932
G1 X116.322 Y55.011 E0.9966
G1 X116.325 Y55.012 E0.9967
G1 X130.440 Y62.218 E1.4711
G1 X130.447 Y62.221 E1.4713
G1 X130.671 Y62.354 E1.4791
G1 X130.677 Y62.358 E1.4793
G1 X131.460 Y62.892 E1.5077
G1 X131.470 Y62.899 E1.5081
G1 X131.781 Y63.160 E1.5202
G1 X131.790 Y63.168 E1.5206
G1 X132.243 Y63.630 E1.5399
G1 X132.248 Y63.636 E1.5402
G1 X132.429 Y63.846 E1.5485
G1 X132.434 Y63.852 E1.5487
G1 X132.783 Y64.320 E1.5662
G1 X132.787 Y64.326 E1.5664
G1 X132.937 Y64.558 E1.5747
G1 X132.941 Y64.565 E1.5749
G1 X133.256 Y65.131 E1.5943
G1 X133.261 Y65.141 E1.5946
G1 X133.420 Y65.507 E1.6066
G1 X133.424 Y65.518 E1.6069
G1 X149.743 Y115.794 E3.1892
G1 X149.745 Y115.801 E3.1894
G1 X149.807 Y116.040 E3.1968
G1 X149.809 Y116.047 E3.1970
G1 X149.994 Y116.986 E3.2257
G1 X149.995 Y116.997 E3.2260
G1 X150.034 Y117.366 E3.2371
G1 X150.035 Y117.377 E3.2374
G1 X150.044 Y118.030 E3.2570
G1 X150.044 Y118.037 E3.2572
G1 X150.033 Y118.279 E3.2645
G1 X150.033 Y118.286 E3.2647
G1 X149.972 Y118.874 E3.2824
G1 X149.971 Y118.881 E3.2826
G1 X149.934 Y119.110 E3.2895
G1 X149.933 Y119.116 E3.2897
G1 X149.796 Y119.742 E3.3089
G1 X149.793 Y119.751 E3.3092
G1 X149.699 Y120.061 E3.3189
G1 X149.696 Y120.070 E3.3191
G1 X149.324 Y121.020 E3.3497
G1 X149.322 Y121.026 E3.3499
G1 X149.238 Y121.212 E3.3560
G1 X149.235 Y121.218 E3.3562
G1 X145.256 Y129.007 E3.6180
G1 X145.243 Y129.028 E3.6187
G1 X144.713 Y129.687 E3.6440
G1 X144.696 Y129.704 E3.6448
G1 X143.930 Y130.335 E3.6745
G1 X143.908 Y130.350 E3.6753
G1 X143.088 Y130.764 E3.7028
G1 X143.063 Y130.773 E3.7036
G1 X142.857 Y130.825 E3.7099
G1 X142.962 Y131.088 E3.7184
G1 X142.969 Y131.114 E3.7192
G1 X143.115 Y132.023 E3.7468
G1 X143.116 Y132.049 E3.7476
G1 X143.053 Y133.038 E3.7772
G1 X143.049 Y133.062 E3.7780
G1 X142.826 Y133.875 E3.8032
G1 X142.817 Y133.897 E3.8039
G1 X139.130 Y141.126 E4.0468
G1 X139.127 Y141.131 E4.0470
G1 X139.031 Y141.300 E4.0528
G1 X139.028 Y141.304 E4.0530
G1 X138.491 Y142.150 E4.0830
G1 X138.484 Y142.160 E4.0833
G1 X138.218 Y142.497 E4.0962
G1 X138.210 Y142.506 E4.0965
G1 X137.512 Y143.220 E4.1264
G1 X137.507 Y143.225 E4.1266
G1 X137.322 Y143.393 E4.1341
G1 X137.316 Y143.398 E4.1343
G1 X123.806 Y154.230 E4.6527
G1 X123.800 Y154.234 E4.6529
G1 X123.602 Y154.375 E4.6602
G1 X123.596 Y154.379 E4.6604
G1 X122.902 Y154.812 E4.6849
G1 X122.887 Y154.820 E4.6854
G1 X122.362 Y155.053 E4.7026
G1 X122.346 Y155.059 E4.7031
G1 X121.280 Y155.364 E4.7363
G1 X121.261 Y155.368 E4.7369
G1 X120.620 Y155.447 E4.7562
G1 X120.601 Y155.448 E4.7568
G1 X119.613 Y155.414 E4.7864
G1 X119.604 Y155.413 E4.7866
G1 X119.297 Y155.379 E4.7959
G1 X119.288 Y155.378 E4.7962
G1 X104.701 Y152.663 E5.2403
G1 X104.697 Y152.662 E5.2404
G1 X104.539 Y152.626 E5.2453
G1 X104.535 Y152.625 E5.2454
G1 X104.026 Y152.488 E5.2612
G1 X104.019 Y152.486 E5.2614
G1 X103.764 Y152.399 E5.2695
G1 X103.757 Y152.397 E5.2697
G1 X103.221 Y152.175 E5.2871
G1 X103.213 Y152.171 E5.2873
G1 X102.967 Y152.049 E5.2955
G1 X102.960 Y152.045 E5.2958
G1 X102.456 Y151.753 E5.3132
G1 X102.449 Y151.748 E5.3135
G1 X102.221 Y151.594 E5.3217
G1 X102.214 Y151.590 E5.3219
G1 X101.754 Y151.232 E5.3394
G1 X101.748 Y151.227 E5.3396
G1 X101.546 Y151.048 E5.3477
G1 X101.540 Y151.042 E5.3480
G1 X101.177 Y150.675 E5.3634
G1 X101.175 Y150.673 E5.3635
G1 X101.084 Y150.575 E5.3675
G1 X101.082 Y150.572 E5.3676
G1 X86.739 Y134.044 E6.0227
G1 X86.734 Y134.038 E6.0229
G1 X86.591 Y133.853 E6.0299
G1 X86.587 Y133.847 E6.0301
G1 X86.278 Y133.397 E6.0465
G1 X86.273 Y133.389 E6.0467
G1 X86.126 Y133.137 E6.0555
G1 X86.122 Y133.130 E6.0557
G1 X85.866 Y132.614 E6.0730
G1 X85.863 Y132.606 E6.0732
G1 X85.751 Y132.332 E6.0821
G1 X85.748 Y132.324 E6.0823
G1 X85.569 Y131.775 E6.0996
G1 X85.567 Y131.767 E6.0999
G1 X85.496 Y131.484 E6.1086
G1 X85.494 Y131.476 E6.1089
G1 X85.407 Y130.979 E6.1239
G1 X85.406 Y130.975 E6.1241
G1 X85.386 Y130.833 E6.1284
G1 X85.386 Y130.829 E6.1285
G1 X84.987 Y127.027 E6.2429
G1 X84.987 Y127.019 E6.2432
G1 X84.977 Y126.734 E6.2517
G1 X84.977 Y126.725 E6.2520
G1 X85.011 Y125.705 E6.2825
G1 X85.012 Y125.693 E6.2829
G1 X85.069 Y125.278 E6.2954
G1 X85.071 Y125.266 E6.2958
G1 X85.344 Y124.135 E6.3306
G1 X85.348 Y124.121 E6.3311
G1 X85.530 Y123.640 E6.3464
G1 X85.536 Y123.627 E6.3469
G1 X85.939 Y122.862 E6.3728
G1 X85.947 Y122.849 E6.3732
G1 X86.241 Y122.428 E6.3886
G1 X86.251 Y122.417 E6.3890
G1 X86.766 Y121.846 E6.4120
G1 X86.774 Y121.838 E6.4124
G1 X87.045 Y121.587 E6.4234
G1 X87.053 Y121.580 E6.4238
G1 X87.523 Y121.218 E6.4415
G1 X87.533 Y121.211 E6.4419
G1 X87.912 Y120.979 E6.4552
G1 X87.923 Y120.973 E6.4556
G1 X88.588 Y120.659 E6.4776
G1 X88.598 Y120.655 E6.4779
G1 X88.929 Y120.532 E6.4885
G1 X88.939 Y120.529 E6.4888
G1 X93.436 Y119.284 E6.6285
G1 X93.444 Y119.282 E6.6287
G1 X93.719 Y119.226 E6.6371
G1 X93.727 Y119.224 E6.6373
G1 X94.736 Y119.089 E6.6678
G1 X94.765 Y119.088 E6.6687
G1 X95.741 Y119.189 E6.6981
G1 X95.769 Y119.196 E6.6989
G1 X96.849 Y119.578 E6.7332
G1 X96.877 Y119.592 E6.7341
G1 X97.764 Y120.200 E6.7663
G1 X97.788 Y120.221 E6.7673
G1 X98.568 Y121.127 E6.8031
G1 X98.586 Y121.154 E6.8041
G1 X99.068 Y122.187 E6.8382
G1 X99.077 Y122.219 E6.8392
G1 X99.225 Y123.126 E6.8667
G1 X99.227 Y123.141 E6.8671
G1 X99.244 Y123.665 E6.8828
G1 X99.244 Y123.681 E6.8833
G1 X99.054 Y125.708 E6.9443
G1 X99.135 Y125.751 E6.9470
G1 X99.153 Y125.763 E6.9476
G1 X99.736 Y126.228 E6.9699
G1 X99.747 Y126.237 E6.9704
G1 X100.098 Y126.594 E6.9854
G1 X100.107 Y126.605 E6.9858
G1 X104.119 Y131.815 E7.1826
G1 X104.119 Y83.525 E8.6281
G1 X103.142 Y87.278 E8.7442
G1 X103.140 Y87.285 E8.7444
G1 X103.062 Y87.523 E8.7519
G1 X103.060 Y87.530 E8.7522
G1 X102.699 Y88.444 E8.7816
G1 X102.696 Y88.451 E8.7818
G1 X102.589 Y88.679 E8.7893
G1 X102.586 Y88.686 E8.7896
G1 X102.131 Y89.521 E8.8180
G1 X102.128 Y89.526 E8.8182
G1 X102.030 Y89.688 E8.8239
G1 X102.027 Y89.693 E8.8240
G1 X101.718 Y90.154 E8.8406
G1 X101.715 Y90.158 E8.8408
G1 X101.602 Y90.310 E8.8465
G1 X101.599 Y90.315 E8.8466
G1 X100.999 Y91.053 E8.8751
G1 X100.994 Y91.059 E8.8753
G1 X100.823 Y91.244 E8.8829
G1 X100.818 Y91.250 E8.8831
G1 X100.109 Y91.931 E8.9125
G1 X100.104 Y91.936 E8.9128
G1 X99.912 Y92.099 E8.9203
G1 X99.906 Y92.104 E8.9205
G1 X99.119 Y92.694 E8.9500
G1 X99.113 Y92.698 E8.9502
G1 X98.903 Y92.837 E8.9577
G1 X98.896 Y92.841 E8.9580
G1 X98.044 Y93.330 E8.9874
G1 X98.037 Y93.333 E8.9876
G1 X97.811 Y93.445 E8.9952
G1 X97.804 Y93.448 E8.9954
G1 X96.898 Y93.830 E9.0248
G1 X96.891 Y93.833 E9.0250
G1 X96.653 Y93.916 E9.0326
G1 X96.646 Y93.918 E9.0328
G1 X95.700 Y94.186 E9.0622
G1 X95.693 Y94.188 E9.0625
G1 X95.446 Y94.242 E9.0700
G1 X95.439 Y94.243 E9.0702
G1 X94.468 Y94.393 E9.0997
G1 X94.460 Y94.394 E9.0999
G1 X94.209 Y94.418 E9.1074
G1 X94.202 Y94.418 E9.1077
G1 X93.219 Y94.449 E9.1371
G1 X93.212 Y94.449 E9.1373
G1 X92.960 Y94.441 E9.1449
G1 X92.952 Y94.441 E9.1451
G1 X91.973 Y94.351 E9.1745
G1 X91.966 Y94.350 E9.1747
G1 X91.716 Y94.312 E9.1823
G1 X91.709 Y94.310 E9.1825
G1 X90.749 Y94.102 E9.2119
G1 X90.741 Y94.100 E9.2121
G1 X90.499 Y94.031 E9.2197
G1 X90.492 Y94.029 E9.2199
G1 X89.563 Y93.705 E9.2493
G1 X89.557 Y93.702 E9.2496
G1 X89.324 Y93.604 E9.2571
G1 X89.317 Y93.601 E9.2573
G1 X88.436 Y93.166 E9.2868
G1 X88.429 Y93.162 E9.2870
G1 X88.210 Y93.037 E9.2945
G1 X88.204 Y93.033 E9.2948
G1 X87.382 Y92.493 E9.3242
G1 X87.376 Y92.489 E9.3244
G1 X87.174 Y92.338 E9.3320
G1 X87.169 Y92.333 E9.3322
G1 X86.443 Y91.718 E9.3607
G1 X86.439 Y91.714 E9.3608
G1 X86.300 Y91.585 E9.3665
G1 X86.296 Y91.581 E9.3667
G1 X85.908 Y91.185 E9.3833
G1 X85.904 Y91.181 E9.3834
G1 X85.778 Y91.040 E9.3891
G1 X85.775 Y91.036 E9.3893
G1 X85.174 Y90.298 E9.4178
G1 X85.169 Y90.292 E9.4180
G1 X85.022 Y90.087 E9.4255
G1 X85.018 Y90.081 E9.4257
G1 X84.495 Y89.248 E9.4552
G1 X84.491 Y89.242 E9.4554
G1 X84.371 Y89.020 E9.4630
G1 X84.367 Y89.014 E9.4632
G1 X83.951 Y88.126 E9.4925
G1 X83.948 Y88.119 E9.4928
G1 X83.856 Y87.888 E9.5002
G1 X83.854 Y87.881 E9.5004
G1 X81.885 Y81.899 E9.6889
G1 X81.883 Y81.892 E9.6892
G1 X81.819 Y81.649 E9.6967
G1 X81.818 Y81.642 E9.6969
G1 X81.659 Y80.842 E9.7213
G1 X81.657 Y80.830 E9.7217
G1 X81.618 Y80.432 E9.7336
G1 X81.617 Y80.420 E9.7340
G1 X81.616 Y79.791 E9.7528
G1 X81.616 Y79.782 E9.7531
G1 X81.637 Y79.486 E9.7620
G1 X81.638 Y79.478 E9.7622
G1 X81.720 Y78.907 E9.7795
G1 X81.721 Y78.898 E9.7797
G1 X81.783 Y78.614 E9.7885
G1 X81.785 Y78.605 E9.7887
G1 X81.926 Y78.121 E9.8038
G1 X81.927 Y78.117 E9.8039
G1 X81.972 Y77.981 E9.8082
G1 X81.973 Y77.977 E9.8084
G1 X85.600 Y68.134 E10.1224
G1 X85.603 Y68.125 E10.1226
G1 X85.741 Y67.827 E10.1325
G1 X85.745 Y67.819 E10.1328
G1 X86.141 Y67.114 E10.1569
G1 X86.230 Y66.956 F1200
