; generated by Slic3r Prusa Edition 1.40.0+ on 2018-09-29 at 17:21:04

; 

; external perimeters extrusion width = 0.60mm
; perimeters extrusion width = 0.43mm
; infill extrusion width = 0.45mm
; solid infill extrusion width = 0.70mm
; top infill extrusion width = 0.43mm
; support material extrusion width = 0.35mm
; first layer extrusion width = 0.42mm

M107
M115 U3.1.0 ; tell printer latest fw version
M201 X9000 Y9000 Z500 E10000 ; sets maximum accelerations, mm/sec^2
M203 X500 Y500 Z12 E120 ; sets maximum feedrates, mm/sec
M204 S1500 T1500 ; sets acceleration (S) and retract acceleration (T)
M205 X10 Y10 Z0.2 E2.5 ; sets the jerk limits, mm/sec
M205 S0 T0 ; sets the minimum extruding and travel feed rate, mm/sec
M83  ; extruder relative mode
M104 S210 ; set extruder temp
M140 S55 ; set bed temp
M190 S55 ; wait for bed temp
M109 S210 ; wait for extruder temp
G28 W ; home all without mesh bed level
G80 ; mesh bed leveling
G1 Y-3.0 F1000.0 ; go outside print area
G92 E0.0
G1 X60.0 E9.0  F1000.0 ; intro line
G1 X100.0 E12.5  F1000.0 ; intro line
G92 E0.0
M900 K30; Filament gcode
G21 ; set units to millimeters
G90 ; use absolute coordinates
M83 ; use relative distances for extrusion
;BEFORE_LAYER_CHANGE
G92 E0.0
;0.2


G1 E-0.80000 F2100.00000
G1 Z0.600 F10800.000
;AFTER_LAYER_CHANGE
;0.2
G1 X90.020 Y60.714
G1 Z0.200
G1 E0.80000 F2100.00000
M204 S1000
G1 F1800
G1 X90.377 Y60.349 E0.01601
G1 X106.275 Y47.580 E0.63935
G1 X107.910 Y46.409 E0.06305
G1 X109.480 Y45.426 E0.05807
G1 X111.100 Y44.545 E0.05785
G1 X112.894 Y43.707 E0.06208
G1 X114.739 Y42.987 E0.06208
G1 X116.499 Y42.423 E0.05796
G1 X118.290 Y41.966 E0.05796
G1 X120.239 Y41.595 E0.06220
G1 X122.205 Y41.352 E0.06211
G1 X124.049 Y41.239 E0.05793
G1 X125.897 Y41.238 E0.05796
G1 X127.870 Y41.358 E0.06197
G1 X129.770 Y41.595 E0.06002
G1 X131.654 Y41.951 E0.06013
G1 X133.506 Y42.421 E0.05991
G1 X135.328 Y43.007 E0.06002
G1 X137.111 Y43.705 E0.06002
G1 X138.847 Y44.512 E0.06002
G1 X140.529 Y45.426 E0.06002
G1 X142.154 Y46.445 E0.06014
G1 X143.747 Y47.590 E0.06151
G1 X159.645 Y60.367 E0.63950
G1 X160.034 Y60.786 E0.01794
G1 X160.302 Y61.296 E0.01805
G1 X160.861 Y63.302 E0.06531
G1 X161.291 Y65.275 E0.06330
G1 X161.807 Y69.049 E0.11944
G1 X161.923 Y71.079 E0.06376
G1 X161.929 Y138.984 E2.12911
G1 X161.831 Y140.975 E0.06251
G1 X161.636 Y142.870 E0.05974
G1 X161.315 Y144.911 E0.06478
G1 X160.917 Y146.786 E0.06008
G1 X160.386 Y148.748 E0.06375
G1 X160.108 Y149.302 E0.01942
G1 X159.686 Y149.755 E0.01942
G1 X142.994 Y162.970 E0.66754
G1 X141.352 Y164.076 E0.06208
G1 X139.705 Y165.038 E0.05979
G1 X137.986 Y165.904 E0.06036
G1 X136.229 Y166.656 E0.05991
G1 X134.423 Y167.300 E0.06014
G1 X132.583 Y167.829 E0.06002
G1 X130.714 Y168.242 E0.06002
G1 X128.823 Y168.538 E0.06002
G1 X126.917 Y168.717 E0.06002
G1 X124.989 Y168.776 E0.06048
G1 X123.090 Y168.717 E0.05956
G1 X121.184 Y168.538 E0.06002
G1 X119.293 Y168.242 E0.06002
G1 X117.424 Y167.828 E0.06002
G1 X115.588 Y167.300 E0.05990
G1 X113.781 Y166.657 E0.06014
G1 X112.021 Y165.903 E0.06002
G1 X110.283 Y165.026 E0.06105
G1 X108.603 Y164.040 E0.06108
G1 X107.069 Y163.010 E0.05793
G1 X105.583 Y161.874 E0.05865
G1 X90.302 Y149.745 E0.61169
G1 X89.913 Y149.331 E0.01783
G1 X89.642 Y148.827 E0.01794
G1 X89.084 Y146.788 E0.06628
G1 X88.667 Y144.813 E0.06329
G1 X88.174 Y141.036 E0.11944
G1 X88.071 Y139.012 E0.06353
G1 X88.077 Y71.111 E2.12901
G1 X88.193 Y69.048 E0.06478
G1 X88.402 Y67.154 E0.05974
G1 X88.717 Y65.230 E0.06111
G1 X89.138 Y63.305 E0.06181
G1 X89.649 Y61.446 E0.06043
G1 X89.993 Y60.767 E0.02386
G1 F8640
G1 X90.377 Y60.349 E-0.13116
G1 X92.500 Y58.644 E-0.62884
G1 E-0.04000 F2100.00000
G1 Z0.800 F10800.000
G1 X101.156 Y81.088
G1 Z0.200
G1 E0.80000 F2100.00000
G1 F1800
G1 X148.854 Y81.088 E1.49553
G1 X147.841 Y83.267 E0.07535
G1 X147.057 Y84.732 E0.05210
G1 X146.178 Y86.147 E0.05225
G1 X145.207 Y87.502 E0.05225
G1 X144.150 Y88.790 E0.05225
G1 X143.011 Y90.006 E0.05225
G1 X141.795 Y91.145 E0.05225
G1 X140.506 Y92.202 E0.05225
G1 X139.152 Y93.173 E0.05225
G1 X137.737 Y94.053 E0.05225
G1 X136.267 Y94.838 E0.05224
G1 X134.749 Y95.526 E0.05225
G1 X133.190 Y96.113 E0.05225
G1 X132.756 Y96.245 E0.01423
G1 X131.595 Y96.597 E0.03802
G1 X129.973 Y96.975 E0.05225
G1 X128.328 Y97.246 E0.05225
G1 X126.670 Y97.410 E0.05225
G1 X125.005 Y97.464 E0.05225
G1 X123.339 Y97.410 E0.05225
G1 X122.888 Y97.365 E0.01423
G1 X121.681 Y97.246 E0.03802
G1 X120.037 Y96.975 E0.05225
G1 X118.414 Y96.597 E0.05225
G1 X116.819 Y96.113 E0.05225
G1 X115.260 Y95.526 E0.05225
G1 X113.742 Y94.838 E0.05225
G1 X112.273 Y94.053 E0.05224
G1 X110.858 Y93.173 E0.05225
G1 X109.503 Y92.202 E0.05225
G1 X108.215 Y91.145 E0.05225
G1 X106.999 Y90.006 E0.05225
G1 X105.860 Y88.790 E0.05225
G1 X104.803 Y87.502 E0.05225
G1 X103.832 Y86.147 E0.05225
G1 X102.952 Y84.732 E0.05225
G1 X102.169 Y83.267 E0.05210
G1 X101.181 Y81.142 E0.07347
G1 X101.747 Y81.465 F10800.000
G1 F1800
G1 X148.263 Y81.465 E1.45847
G1 X147.503 Y83.098 E0.05648
G1 X146.731 Y84.543 E0.05138
G1 X145.864 Y85.938 E0.05147
G1 X144.908 Y87.272 E0.05147
G1 X143.866 Y88.541 E0.05147
G1 X142.744 Y89.739 E0.05147
G1 X141.546 Y90.861 E0.05147
G1 X140.277 Y91.903 E0.05147
G1 X138.942 Y92.859 E0.05147
G1 X137.548 Y93.726 E0.05147
G1 X136.100 Y94.500 E0.05147
G1 X134.605 Y95.177 E0.05147
G1 X133.069 Y95.756 E0.05147
G1 X132.646 Y95.884 E0.01384
G1 X131.498 Y96.232 E0.03763
G1 X129.899 Y96.605 E0.05147
G1 X128.279 Y96.872 E0.05147
G1 X126.645 Y97.033 E0.05147
G1 X125.005 Y97.087 E0.05147
G1 X123.364 Y97.033 E0.05147
G1 X122.925 Y96.990 E0.01384
G1 X121.730 Y96.872 E0.03763
G1 X120.110 Y96.605 E0.05147
G1 X118.512 Y96.232 E0.05147
G1 X116.941 Y95.756 E0.05147
G1 X115.404 Y95.177 E0.05147
G1 X113.909 Y94.500 E0.05147
G1 X112.461 Y93.726 E0.05147
G1 X111.067 Y92.859 E0.05147
G1 X109.733 Y91.903 E0.05147
G1 X108.464 Y90.861 E0.05147
G1 X107.265 Y89.739 E0.05147
G1 X106.143 Y88.541 E0.05147
G1 X105.102 Y87.272 E0.05147
G1 X104.146 Y85.938 E0.05147
G1 X103.279 Y84.543 E0.05147
G1 X102.506 Y83.098 E0.05138
G1 X101.772 Y81.519 E0.05460
G1 X102.338 Y81.842 F10800.000
G1 F1800
G1 X147.671 Y81.842 E1.42140
G1 X147.166 Y82.930 E0.03762
G1 X146.404 Y84.355 E0.05066
G1 X145.550 Y85.728 E0.05070
G1 X144.608 Y87.042 E0.05070
G1 X143.582 Y88.292 E0.05070
G1 X142.477 Y89.472 E0.05070
G1 X141.297 Y90.578 E0.05070
G1 X140.047 Y91.604 E0.05070
G1 X138.733 Y92.545 E0.05070
G1 X137.360 Y93.399 E0.05070
G1 X135.934 Y94.161 E0.05070
G1 X134.461 Y94.829 E0.05070
G1 X132.947 Y95.398 E0.05070
G1 X132.537 Y95.523 E0.01346
G1 X131.400 Y95.868 E0.03724
G1 X129.825 Y96.235 E0.05070
G1 X128.230 Y96.498 E0.05070
G1 X126.621 Y96.657 E0.05070
G1 X125.005 Y96.710 E0.05070
G1 X123.389 Y96.657 E0.05070
G1 X122.962 Y96.615 E0.01346
G1 X121.779 Y96.498 E0.03724
G1 X120.184 Y96.235 E0.05070
G1 X118.609 Y95.868 E0.05070
G1 X117.062 Y95.398 E0.05070
G1 X115.549 Y94.829 E0.05070
G1 X114.076 Y94.161 E0.05070
G1 X112.650 Y93.399 E0.05070
G1 X111.277 Y92.545 E0.05070
G1 X109.962 Y91.604 E0.05070
G1 X108.712 Y90.578 E0.05070
G1 X107.532 Y89.472 E0.05070
G1 X106.427 Y88.292 E0.05070
G1 X105.401 Y87.042 E0.05070
G1 X104.459 Y85.728 E0.05070
G1 X103.605 Y84.355 E0.05070
G1 X102.844 Y82.930 E0.05066
G1 X102.363 Y81.896 E0.03574
G1 X102.276 Y81.447 F10800.000
G1 F8640
G1 X105.655 Y81.892 E-0.76000
G1 E-0.04000 F2100.00000
G1 Z0.800 F10800.000
G1 X130.366 Y77.164
G1 Z0.200
G1 E0.80000 F2100.00000
G1 F1800
G1 X125.682 Y77.164 E0.14687
G1 X125.282 Y75.820 E0.04397
G1 X123.915 Y75.820 E0.04288
G1 X123.506 Y77.164 E0.04405
G1 X118.890 Y77.164 E0.14472
G1 X119.008 Y76.846 E0.01062
G1 X118.792 Y76.919 E0.00715
G1 X118.148 Y77.044 E0.02055
G1 X117.397 Y77.133 E0.02373
G1 X116.929 Y77.164 E0.01470
G1 X108.764 Y77.164 E0.25600
G1 X108.364 Y75.820 E0.04397
G1 X106.997 Y75.820 E0.04288
G1 X106.588 Y77.164 E0.04405
G1 X101.972 Y77.164 E0.14472
G1 X104.205 Y71.148 E0.20120
G1 X101.717 Y71.148 E0.07800
G1 X101.717 Y77.164 E0.18863
G1 X97.293 Y77.164 E0.13872
G1 X97.293 Y71.148 E0.18863
G1 X94.797 Y71.148 E0.07826
G1 X94.797 Y67.236 E0.12267
G1 X104.213 Y67.236 E0.29524
G1 X104.213 Y71.126 E0.12197
G1 X105.657 Y67.236 E0.13010
G1 X109.765 Y67.236 E0.12881
G1 X111.685 Y72.412 E0.17309
G1 X111.685 Y67.236 E0.16228
G1 X117.277 Y67.236 E0.17534
G1 X117.926 Y67.279 E0.02039
G1 X118.565 Y67.424 E0.02054
G1 X119.155 Y67.683 E0.02022
G1 X119.664 Y68.058 E0.01982
G1 X120.068 Y68.513 E0.01907
G1 X120.361 Y69.030 E0.01863
G1 X120.537 Y69.598 E0.01863
G1 X120.593 Y70.188 E0.01858
G1 X120.552 Y70.699 E0.01609
G1 X120.424 Y71.186 E0.01578
G1 X120.208 Y71.640 E0.01579
G1 X120.096 Y71.794 E0.00594
G1 X120.346 Y72.044 E0.01109
G1 X120.632 Y72.471 E0.01612
G1 X122.575 Y67.236 E0.17509
G1 X126.683 Y67.236 E0.12881
G1 X128.673 Y72.600 E0.17938
G1 X129.369 Y72.555 E0.02188
G1 X129.054 Y72.219 E0.01444
G1 X128.728 Y71.669 E0.02006
G1 X128.533 Y71.059 E0.02007
G1 X128.472 Y70.426 E0.01993
G1 X128.505 Y69.969 E0.01438
G1 X128.603 Y69.534 E0.01398
G1 X128.764 Y69.117 E0.01400
G1 X128.987 Y68.717 E0.01437
G1 X129.278 Y68.340 E0.01494
G1 X129.631 Y68.008 E0.01519
G1 X130.032 Y67.729 E0.01530
G1 X130.481 Y67.498 E0.01584
G1 X130.990 Y67.319 E0.01693
G1 X131.553 Y67.198 E0.01805
G1 X132.161 Y67.129 E0.01918
G1 X132.765 Y67.109 E0.01896
G1 X133.637 Y67.147 E0.02738
G1 X134.395 Y67.275 E0.02408
G1 X135.086 Y67.503 E0.02283
G1 X135.707 Y67.847 E0.02226
G1 X136.234 Y68.321 E0.02222
G1 X136.636 Y68.911 E0.02238
G1 X136.809 Y69.339 E0.01448
G1 X136.865 Y69.218 E0.00418
G1 X137.462 Y68.454 E0.03041
G1 X138.216 Y67.850 E0.03031
G1 X139.094 Y67.427 E0.03055
G1 X140.070 Y67.183 E0.03152
G1 X141.023 Y67.113 E0.02999
G1 X141.949 Y67.149 E0.02903
G1 X142.720 Y67.288 E0.02458
G1 X143.426 Y67.531 E0.02339
G1 X144.055 Y67.886 E0.02265
G1 X144.595 Y68.347 E0.02226
G1 X145.047 Y68.900 E0.02241
G1 X145.302 Y69.342 E0.01600
G1 X145.349 Y69.245 E0.00340
G1 X145.960 Y68.476 E0.03079
G1 X146.726 Y67.864 E0.03076
G1 X147.616 Y67.433 E0.03098
G1 X148.602 Y67.185 E0.03190
G1 X149.574 Y67.113 E0.03056
G1 X150.755 Y67.181 E0.03707
G1 X151.758 Y67.426 E0.03238
G1 X152.655 Y67.848 E0.03107
G1 X153.423 Y68.453 E0.03066
G1 X154.031 Y69.213 E0.03053
G1 X154.458 Y70.096 E0.03073
G1 X154.704 Y71.076 E0.03167
G1 X154.781 Y72.126 E0.03301
G1 X154.747 Y72.899 E0.02428
G1 X154.644 Y73.610 E0.02252
G1 X154.464 Y74.274 E0.02157
G1 X154.204 Y74.882 E0.02073
G1 X153.868 Y75.425 E0.02003
G1 X153.463 Y75.907 E0.01972
G1 X152.992 Y76.324 E0.01974
G1 X152.456 Y76.675 E0.02010
G1 X151.855 Y76.953 E0.02073
G1 X151.202 Y77.146 E0.02135
G1 X150.508 Y77.257 E0.02206
G1 X149.775 Y77.293 E0.02299
G1 X149.041 Y77.263 E0.02305
G1 X148.355 Y77.168 E0.02171
G1 X147.712 Y77.005 E0.02079
G1 X147.116 Y76.766 E0.02014
G1 X146.568 Y76.446 E0.01989
G1 X146.076 Y76.044 E0.01993
G1 X145.645 Y75.569 E0.02011
G1 X145.309 Y75.076 E0.01870
G1 X145.209 Y75.270 E0.00683
G1 X144.927 Y75.688 E0.01581
G1 X144.602 Y76.062 E0.01556
G1 X144.237 Y76.391 E0.01542
G1 X143.833 Y76.671 E0.01540
G1 X143.392 Y76.902 E0.01561
G1 X142.907 Y77.079 E0.01617
G1 X142.384 Y77.201 E0.01686
G1 X141.828 Y77.270 E0.01755
G1 X141.239 Y77.293 E0.01850
G1 X140.540 Y77.266 E0.02191
G1 X139.888 Y77.184 E0.02063
G1 X139.278 Y77.040 E0.01965
G1 X138.708 Y76.826 E0.01907
G1 X138.178 Y76.526 E0.01913
G1 X137.692 Y76.136 E0.01952
G1 X137.261 Y75.670 E0.01991
G1 X136.926 Y75.199 E0.01811
G1 X136.735 Y75.541 E0.01230
G1 X136.415 Y75.958 E0.01647
G1 X136.036 Y76.324 E0.01651
G1 X135.605 Y76.630 E0.01658
G1 X135.129 Y76.878 E0.01683
G1 X134.609 Y77.066 E0.01735
G1 X134.049 Y77.195 E0.01801
G1 X133.454 Y77.269 E0.01879
G1 X132.815 Y77.293 E0.02005
G1 X131.768 Y77.238 E0.03287
G1 X130.833 Y77.062 E0.02985
G1 X130.242 Y76.829 E0.01990
G1 X130.345 Y77.108 E0.00932
G1 X129.824 Y76.787 F10800.000
G1 F1800
G1 X125.963 Y76.787 E0.12105
G1 X125.563 Y75.443 E0.04397
G1 X123.635 Y75.443 E0.06046
G1 X123.226 Y76.787 E0.04405
G1 X119.432 Y76.787 E0.11896
G1 X119.742 Y75.952 E0.02793
G1 X119.528 Y76.139 E0.00892
G1 X119.225 Y76.340 E0.01139
G1 X118.981 Y76.458 E0.00852
G1 X118.695 Y76.553 E0.00943
G1 X118.090 Y76.671 E0.01934
G1 X117.362 Y76.758 E0.02298
G1 X116.917 Y76.787 E0.01400
G1 X109.045 Y76.787 E0.24680
G1 X108.645 Y75.443 E0.04397
G1 X106.717 Y75.443 E0.06046
G1 X106.308 Y76.787 E0.04405
G1 X102.514 Y76.787 E0.11896
G1 X105.919 Y67.613 E0.30682
G1 X109.503 Y67.613 E0.11236
G1 X112.062 Y74.512 E0.23072
G1 X112.062 Y67.613 E0.21632
G1 X117.265 Y67.613 E0.16312
G1 X117.872 Y67.653 E0.01907
G1 X118.446 Y67.783 E0.01847
G1 X118.965 Y68.012 E0.01777
G1 X119.408 Y68.338 E0.01726
G1 X119.759 Y68.734 E0.01659
G1 X120.013 Y69.181 E0.01611
G1 X120.166 Y69.672 E0.01612
G1 X120.215 Y70.190 E0.01632
G1 X120.178 Y70.635 E0.01401
G1 X120.068 Y71.056 E0.01363
G1 X119.882 Y71.447 E0.01358
G1 X119.568 Y71.855 E0.01614
G1 X119.739 Y71.970 E0.00646
G1 X120.054 Y72.284 E0.01395
G1 X120.296 Y72.646 E0.01365
G1 X120.467 Y73.045 E0.01360
G1 X120.566 Y73.473 E0.01379
G1 X120.581 Y73.691 E0.00684
G1 X122.837 Y67.613 E0.20327
G1 X126.421 Y67.613 E0.11236
G1 X128.452 Y73.088 E0.18309
G1 X128.436 Y72.993 E0.00302
G1 X130.452 Y72.863 E0.06332
G1 X130.231 Y72.753 E0.00773
G1 X129.744 Y72.404 E0.01878
G1 X129.357 Y71.991 E0.01774
G1 X129.074 Y71.513 E0.01743
G1 X128.904 Y70.983 E0.01746
G1 X128.850 Y70.422 E0.01766
G1 X128.879 Y70.024 E0.01250
G1 X128.965 Y69.644 E0.01223
G1 X129.106 Y69.278 E0.01230
G1 X129.303 Y68.925 E0.01266
G1 X129.558 Y68.594 E0.01312
G1 X129.869 Y68.301 E0.01338
G1 X130.226 Y68.053 E0.01364
G1 X130.630 Y67.846 E0.01425
G1 X131.093 Y67.683 E0.01537
G1 X131.614 Y67.570 E0.01671
G1 X132.188 Y67.506 E0.01812
G1 X132.763 Y67.486 E0.01804
G1 X133.598 Y67.522 E0.02619
G1 X134.304 Y67.642 E0.02245
G1 X134.934 Y67.850 E0.02082
G1 X135.486 Y68.156 E0.01980
G1 X135.948 Y68.571 E0.01946
G1 X136.302 Y69.089 E0.01968
G1 X136.543 Y69.689 E0.02028
G1 X136.724 Y70.579 E0.02845
G1 X136.807 Y70.234 E0.01111
G1 X137.189 Y69.417 E0.02830
G1 X137.732 Y68.721 E0.02768
G1 X138.419 Y68.171 E0.02758
G1 X139.223 Y67.783 E0.02800
G1 X140.129 Y67.557 E0.02929
G1 X141.030 Y67.491 E0.02831
G1 X141.908 Y67.525 E0.02755
G1 X142.625 Y67.654 E0.02285
G1 X143.270 Y67.876 E0.02140
G1 X143.838 Y68.197 E0.02043
G1 X144.324 Y68.612 E0.02006
G1 X144.736 Y69.115 E0.02038
G1 X145.073 Y69.700 E0.02115
G1 X145.290 Y70.238 E0.01821
G1 X145.670 Y69.446 E0.02756
G1 X146.228 Y68.744 E0.02812
G1 X146.929 Y68.185 E0.02809
G1 X147.745 Y67.790 E0.02844
G1 X148.663 Y67.558 E0.02967
G1 X149.577 Y67.490 E0.02875
G1 X150.699 Y67.556 E0.03522
G1 X151.632 Y67.783 E0.03011
G1 X152.455 Y68.171 E0.02854
G1 X153.156 Y68.722 E0.02796
G1 X153.710 Y69.416 E0.02783
G1 X154.101 Y70.225 E0.02819
G1 X154.330 Y71.136 E0.02944
G1 X154.404 Y72.131 E0.03130
G1 X154.372 Y72.864 E0.02299
G1 X154.274 Y73.533 E0.02122
G1 X154.107 Y74.150 E0.02002
G1 X153.868 Y74.707 E0.01902
G1 X153.561 Y75.204 E0.01829
G1 X153.192 Y75.643 E0.01799
G1 X152.762 Y76.024 E0.01801
G1 X152.272 Y76.345 E0.01837
G1 X151.722 Y76.599 E0.01900
G1 X151.119 Y76.777 E0.01973
G1 X150.468 Y76.882 E0.02065
G1 X149.774 Y76.916 E0.02180
G1 X149.074 Y76.887 E0.02195
G1 X148.427 Y76.798 E0.02048
G1 X147.829 Y76.646 E0.01935
G1 X147.282 Y76.427 E0.01848
G1 X146.784 Y76.135 E0.01809
G1 X146.336 Y75.770 E0.01813
G1 X145.942 Y75.335 E0.01840
G1 X145.599 Y74.832 E0.01909
G1 X145.321 Y74.258 E0.01999
G1 X145.291 Y74.160 E0.00321
G1 X145.101 Y74.659 E0.01672
G1 X144.884 Y75.077 E0.01476
G1 X144.628 Y75.458 E0.01441
G1 X144.333 Y75.798 E0.01411
G1 X144.002 Y76.095 E0.01394
G1 X143.637 Y76.348 E0.01392
G1 X143.239 Y76.556 E0.01411
G1 X142.799 Y76.717 E0.01468
G1 X142.317 Y76.829 E0.01551
G1 X141.798 Y76.894 E0.01642
G1 X141.239 Y76.915 E0.01754
G1 X140.571 Y76.890 E0.02094
G1 X139.955 Y76.812 E0.01948
G1 X139.388 Y76.678 E0.01827
G1 X138.868 Y76.484 E0.01739
G1 X138.390 Y76.213 E0.01724
G1 X137.950 Y75.859 E0.01769
G1 X137.554 Y75.431 E0.01828
G1 X137.195 Y74.926 E0.01945
G1 X136.892 Y74.336 E0.02077
G1 X136.864 Y74.249 E0.00285
G1 X136.809 Y74.501 E0.00807
G1 X136.646 Y74.928 E0.01434
G1 X136.419 Y75.334 E0.01457
G1 X136.133 Y75.707 E0.01473
