; generated by Slic3r Prusa Edition 1.40.0+ on 2018-09-17 at 10:52:01

; 

; external perimeters extrusion width = 0.60mm
; perimeters extrusion width = 0.43mm
; infill extrusion width = 0.45mm
; solid infill extrusion width = 0.70mm
; top infill extrusion width = 0.43mm
; first layer extrusion width = 0.42mm

M107
M115 U3.1.0 ; tell printer latest fw version
M201 X9000 Y9000 Z500 E10000 ; sets maximum accelerations, mm/sec^2
M203 X500 Y500 Z12 E120 ; sets maximum feedrates, mm/sec
M204 S1500 T1500 ; sets acceleration (S) and retract acceleration (T)
M205 X10 Y10 Z0.2 E2.5 ; sets the jerk limits, mm/sec
M205 S0 T0 ; sets the minimum extruding and travel feed rate, mm/sec
M83  ; extruder relative mode
M104 S210 ; set extruder temp
M140 S55 ; set bed temp
M190 S55 ; wait for bed temp
M109 S210 ; wait for extruder temp
G28 W ; home all without mesh bed level
G80 ; mesh bed leveling
G1 Y-3.0 F1000.0 ; go outside print area
G92 E0.0
G1 X60.0 E9.0  F1000.0 ; intro line
G1 X100.0 E12.5  F1000.0 ; intro line
G92 E0.0
M900 K30; Filament gcode
G21 ; set units to millimeters
G90 ; use absolute coordinates
M83 ; use relative distances for extrusion
;BEFORE_LAYER_CHANGE
G92 E0.0
;0.2


G1 E-0.80000 F2100.00000
G1 Z0.600 F10800.000
;AFTER_LAYER_CHANGE
;0.2
G1 X14.219 Y115.967
G1 Z0.200
G1 E0.80000 F2100.00000
M204 S1000
G1 F1800
G1 X13.592 Y113.742 E0.07248
G1 X13.194 Y111.864 E0.06020
G1 X12.892 Y109.942 E0.06100
G1 X12.685 Y107.920 E0.06373
G1 X12.591 Y106.020 E0.05965
G1 X12.596 Y104.074 E0.06100
G1 X12.707 Y102.106 E0.06181
G1 X12.914 Y100.212 E0.05974
G1 X13.243 Y98.195 E0.06409
G1 X13.657 Y96.305 E0.06066
G1 X14.186 Y94.387 E0.06238
G1 X14.412 Y93.897 E0.01692
G1 X14.751 Y93.477 E0.01692
G1 X90.322 Y27.395 E3.14763
G1 X106.298 Y14.562 E0.64250
G1 X107.914 Y13.407 E0.06227
G1 X109.480 Y12.426 E0.05793
G1 X111.104 Y11.543 E0.05796
G1 X112.894 Y10.707 E0.06196
G1 X114.739 Y9.987 E0.06208
G1 X116.499 Y9.423 E0.05796
G1 X118.290 Y8.966 E0.05796
G1 X120.239 Y8.595 E0.06220
G1 X122.205 Y8.352 E0.06211
G1 X124.049 Y8.239 E0.05793
G1 X125.897 Y8.238 E0.05796
G1 X127.874 Y8.358 E0.06208
G1 X129.834 Y8.606 E0.06197
G1 X131.654 Y8.951 E0.05807
G1 X133.443 Y9.404 E0.05785
G1 X135.328 Y10.007 E0.06208
G1 X137.175 Y10.734 E0.06223
G1 X138.847 Y11.512 E0.05781
G1 X140.471 Y12.394 E0.05795
G1 X142.151 Y13.443 E0.06209
G1 X143.727 Y14.574 E0.06082
G1 X159.678 Y27.395 E0.64168
G1 X235.172 Y93.407 E3.14434
G1 X235.717 Y94.136 E0.02855
G1 X236.339 Y96.288 E0.07022
G1 X236.770 Y98.264 E0.06341
G1 X237.288 Y102.049 E0.11978
G1 X237.404 Y104.108 E0.06467
G1 X237.410 Y171.998 E2.12865
G1 X237.312 Y173.975 E0.06205
G1 X237.111 Y175.925 E0.06146
G1 X236.806 Y177.861 E0.06146
G1 X236.411 Y179.725 E0.05974
G1 X235.822 Y181.872 E0.06981
G1 X235.562 Y182.340 E0.01680
G1 X235.195 Y182.732 E0.01680
G1 X218.452 Y195.988 E0.66960
G1 X216.772 Y197.112 E0.06336
G1 X215.177 Y198.044 E0.05793
G1 X213.457 Y198.909 E0.06036
G1 X211.710 Y199.656 E0.05957
G1 X209.966 Y200.279 E0.05807
G1 X207.999 Y200.844 E0.06417
G1 X206.195 Y201.242 E0.05793
G1 X204.304 Y201.538 E0.06002
G1 X202.401 Y201.717 E0.05991
G1 X200.503 Y201.776 E0.05956
G1 X124.950 Y201.775 E2.36890
G1 X123.094 Y201.717 E0.05823
G1 X121.249 Y201.545 E0.05807
G1 X119.293 Y201.242 E0.06208
G1 X117.427 Y200.829 E0.05991
G1 X115.651 Y200.319 E0.05796
G1 X113.740 Y199.640 E0.06357
G1 X112.021 Y198.903 E0.05864
G1 X110.311 Y198.042 E0.06002
G1 X108.659 Y197.076 E0.06002
G1 X107.066 Y196.008 E0.06014
G1 X90.280 Y182.727 E0.67113
G1 X14.764 Y116.697 E3.14522
G1 X14.255 Y116.015 E0.02667
G1 F8640
G1 X13.592 Y113.742 E-0.54673
G1 X13.401 Y112.838 E-0.21327
G1 E-0.04000 F2100.00000
G1 Z0.800 F10800.000
G1 X101.156 Y114.088
G1 Z0.200
G1 E0.80000 F2100.00000
G1 F1800
G1 X148.854 Y114.088 E1.49553
G1 X147.841 Y116.267 E0.07535
G1 X147.057 Y117.732 E0.05210
G1 X146.178 Y119.147 E0.05225
G1 X145.207 Y120.502 E0.05225
G1 X144.150 Y121.790 E0.05225
G1 X143.011 Y123.006 E0.05225
G1 X141.795 Y124.145 E0.05225
G1 X140.506 Y125.202 E0.05225
G1 X139.152 Y126.173 E0.05225
G1 X137.737 Y127.053 E0.05225
G1 X136.267 Y127.838 E0.05224
G1 X134.749 Y128.526 E0.05225
G1 X133.190 Y129.113 E0.05225
G1 X132.756 Y129.245 E0.01423
G1 X131.595 Y129.597 E0.03802
G1 X129.973 Y129.975 E0.05225
G1 X128.328 Y130.246 E0.05225
G1 X126.670 Y130.410 E0.05225
G1 X125.005 Y130.464 E0.05225
G1 X123.339 Y130.410 E0.05225
G1 X122.888 Y130.365 E0.01423
G1 X121.681 Y130.246 E0.03802
G1 X120.037 Y129.975 E0.05225
G1 X118.414 Y129.597 E0.05225
G1 X116.819 Y129.113 E0.05225
G1 X115.260 Y128.526 E0.05225
G1 X113.742 Y127.838 E0.05225
G1 X112.273 Y127.053 E0.05224
G1 X110.858 Y126.173 E0.05225
G1 X109.503 Y125.202 E0.05225
G1 X108.215 Y124.145 E0.05225
G1 X106.999 Y123.006 E0.05225
G1 X105.860 Y121.790 E0.05225
G1 X104.803 Y120.502 E0.05225
G1 X103.832 Y119.147 E0.05225
G1 X102.952 Y117.732 E0.05225
G1 X102.169 Y116.267 E0.05210
G1 X101.181 Y114.142 E0.07347
G1 X101.747 Y114.465 F10800.000
G1 F1800
G1 X148.263 Y114.465 E1.45847
G1 X147.503 Y116.098 E0.05648
G1 X146.731 Y117.543 E0.05138
G1 X145.864 Y118.938 E0.05147
G1 X144.908 Y120.272 E0.05147
G1 X143.866 Y121.541 E0.05147
G1 X142.744 Y122.739 E0.05147
G1 X141.546 Y123.861 E0.05147
G1 X140.277 Y124.903 E0.05147
G1 X138.942 Y125.859 E0.05147
G1 X137.548 Y126.726 E0.05147
G1 X136.100 Y127.500 E0.05147
G1 X134.605 Y128.177 E0.05147
G1 X133.069 Y128.756 E0.05147
G1 X132.646 Y128.884 E0.01384
G1 X131.498 Y129.232 E0.03763
G1 X129.899 Y129.605 E0.05147
G1 X128.279 Y129.872 E0.05147
G1 X126.645 Y130.033 E0.05147
G1 X125.005 Y130.087 E0.05147
G1 X123.364 Y130.033 E0.05147
G1 X122.925 Y129.990 E0.01384
G1 X121.730 Y129.872 E0.03763
G1 X120.110 Y129.605 E0.05147
G1 X118.512 Y129.232 E0.05147
G1 X116.941 Y128.756 E0.05147
G1 X115.404 Y128.177 E0.05147
G1 X113.909 Y127.500 E0.05147
G1 X112.461 Y126.726 E0.05147
G1 X111.067 Y125.859 E0.05147
G1 X109.733 Y124.903 E0.05147
G1 X108.464 Y123.861 E0.05147
G1 X107.265 Y122.739 E0.05147
G1 X106.143 Y121.541 E0.05147
G1 X105.102 Y120.272 E0.05147
G1 X104.146 Y118.938 E0.05147
G1 X103.279 Y117.543 E0.05147
G1 X102.506 Y116.098 E0.05138
G1 X101.772 Y114.519 E0.05460
G1 X102.338 Y114.842 F10800.000
G1 F1800
G1 X147.671 Y114.842 E1.42140
G1 X147.166 Y115.930 E0.03762
G1 X146.404 Y117.355 E0.05066
G1 X145.550 Y118.728 E0.05070
G1 X144.608 Y120.042 E0.05070
G1 X143.582 Y121.292 E0.05070
G1 X142.477 Y122.472 E0.05070
G1 X141.297 Y123.578 E0.05070
G1 X140.047 Y124.604 E0.05070
G1 X138.733 Y125.545 E0.05070
G1 X137.360 Y126.399 E0.05070
G1 X135.934 Y127.161 E0.05070
G1 X134.461 Y127.829 E0.05070
G1 X132.947 Y128.398 E0.05070
G1 X132.537 Y128.523 E0.01346
G1 X131.400 Y128.868 E0.03724
G1 X129.825 Y129.235 E0.05070
G1 X128.230 Y129.498 E0.05070
G1 X126.621 Y129.657 E0.05070
G1 X125.005 Y129.710 E0.05070
G1 X123.389 Y129.657 E0.05070
G1 X122.962 Y129.615 E0.01346
G1 X121.779 Y129.498 E0.03724
G1 X120.184 Y129.235 E0.05070
G1 X118.609 Y128.868 E0.05070
G1 X117.062 Y128.398 E0.05070
G1 X115.549 Y127.829 E0.05070
G1 X114.076 Y127.161 E0.05070
G1 X112.650 Y126.399 E0.05070
G1 X111.277 Y125.545 E0.05070
G1 X109.962 Y124.604 E0.05070
G1 X108.712 Y123.578 E0.05070
G1 X107.532 Y122.472 E0.05070
G1 X106.427 Y121.292 E0.05070
G1 X105.401 Y120.042 E0.05070
G1 X104.459 Y118.728 E0.05070
G1 X103.605 Y117.355 E0.05070
G1 X102.844 Y115.930 E0.05066
G1 X102.363 Y114.896 E0.03574
G1 X102.276 Y114.447 F10800.000
G1 F8640
G1 X105.655 Y114.892 E-0.76000
G1 E-0.04000 F2100.00000
G1 Z0.800 F10800.000
G1 X102.363 Y108.464
G1 Z0.200
G1 E0.80000 F2100.00000
G1 F1800
G1 X102.292 Y108.464 E0.00224
G1 X102.064 Y107.696 E0.02512
G1 X101.962 Y107.696 E0.00320
G1 X101.744 Y108.464 E0.02503
G1 X98.170 Y108.464 E0.11207
G1 X98.801 Y106.617 E0.06121
G1 X98.711 Y106.668 E0.00325
G1 X97.825 Y106.785 E0.02802
G1 X97.825 Y108.464 E0.05265
G1 X94.489 Y108.464 E0.10461
G1 X94.489 Y101.928 E0.20494
G1 X97.882 Y101.928 E0.10640
G1 X98.812 Y102.057 E0.02943
G1 X99.659 Y102.551 E0.03075
G1 X100.006 Y103.095 E0.02023
G1 X100.405 Y101.928 E0.03866
G1 X103.526 Y101.928 E0.09784
G1 X103.864 Y102.865 E0.03123
G1 X103.864 Y101.928 E0.02938
G1 X107.257 Y101.928 E0.10640
G1 X108.187 Y102.057 E0.02943
G1 X108.377 Y102.168 E0.00691
G1 X108.377 Y101.928 E0.00752
G1 X116.279 Y101.928 E0.24776
G1 X116.948 Y101.960 E0.02098
G1 X117.569 Y102.083 E0.01985
G1 X118.143 Y102.376 E0.02020
G1 X118.607 Y102.858 E0.02100
G1 X118.898 Y103.469 E0.02122
G1 X118.987 Y104.137 E0.02111
G1 X118.916 Y104.739 E0.01901
G1 X118.691 Y105.284 E0.01851
G1 X118.454 Y105.584 E0.01198
G1 X119.836 Y108.124 E0.09066
G1 X119.836 Y101.928 E0.19427
G1 X123.172 Y101.928 E0.10461
G1 X123.172 Y105.384 E0.10836
G1 X124.226 Y105.384 E0.03303
G1 X125.408 Y101.928 E0.11452
G1 X128.528 Y101.928 E0.09784
G1 X128.866 Y102.865 E0.03123
G1 X128.866 Y101.928 E0.02938
G1 X131.679 Y101.928 E0.08820
G1 X131.938 Y102.313 E0.01456
G1 X131.938 Y101.928 E0.01209
G1 X146.488 Y101.928 E0.45620
G1 X147.157 Y101.960 E0.02098
G1 X147.778 Y102.083 E0.01985
G1 X147.961 Y102.177 E0.00646
G1 X147.961 Y101.928 E0.00781
G1 X150.774 Y101.928 E0.08820
G1 X151.033 Y102.313 E0.01456
G1 X151.033 Y101.928 E0.01209
G1 X154.306 Y101.928 E0.10260
G1 X154.306 Y108.464 E0.20494
G1 X151.483 Y108.464 E0.08849
G1 X151.233 Y108.092 E0.01406
G1 X151.233 Y108.464 E0.01167
G1 X138.586 Y108.464 E0.39654
G1 X138.586 Y104.944 E0.11037
G1 X138.561 Y104.944 E0.00080
G1 X138.561 Y108.464 E0.11037
G1 X135.225 Y108.464 E0.10461
G1 X135.225 Y104.944 E0.11037
G1 X135.211 Y104.944 E0.00043
G1 X135.211 Y108.464 E0.11037
G1 X132.389 Y108.464 E0.08848
G1 X132.139 Y108.092 E0.01406
G1 X132.139 Y108.464 E0.01167
G1 X127.295 Y108.464 E0.15188
G1 X127.067 Y107.696 E0.02512
G1 X126.965 Y107.696 E0.00320
G1 X126.747 Y108.464 E0.02503
G1 X108.377 Y108.464 E0.57597
G1 X108.377 Y106.504 E0.06145
G1 X108.086 Y106.668 E0.01048
G1 X107.200 Y106.785 E0.02802
G1 X107.200 Y108.464 E0.05265
G1 X102.423 Y108.464 E0.14977
G1 F8640
G1 X102.292 Y108.464 E-0.03033
G1 X102.064 Y107.696 E-0.18498
G1 X101.962 Y107.696 E-0.02354
G1 X101.744 Y108.464 E-0.18434
G1 X100.285 Y108.464 E-0.33682
G1 E-0.04000 F2100.00000
G1 Z0.800 F10800.000
G1 X120.213 Y108.087
G1 Z0.200
G1 E0.80000 F2100.00000
G1 F1800
G1 X120.213 Y102.305 E0.18130
G1 X122.795 Y102.305 E0.08096
G1 X122.795 Y105.761 E0.10836
G1 X124.496 Y105.761 E0.05331
G1 X125.678 Y102.305 E0.11452
G1 X128.264 Y102.305 E0.08108
G1 X129.244 Y105.022 E0.09056
G1 X129.244 Y102.305 E0.08519
G1 X131.479 Y102.305 E0.07008
G1 X132.316 Y103.551 E0.04707
G1 X132.316 Y102.305 E0.03907
G1 X146.479 Y102.305 E0.44409
G1 X147.111 Y102.335 E0.01982
G1 X147.653 Y102.443 E0.01734
G1 X148.124 Y102.683 E0.01657
G1 X148.338 Y102.906 E0.00969
G1 X148.338 Y102.305 E0.01883
G1 X150.573 Y102.305 E0.07007
G1 X151.410 Y103.551 E0.04707
G1 X151.410 Y102.305 E0.03907
G1 X153.928 Y102.305 E0.07896
G1 X153.928 Y108.087 E0.18130
G1 X151.684 Y108.087 E0.07036
G1 X150.856 Y106.854 E0.04657
G1 X150.856 Y108.087 E0.03866
G1 X146.695 Y108.087 E0.13046
G1 X146.123 Y107.044 E0.03732
G1 X146.123 Y108.087 E0.03272
G1 X138.963 Y108.087 E0.22449
G1 X138.963 Y104.567 E0.11037
G1 X138.184 Y104.567 E0.02444
G1 X138.184 Y108.087 E0.11037
G1 X135.602 Y108.087 E0.08096
G1 X135.602 Y104.567 E0.11037
G1 X134.834 Y104.567 E0.02408
G1 X134.834 Y108.087 E0.11037
G1 X132.590 Y108.087 E0.07036
G1 X131.762 Y106.854 E0.04657
G1 X131.762 Y108.087 E0.03866
G1 X127.576 Y108.087 E0.13123
G1 X127.348 Y107.319 E0.02512
G1 X126.680 Y107.319 E0.02095
G1 X126.462 Y108.087 E0.02503
G1 X120.273 Y108.087 E0.19404
G1 X120.590 Y107.710 F10800.000
G1 F1800
G1 X120.590 Y102.682 E0.15765
G1 X122.418 Y102.682 E0.05732
G1 X122.418 Y106.138 E0.10836
G1 X124.658 Y106.138 E0.07023
G1 X124.658 Y106.450 E0.00979
G1 X125.947 Y102.682 E0.12487
G1 X127.999 Y102.682 E0.06433
G1 X129.621 Y107.179 E0.14988
G1 X129.621 Y102.682 E0.14099
G1 X131.278 Y102.682 E0.05195
G1 X132.693 Y104.789 E0.07957
G1 X132.693 Y102.682 E0.06606
G1 X134.457 Y102.682 E0.05531
G1 X134.457 Y107.710 E0.15765
G1 X132.791 Y107.710 E0.05223
G1 X131.385 Y105.616 E0.07907
G1 X131.385 Y107.710 E0.06564
G1 X127.858 Y107.710 E0.11059
G1 X127.630 Y106.942 E0.02512
G1 X126.395 Y106.942 E0.03871
G1 X126.177 Y107.710 E0.02503
G1 X120.650 Y107.710 E0.17328
G1 X120.191 Y107.728 F10800.000
G1 F8640
G1 X120.611 Y104.419 E-0.76000
G1 E-0.04000 F2100.00000
G1 Z0.800 F10800.000
G1 X134.507 Y104.190
G1 Z0.200
G1 E0.80000 F2100.00000
G1 F1800
G1 X134.507 Y102.682 E0.04728
G1 X139.279 Y102.682 E0.14962
G1 X139.279 Y104.190 E0.04728
G1 X137.807 Y104.190 E0.04615
G1 X137.807 Y107.710 E0.11037
G1 X135.979 Y107.710 E0.05732
G1 X135.979 Y104.190 E0.11037
G1 X134.567 Y104.190 E0.04427
G1 X134.137 Y104.037 F10800.000
G1 F8640
G1 X134.507 Y102.682 E-0.34848
G1 X136.289 Y102.682 E-0.41152
G1 E-0.04000 F2100.00000
G1 Z0.800 F10800.000
G1 X139.340 Y102.682
G1 Z0.200
G1 E0.80000 F2100.00000
G1 F1800
G1 X143.536 Y102.682 E0.13156
G1 X143.536 Y104.190 E0.04728
G1 X141.168 Y104.190 E0.07425
G1 X141.168 Y104.410 E0.00690
G1 X143.344 Y104.410 E0.06823
G1 X143.344 Y105.790 E0.04327
G1 X141.168 Y105.790 E0.06823
G1 X141.168 Y106.202 E0.01292
G1 X143.600 Y106.202 E0.07626
G1 X143.600 Y107.710 E0.04728
G1 X139.340 Y107.710 E0.13357
G1 X139.340 Y102.742 E0.15577
G1 X139.248 Y102.293 F10800.000
G1 F8640
G1 X142.631 Y102.695 E-0.76000
G1 E-0.04000 F2100.00000
G1 Z0.800 F10800.000
G1 X143.918 Y102.742
G1 Z0.200
G1 E0.80000 F2100.00000
G1 F1800
G1 X143.918 Y102.682 E0.00188
G1 X146.470 Y102.682 E0.08002
G1 X147.065 Y102.711 E0.01866
G1 X147.528 Y102.803 E0.01482
G1 X147.896 Y102.990 E0.01295
G1 X148.188 Y103.293 E0.01318
G1 X148.375 Y103.686 E0.01365
G1 X148.436 Y104.142 E0.01443
G1 X148.388 Y104.547 E0.01278
G1 X148.243 Y104.899 E0.01194
G1 X148.014 Y105.189 E0.01160
G1 X147.717 Y105.415 E0.01169
G1 X147.626 Y105.457 E0.00315
G1 X147.852 Y105.722 E0.01093
G1 X147.984 Y105.915 E0.00732
G1 X148.715 Y107.258 E0.04796
G1 X148.715 Y102.682 E0.14348
G1 X150.372 Y102.682 E0.05195
G1 X151.787 Y104.789 E0.07957
G1 X151.787 Y102.682 E0.06606
G1 X153.551 Y102.682 E0.05531
G1 X153.551 Y107.710 E0.15765
G1 X151.885 Y107.710 E0.05224
G1 X150.479 Y105.616 E0.07907
G1 X150.479 Y107.710 E0.06564
G1 X146.919 Y107.710 E0.11164
G1 X145.951 Y105.945 E0.06312
G1 X145.874 Y105.859 E0.00360
G1 X145.746 Y105.810 E0.00430
G1 X145.746 Y107.710 E0.05958
G1 X143.918 Y107.710 E0.05732
G1 X143.918 Y102.802 E0.15389
G1 X143.863 Y102.718 F10800.000
G1 F8640
G1 X143.918 Y102.682 E-0.02771
G1 X146.470 Y102.682 E-0.58928
G1 X147.065 Y102.711 E-0.13745
G1 X147.088 Y102.715 E-0.00557
G1 E-0.04000 F2100.00000
G1 Z0.800 F10800.000
G1 X119.387 Y108.087
G1 Z0.200
G1 E0.80000 F2100.00000
G1 F1800
G1 X116.486 Y108.087 E0.09094
G1 X115.914 Y107.044 E0.03732
G1 X115.914 Y108.087 E0.03272
G1 X108.754 Y108.087 E0.22449
G1 X108.754 Y105.827 E0.07086
G1 X108.719 Y105.880 E0.00199
G1 X107.965 Y106.303 E0.02713
G1 X107.059 Y106.423 E0.02863
G1 X106.823 Y106.423 E0.00742
G1 X106.823 Y108.087 E0.05217
G1 X102.573 Y108.087 E0.13324
G1 X102.345 Y107.319 E0.02512
G1 X101.677 Y107.319 E0.02095
G1 X101.459 Y108.087 E0.02503
G1 X98.697 Y108.087 E0.08660
G1 X99.566 Y105.547 E0.08419
G1 X99.344 Y105.880 E0.01255
G1 X98.590 Y106.303 E0.02713
G1 X97.684 Y106.423 E0.02863
G1 X97.448 Y106.423 E0.00742
G1 X97.448 Y108.087 E0.05217
G1 X94.866 Y108.087 E0.08096
G1 X94.866 Y102.305 E0.18130
G1 X97.856 Y102.305 E0.09377
G1 X98.686 Y102.420 E0.02627
G1 X99.390 Y102.830 E0.02555
G1 X99.821 Y103.506 E0.02512
G1 X99.951 Y104.332 E0.02622
G1 X99.923 Y104.504 E0.00547
G1 X100.675 Y102.305 E0.07287
G1 X103.261 Y102.305 E0.08108
G1 X104.241 Y105.022 E0.09055
G1 X104.241 Y102.305 E0.08518
G1 X107.231 Y102.305 E0.09377
G1 X108.061 Y102.420 E0.02627
G1 X108.754 Y102.824 E0.02516
G1 X108.754 Y102.305 E0.01628
G1 X116.270 Y102.305 E0.23566
G1 X116.902 Y102.335 E0.01982
G1 X117.444 Y102.443 E0.01734
G1 X117.915 Y102.683 E0.01657
G1 X118.293 Y103.075 E0.01709
G1 X118.532 Y103.578 E0.01744
G1 X118.607 Y104.139 E0.01777
G1 X118.548 Y104.643 E0.01589
G1 X118.362 Y105.092 E0.01522
G1 X118.071 Y105.460 E0.01473
