; G-Code generated by Simplify3D(R) Version 4.0.0
; Jan 1, 2018 at 1:49:15 PM
; Settings Summary
;   processName,Dual Layer
;   applyToModels,ikea-korken-label-karl-johan
;   profileName,Prusa Research Original Prusa i3 MK2 (modified)
;   profileVersion,2017-07-23 22:27:18
;   baseProfile,
;   printMaterial,PLA
;   printQuality,Fast
;   printExtruders,
;   extruderName,Primary Extruder
;   extruderToolheadNumber,0
;   extruderDiameter,0.4
;   extruderAutoWidth,1
;   extruderWidth,0.48
;   extrusionMultiplier,1
;   extruderUseRetract,1
;   extruderRetractionDistance,1.5
;   extruderExtraRestartDistance,0
;   extruderRetractionZLift,0
;   extruderRetractionSpeed,1800
;   extruderUseCoasting,1
;   extruderCoastingDistance,0.2
;   extruderUseWipe,1
;   extruderWipeDistance,2
;   primaryExtruder,0
;   layerHeight,0.35
;   topSolidLayers,2
;   bottomSolidLayers,2
;   perimeterOutlines,2
;   printPerimetersInsideOut,1
;   startPointOption,2
;   startPointOriginX,0
;   startPointOriginY,0
;   sequentialIslands,0
;   spiralVaseMode,0
;   firstLayerHeightPercentage,100
;   firstLayerWidthPercentage,110
;   firstLayerUnderspeed,0.5
;   useRaft,0
;   raftExtruder,0
;   raftTopLayers,3
;   raftBaseLayers,2
;   raftOffset,3
;   raftSeparationDistance,0.14
;   raftTopInfill,100
;   aboveRaftSpeedMultiplier,0.3
;   useSkirt,1
;   skirtExtruder,0
;   skirtLayers,1
;   skirtOutlines,1
;   skirtOffset,4
;   usePrimePillar,0
;   primePillarExtruder,999
;   primePillarWidth,12
;   primePillarLocation,7
;   primePillarSpeedMultiplier,1
;   useOozeShield,0
;   oozeShieldExtruder,999
;   oozeShieldOffset,2
;   oozeShieldOutlines,1
;   oozeShieldSidewallShape,1
;   oozeShieldSidewallAngle,30
;   oozeShieldSpeedMultiplier,1
;   infillExtruder,0
;   internalInfillPattern,Fast Honeycomb
;   externalInfillPattern,Rectilinear
;   infillPercentage,15
;   outlineOverlapPercentage,20
;   infillExtrusionWidthPercentage,100
;   minInfillLength,5
;   infillLayerInterval,1
;   internalInfillAngles,0
;   overlapInternalInfillAngles,0
;   externalInfillAngles,45,-45
;   generateSupport,0
;   supportExtruder,0
;   supportInfillPercentage,25
;   supportExtraInflation,0
;   supportBaseLayers,0
;   denseSupportExtruder,0
;   denseSupportLayers,0
;   denseSupportInfillPercentage,70
;   supportLayerInterval,1
;   supportHorizontalPartOffset,0.3
;   supportUpperSeparationLayers,1
;   supportLowerSeparationLayers,1
;   supportType,0
;   supportGridSpacing,4
;   maxOverhangAngle,45
;   supportAngles,0
;   temperatureName,Primary Extruder,Heated Bed
;   temperatureNumber,0,0
;   temperatureSetpointCount,1,1
;   temperatureSetpointLayers,1,1
;   temperatureSetpointTemperatures,210,60
;   temperatureStabilizeAtStartup,1,1
;   temperatureHeatedBed,0,1
;   temperatureRelayBetweenLayers,0,0
;   temperatureRelayBetweenLoops,0,0
;   fanLayers,1,2
;   fanSpeeds,0,100
;   blipFanToFullPower,0
;   adjustSpeedForCooling,1
;   minSpeedLayerTime,15
;   minCoolingSpeedSlowdown,20
;   increaseFanForCooling,0
;   minFanLayerTime,45
;   maxCoolingFanSpeed,100
;   increaseFanForBridging,0
;   bridgingFanSpeed,100
;   use5D,1
;   relativeEdistances,0
;   allowEaxisZeroing,1
;   independentExtruderAxes,0
;   includeM10123,0
;   stickySupport,1
;   applyToolheadOffsets,0
;   gcodeXoffset,0
;   gcodeYoffset,0
;   gcodeZoffset,0
;   overrideMachineDefinition,1
;   machineTypeOverride,0
;   strokeXoverride,250
;   strokeYoverride,210
;   strokeZoverride,200
;   originOffsetXoverride,0
;   originOffsetYoverride,0
;   originOffsetZoverride,0
;   homeXdirOverride,-1
;   homeYdirOverride,-1
;   homeZdirOverride,-1
;   flipXoverride,1
;   flipYoverride,-1
;   flipZoverride,1
;   toolheadOffsets,0,0|0,0|0,0|0,0|0,0|0,0
;   overrideFirmwareConfiguration,1
;   firmwareTypeOverride,RepRap (Marlin/Repetier/Sprinter)
;   GPXconfigOverride,r2
;   baudRateOverride,250000
;   overridePrinterModels,1
;   printerModelsOverride
;   startingGcode,M115 U3.0.7 ; use the latest firmware version,G28 W ; home all axes without mesh bed leveling,G80 ; run mesh bed leveling routine,G1 Y-3.0 F1000.0 ; prepare to prime,G92 E0 ; reset extrusion distance,G1 X60.0 E9.0  F1000.0 ; priming,G1 X100.0 E12.5  F1000.0 ; priming
;   layerChangeGcode,
;   retractionGcode,
;   toolChangeGcode,
;   endingGcode,M106 S0 ; turn off cooling fan,M104 S0 ; turn off extruder,M140 S0 ; turn off bed,G1 X0 Y200 ; part removal,M84 ; disable motors
;   exportFileFormat,gcode
;   celebration,0
;   celebrationSong,Random Song
;   postProcessing,|{REPLACE "\n; layer 5," "\n;PAUSE\nM83\nG1 E-1.000000 F6000\nG91\nG1 Z5.000\nG90\nG1 X10 Y10 F6000\nM84 E0\nM0\nM82\nG92 E0\n;layer 5,"}
;   defaultSpeed,2400
;   outlineUnderspeed,0.8
;   solidInfillUnderspeed,0.8
;   supportUnderspeed,0.8
;   rapidXYspeed,4800
;   rapidZspeed,1002
;   minBridgingArea,50
;   bridgingExtraInflation,0
;   bridgingExtrusionMultiplier,1
;   bridgingSpeedMultiplier,1
;   useFixedBridgingAngle,0
;   fixedBridgingAngle,0
;   applyBridgingToPerimeters,0
;   filamentDiameters,1.75|1.75|1.75|1.75|1.75|1.75
;   filamentPricesPerKg,46|46|46|46|46|46
;   filamentDensities,1.25|1.25|1.25|1.25|1.25|1.25
;   useMinPrintHeight,1
;   minPrintHeight,0
;   useMaxPrintHeight,1
;   maxPrintHeight,235
;   useDiaphragm,0
;   diaphragmLayerInterval,20
;   robustSlicing,1
;   mergeAllIntoSolid,0
;   onlyRetractWhenCrossingOutline,1
;   retractBetweenLayers,1
;   useRetractionMinTravel,0
;   retractionMinTravel,3
;   retractWhileWiping,1
;   onlyWipeOutlines,1
;   avoidCrossingOutline,0
;   maxMovementDetourFactor,3
;   toolChangeRetractionDistance,12
;   toolChangeExtraRestartDistance,-0.5
;   toolChangeRetractionSpeed,600
;   externalThinWallType,0
;   internalThinWallType,2
;   thinWallAllowedOverlapPercentage,25
;   singleExtrusionMinLength,1
;   singleExtrusionMinPrintingWidthPercentage,50
;   singleExtrusionMaxPrintingWidthPercentage,200
;   singleExtrusionEndpointExtension,0.2
;   horizontalSizeCompensation,0
G90
M82
M106 S0
M140 S60
M190 S60
M104 S210 T0
M109 S210 T0
M115 U3.0.7 ; use the latest firmware version
G28 W ; home all axes without mesh bed leveling
G80 ; run mesh bed leveling routine
G1 Y-3.0 F1000.0 ; prepare to prime
G92 E0 ; reset extrusion distance
G1 X60.0 E9.0  F1000.0 ; priming
G1 X100.0 E12.5  F1000.0 ; priming
G92 E0
G1 E-1.5000 F1800
G1 Z0.350 F1002
; process Dual Layer
; layer 1, Z = 0.350
T0
; tool H0.350 W0.528
; skirt
G1 X75.326 Y86.360 F4800
G1 E0.0000 F540
G92 E0
G1 X75.401 Y86.335 E0.0061 F1200
G1 X83.168 Y86.335 E0.6028
G1 X83.201 Y86.262 E0.6090
G1 X83.202 Y86.258 E0.6093
G1 X84.384 Y83.818 E0.8176
G1 X84.386 Y83.815 E0.8179
G1 X84.445 Y83.701 E0.8277
G1 X84.447 Y83.698 E0.8280
G1 X85.779 Y81.333 E1.0365
G1 X85.781 Y81.330 E1.0368
G1 X85.848 Y81.221 E1.0467
G1 X85.850 Y81.217 E1.0470
G1 X87.327 Y78.940 E1.2555
G1 X87.329 Y78.937 E1.2558
G1 X87.402 Y78.832 E1.2656
G1 X87.404 Y78.829 E1.2659
G1 X89.020 Y76.648 E1.4744
G1 X89.022 Y76.645 E1.4747
G1 X89.101 Y76.545 E1.4846
G1 X89.104 Y76.542 E1.4848
G1 X90.852 Y74.466 E1.6934
G1 X90.854 Y74.463 E1.6937
G1 X90.940 Y74.368 E1.7035
G1 X90.942 Y74.365 E1.7038
G1 X92.816 Y72.401 E1.9123
G1 X92.819 Y72.399 E1.9126
G1 X92.910 Y72.309 E1.9224
G1 X92.913 Y72.306 E1.9227
G1 X94.905 Y70.463 E2.1313
G1 X94.908 Y70.461 E2.1315
G1 X95.005 Y70.377 E2.1414
G1 X95.008 Y70.374 E2.1417
G1 X97.110 Y68.659 E2.3502
G1 X97.113 Y68.656 E2.3505
G1 X97.215 Y68.578 E2.3603
G1 X97.218 Y68.576 E2.3606
G1 X99.424 Y66.995 E2.5691
G1 X99.427 Y66.992 E2.5694
G1 X99.533 Y66.921 E2.5793
G1 X99.536 Y66.919 E2.5796
G1 X101.836 Y65.478 E2.7881
G1 X101.839 Y65.476 E2.7884
G1 X101.950 Y65.411 E2.7982
G1 X101.953 Y65.409 E2.7985
G1 X104.338 Y64.114 E3.0070
G1 X104.341 Y64.112 E3.0073
G1 X104.456 Y64.054 E3.0172
G1 X104.459 Y64.053 E3.0174
G1 X106.920 Y62.908 E3.2260
G1 X106.923 Y62.906 E3.2263
G1 X107.041 Y62.856 E3.2361
G1 X107.045 Y62.854 E3.2364
G1 X109.572 Y61.865 E3.4449
G1 X109.575 Y61.863 E3.4452
G1 X109.696 Y61.820 E3.4550
G1 X109.699 Y61.819 E3.4553
G1 X112.283 Y60.989 E3.6638
G1 X112.287 Y60.987 E3.6641
G1 X112.410 Y60.952 E3.6740
G1 X112.414 Y60.951 E3.6743
G1 X115.044 Y60.283 E3.8828
G1 X115.048 Y60.282 E3.8831
G1 X115.173 Y60.254 E3.8929
G1 X115.177 Y60.253 E3.8932
G1 X117.843 Y59.750 E4.1017
G1 X117.847 Y59.749 E4.1020
G1 X117.974 Y59.729 E4.1119
G1 X117.977 Y59.729 E4.1122
G1 X120.670 Y59.392 E4.3207
G1 X120.674 Y59.392 E4.3210
G1 X120.802 Y59.380 E4.3308
G1 X120.805 Y59.379 E4.3311
G1 X123.514 Y59.211 E4.5396
G1 X123.518 Y59.210 E4.5399
G1 X123.646 Y59.206 E4.5498
G1 X123.650 Y59.206 E4.5500
G1 X126.364 Y59.206 E4.7586
G1 X126.368 Y59.206 E4.7588
G1 X126.496 Y59.210 E4.7687
G1 X126.499 Y59.211 E4.7690
G1 X129.208 Y59.379 E4.9775
G1 X129.212 Y59.380 E4.9778
G1 X129.340 Y59.392 E4.9876
G1 X129.343 Y59.392 E4.9879
G1 X132.036 Y59.729 E5.1964
G1 X132.040 Y59.729 E5.1967
G1 X132.167 Y59.749 E5.2066
G1 X132.170 Y59.750 E5.2069
G1 X134.837 Y60.253 E5.4154
G1 X134.841 Y60.254 E5.4157
G1 X134.966 Y60.282 E5.4255
G1 X134.970 Y60.283 E5.4258
G1 X137.600 Y60.951 E5.6343
G1 X137.604 Y60.952 E5.6346
G1 X137.727 Y60.987 E5.6445
G1 X137.730 Y60.989 E5.6448
G1 X140.314 Y61.819 E5.8533
G1 X140.318 Y61.820 E5.8536
G1 X140.438 Y61.863 E5.8634
G1 X140.442 Y61.865 E5.8637
G1 X142.969 Y62.854 E6.0722
G1 X142.973 Y62.856 E6.0725
G1 X143.090 Y62.906 E6.0824
G1 X143.094 Y62.908 E6.0826
G1 X145.555 Y64.053 E6.2912
G1 X145.558 Y64.054 E6.2915
G1 X145.672 Y64.112 E6.3013
G1 X145.676 Y64.114 E6.3016
G1 X148.061 Y65.409 E6.5101
G1 X148.064 Y65.411 E6.5104
G1 X148.174 Y65.476 E6.5202
G1 X148.178 Y65.478 E6.5205
G1 X150.477 Y66.919 E6.7290
G1 X150.480 Y66.921 E6.7293
G1 X150.587 Y66.992 E6.7392
G1 X150.590 Y66.995 E6.7395
G1 X152.796 Y68.576 E6.9480
G1 X152.799 Y68.578 E6.9483
G1 X152.900 Y68.656 E6.9581
G1 X152.903 Y68.659 E6.9584
G1 X155.006 Y70.374 E7.1669
G1 X155.009 Y70.377 E7.1672
G1 X155.106 Y70.461 E7.1771
G1 X155.109 Y70.463 E7.1773
G1 X157.101 Y72.306 E7.3859
G1 X157.103 Y72.309 E7.3862
G1 X157.195 Y72.399 E7.3960
G1 X157.197 Y72.401 E7.3963
G1 X159.071 Y74.365 E7.6048
G1 X159.074 Y74.368 E7.6051
G1 X159.159 Y74.463 E7.6149
G1 X159.162 Y74.466 E7.6152
G1 X160.910 Y76.542 E7.8238
G1 X160.912 Y76.545 E7.8240
G1 X160.992 Y76.645 E7.8339
G1 X160.994 Y76.648 E7.8342
G1 X162.610 Y78.829 E8.0427
G1 X162.612 Y78.832 E8.0430
G1 X162.685 Y78.937 E8.0528
G1 X162.687 Y78.940 E8.0531
G1 X164.164 Y81.217 E8.2616
G1 X164.166 Y81.221 E8.2619
G1 X164.232 Y81.330 E8.2718
G1 X164.234 Y81.333 E8.2721
G1 X165.567 Y83.698 E8.4806
G1 X165.569 Y83.701 E8.4809
G1 X165.628 Y83.815 E8.4907
G1 X165.630 Y83.818 E8.4910
G1 X166.812 Y86.258 E8.6993
G1 X166.813 Y86.262 E8.6996
G1 X166.846 Y86.335 E8.7058
G1 X174.599 Y86.335 E9.3015
G1 X174.674 Y86.360 E9.3075
G1 X176.885 Y88.045 E9.5211
G1 X176.929 Y88.110 E9.5271
G1 X178.022 Y92.081 E9.8436
G1 X178.023 Y92.084 E9.8438
G1 X178.049 Y92.190 E9.8522
G1 X178.050 Y92.193 E9.8525
G1 X178.644 Y94.912 E10.0663
G1 X178.645 Y94.915 E10.0665
G1 X178.666 Y95.022 E10.0749
G1 X178.666 Y95.026 E10.0752
G1 X179.116 Y97.772 E10.2890
G1 X179.117 Y97.775 E10.2893
G1 X179.132 Y97.884 E10.2977
G1 X179.132 Y97.887 E10.2979
G1 X179.436 Y100.653 E10.5117
G1 X179.436 Y100.657 E10.5120
G1 X179.445 Y100.766 E10.5204
G1 X179.445 Y100.769 E10.5206
G1 X179.602 Y103.548 E10.7345
G1 X179.602 Y103.551 E10.7347
G1 X179.605 Y103.660 E10.7431
G1 X179.605 Y103.663 E10.7434
G1 X179.614 Y106.446 E10.9572
G1 X179.614 Y106.450 E10.9574
G1 X179.611 Y106.559 E10.9658
G1 X179.611 Y106.562 E10.9661
G1 X179.472 Y109.342 E11.1799
G1 X179.472 Y109.345 E11.1802
G1 X179.464 Y109.454 E11.1886
G1 X179.464 Y109.457 E11.1888
G1 X179.177 Y112.226 E11.4027
G1 X179.177 Y112.229 E11.4029
G1 X179.163 Y112.337 E11.4113
G1 X179.163 Y112.340 E11.4115
G1 X178.730 Y115.090 E11.6254
G1 X178.730 Y115.093 E11.6256
G1 X178.710 Y115.200 E11.6340
G1 X178.709 Y115.204 E11.6343
G1 X178.131 Y117.926 E11.8481
G1 X178.131 Y117.929 E11.8483
G1 X178.105 Y118.036 E11.8567
G1 X178.104 Y118.039 E11.8570
G1 X177.035 Y122.023 E12.1740
G1 X176.991 Y122.089 E12.1800
G1 X174.774 Y123.790 E12.3947
G1 X174.699 Y123.815 E12.4008
G1 X166.757 Y123.815 E13.0110
G1 X166.268 Y124.909 E13.1031
G1 X166.267 Y124.913 E13.1033
G1 X166.211 Y125.028 E13.1131
G1 X166.210 Y125.031 E13.1134
G1 X164.951 Y127.435 E13.3219
G1 X164.950 Y127.438 E13.3222
G1 X164.887 Y127.550 E13.3320
G1 X164.885 Y127.553 E13.3323
G1 X163.479 Y129.875 E13.5409
G1 X163.477 Y129.878 E13.5411
G1 X163.408 Y129.986 E13.5510
G1 X163.405 Y129.989 E13.5513
G1 X161.858 Y132.219 E13.7598
G1 X161.856 Y132.222 E13.7601
G1 X161.780 Y132.325 E13.7699
G1 X161.778 Y132.328 E13.7702
G1 X160.095 Y134.457 E13.9787
G1 X160.093 Y134.460 E13.9790
G1 X160.010 Y134.558 E13.9889
G1 X160.008 Y134.561 E13.9892
G1 X158.196 Y136.582 E14.1977
G1 X158.193 Y136.584 E14.1980
G1 X158.105 Y136.677 E14.2078
G1 X158.102 Y136.680 E14.2081
G1 X156.168 Y138.584 E14.4166
G1 X156.165 Y138.586 E14.4169
G1 X156.071 Y138.673 E14.4268
G1 X156.069 Y138.676 E14.4270
G1 X154.020 Y140.456 E14.6356
G1 X154.017 Y140.459 E14.6358
G1 X153.918 Y140.540 E14.6457
G1 X153.915 Y140.542 E14.6460
G1 X151.759 Y142.191 E14.8545
G1 X151.756 Y142.194 E14.8548
G1 X151.652 Y142.268 E14.8646
G1 X151.649 Y142.270 E14.8649
G1 X149.396 Y143.783 E15.0734
G1 X149.392 Y143.785 E15.0737
G1 X149.284 Y143.853 E15.0836
G1 X149.281 Y143.855 E15.0839
G1 X146.937 Y145.224 E15.2924
G1 X146.934 Y145.226 E15.2927
G1 X146.821 Y145.287 E15.3025
G1 X146.818 Y145.289 E15.3028
G1 X144.394 Y146.509 E15.5113
G1 X144.391 Y146.511 E15.5116
G1 X144.275 Y146.565 E15.5215
G1 X144.271 Y146.567 E15.5218
G1 X141.776 Y147.634 E15.7303
G1 X141.773 Y147.636 E15.7306
G1 X141.653 Y147.683 E15.7404
G1 X141.650 Y147.684 E15.7407
G1 X139.093 Y148.594 E15.9492
G1 X139.090 Y148.596 E15.9495
G1 X138.968 Y148.635 E15.9593
G1 X138.964 Y148.636 E15.9596
G1 X136.356 Y149.386 E16.1682
G1 X136.352 Y149.387 E16.1684
G1 X136.228 Y149.418 E16.1783
G1 X136.224 Y149.419 E16.1786
G1 X133.574 Y150.006 E16.3871
G1 X133.570 Y150.006 E16.3874
G1 X133.445 Y150.030 E16.3972
G1 X133.441 Y150.031 E16.3975
G1 X130.760 Y150.451 E16.6060
G1 X130.756 Y150.452 E16.6063
G1 X130.629 Y150.468 E16.6162
G1 X130.625 Y150.468 E16.6165
G1 X127.923 Y150.721 E16.8250
G1 X127.919 Y150.721 E16.8253
G1 X127.791 Y150.729 E16.8351
G1 X127.787 Y150.729 E16.8354
G1 X125.075 Y150.814 E17.0439
G1 X125.071 Y150.814 E17.0442
G1 X124.943 Y150.814 E17.0541
G1 X124.939 Y150.814 E17.0544
G1 X122.226 Y150.729 E17.2629
G1 X122.223 Y150.729 E17.2632
G1 X122.095 Y150.721 E17.2730
G1 X122.091 Y150.721 E17.2733
G1 X119.389 Y150.468 E17.4818
G1 X119.385 Y150.468 E17.4821
G1 X119.258 Y150.452 E17.4920
G1 X119.254 Y150.451 E17.4922
G1 X116.573 Y150.031 E17.7008
G1 X116.569 Y150.030 E17.7010
G1 X116.443 Y150.006 E17.7109
G1 X116.440 Y150.006 E17.7112
G1 X113.790 Y149.419 E17.9197
G1 X113.786 Y149.418 E17.9200
G1 X113.662 Y149.387 E17.9298
G1 X113.658 Y149.386 E17.9301
G1 X111.050 Y148.636 E18.1387
G1 X111.046 Y148.635 E18.1389
G1 X110.924 Y148.596 E18.1488
G1 X110.921 Y148.594 E18.1491
G1 X108.364 Y147.684 E18.3576
G1 X108.361 Y147.683 E18.3579
G1 X108.241 Y147.636 E18.3677
G1 X108.238 Y147.634 E18.3680
G1 X105.743 Y146.567 E18.5765
G1 X105.739 Y146.565 E18.5768
G1 X105.623 Y146.511 E18.5867
G1 X105.620 Y146.509 E18.5869
G1 X103.196 Y145.289 E18.7955
G1 X103.192 Y145.287 E18.7958
G1 X103.080 Y145.226 E18.8056
G1 X103.076 Y145.224 E18.8059
G1 X100.733 Y143.855 E19.0144
G1 X100.730 Y143.853 E19.0147
G1 X100.621 Y143.785 E19.0245
G1 X100.618 Y143.783 E19.0248
G1 X98.364 Y142.270 E19.2334
G1 X98.361 Y142.268 E19.2336
G1 X98.257 Y142.194 E19.2435
G1 X98.254 Y142.191 E19.2438
G1 X96.099 Y140.542 E19.4523
G1 X96.096 Y140.540 E19.4526
G1 X95.997 Y140.459 E19.4624
G1 X95.994 Y140.456 E19.4627
G1 X93.945 Y138.676 E19.6712
G1 X93.942 Y138.673 E19.6715
G1 X93.848 Y138.586 E19.6814
G1 X93.846 Y138.584 E19.6817
G1 X91.912 Y136.680 E19.8902
G1 X91.909 Y136.677 E19.8905
G1 X91.821 Y136.584 E19.9003
G1 X91.818 Y136.582 E19.9006
G1 X90.006 Y134.561 E20.1091
G1 X90.004 Y134.558 E20.1094
G1 X89.921 Y134.460 E20.1193
