; generated by Slic3r Prusa Edition 1.40.0+ on 2018-09-13 at 15:29:38

; 

; external perimeters extrusion width = 0.60mm
; perimeters extrusion width = 0.43mm
; infill extrusion width = 0.45mm
; solid infill extrusion width = 0.70mm
; top infill extrusion width = 0.43mm
; first layer extrusion width = 0.42mm

M107
M115 U3.1.0 ; tell printer latest fw version
M201 X9000 Y9000 Z500 E10000 ; sets maximum accelerations, mm/sec^2
M203 X500 Y500 Z12 E120 ; sets maximum feedrates, mm/sec
M204 S1500 T1500 ; sets acceleration (S) and retract acceleration (T)
M205 X10 Y10 Z0.2 E2.5 ; sets the jerk limits, mm/sec
M205 S0 T0 ; sets the minimum extruding and travel feed rate, mm/sec
M83  ; extruder relative mode
M104 S210 ; set extruder temp
M140 S55 ; set bed temp
M190 S55 ; wait for bed temp
M109 S210 ; wait for extruder temp
G28 W ; home all without mesh bed level
G80 ; mesh bed leveling
G1 Y-3.0 F1000.0 ; go outside print area
G92 E0.0
G1 X60.0 E9.0  F1000.0 ; intro line
G1 X100.0 E12.5  F1000.0 ; intro line
G92 E0.0
M900 K30; Filament gcode
G21 ; set units to millimeters
G90 ; use absolute coordinates
M83 ; use relative distances for extrusion
;BEFORE_LAYER_CHANGE
G92 E0.0
;0.2


G1 E-0.80000 F2100.00000
G1 Z0.600 F10800.000
;AFTER_LAYER_CHANGE
;0.2
G1 X14.217 Y115.961
G1 Z0.200
G1 E0.80000 F2100.00000
M204 S1000
G1 F1800
G1 X13.592 Y113.742 E0.07228
G1 X13.194 Y111.864 E0.06020
G1 X12.892 Y109.942 E0.06100
G1 X12.685 Y107.920 E0.06373
G1 X12.591 Y106.020 E0.05965
G1 X12.596 Y104.074 E0.06100
G1 X12.707 Y102.106 E0.06181
G1 X12.914 Y100.212 E0.05974
G1 X13.243 Y98.195 E0.06409
G1 X13.657 Y96.305 E0.06066
G1 X14.186 Y94.387 E0.06238
G1 X14.410 Y93.900 E0.01680
G1 X14.746 Y93.482 E0.01680
G1 X28.709 Y81.063 E0.58593
G1 X104.193 Y15.061 E3.14390
G1 X105.716 Y13.817 E0.06166
G1 X107.387 Y12.622 E0.06441
G1 X109.003 Y11.611 E0.05977
G1 X110.675 Y10.701 E0.05968
G1 X112.526 Y9.837 E0.06404
G1 X114.422 Y9.097 E0.06381
G1 X116.238 Y8.515 E0.05980
G1 X118.086 Y8.044 E0.05980
G1 X120.093 Y7.662 E0.06404
G1 X122.117 Y7.412 E0.06395
G1 X124.020 Y7.294 E0.05977
G1 X125.927 Y7.293 E0.05980
G1 X127.958 Y7.417 E0.06381
G1 X129.981 Y7.673 E0.06392
G1 X131.858 Y8.028 E0.05991
G1 X133.704 Y8.496 E0.05969
G1 X135.645 Y9.117 E0.06392
G1 X137.547 Y9.865 E0.06407
G1 X139.272 Y10.669 E0.05966
G1 X140.948 Y11.578 E0.05980
G1 X142.677 Y12.658 E0.06393
G1 X144.310 Y13.830 E0.06301
G1 X145.816 Y15.061 E0.06100
G1 X221.300 Y81.063 E3.14390
G1 X235.200 Y93.431 E0.58338
G1 X235.719 Y94.140 E0.02754
G1 X236.339 Y96.288 E0.07008
G1 X236.770 Y98.264 E0.06341
G1 X237.288 Y102.049 E0.11978
G1 X237.404 Y104.097 E0.06433
G1 X237.410 Y171.987 E2.12865
G1 X237.312 Y173.975 E0.06239
G1 X237.117 Y175.870 E0.05974
G1 X236.796 Y177.911 E0.06478
G1 X236.399 Y179.782 E0.05997
G1 X235.879 Y181.714 E0.06272
G1 X235.647 Y182.213 E0.01726
G1 X235.302 Y182.637 E0.01714
G1 X220.520 Y195.594 E0.61633
G1 X218.970 Y196.779 E0.06118
G1 X217.331 Y197.878 E0.06186
G1 X215.628 Y198.874 E0.06186
G1 X213.852 Y199.767 E0.06232
G1 X212.055 Y200.536 E0.06129
G1 X210.255 Y201.178 E0.05991
G1 X208.232 Y201.760 E0.06601
G1 X206.370 Y202.170 E0.05977
G1 X204.421 Y202.476 E0.06186
G1 X202.460 Y202.659 E0.06175
G1 X200.503 Y202.721 E0.06141
G1 X124.950 Y202.720 E2.36890
G1 X123.035 Y202.660 E0.06007
G1 X121.136 Y202.483 E0.05980
G1 X119.114 Y202.169 E0.06415
G1 X117.195 Y201.744 E0.06163
G1 X115.358 Y201.218 E0.05991
G1 X113.389 Y200.517 E0.06553
G1 X111.562 Y199.731 E0.06235
G1 X109.860 Y198.872 E0.05977
G1 X108.213 Y197.911 E0.05980
G1 X106.521 Y196.780 E0.06381
G1 X104.918 Y195.550 E0.06335
G1 X14.765 Y116.697 E3.75538
G1 X14.252 Y116.009 E0.02690
G1 F8640
G1 X13.592 Y113.742 E-0.54523
G1 X13.399 Y112.832 E-0.21477
G1 E-0.04000 F2100.00000
G1 Z0.800 F10800.000
G1 X101.747 Y114.465
G1 Z0.200
G1 E0.80000 F2100.00000
G1 F1800
G1 X148.263 Y114.465 E1.45847
G1 X147.503 Y116.098 E0.05648
G1 X146.731 Y117.543 E0.05138
G1 X145.864 Y118.938 E0.05147
G1 X144.908 Y120.272 E0.05147
G1 X143.866 Y121.541 E0.05147
G1 X142.744 Y122.739 E0.05147
G1 X141.546 Y123.861 E0.05147
G1 X140.277 Y124.903 E0.05147
G1 X138.942 Y125.859 E0.05147
G1 X137.548 Y126.726 E0.05147
G1 X136.100 Y127.500 E0.05147
G1 X134.605 Y128.177 E0.05147
G1 X133.069 Y128.756 E0.05147
G1 X132.646 Y128.884 E0.01384
G1 X131.498 Y129.232 E0.03763
G1 X129.899 Y129.605 E0.05147
G1 X128.279 Y129.872 E0.05147
G1 X126.645 Y130.033 E0.05147
G1 X125.005 Y130.087 E0.05147
G1 X123.364 Y130.033 E0.05147
G1 X122.925 Y129.990 E0.01384
G1 X121.730 Y129.872 E0.03763
G1 X120.110 Y129.605 E0.05147
G1 X118.512 Y129.232 E0.05147
G1 X116.941 Y128.756 E0.05147
G1 X115.404 Y128.177 E0.05147
G1 X113.909 Y127.500 E0.05147
G1 X112.461 Y126.726 E0.05147
G1 X111.067 Y125.859 E0.05147
G1 X109.733 Y124.903 E0.05147
G1 X108.464 Y123.861 E0.05147
G1 X107.265 Y122.739 E0.05147
G1 X106.143 Y121.541 E0.05147
G1 X105.102 Y120.272 E0.05147
G1 X104.146 Y118.938 E0.05147
G1 X103.279 Y117.543 E0.05147
G1 X102.506 Y116.098 E0.05138
G1 X101.772 Y114.519 E0.05460
G1 X102.338 Y114.842 F10800.000
G1 F1800
G1 X147.671 Y114.842 E1.42140
G1 X147.166 Y115.930 E0.03762
G1 X146.404 Y117.355 E0.05066
G1 X145.550 Y118.728 E0.05070
G1 X144.608 Y120.042 E0.05070
G1 X143.582 Y121.292 E0.05070
G1 X142.477 Y122.472 E0.05070
G1 X141.297 Y123.578 E0.05070
G1 X140.047 Y124.604 E0.05070
G1 X138.733 Y125.545 E0.05070
G1 X137.360 Y126.399 E0.05070
G1 X135.934 Y127.161 E0.05070
G1 X134.461 Y127.829 E0.05070
G1 X132.947 Y128.398 E0.05070
G1 X132.537 Y128.523 E0.01346
G1 X131.400 Y128.868 E0.03724
G1 X129.825 Y129.235 E0.05070
G1 X128.230 Y129.498 E0.05070
G1 X126.621 Y129.657 E0.05070
G1 X125.005 Y129.710 E0.05070
G1 X123.389 Y129.657 E0.05070
G1 X122.962 Y129.615 E0.01346
G1 X121.779 Y129.498 E0.03724
G1 X120.184 Y129.235 E0.05070
G1 X118.609 Y128.868 E0.05070
G1 X117.062 Y128.398 E0.05070
G1 X115.549 Y127.829 E0.05070
G1 X114.076 Y127.161 E0.05070
G1 X112.650 Y126.399 E0.05070
G1 X111.277 Y125.545 E0.05070
G1 X109.962 Y124.604 E0.05070
G1 X108.712 Y123.578 E0.05070
G1 X107.532 Y122.472 E0.05070
G1 X106.427 Y121.292 E0.05070
G1 X105.401 Y120.042 E0.05070
G1 X104.459 Y118.728 E0.05070
G1 X103.605 Y117.355 E0.05070
G1 X102.844 Y115.930 E0.05066
G1 X102.363 Y114.896 E0.03574
G1 X102.276 Y114.447 F10800.000
G1 F8640
G1 X105.655 Y114.892 E-0.76000
G1 E-0.04000 F2100.00000
G1 Z0.800 F10800.000
G1 X93.866 Y102.305
G1 Z0.200
G1 E0.80000 F2100.00000
G1 F1800
G1 X96.856 Y102.305 E0.09377
G1 X97.686 Y102.420 E0.02627
G1 X98.390 Y102.830 E0.02555
G1 X98.443 Y102.914 E0.00310
G1 X98.443 Y102.305 E0.01909
G1 X103.713 Y102.305 E0.16522
G1 X103.959 Y103.285 E0.03170
G1 X104.203 Y102.305 E0.03168
G1 X113.460 Y102.305 E0.29024
G1 X114.297 Y103.551 E0.04707
G1 X114.297 Y102.305 E0.03907
G1 X121.637 Y102.305 E0.23015
G1 X121.637 Y104.068 E0.05527
G1 X122.240 Y102.305 E0.05842
G1 X124.826 Y102.305 E0.08108
G1 X126.912 Y108.087 E0.19273
G1 X124.139 Y108.087 E0.08694
G1 X123.911 Y107.319 E0.02512
G1 X123.242 Y107.319 E0.02095
G1 X123.024 Y108.087 E0.02503
G1 X120.263 Y108.087 E0.08660
G1 X121.466 Y104.567 E0.11664
G1 X120.165 Y104.567 E0.04080
G1 X120.165 Y108.087 E0.11037
G1 X117.583 Y108.087 E0.08096
G1 X117.583 Y104.567 E0.11037
G1 X116.815 Y104.567 E0.02408
G1 X116.815 Y108.087 E0.11037
G1 X114.571 Y108.087 E0.07036
G1 X113.743 Y106.854 E0.04657
G1 X113.743 Y108.087 E0.03866
G1 X98.443 Y108.087 E0.47972
G1 X98.443 Y105.731 E0.07388
G1 X98.344 Y105.880 E0.00561
G1 X97.590 Y106.303 E0.02713
G1 X96.684 Y106.423 E0.02863
G1 X96.448 Y106.423 E0.00742
G1 X96.448 Y108.087 E0.05217
G1 X93.866 Y108.087 E0.08096
G1 X93.866 Y102.365 E0.17941
G1 F8640
G1 X96.856 Y102.305 E-0.69066
G1 X97.154 Y102.346 E-0.06934
G1 E-0.04000 F2100.00000
G1 Z0.800 F10800.000
G1 X111.602 Y102.682
G1 Z0.200
G1 E0.80000 F2100.00000
G1 F1800
G1 X113.259 Y102.682 E0.05195
G1 X114.674 Y104.789 E0.07957
G1 X114.674 Y102.682 E0.06606
G1 X116.438 Y102.682 E0.05531
G1 X116.438 Y107.710 E0.15765
G1 X114.772 Y107.710 E0.05223
G1 X113.366 Y105.616 E0.07908
G1 X113.366 Y107.710 E0.06564
G1 X111.602 Y107.710 E0.05531
G1 X111.602 Y102.742 E0.15577
G1 X111.557 Y102.285 F10800.000
G1 X111.284 Y102.742
G1 F1800
G1 X111.284 Y104.190 E0.04540
G1 X108.916 Y104.190 E0.07425
G1 X108.916 Y104.410 E0.00690
G1 X111.092 Y104.410 E0.06823
G1 X111.092 Y105.790 E0.04327
G1 X108.916 Y105.790 E0.06823
G1 X108.916 Y106.202 E0.01292
G1 X111.348 Y106.202 E0.07625
G1 X111.348 Y107.710 E0.04728
G1 X107.088 Y107.710 E0.13357
G1 X107.088 Y102.682 E0.15765
G1 X111.284 Y102.682 E0.13156
G1 X111.668 Y102.628 F10800.000
G1 F8640
G1 X111.284 Y104.190 E-0.34820
G1 X109.501 Y104.190 E-0.41180
G1 E-0.04000 F2100.00000
G1 Z0.800 F10800.000
G1 X106.729 Y102.682
G1 Z0.200
G1 E0.80000 F2100.00000
G1 F1800
G1 X106.729 Y107.710 E0.15765
G1 X105.157 Y107.710 E0.04929
G1 X105.157 Y105.720 E0.06238
G1 X104.662 Y107.710 E0.06428
G1 X103.265 Y107.710 E0.04380
G1 X102.761 Y105.703 E0.06487
G1 X102.761 Y107.710 E0.06292
G1 X101.189 Y107.710 E0.04929
G1 X101.189 Y102.682 E0.15765
G1 X103.419 Y102.682 E0.06991
G1 X103.961 Y104.840 E0.06977
G1 X104.498 Y102.682 E0.06973
G1 X106.669 Y102.682 E0.06808
G1 X107.119 Y102.594 F10800.000
G1 F8640
G1 X106.708 Y105.973 E-0.76000
G1 E-0.04000 F2100.00000
G1 Z0.800 F10800.000
G1 X100.648 Y102.682
G1 Z0.200
G1 E0.80000 F2100.00000
G1 F1800
G1 X100.648 Y107.710 E0.15765
G1 X98.820 Y107.710 E0.05732
G1 X98.820 Y102.682 E0.15765
G1 X100.588 Y102.682 E0.05543
G1 X101.016 Y102.524 F10800.000
G1 F8640
G1 X100.628 Y105.973 E-0.76000
G1 E-0.04000 F2100.00000
G1 Z0.800 F10800.000
G1 X94.243 Y102.682
G1 Z0.200
G1 E0.80000 F2100.00000
G1 F1800
G1 X96.830 Y102.682 E0.08113
G1 X97.561 Y102.783 E0.02312
G1 X98.121 Y103.110 E0.02035
G1 X98.461 Y103.642 E0.01979
G1 X98.569 Y104.330 E0.02183
G1 X98.451 Y105.039 E0.02255
G1 X98.081 Y105.595 E0.02094
G1 X97.468 Y105.939 E0.02202
G1 X96.660 Y106.046 E0.02558
G1 X96.071 Y106.046 E0.01846
G1 X96.071 Y107.710 E0.05217
G1 X94.243 Y107.710 E0.05732
G1 X94.243 Y102.742 E0.15577
G1 X94.196 Y102.285 F10800.000
G1 F8640
G1 X96.830 Y102.682 E-0.59762
G1 X97.527 Y102.778 E-0.16238
G1 E-0.04000 F2100.00000
G1 Z0.800 F10800.000
G1 X116.488 Y102.742
G1 Z0.200
G1 E0.80000 F2100.00000
G1 F1800
G1 X116.488 Y102.682 E0.00188
G1 X121.260 Y102.682 E0.14962
G1 X121.260 Y104.190 E0.04728
G1 X119.788 Y104.190 E0.04615
G1 X119.788 Y107.710 E0.11037
G1 X117.960 Y107.710 E0.05732
G1 X117.960 Y104.190 E0.11037
G1 X116.488 Y104.190 E0.04615
G1 X116.488 Y102.802 E0.04352
G1 X116.430 Y102.727 F10800.000
G1 F8640
G1 X116.488 Y102.682 E-0.02771
G1 X119.660 Y102.682 E-0.73229
G1 E-0.04000 F2100.00000
G1 Z0.800 F10800.000
G1 X122.510 Y102.682
G1 Z0.200
G1 E0.80000 F2100.00000
G1 F1800
G1 X124.561 Y102.682 E0.06433
G1 X126.375 Y107.710 E0.16759
G1 X124.420 Y107.710 E0.06129
G1 X124.192 Y106.942 E0.02512
G1 X122.957 Y106.942 E0.03871
G1 X122.739 Y107.710 E0.02503
G1 X120.790 Y107.710 E0.06112
G1 X122.490 Y102.739 E0.16473
G1 X122.504 Y102.282 F10800.000
G1 F8640
G1 X124.561 Y102.682 E-0.47839
G1 X124.975 Y103.829 E-0.28161
G1 E-0.04000 F2100.00000
G1 Z0.800 F10800.000
G1 X148.307 Y95.639
G1 Z0.200
G1 E0.80000 F2100.00000
G1 F1800
G1 X101.702 Y95.639 E1.46127
G1 X102.506 Y93.902 E0.06000
G1 X103.279 Y92.457 E0.05140
G1 X104.146 Y91.062 E0.05147
G1 X105.102 Y89.728 E0.05147
G1 X106.143 Y88.459 E0.05147
G1 X107.265 Y87.261 E0.05147
G1 X108.464 Y86.139 E0.05147
G1 X109.733 Y85.097 E0.05147
G1 X111.067 Y84.141 E0.05147
G1 X112.461 Y83.274 E0.05147
G1 X113.909 Y82.500 E0.05147
G1 X115.404 Y81.823 E0.05147
G1 X116.941 Y81.244 E0.05147
G1 X118.512 Y80.768 E0.05147
G1 X120.110 Y80.395 E0.05147
G1 X121.730 Y80.128 E0.05147
G1 X123.364 Y79.967 E0.05147
G1 X125.005 Y79.913 E0.05147
G1 X126.645 Y79.967 E0.05147
G1 X128.279 Y80.128 E0.05147
G1 X129.899 Y80.395 E0.05147
G1 X131.498 Y80.768 E0.05147
G1 X133.069 Y81.244 E0.05147
G1 X134.605 Y81.823 E0.05147
G1 X136.100 Y82.500 E0.05147
G1 X137.548 Y83.274 E0.05147
G1 X138.942 Y84.141 E0.05147
G1 X140.277 Y85.097 E0.05147
G1 X141.546 Y86.139 E0.05147
G1 X142.744 Y87.261 E0.05147
G1 X143.866 Y88.459 E0.05147
G1 X144.908 Y89.728 E0.05147
G1 X145.864 Y91.062 E0.05147
G1 X146.731 Y92.457 E0.05147
G1 X147.503 Y93.902 E0.05140
G1 X148.282 Y95.584 E0.05812
G1 X147.717 Y95.262 F10800.000
G1 F1800
G1 X102.292 Y95.262 E1.42427
G1 X102.844 Y94.070 E0.04116
G1 X103.605 Y92.645 E0.05067
G1 X104.459 Y91.272 E0.05070
G1 X105.401 Y89.958 E0.05070
G1 X106.427 Y88.708 E0.05070
G1 X107.532 Y87.528 E0.05070
G1 X108.712 Y86.422 E0.05070
G1 X109.962 Y85.396 E0.05070
G1 X111.277 Y84.455 E0.05070
G1 X112.650 Y83.601 E0.05070
G1 X114.076 Y82.839 E0.05070
G1 X115.549 Y82.171 E0.05070
G1 X117.062 Y81.602 E0.05070
G1 X118.609 Y81.132 E0.05070
G1 X120.184 Y80.765 E0.05070
G1 X121.779 Y80.502 E0.05070
G1 X123.389 Y80.343 E0.05070
G1 X125.005 Y80.290 E0.05070
G1 X126.621 Y80.343 E0.05070
G1 X128.230 Y80.502 E0.05070
G1 X129.825 Y80.765 E0.05070
G1 X131.400 Y81.132 E0.05070
G1 X132.947 Y81.602 E0.05070
G1 X134.461 Y82.171 E0.05070
G1 X135.934 Y82.839 E0.05070
G1 X137.360 Y83.601 E0.05070
G1 X138.733 Y84.455 E0.05070
G1 X140.047 Y85.396 E0.05070
G1 X141.297 Y86.422 E0.05070
G1 X142.477 Y87.528 E0.05070
G1 X143.582 Y88.708 E0.05070
G1 X144.608 Y89.958 E0.05070
G1 X145.550 Y91.272 E0.05070
G1 X146.404 Y92.645 E0.05070
G1 X147.166 Y94.070 E0.05067
G1 X147.692 Y95.207 E0.03928
G1 X147.779 Y95.657 F10800.000
G1 F8640
G1 X144.401 Y95.211 E-0.76000
G1 E-0.04000 F2100.00000
G1 Z0.800 F10800.000
G1 X147.692 Y102.305
G1 Z0.200
G1 E0.80000 F2100.00000
G1 F1800
G1 X150.171 Y102.305 E0.07772
G1 X151.215 Y105.199 E0.09647
G1 X151.215 Y102.305 E0.09075
G1 X154.153 Y102.305 E0.09213
G1 X154.784 Y102.335 E0.01982
G1 X155.327 Y102.443 E0.01734
G1 X155.798 Y102.683 E0.01657
G1 X156.176 Y103.075 E0.01709
G1 X156.415 Y103.578 E0.01744
G1 X156.489 Y104.140 E0.01777
G1 X156.430 Y104.643 E0.01589
G1 X156.245 Y105.092 E0.01522
G1 X155.954 Y105.460 E0.01473
G1 X155.855 Y105.536 E0.00390
G1 X155.980 Y105.717 E0.00690
G1 X157.270 Y108.087 E0.08460
G1 X154.369 Y108.087 E0.09094
G1 X153.797 Y107.044 E0.03731
G1 X153.797 Y108.087 E0.03271
G1 X149.483 Y108.087 E0.13525
G1 X149.255 Y107.319 E0.02512
G1 X148.587 Y107.319 E0.02095
G1 X148.369 Y108.087 E0.02503
G1 X140.390 Y108.087 E0.25018
G1 X140.390 Y107.012 E0.03370
G1 X140.151 Y107.347 E0.01289
G1 X139.570 Y107.796 E0.02304
G1 X138.852 Y108.069 E0.02407
G1 X138.032 Y108.154 E0.02587
G1 X137.211 Y108.081 E0.02583
G1 X136.498 Y107.848 E0.02353
G1 X135.901 Y107.428 E0.02288
G1 X135.436 Y106.828 E0.02379
G1 X135.398 Y106.727 E0.00338
G1 X135.398 Y108.087 E0.04264
G1 X132.815 Y108.087 E0.08096
G1 X132.815 Y107.114 E0.03050
G1 X132.535 Y107.440 E0.01349
G1 X132.116 Y107.751 E0.01635
G1 X131.669 Y107.937 E0.01518
G1 X131.133 Y108.051 E0.01717
G1 X130.671 Y108.087 E0.01454
G1 X127.954 Y108.087 E0.08519
G1 X127.954 Y102.305 E0.18130
G1 X130.670 Y102.305 E0.08516
G1 X131.316 Y102.354 E0.02029
G1 X131.889 Y102.518 E0.01870
G1 X132.367 Y102.799 E0.01738
G1 X132.750 Y103.179 E0.01692
G1 X132.815 Y103.283 E0.00385
G1 X132.815 Y102.305 E0.03067
G1 X135.398 Y102.305 E0.08096
G1 X135.398 Y103.731 E0.04471
G1 X135.829 Y103.030 E0.02579
G1 X136.781 Y102.424 E0.03539
G1 X137.969 Y102.234 E0.03774
G1 X139.176 Y102.420 E0.03829
G1 X140.133 Y103.016 E0.03535
G1 X140.390 Y103.431 E0.01530
G1 X140.390 Y102.305 E0.03531
G1 X143.291 Y102.305 E0.09096
G1 X143.537 Y103.285 E0.03170
G1 X143.781 Y102.305 E0.03168
G1 X146.684 Y102.305 E0.09102
G1 X146.684 Y104.938 E0.08257
G1 X147.585 Y102.305 E0.08726
G1 X147.632 Y102.305 E0.00148
G1 F8640
G1 X150.171 Y102.305 E-0.58622
G1 X150.426 Y103.013 E-0.17378
G1 E-0.04000 F2100.00000
G1 Z0.800 F10800.000
G1 X139.859 Y103.290
G1 Z0.200
G1 E0.80000 F2100.00000
G1 F1800
G1 X140.364 Y104.105 E0.03006
G1 X140.526 Y105.155 E0.03334
G1 X140.455 Y105.937 E0.02460
G1 X140.238 Y106.576 E0.02117
G1 X139.877 Y107.082 E0.01951
G1 X139.384 Y107.463 E0.01953
G1 X138.764 Y107.699 E0.02078
G1 X138.029 Y107.775 E0.02319
G1 X137.287 Y107.709 E0.02334
G1 X136.669 Y107.507 E0.02040
G1 X136.165 Y107.152 E0.01934
G1 X135.768 Y106.640 E0.02029
