; G-Code generated by Simplify3D(R) Version 4.0.0
; Oct 27, 2017 at 12:09:41 PM
; Settings Summary
;   processName,Fast
;   applyToModels,ikea-korken-13cl-pc-vampire,ikea-korken-13cl-pc-vampire(2),ikea-korken-13cl-pc-vampire(4),ikea-korken-13cl-pc-vampire(5),ikea-korken-13cl-pc-vampire(6),ikea-korken-13cl-pc-vampire(7),ikea-korken-13cl-pc-vampire(3),ikea-korken-13cl-pc-vampire(8),ikea-korken-13cl-pc-vampire(9)
;   profileName,Prusa Research Original Prusa i3 MK2 (modified)
;   profileVersion,2017-07-23 22:27:18
;   baseProfile,
;   printMaterial,PLA
;   printQuality,Fast
;   printExtruders,
;   extruderName,Primary Extruder
;   extruderToolheadNumber,0
;   extruderDiameter,0.4
;   extruderAutoWidth,1
;   extruderWidth,0.48
;   extrusionMultiplier,1
;   extruderUseRetract,1
;   extruderRetractionDistance,1.5
;   extruderExtraRestartDistance,0
;   extruderRetractionZLift,0
;   extruderRetractionSpeed,1800
;   extruderUseCoasting,1
;   extruderCoastingDistance,0.2
;   extruderUseWipe,1
;   extruderWipeDistance,2
;   primaryExtruder,0
;   layerHeight,0.35
;   topSolidLayers,2
;   bottomSolidLayers,2
;   perimeterOutlines,2
;   printPerimetersInsideOut,1
;   startPointOption,2
;   startPointOriginX,0
;   startPointOriginY,0
;   sequentialIslands,0
;   spiralVaseMode,0
;   firstLayerHeightPercentage,100
;   firstLayerWidthPercentage,100
;   firstLayerUnderspeed,0.5
;   useRaft,0
;   raftExtruder,0
;   raftTopLayers,3
;   raftBaseLayers,2
;   raftOffset,3
;   raftSeparationDistance,0.14
;   raftTopInfill,100
;   aboveRaftSpeedMultiplier,0.3
;   useSkirt,1
;   skirtExtruder,0
;   skirtLayers,1
;   skirtOutlines,1
;   skirtOffset,4
;   usePrimePillar,0
;   primePillarExtruder,999
;   primePillarWidth,12
;   primePillarLocation,7
;   primePillarSpeedMultiplier,1
;   useOozeShield,0
;   oozeShieldExtruder,999
;   oozeShieldOffset,2
;   oozeShieldOutlines,1
;   oozeShieldSidewallShape,1
;   oozeShieldSidewallAngle,30
;   oozeShieldSpeedMultiplier,1
;   infillExtruder,0
;   internalInfillPattern,Fast Honeycomb
;   externalInfillPattern,Rectilinear
;   infillPercentage,33
;   outlineOverlapPercentage,20
;   infillExtrusionWidthPercentage,100
;   minInfillLength,5
;   infillLayerInterval,1
;   internalInfillAngles,0
;   overlapInternalInfillAngles,0
;   externalInfillAngles,45,-45
;   generateSupport,0
;   supportExtruder,0
;   supportInfillPercentage,25
;   supportExtraInflation,0
;   supportBaseLayers,0
;   denseSupportExtruder,0
;   denseSupportLayers,0
;   denseSupportInfillPercentage,70
;   supportLayerInterval,1
;   supportHorizontalPartOffset,0.3
;   supportUpperSeparationLayers,1
;   supportLowerSeparationLayers,1
;   supportType,0
;   supportGridSpacing,4
;   maxOverhangAngle,45
;   supportAngles,0
;   temperatureName,Primary Extruder,Heated Bed
;   temperatureNumber,0,0
;   temperatureSetpointCount,1,1
;   temperatureSetpointLayers,1,1
;   temperatureSetpointTemperatures,210,60
;   temperatureStabilizeAtStartup,1,1
;   temperatureHeatedBed,0,1
;   temperatureRelayBetweenLayers,0,0
;   temperatureRelayBetweenLoops,0,0
;   fanLayers,1,2
;   fanSpeeds,0,100
;   blipFanToFullPower,0
;   adjustSpeedForCooling,1
;   minSpeedLayerTime,15
;   minCoolingSpeedSlowdown,20
;   increaseFanForCooling,0
;   minFanLayerTime,45
;   maxCoolingFanSpeed,100
;   increaseFanForBridging,0
;   bridgingFanSpeed,100
;   use5D,1
;   relativeEdistances,0
;   allowEaxisZeroing,1
;   independentExtruderAxes,0
;   includeM10123,0
;   stickySupport,1
;   applyToolheadOffsets,0
;   gcodeXoffset,0
;   gcodeYoffset,0
;   gcodeZoffset,0
;   overrideMachineDefinition,1
;   machineTypeOverride,0
;   strokeXoverride,250
;   strokeYoverride,210
;   strokeZoverride,200
;   originOffsetXoverride,0
;   originOffsetYoverride,0
;   originOffsetZoverride,0
;   homeXdirOverride,-1
;   homeYdirOverride,-1
;   homeZdirOverride,-1
;   flipXoverride,1
;   flipYoverride,-1
;   flipZoverride,1
;   toolheadOffsets,0,0|0,0|0,0|0,0|0,0|0,0
;   overrideFirmwareConfiguration,1
;   firmwareTypeOverride,RepRap (Marlin/Repetier/Sprinter)
;   GPXconfigOverride,r2
;   baudRateOverride,250000
;   overridePrinterModels,1
;   printerModelsOverride
;   startingGcode,M115 U3.0.7 ; use the latest firmware version,G28 W ; home all axes without mesh bed leveling,G80 ; run mesh bed leveling routine,G1 Y-3.0 F1000.0 ; prepare to prime,G92 E0 ; reset extrusion distance,G1 X60.0 E9.0  F1000.0 ; priming,G1 X100.0 E12.5  F1000.0 ; priming
;   layerChangeGcode,
;   retractionGcode,
;   toolChangeGcode,
;   endingGcode,M106 S0 ; turn off cooling fan,M104 S0 ; turn off extruder,M140 S0 ; turn off bed,G1 X0 Y200 ; part removal,M84 ; disable motors
;   exportFileFormat,gcode
;   celebration,0
;   celebrationSong,Random Song
;   postProcessing,
;   defaultSpeed,2400
;   outlineUnderspeed,0.8
;   solidInfillUnderspeed,0.8
;   supportUnderspeed,0.8
;   rapidXYspeed,4800
;   rapidZspeed,1002
;   minBridgingArea,50
;   bridgingExtraInflation,0
;   bridgingExtrusionMultiplier,1
;   bridgingSpeedMultiplier,1
;   useFixedBridgingAngle,0
;   fixedBridgingAngle,0
;   applyBridgingToPerimeters,0
;   filamentDiameters,1.75|1.75|1.75|1.75|1.75|1.75
;   filamentPricesPerKg,46|46|46|46|46|46
;   filamentDensities,1.25|1.25|1.25|1.25|1.25|1.25
;   useMinPrintHeight,1
;   minPrintHeight,0
;   useMaxPrintHeight,1
;   maxPrintHeight,235
;   useDiaphragm,0
;   diaphragmLayerInterval,20
;   robustSlicing,1
;   mergeAllIntoSolid,0
;   onlyRetractWhenCrossingOutline,1
;   retractBetweenLayers,1
;   useRetractionMinTravel,0
;   retractionMinTravel,3
;   retractWhileWiping,1
;   onlyWipeOutlines,1
;   avoidCrossingOutline,0
;   maxMovementDetourFactor,3
;   toolChangeRetractionDistance,12
;   toolChangeExtraRestartDistance,-0.5
;   toolChangeRetractionSpeed,600
;   externalThinWallType,0
;   internalThinWallType,2
;   thinWallAllowedOverlapPercentage,25
;   singleExtrusionMinLength,1
;   singleExtrusionMinPrintingWidthPercentage,50
;   singleExtrusionMaxPrintingWidthPercentage,200
;   singleExtrusionEndpointExtension,0.2
;   horizontalSizeCompensation,0
G90
M82
M106 S0
M140 S60
M190 S60
M104 S210 T0
M109 S210 T0
M115 U3.0.7 ; use the latest firmware version
G28 W ; home all axes without mesh bed leveling
G80 ; run mesh bed leveling routine
G1 Y-3.0 F1000.0 ; prepare to prime
G92 E0 ; reset extrusion distance
G1 X60.0 E9.0  F1000.0 ; priming
G1 X100.0 E12.5  F1000.0 ; priming
G92 E0
G1 E-1.5000 F1800
G1 Z0.350 F1002
; process Fast
; layer 1, Z = 0.350
T0
; tool H0.350 W0.480
; skirt
G1 X25.973 Y17.896 F4800
G1 E0.0000 F540
G92 E0
G1 X27.298 Y16.507 E0.1340 F1200
G1 X27.301 Y16.505 E0.1343
G1 X27.392 Y16.415 E0.1433
G1 X27.395 Y16.412 E0.1435
G1 X28.804 Y15.109 E0.2776
G1 X28.807 Y15.106 E0.2778
G1 X28.903 Y15.022 E0.2868
G1 X28.906 Y15.020 E0.2870
G1 X30.393 Y13.807 E0.4211
G1 X30.396 Y13.804 E0.4214
G1 X30.498 Y13.727 E0.4303
G1 X30.501 Y13.724 E0.4306
G1 X32.061 Y12.606 E0.5646
G1 X32.064 Y12.604 E0.5649
G1 X32.170 Y12.532 E0.5738
G1 X32.173 Y12.530 E0.5741
G1 X33.800 Y11.511 E0.7081
G1 X33.803 Y11.509 E0.7084
G1 X33.913 Y11.444 E0.7174
G1 X33.917 Y11.443 E0.7176
G1 X35.603 Y10.526 E0.8517
G1 X35.606 Y10.525 E0.8519
G1 X35.721 Y10.467 E0.8609
G1 X35.724 Y10.466 E0.8611
G1 X37.464 Y9.656 E0.9952
G1 X37.468 Y9.654 E0.9954
G1 X37.585 Y9.604 E1.0044
G1 X37.589 Y9.603 E1.0047
G1 X39.376 Y8.903 E1.1387
G1 X39.379 Y8.901 E1.1390
G1 X39.500 Y8.858 E1.1479
G1 X39.504 Y8.857 E1.1482
G1 X41.331 Y8.270 E1.2822
G1 X41.334 Y8.269 E1.2825
G1 X41.458 Y8.233 E1.2914
G1 X41.461 Y8.232 E1.2917
G1 X43.321 Y7.760 E1.4258
G1 X43.325 Y7.759 E1.4260
G1 X43.450 Y7.731 E1.4350
G1 X43.454 Y7.730 E1.4352
G1 X45.340 Y7.374 E1.5693
G1 X45.343 Y7.374 E1.5695
G1 X45.470 Y7.354 E1.5785
G1 X45.474 Y7.353 E1.5787
G1 X47.378 Y7.115 E1.7128
G1 X47.382 Y7.115 E1.7131
G1 X47.509 Y7.103 E1.7220
G1 X47.513 Y7.102 E1.7223
G1 X49.429 Y6.983 E1.8563
G1 X49.432 Y6.983 E1.8566
G1 X49.560 Y6.979 E1.8655
G1 X49.564 Y6.979 E1.8658
G1 X51.483 Y6.979 E1.9998
G1 X51.487 Y6.979 E2.0001
G1 X51.615 Y6.983 E2.0091
G1 X51.619 Y6.983 E2.0093
G1 X53.534 Y7.102 E2.1434
G1 X53.538 Y7.103 E2.1436
G1 X53.666 Y7.115 E2.1526
G1 X53.669 Y7.115 E2.1528
G1 X55.574 Y7.353 E2.2869
G1 X55.577 Y7.354 E2.2871
G1 X55.704 Y7.374 E2.2961
G1 X55.708 Y7.374 E2.2964
G1 X57.594 Y7.730 E2.4304
G1 X57.597 Y7.731 E2.4307
G1 X57.722 Y7.759 E2.4396
G1 X57.726 Y7.760 E2.4399
G1 X59.586 Y8.232 E2.5739
G1 X59.590 Y8.233 E2.5742
G1 X59.713 Y8.269 E2.5831
G1 X59.716 Y8.270 E2.5834
G1 X61.544 Y8.857 E2.7175
G1 X61.547 Y8.858 E2.7177
G1 X61.668 Y8.901 E2.7267
G1 X61.671 Y8.903 E2.7269
G1 X63.458 Y9.603 E2.8610
G1 X63.462 Y9.604 E2.8612
G1 X63.580 Y9.654 E2.8702
G1 X63.583 Y9.656 E2.8705
G1 X65.323 Y10.466 E3.0045
G1 X65.327 Y10.467 E3.0048
G1 X65.441 Y10.525 E3.0137
G1 X65.444 Y10.526 E3.0140
G1 X67.131 Y11.443 E3.1480
G1 X67.134 Y11.444 E3.1483
G1 X67.245 Y11.509 E3.1572
G1 X67.248 Y11.511 E3.1575
G1 X68.874 Y12.530 E3.2915
G1 X68.877 Y12.532 E3.2918
G1 X68.984 Y12.604 E3.3008
G1 X68.987 Y12.606 E3.3010
G1 X70.546 Y13.724 E3.4351
G1 X70.549 Y13.727 E3.4353
G1 X70.651 Y13.804 E3.4443
G1 X70.654 Y13.807 E3.4445
G1 X72.141 Y15.020 E3.5786
G1 X72.144 Y15.022 E3.5788
G1 X72.241 Y15.106 E3.5878
G1 X72.243 Y15.109 E3.5881
G1 X73.652 Y16.412 E3.7221
G1 X73.655 Y16.415 E3.7224
G1 X73.746 Y16.505 E3.7313
G1 X73.749 Y16.507 E3.7316
G1 X75.074 Y17.896 E3.8656
G1 X75.076 Y17.899 E3.8659
G1 X75.162 Y17.994 E3.8748
G1 X75.164 Y17.997 E3.8751
G1 X76.401 Y19.465 E4.0091
G1 X76.403 Y19.468 E4.0094
G1 X76.482 Y19.568 E4.0184
G1 X76.485 Y19.571 E4.0186
G1 X77.627 Y21.113 E4.1527
G1 X77.629 Y21.116 E4.1529
G1 X77.702 Y21.222 E4.1619
G1 X77.705 Y21.225 E4.1621
G1 X78.749 Y22.835 E4.2962
G1 X78.751 Y22.838 E4.2965
G1 X78.817 Y22.948 E4.3054
G1 X78.819 Y22.951 E4.3057
G1 X79.762 Y24.623 E4.4397
G1 X79.763 Y24.626 E4.4400
G1 X79.823 Y24.740 E4.4489
G1 X79.824 Y24.743 E4.4492
G1 X80.342 Y25.812 E4.5321
G1 X85.157 Y25.812 E4.8684
G1 X85.231 Y25.837 E4.8739
G1 X87.442 Y27.521 E5.0681
G1 X87.486 Y27.587 E5.0736
G1 X87.759 Y28.579 E5.1455
G1 X88.033 Y27.587 E5.2174
G1 X88.077 Y27.521 E5.2229
G1 X90.287 Y25.837 E5.4170
G1 X90.362 Y25.812 E5.4225
G1 X95.186 Y25.812 E5.7594
G1 X95.704 Y24.743 E5.8424
G1 X95.706 Y24.740 E5.8426
G1 X95.765 Y24.626 E5.8516
G1 X95.767 Y24.623 E5.8519
G1 X96.709 Y22.951 E5.9859
G1 X96.711 Y22.948 E5.9862
G1 X96.777 Y22.838 E5.9951
G1 X96.779 Y22.835 E5.9954
G1 X97.824 Y21.225 E6.1294
G1 X97.826 Y21.222 E6.1297
G1 X97.899 Y21.116 E6.1386
G1 X97.901 Y21.113 E6.1389
G1 X99.044 Y19.571 E6.2729
G1 X99.046 Y19.568 E6.2732
G1 X99.125 Y19.468 E6.2822
G1 X99.128 Y19.465 E6.2824
G1 X100.364 Y17.997 E6.4165
G1 X100.366 Y17.994 E6.4167
G1 X100.452 Y17.899 E6.4257
G1 X100.454 Y17.896 E6.4259
G1 X101.779 Y16.507 E6.5600
G1 X101.782 Y16.505 E6.5602
G1 X101.873 Y16.415 E6.5692
G1 X101.876 Y16.412 E6.5695
G1 X103.285 Y15.109 E6.7035
G1 X103.288 Y15.106 E6.7038
G1 X103.384 Y15.022 E6.7127
G1 X103.387 Y15.020 E6.7130
G1 X104.874 Y13.807 E6.8470
G1 X104.877 Y13.804 E6.8473
G1 X104.979 Y13.727 E6.8562
G1 X104.982 Y13.724 E6.8565
G1 X106.542 Y12.606 E6.9906
G1 X106.545 Y12.604 E6.9908
G1 X106.651 Y12.532 E6.9998
G1 X106.654 Y12.530 E7.0000
G1 X108.281 Y11.511 E7.1341
G1 X108.284 Y11.509 E7.1343
G1 X108.394 Y11.444 E7.1433
G1 X108.398 Y11.443 E7.1436
G1 X110.084 Y10.526 E7.2776
G1 X110.087 Y10.525 E7.2779
G1 X110.202 Y10.467 E7.2868
G1 X110.205 Y10.466 E7.2871
G1 X111.945 Y9.656 E7.4211
G1 X111.949 Y9.654 E7.4214
G1 X112.066 Y9.604 E7.4303
G1 X112.070 Y9.603 E7.4306
G1 X113.857 Y8.903 E7.5647
G1 X113.861 Y8.901 E7.5649
G1 X113.981 Y8.858 E7.5739
G1 X113.985 Y8.857 E7.5741
G1 X115.812 Y8.270 E7.7082
G1 X115.815 Y8.269 E7.7084
G1 X115.939 Y8.233 E7.7174
G1 X115.942 Y8.232 E7.7176
G1 X117.802 Y7.760 E7.8517
G1 X117.806 Y7.759 E7.8520
G1 X117.931 Y7.731 E7.8609
G1 X117.935 Y7.730 E7.8612
G1 X119.821 Y7.374 E7.9952
G1 X119.824 Y7.374 E7.9955
G1 X119.951 Y7.354 E8.0044
G1 X119.955 Y7.353 E8.0047
G1 X121.859 Y7.115 E8.1387
G1 X121.863 Y7.115 E8.1390
G1 X121.990 Y7.103 E8.1480
G1 X121.994 Y7.102 E8.1482
G1 X123.909 Y6.983 E8.2823
G1 X123.913 Y6.983 E8.2825
G1 X124.041 Y6.979 E8.2915
G1 X124.045 Y6.979 E8.2917
G1 X125.964 Y6.979 E8.4258
G1 X125.968 Y6.979 E8.4260
G1 X126.096 Y6.983 E8.4350
G1 X126.100 Y6.983 E8.4353
G1 X128.015 Y7.102 E8.5693
G1 X128.019 Y7.103 E8.5696
G1 X128.147 Y7.115 E8.5785
G1 X128.150 Y7.115 E8.5788
G1 X130.055 Y7.353 E8.7128
G1 X130.058 Y7.354 E8.7131
G1 X130.185 Y7.374 E8.7220
G1 X130.189 Y7.374 E8.7223
G1 X132.075 Y7.730 E8.8563
G1 X132.078 Y7.731 E8.8566
G1 X132.203 Y7.759 E8.8656
G1 X132.207 Y7.760 E8.8658
G1 X134.067 Y8.232 E8.9999
G1 X134.071 Y8.233 E9.0001
G1 X134.194 Y8.269 E9.0091
G1 X134.197 Y8.270 E9.0093
G1 X136.025 Y8.857 E9.1434
G1 X136.028 Y8.858 E9.1437
G1 X136.149 Y8.901 E9.1526
G1 X136.152 Y8.903 E9.1529
G1 X137.939 Y9.603 E9.2869
G1 X137.943 Y9.604 E9.2872
G1 X138.061 Y9.654 E9.2961
G1 X138.064 Y9.656 E9.2964
G1 X139.804 Y10.466 E9.4304
G1 X139.808 Y10.467 E9.4307
G1 X139.922 Y10.525 E9.4396
G1 X139.925 Y10.526 E9.4399
G1 X141.612 Y11.443 E9.5740
G1 X141.615 Y11.444 E9.5742
G1 X141.726 Y11.509 E9.5832
G1 X141.729 Y11.511 E9.5834
G1 X143.355 Y12.530 E9.7175
G1 X143.358 Y12.532 E9.7177
G1 X143.465 Y12.604 E9.7267
G1 X143.468 Y12.606 E9.7270
G1 X145.027 Y13.724 E9.8610
G1 X145.030 Y13.727 E9.8613
G1 X145.132 Y13.804 E9.8702
G1 X145.135 Y13.807 E9.8705
G1 X146.622 Y15.020 E10.0045
G1 X146.625 Y15.022 E10.0048
G1 X146.722 Y15.106 E10.0137
G1 X146.724 Y15.109 E10.0140
G1 X148.133 Y16.412 E10.1481
G1 X148.136 Y16.415 E10.1483
G1 X148.227 Y16.505 E10.1573
G1 X148.230 Y16.507 E10.1575
G1 X149.555 Y17.896 E10.2916
G1 X149.557 Y17.899 E10.2918
G1 X149.643 Y17.994 E10.3008
G1 X149.645 Y17.997 E10.3011
G1 X150.882 Y19.465 E10.4351
G1 X150.884 Y19.468 E10.4354
G1 X150.963 Y19.568 E10.4443
G1 X150.966 Y19.571 E10.4446
G1 X152.108 Y21.113 E10.5786
G1 X152.110 Y21.116 E10.5789
G1 X152.183 Y21.222 E10.5878
G1 X152.186 Y21.225 E10.5881
G1 X153.230 Y22.835 E10.7221
G1 X153.232 Y22.838 E10.7224
G1 X153.298 Y22.948 E10.7313
G1 X153.300 Y22.951 E10.7316
G1 X154.243 Y24.623 E10.8657
G1 X154.244 Y24.626 E10.8659
G1 X154.304 Y24.740 E10.8749
G1 X154.305 Y24.743 E10.8751
G1 X154.823 Y25.812 E10.9581
G1 X159.638 Y25.812 E11.2944
G1 X159.712 Y25.837 E11.2999
G1 X161.923 Y27.521 E11.4940
G1 X161.967 Y27.587 E11.4995
G1 X162.240 Y28.579 E11.5714
G1 X162.514 Y27.587 E11.6433
G1 X162.558 Y27.521 E11.6488
G1 X164.768 Y25.837 E11.8429
G1 X164.843 Y25.812 E11.8484
G1 X169.667 Y25.812 E12.1854
G1 X170.185 Y24.743 E12.2683
G1 X170.186 Y24.740 E12.2686
G1 X170.246 Y24.626 E12.2775
G1 X170.248 Y24.623 E12.2778
G1 X171.190 Y22.951 E12.4119
G1 X171.192 Y22.948 E12.4121
G1 X171.258 Y22.838 E12.4211
G1 X171.260 Y22.835 E12.4213
G1 X172.305 Y21.225 E12.5554
G1 X172.307 Y21.222 E12.5556
G1 X172.380 Y21.116 E12.5646
G1 X172.382 Y21.113 E12.5648
G1 X173.525 Y19.571 E12.6989
G1 X173.527 Y19.568 E12.6992
G1 X173.606 Y19.468 E12.7081
G1 X173.609 Y19.465 E12.7084
G1 X174.845 Y17.997 E12.8424
G1 X174.847 Y17.994 E12.8427
G1 X174.933 Y17.899 E12.8516
G1 X174.935 Y17.896 E12.8519
G1 X176.260 Y16.507 E12.9859
G1 X176.263 Y16.505 E12.9862
G1 X176.354 Y16.415 E12.9951
G1 X176.357 Y16.412 E12.9954
G1 X177.766 Y15.109 E13.1295
G1 X177.769 Y15.106 E13.1297
G1 X177.865 Y15.022 E13.1387
G1 X177.868 Y15.020 E13.1389
G1 X179.355 Y13.807 E13.2730
G1 X179.358 Y13.804 E13.2732
G1 X179.460 Y13.727 E13.2822
G1 X179.463 Y13.724 E13.2825
G1 X181.023 Y12.606 E13.4165
G1 X181.026 Y12.604 E13.4168
G1 X181.132 Y12.532 E13.4257
G1 X181.135 Y12.530 E13.4260
G1 X182.762 Y11.511 E13.5600
G1 X182.765 Y11.509 E13.5603
G1 X182.875 Y11.444 E13.5692
G1 X182.879 Y11.443 E13.5695
G1 X184.565 Y10.526 E13.7036
G1 X184.568 Y10.525 E13.7038
G1 X184.683 Y10.467 E13.7128
G1 X184.686 Y10.466 E13.7130
G1 X186.426 Y9.656 E13.8471
G1 X186.430 Y9.654 E13.8473
G1 X186.547 Y9.604 E13.8563
G1 X186.551 Y9.603 E13.8565
G1 X188.338 Y8.903 E13.9906
G1 X188.341 Y8.901 E13.9909
G1 X188.462 Y8.858 E13.9998
G1 X188.466 Y8.857 E14.0001
G1 X190.293 Y8.270 E14.1341
