; G-Code generated by Simplify3D(R) Version 4.0.0
; Nov 11, 2017 at 7:53:04 PM
; Settings Summary
;   processName,Fast
;   applyToModels,ikea-korken-13cl-fg-aji-fantasy,ikea-korken-13cl-fg-aji-fantasy(2),ikea-korken-13cl-fg-aji-fantasy(3),ikea-korken-13cl-fg-aji-fantasy(4),ikea-korken-13cl-fg-aji-fantasy(5)
;   profileName,Prusa Research Original Prusa i3 MK2 (modified)
;   profileVersion,2017-07-23 22:27:18
;   baseProfile,
;   printMaterial,PLA
;   printQuality,Fast
;   printExtruders,
;   extruderName,Primary Extruder
;   extruderToolheadNumber,0
;   extruderDiameter,0.4
;   extruderAutoWidth,1
;   extruderWidth,0.48
;   extrusionMultiplier,1
;   extruderUseRetract,1
;   extruderRetractionDistance,1.5
;   extruderExtraRestartDistance,0
;   extruderRetractionZLift,0
;   extruderRetractionSpeed,1800
;   extruderUseCoasting,1
;   extruderCoastingDistance,0.2
;   extruderUseWipe,1
;   extruderWipeDistance,2
;   primaryExtruder,0
;   layerHeight,0.35
;   topSolidLayers,2
;   bottomSolidLayers,2
;   perimeterOutlines,2
;   printPerimetersInsideOut,1
;   startPointOption,2
;   startPointOriginX,0
;   startPointOriginY,0
;   sequentialIslands,0
;   spiralVaseMode,0
;   firstLayerHeightPercentage,100
;   firstLayerWidthPercentage,100
;   firstLayerUnderspeed,0.5
;   useRaft,0
;   raftExtruder,0
;   raftTopLayers,3
;   raftBaseLayers,2
;   raftOffset,3
;   raftSeparationDistance,0.14
;   raftTopInfill,100
;   aboveRaftSpeedMultiplier,0.3
;   useSkirt,1
;   skirtExtruder,0
;   skirtLayers,1
;   skirtOutlines,1
;   skirtOffset,4
;   usePrimePillar,0
;   primePillarExtruder,999
;   primePillarWidth,12
;   primePillarLocation,7
;   primePillarSpeedMultiplier,1
;   useOozeShield,0
;   oozeShieldExtruder,999
;   oozeShieldOffset,2
;   oozeShieldOutlines,1
;   oozeShieldSidewallShape,1
;   oozeShieldSidewallAngle,30
;   oozeShieldSpeedMultiplier,1
;   infillExtruder,0
;   internalInfillPattern,Fast Honeycomb
;   externalInfillPattern,Rectilinear
;   infillPercentage,33
;   outlineOverlapPercentage,20
;   infillExtrusionWidthPercentage,100
;   minInfillLength,5
;   infillLayerInterval,1
;   internalInfillAngles,0
;   overlapInternalInfillAngles,0
;   externalInfillAngles,45,-45
;   generateSupport,0
;   supportExtruder,0
;   supportInfillPercentage,25
;   supportExtraInflation,0
;   supportBaseLayers,0
;   denseSupportExtruder,0
;   denseSupportLayers,0
;   denseSupportInfillPercentage,70
;   supportLayerInterval,1
;   supportHorizontalPartOffset,0.3
;   supportUpperSeparationLayers,1
;   supportLowerSeparationLayers,1
;   supportType,0
;   supportGridSpacing,4
;   maxOverhangAngle,45
;   supportAngles,0
;   temperatureName,Primary Extruder,Heated Bed
;   temperatureNumber,0,0
;   temperatureSetpointCount,1,1
;   temperatureSetpointLayers,1,1
;   temperatureSetpointTemperatures,210,60
;   temperatureStabilizeAtStartup,1,1
;   temperatureHeatedBed,0,1
;   temperatureRelayBetweenLayers,0,0
;   temperatureRelayBetweenLoops,0,0
;   fanLayers,1,2
;   fanSpeeds,0,100
;   blipFanToFullPower,0
;   adjustSpeedForCooling,1
;   minSpeedLayerTime,15
;   minCoolingSpeedSlowdown,20
;   increaseFanForCooling,0
;   minFanLayerTime,45
;   maxCoolingFanSpeed,100
;   increaseFanForBridging,0
;   bridgingFanSpeed,100
;   use5D,1
;   relativeEdistances,0
;   allowEaxisZeroing,1
;   independentExtruderAxes,0
;   includeM10123,0
;   stickySupport,1
;   applyToolheadOffsets,0
;   gcodeXoffset,0
;   gcodeYoffset,0
;   gcodeZoffset,0
;   overrideMachineDefinition,1
;   machineTypeOverride,0
;   strokeXoverride,250
;   strokeYoverride,210
;   strokeZoverride,200
;   originOffsetXoverride,0
;   originOffsetYoverride,0
;   originOffsetZoverride,0
;   homeXdirOverride,-1
;   homeYdirOverride,-1
;   homeZdirOverride,-1
;   flipXoverride,1
;   flipYoverride,-1
;   flipZoverride,1
;   toolheadOffsets,0,0|0,0|0,0|0,0|0,0|0,0
;   overrideFirmwareConfiguration,1
;   firmwareTypeOverride,RepRap (Marlin/Repetier/Sprinter)
;   GPXconfigOverride,r2
;   baudRateOverride,250000
;   overridePrinterModels,1
;   printerModelsOverride
;   startingGcode,M115 U3.0.7 ; use the latest firmware version,G28 W ; home all axes without mesh bed leveling,G80 ; run mesh bed leveling routine,G1 Y-3.0 F1000.0 ; prepare to prime,G92 E0 ; reset extrusion distance,G1 X60.0 E9.0  F1000.0 ; priming,G1 X100.0 E12.5  F1000.0 ; priming
;   layerChangeGcode,
;   retractionGcode,
;   toolChangeGcode,
;   endingGcode,M106 S0 ; turn off cooling fan,M104 S0 ; turn off extruder,M140 S0 ; turn off bed,G1 X0 Y200 ; part removal,M84 ; disable motors
;   exportFileFormat,gcode
;   celebration,0
;   celebrationSong,Random Song
;   postProcessing,
;   defaultSpeed,2400
;   outlineUnderspeed,0.8
;   solidInfillUnderspeed,0.8
;   supportUnderspeed,0.8
;   rapidXYspeed,4800
;   rapidZspeed,1002
;   minBridgingArea,50
;   bridgingExtraInflation,0
;   bridgingExtrusionMultiplier,1
;   bridgingSpeedMultiplier,1
;   useFixedBridgingAngle,0
;   fixedBridgingAngle,0
;   applyBridgingToPerimeters,0
;   filamentDiameters,1.75|1.75|1.75|1.75|1.75|1.75
;   filamentPricesPerKg,46|46|46|46|46|46
;   filamentDensities,1.25|1.25|1.25|1.25|1.25|1.25
;   useMinPrintHeight,1
;   minPrintHeight,0
;   useMaxPrintHeight,1
;   maxPrintHeight,235
;   useDiaphragm,0
;   diaphragmLayerInterval,20
;   robustSlicing,1
;   mergeAllIntoSolid,0
;   onlyRetractWhenCrossingOutline,1
;   retractBetweenLayers,1
;   useRetractionMinTravel,0
;   retractionMinTravel,3
;   retractWhileWiping,1
;   onlyWipeOutlines,1
;   avoidCrossingOutline,0
;   maxMovementDetourFactor,3
;   toolChangeRetractionDistance,12
;   toolChangeExtraRestartDistance,-0.5
;   toolChangeRetractionSpeed,600
;   externalThinWallType,0
;   internalThinWallType,2
;   thinWallAllowedOverlapPercentage,25
;   singleExtrusionMinLength,1
;   singleExtrusionMinPrintingWidthPercentage,50
;   singleExtrusionMaxPrintingWidthPercentage,200
;   singleExtrusionEndpointExtension,0.2
;   horizontalSizeCompensation,0
G90
M82
M106 S0
M140 S60
M190 S60
M104 S210 T0
M109 S210 T0
M115 U3.0.7 ; use the latest firmware version
G28 W ; home all axes without mesh bed leveling
G80 ; run mesh bed leveling routine
G1 Y-3.0 F1000.0 ; prepare to prime
G92 E0 ; reset extrusion distance
G1 X60.0 E9.0  F1000.0 ; priming
G1 X100.0 E12.5  F1000.0 ; priming
G92 E0
G1 E-1.5000 F1800
G1 Z0.350 F1002
; process Fast
; layer 1, Z = 0.350
T0
; tool H0.350 W0.480
; skirt
G1 X53.047 Y25.837 F4800
G1 E0.0000 F540
G92 E0
G1 X53.122 Y25.812 E0.0055 F1200
G1 X57.946 Y25.812 E0.3425
G1 X58.463 Y24.743 E0.4254
G1 X58.465 Y24.740 E0.4257
G1 X58.524 Y24.626 E0.4346
G1 X58.526 Y24.623 E0.4349
G1 X59.469 Y22.951 E0.5689
G1 X59.471 Y22.948 E0.5692
G1 X59.537 Y22.838 E0.5781
G1 X59.539 Y22.835 E0.5784
G1 X60.583 Y21.225 E0.7124
G1 X60.585 Y21.222 E0.7127
G1 X60.658 Y21.116 E0.7217
G1 X60.661 Y21.113 E0.7219
G1 X61.803 Y19.571 E0.8560
G1 X61.805 Y19.568 E0.8562
G1 X61.885 Y19.468 E0.8652
G1 X61.887 Y19.465 E0.8654
G1 X63.123 Y17.997 E0.9995
G1 X63.126 Y17.994 E0.9997
G1 X63.211 Y17.899 E1.0087
G1 X63.214 Y17.896 E1.0090
G1 X64.539 Y16.507 E1.1430
G1 X64.542 Y16.505 E1.1433
G1 X64.633 Y16.415 E1.1522
G1 X64.636 Y16.412 E1.1525
G1 X66.044 Y15.109 E1.2865
G1 X66.047 Y15.106 E1.2868
G1 X66.144 Y15.022 E1.2957
G1 X66.147 Y15.020 E1.2960
G1 X67.634 Y13.807 E1.4301
G1 X67.637 Y13.804 E1.4303
G1 X67.739 Y13.727 E1.4393
G1 X67.742 Y13.724 E1.4395
G1 X69.301 Y12.606 E1.5736
G1 X69.304 Y12.604 E1.5738
G1 X69.411 Y12.532 E1.5828
G1 X69.414 Y12.530 E1.5830
G1 X71.040 Y11.511 E1.7171
G1 X71.043 Y11.509 E1.7174
G1 X71.154 Y11.444 E1.7263
G1 X71.157 Y11.443 E1.7266
G1 X72.844 Y10.526 E1.8606
G1 X72.847 Y10.525 E1.8609
G1 X72.961 Y10.467 E1.8698
G1 X72.965 Y10.466 E1.8701
G1 X74.705 Y9.656 E2.0041
G1 X74.708 Y9.654 E2.0044
G1 X74.826 Y9.604 E2.0133
G1 X74.829 Y9.603 E2.0136
G1 X76.617 Y8.903 E2.1477
G1 X76.620 Y8.901 E2.1479
G1 X76.741 Y8.858 E2.1569
G1 X76.744 Y8.857 E2.1571
G1 X78.571 Y8.270 E2.2912
G1 X78.575 Y8.269 E2.2914
G1 X78.698 Y8.233 E2.3004
G1 X78.702 Y8.232 E2.3007
G1 X80.562 Y7.760 E2.4347
G1 X80.565 Y7.759 E2.4350
G1 X80.691 Y7.731 E2.4439
G1 X80.694 Y7.730 E2.4442
G1 X82.580 Y7.374 E2.5782
G1 X82.584 Y7.374 E2.5785
G1 X82.710 Y7.354 E2.5874
G1 X82.714 Y7.353 E2.5877
G1 X84.619 Y7.115 E2.7218
G1 X84.622 Y7.115 E2.7220
G1 X84.750 Y7.103 E2.7310
G1 X84.754 Y7.102 E2.7312
G1 X86.669 Y6.983 E2.8653
G1 X86.673 Y6.983 E2.8655
G1 X86.801 Y6.979 E2.8745
G1 X86.805 Y6.979 E2.8747
G1 X88.724 Y6.979 E3.0088
G1 X88.728 Y6.979 E3.0091
G1 X88.856 Y6.983 E3.0180
G1 X88.859 Y6.983 E3.0183
G1 X90.775 Y7.102 E3.1523
G1 X90.779 Y7.103 E3.1526
G1 X90.906 Y7.115 E3.1615
G1 X90.910 Y7.115 E3.1618
G1 X92.814 Y7.353 E3.2958
G1 X92.818 Y7.354 E3.2961
G1 X92.945 Y7.374 E3.3051
G1 X92.948 Y7.374 E3.3053
G1 X94.834 Y7.730 E3.4394
G1 X94.838 Y7.731 E3.4396
G1 X94.963 Y7.759 E3.4486
G1 X94.967 Y7.760 E3.4488
G1 X96.827 Y8.232 E3.5829
G1 X96.830 Y8.233 E3.5831
G1 X96.953 Y8.269 E3.5921
G1 X96.957 Y8.270 E3.5924
G1 X98.784 Y8.857 E3.7264
G1 X98.788 Y8.858 E3.7267
G1 X98.908 Y8.901 E3.7356
G1 X98.912 Y8.903 E3.7359
G1 X100.699 Y9.603 E3.8699
G1 X100.702 Y9.604 E3.8702
G1 X100.820 Y9.654 E3.8792
G1 X100.824 Y9.656 E3.8794
G1 X102.564 Y10.466 E4.0135
G1 X102.567 Y10.467 E4.0137
G1 X102.681 Y10.525 E4.0227
G1 X102.685 Y10.526 E4.0229
G1 X104.371 Y11.443 E4.1570
G1 X104.374 Y11.444 E4.1572
G1 X104.485 Y11.509 E4.1662
G1 X104.488 Y11.511 E4.1664
G1 X106.115 Y12.530 E4.3005
G1 X106.118 Y12.532 E4.3008
G1 X106.224 Y12.604 E4.3097
G1 X106.227 Y12.606 E4.3100
G1 X107.787 Y13.724 E4.4440
G1 X107.790 Y13.727 E4.4443
G1 X107.892 Y13.804 E4.4532
G1 X107.894 Y13.807 E4.4535
G1 X109.382 Y15.020 E4.5875
G1 X109.384 Y15.022 E4.5878
G1 X109.481 Y15.106 E4.5968
G1 X109.484 Y15.109 E4.5970
G1 X110.893 Y16.412 E4.7311
G1 X110.896 Y16.415 E4.7313
G1 X110.987 Y16.505 E4.7403
G1 X110.989 Y16.507 E4.7405
G1 X112.314 Y17.896 E4.8746
G1 X112.317 Y17.899 E4.8748
G1 X112.403 Y17.994 E4.8838
G1 X112.405 Y17.997 E4.8841
G1 X113.641 Y19.465 E5.0181
G1 X113.644 Y19.468 E5.0184
G1 X113.723 Y19.568 E5.0273
G1 X113.725 Y19.571 E5.0276
G1 X114.868 Y21.113 E5.1616
G1 X114.870 Y21.116 E5.1619
G1 X114.943 Y21.222 E5.1708
G1 X114.945 Y21.225 E5.1711
G1 X115.990 Y22.835 E5.3052
G1 X115.991 Y22.838 E5.3054
G1 X116.058 Y22.948 E5.3144
G1 X116.060 Y22.951 E5.3146
G1 X117.002 Y24.623 E5.4487
G1 X117.004 Y24.626 E5.4489
G1 X117.063 Y24.740 E5.4579
G1 X117.065 Y24.743 E5.4582
G1 X117.583 Y25.812 E5.5411
G1 X122.397 Y25.812 E5.8774
G1 X122.472 Y25.837 E5.8829
G1 X124.683 Y27.521 E6.0770
G1 X124.727 Y27.587 E6.0825
G1 X125.000 Y28.579 E6.1544
G1 X125.273 Y27.587 E6.2263
G1 X125.317 Y27.521 E6.2318
G1 X127.528 Y25.837 E6.4260
G1 X127.603 Y25.812 E6.4315
G1 X132.427 Y25.812 E6.7684
G1 X132.944 Y24.743 E6.8513
G1 X132.946 Y24.740 E6.8516
G1 X133.006 Y24.626 E6.8606
G1 X133.007 Y24.623 E6.8608
G1 X133.950 Y22.951 E6.9949
G1 X133.952 Y22.948 E6.9951
G1 X134.018 Y22.838 E7.0041
G1 X134.020 Y22.835 E7.0044
G1 X135.064 Y21.225 E7.1384
G1 X135.066 Y21.222 E7.1387
G1 X135.139 Y21.116 E7.1476
G1 X135.142 Y21.113 E7.1479
G1 X136.284 Y19.571 E7.2819
G1 X136.286 Y19.568 E7.2822
G1 X136.366 Y19.468 E7.2911
G1 X136.368 Y19.465 E7.2914
G1 X137.604 Y17.997 E7.4254
G1 X137.607 Y17.994 E7.4257
G1 X137.692 Y17.899 E7.4347
G1 X137.695 Y17.896 E7.4349
G1 X139.020 Y16.507 E7.5690
G1 X139.023 Y16.505 E7.5692
G1 X139.114 Y16.415 E7.5782
G1 X139.117 Y16.412 E7.5784
G1 X140.525 Y15.109 E7.7125
G1 X140.528 Y15.106 E7.7127
G1 X140.625 Y15.022 E7.7217
G1 X140.628 Y15.020 E7.7220
G1 X142.115 Y13.807 E7.8560
G1 X142.118 Y13.804 E7.8563
G1 X142.220 Y13.727 E7.8652
G1 X142.223 Y13.724 E7.8655
G1 X143.782 Y12.606 E7.9995
G1 X143.785 Y12.604 E7.9998
G1 X143.892 Y12.532 E8.0087
G1 X143.895 Y12.530 E8.0090
G1 X145.521 Y11.511 E8.1431
G1 X145.524 Y11.509 E8.1433
G1 X145.635 Y11.444 E8.1523
G1 X145.638 Y11.443 E8.1525
G1 X147.325 Y10.526 E8.2866
G1 X147.328 Y10.525 E8.2868
G1 X147.442 Y10.467 E8.2958
G1 X147.446 Y10.466 E8.2960
G1 X149.186 Y9.656 E8.4301
G1 X149.189 Y9.654 E8.4304
G1 X149.307 Y9.604 E8.4393
G1 X149.310 Y9.603 E8.4396
G1 X151.098 Y8.903 E8.5736
G1 X151.101 Y8.901 E8.5739
G1 X151.222 Y8.858 E8.5828
G1 X151.225 Y8.857 E8.5831
G1 X153.052 Y8.270 E8.7171
G1 X153.056 Y8.269 E8.7174
G1 X153.179 Y8.233 E8.7264
G1 X153.183 Y8.232 E8.7266
G1 X155.043 Y7.760 E8.8607
G1 X155.047 Y7.759 E8.8609
G1 X155.172 Y7.731 E8.8699
G1 X155.175 Y7.730 E8.8701
G1 X157.061 Y7.374 E9.0042
G1 X157.065 Y7.374 E9.0044
G1 X157.191 Y7.354 E9.0134
G1 X157.195 Y7.353 E9.0137
G1 X159.100 Y7.115 E9.1477
G1 X159.103 Y7.115 E9.1480
G1 X159.231 Y7.103 E9.1569
G1 X159.235 Y7.102 E9.1572
G1 X161.150 Y6.983 E9.2912
G1 X161.154 Y6.983 E9.2915
G1 X161.282 Y6.979 E9.3004
G1 X161.286 Y6.979 E9.3007
G1 X163.205 Y6.979 E9.4348
G1 X163.209 Y6.979 E9.4350
G1 X163.337 Y6.983 E9.4440
G1 X163.340 Y6.983 E9.4442
G1 X165.256 Y7.102 E9.5783
G1 X165.260 Y7.103 E9.5785
G1 X165.387 Y7.115 E9.5875
G1 X165.391 Y7.115 E9.5877
G1 X167.295 Y7.353 E9.7218
G1 X167.299 Y7.354 E9.7221
G1 X167.426 Y7.374 E9.7310
G1 X167.429 Y7.374 E9.7313
G1 X169.315 Y7.730 E9.8653
G1 X169.319 Y7.731 E9.8656
G1 X169.444 Y7.759 E9.8745
G1 X169.448 Y7.760 E9.8748
G1 X171.308 Y8.232 E10.0088
G1 X171.311 Y8.233 E10.0091
G1 X171.434 Y8.269 E10.0181
G1 X171.438 Y8.270 E10.0183
G1 X173.265 Y8.857 E10.1524
G1 X173.269 Y8.858 E10.1526
G1 X173.389 Y8.901 E10.1616
G1 X173.393 Y8.903 E10.1618
G1 X175.180 Y9.603 E10.2959
G1 X175.183 Y9.604 E10.2962
G1 X175.301 Y9.654 E10.3051
G1 X175.305 Y9.656 E10.3054
G1 X177.045 Y10.466 E10.4394
G1 X177.048 Y10.467 E10.4397
G1 X177.162 Y10.525 E10.4486
G1 X177.166 Y10.526 E10.4489
G1 X178.852 Y11.443 E10.5829
G1 X178.855 Y11.444 E10.5832
G1 X178.966 Y11.509 E10.5921
G1 X178.969 Y11.511 E10.5924
G1 X180.596 Y12.530 E10.7265
G1 X180.599 Y12.532 E10.7267
G1 X180.705 Y12.604 E10.7357
G1 X180.708 Y12.606 E10.7359
G1 X182.268 Y13.724 E10.8700
G1 X182.271 Y13.727 E10.8702
G1 X182.373 Y13.804 E10.8792
G1 X182.375 Y13.807 E10.8794
G1 X183.863 Y15.020 E11.0135
G1 X183.865 Y15.022 E11.0138
G1 X183.962 Y15.106 E11.0227
G1 X183.965 Y15.109 E11.0230
G1 X185.374 Y16.412 E11.1570
G1 X185.377 Y16.415 E11.1573
G1 X185.468 Y16.505 E11.1662
G1 X185.470 Y16.507 E11.1665
G1 X186.795 Y17.896 E11.3005
G1 X186.798 Y17.899 E11.3008
G1 X186.884 Y17.994 E11.3098
G1 X186.886 Y17.997 E11.3100
G1 X188.122 Y19.465 E11.4441
G1 X188.125 Y19.468 E11.4443
G1 X188.204 Y19.568 E11.4533
G1 X188.206 Y19.571 E11.4535
G1 X189.349 Y21.113 E11.5876
G1 X189.351 Y21.116 E11.5878
G1 X189.424 Y21.222 E11.5968
G1 X189.426 Y21.225 E11.5971
G1 X190.471 Y22.835 E11.7311
G1 X190.472 Y22.838 E11.7314
G1 X190.539 Y22.948 E11.7403
G1 X190.541 Y22.951 E11.7406
G1 X191.483 Y24.623 E11.8746
G1 X191.485 Y24.626 E11.8749
G1 X191.544 Y24.740 E11.8838
G1 X191.546 Y24.743 E11.8841
G1 X192.064 Y25.812 E11.9670
G1 X196.878 Y25.812 E12.3033
G1 X196.953 Y25.837 E12.3088
G1 X199.164 Y27.521 E12.5030
G1 X199.208 Y27.587 E12.5085
G1 X200.080 Y30.757 E12.7382
G1 X200.081 Y30.761 E12.7384
G1 X200.107 Y30.867 E12.7460
G1 X200.108 Y30.870 E12.7463
G1 X200.526 Y32.778 E12.8827
G1 X200.526 Y32.781 E12.8829
G1 X200.547 Y32.888 E12.8905
G1 X200.547 Y32.892 E12.8908
G1 X200.863 Y34.819 E13.0272
G1 X200.864 Y34.822 E13.0274
G1 X200.879 Y34.931 E13.0351
G1 X200.879 Y34.934 E13.0353
G1 X201.092 Y36.876 E13.1717
G1 X201.092 Y36.879 E13.1720
G1 X201.101 Y36.988 E13.1796
G1 X201.102 Y36.991 E13.1798
G1 X201.211 Y38.941 E13.3162
G1 X201.212 Y38.944 E13.3165
G1 X201.215 Y39.054 E13.3241
G1 X201.215 Y39.057 E13.3243
G1 X201.221 Y41.010 E13.4608
G1 X201.221 Y41.013 E13.4610
G1 X201.219 Y41.123 E13.4686
G1 X201.218 Y41.126 E13.4688
G1 X201.121 Y43.077 E13.6053
G1 X201.121 Y43.080 E13.6055
G1 X201.112 Y43.189 E13.6131
G1 X201.112 Y43.192 E13.6134
G1 X200.911 Y45.135 E13.7498
G1 X200.911 Y45.138 E13.7500
G1 X200.897 Y45.247 E13.7577
G1 X200.896 Y45.250 E13.7579
G1 X200.593 Y47.180 E13.8943
G1 X200.592 Y47.183 E13.8945
G1 X200.573 Y47.290 E13.9022
G1 X200.572 Y47.293 E13.9024
G1 X200.166 Y49.204 E14.0388
G1 X200.166 Y49.207 E14.0391
G1 X200.140 Y49.314 E14.0467
