; generated by Slic3r Prusa Edition 1.40.0+ on 2018-09-29 at 17:36:44

; 

; external perimeters extrusion width = 0.60mm
; perimeters extrusion width = 0.43mm
; infill extrusion width = 0.45mm
; solid infill extrusion width = 0.70mm
; top infill extrusion width = 0.43mm
; support material extrusion width = 0.35mm
; first layer extrusion width = 0.42mm

M107
M115 U3.1.0 ; tell printer latest fw version
M201 X9000 Y9000 Z500 E10000 ; sets maximum accelerations, mm/sec^2
M203 X500 Y500 Z12 E120 ; sets maximum feedrates, mm/sec
M204 S1500 T1500 ; sets acceleration (S) and retract acceleration (T)
M205 X10 Y10 Z0.2 E2.5 ; sets the jerk limits, mm/sec
M205 S0 T0 ; sets the minimum extruding and travel feed rate, mm/sec
M83  ; extruder relative mode
M104 S210 ; set extruder temp
M140 S55 ; set bed temp
M190 S55 ; wait for bed temp
M109 S210 ; wait for extruder temp
G28 W ; home all without mesh bed level
G80 ; mesh bed leveling
G1 Y-3.0 F1000.0 ; go outside print area
G92 E0.0
G1 X60.0 E9.0  F1000.0 ; intro line
G1 X100.0 E12.5  F1000.0 ; intro line
G92 E0.0
M900 K30; Filament gcode
G21 ; set units to millimeters
G90 ; use absolute coordinates
M83 ; use relative distances for extrusion
;BEFORE_LAYER_CHANGE
G92 E0.0
;0.2


G1 E-0.80000 F2100.00000
G1 Z0.600 F10800.000
;AFTER_LAYER_CHANGE
;0.2
G1 X90.020 Y60.714
G1 Z0.200
G1 E0.80000 F2100.00000
M204 S1000
G1 F1800
G1 X90.377 Y60.349 E0.01601
G1 X106.275 Y47.580 E0.63935
G1 X107.910 Y46.409 E0.06305
G1 X109.480 Y45.426 E0.05807
G1 X111.100 Y44.545 E0.05785
G1 X112.894 Y43.707 E0.06208
G1 X114.739 Y42.987 E0.06208
G1 X116.499 Y42.423 E0.05796
G1 X118.290 Y41.966 E0.05796
G1 X120.239 Y41.595 E0.06220
G1 X122.205 Y41.352 E0.06211
G1 X124.049 Y41.239 E0.05793
G1 X125.897 Y41.238 E0.05796
G1 X127.870 Y41.358 E0.06197
G1 X129.770 Y41.595 E0.06002
G1 X131.654 Y41.951 E0.06013
G1 X133.506 Y42.421 E0.05991
G1 X135.328 Y43.007 E0.06002
G1 X137.111 Y43.705 E0.06002
G1 X138.847 Y44.512 E0.06002
G1 X140.529 Y45.426 E0.06002
G1 X142.154 Y46.445 E0.06014
G1 X143.747 Y47.590 E0.06151
G1 X159.645 Y60.367 E0.63950
G1 X160.034 Y60.786 E0.01794
G1 X160.302 Y61.296 E0.01805
G1 X160.861 Y63.302 E0.06531
G1 X161.291 Y65.275 E0.06330
G1 X161.807 Y69.049 E0.11944
G1 X161.923 Y71.079 E0.06376
G1 X161.929 Y138.984 E2.12911
G1 X161.831 Y140.975 E0.06251
G1 X161.636 Y142.870 E0.05974
G1 X161.315 Y144.911 E0.06478
G1 X160.917 Y146.786 E0.06008
G1 X160.386 Y148.748 E0.06375
G1 X160.108 Y149.302 E0.01942
G1 X159.686 Y149.755 E0.01942
G1 X142.994 Y162.970 E0.66754
G1 X141.352 Y164.076 E0.06208
G1 X139.705 Y165.038 E0.05979
G1 X137.986 Y165.904 E0.06036
G1 X136.229 Y166.656 E0.05991
G1 X134.423 Y167.300 E0.06014
G1 X132.583 Y167.829 E0.06002
G1 X130.714 Y168.242 E0.06002
G1 X128.823 Y168.538 E0.06002
G1 X126.917 Y168.717 E0.06002
G1 X124.989 Y168.776 E0.06048
G1 X123.090 Y168.717 E0.05956
G1 X121.184 Y168.538 E0.06002
G1 X119.293 Y168.242 E0.06002
G1 X117.424 Y167.828 E0.06002
G1 X115.588 Y167.300 E0.05990
G1 X113.781 Y166.657 E0.06014
G1 X112.021 Y165.903 E0.06002
G1 X110.283 Y165.026 E0.06105
G1 X108.603 Y164.040 E0.06108
G1 X107.069 Y163.010 E0.05793
G1 X105.583 Y161.874 E0.05865
G1 X90.302 Y149.745 E0.61169
G1 X89.913 Y149.331 E0.01783
G1 X89.642 Y148.827 E0.01794
G1 X89.084 Y146.788 E0.06628
G1 X88.667 Y144.813 E0.06329
G1 X88.174 Y141.036 E0.11944
G1 X88.071 Y139.012 E0.06353
G1 X88.077 Y71.111 E2.12901
G1 X88.193 Y69.048 E0.06478
G1 X88.402 Y67.154 E0.05974
G1 X88.717 Y65.230 E0.06111
G1 X89.138 Y63.305 E0.06181
G1 X89.649 Y61.446 E0.06043
G1 X89.993 Y60.767 E0.02386
G1 F8640
G1 X90.377 Y60.349 E-0.13116
G1 X92.500 Y58.644 E-0.62884
G1 E-0.04000 F2100.00000
G1 Z0.800 F10800.000
G1 X101.156 Y81.088
G1 Z0.200
G1 E0.80000 F2100.00000
G1 F1800
G1 X148.854 Y81.088 E1.49553
G1 X147.841 Y83.267 E0.07535
G1 X147.057 Y84.732 E0.05210
G1 X146.178 Y86.147 E0.05225
G1 X145.207 Y87.502 E0.05225
G1 X144.150 Y88.790 E0.05225
G1 X143.011 Y90.006 E0.05225
G1 X141.795 Y91.145 E0.05225
G1 X140.506 Y92.202 E0.05225
G1 X139.152 Y93.173 E0.05225
G1 X137.737 Y94.053 E0.05225
G1 X136.267 Y94.838 E0.05224
G1 X134.749 Y95.526 E0.05225
G1 X133.190 Y96.113 E0.05225
G1 X132.756 Y96.245 E0.01423
G1 X131.595 Y96.597 E0.03802
G1 X129.973 Y96.975 E0.05225
G1 X128.328 Y97.246 E0.05225
G1 X126.670 Y97.410 E0.05225
G1 X125.005 Y97.464 E0.05225
G1 X123.339 Y97.410 E0.05225
G1 X122.888 Y97.365 E0.01423
G1 X121.681 Y97.246 E0.03802
G1 X120.037 Y96.975 E0.05225
G1 X118.414 Y96.597 E0.05225
G1 X116.819 Y96.113 E0.05225
G1 X115.260 Y95.526 E0.05225
G1 X113.742 Y94.838 E0.05225
G1 X112.273 Y94.053 E0.05224
G1 X110.858 Y93.173 E0.05225
G1 X109.503 Y92.202 E0.05225
G1 X108.215 Y91.145 E0.05225
G1 X106.999 Y90.006 E0.05225
G1 X105.860 Y88.790 E0.05225
G1 X104.803 Y87.502 E0.05225
G1 X103.832 Y86.147 E0.05225
G1 X102.952 Y84.732 E0.05225
G1 X102.169 Y83.267 E0.05210
G1 X101.181 Y81.142 E0.07347
G1 X101.747 Y81.465 F10800.000
G1 F1800
G1 X148.263 Y81.465 E1.45847
G1 X147.503 Y83.098 E0.05648
G1 X146.731 Y84.543 E0.05138
G1 X145.864 Y85.938 E0.05147
G1 X144.908 Y87.272 E0.05147
G1 X143.866 Y88.541 E0.05147
G1 X142.744 Y89.739 E0.05147
G1 X141.546 Y90.861 E0.05147
G1 X140.277 Y91.903 E0.05147
G1 X138.942 Y92.859 E0.05147
G1 X137.548 Y93.726 E0.05147
G1 X136.100 Y94.500 E0.05147
G1 X134.605 Y95.177 E0.05147
G1 X133.069 Y95.756 E0.05147
G1 X132.646 Y95.884 E0.01384
G1 X131.498 Y96.232 E0.03763
G1 X129.899 Y96.605 E0.05147
G1 X128.279 Y96.872 E0.05147
G1 X126.645 Y97.033 E0.05147
G1 X125.005 Y97.087 E0.05147
G1 X123.364 Y97.033 E0.05147
G1 X122.925 Y96.990 E0.01384
G1 X121.730 Y96.872 E0.03763
G1 X120.110 Y96.605 E0.05147
G1 X118.512 Y96.232 E0.05147
G1 X116.941 Y95.756 E0.05147
G1 X115.404 Y95.177 E0.05147
G1 X113.909 Y94.500 E0.05147
G1 X112.461 Y93.726 E0.05147
G1 X111.067 Y92.859 E0.05147
G1 X109.733 Y91.903 E0.05147
G1 X108.464 Y90.861 E0.05147
G1 X107.265 Y89.739 E0.05147
G1 X106.143 Y88.541 E0.05147
G1 X105.102 Y87.272 E0.05147
G1 X104.146 Y85.938 E0.05147
G1 X103.279 Y84.543 E0.05147
G1 X102.506 Y83.098 E0.05138
G1 X101.772 Y81.519 E0.05460
G1 X102.338 Y81.842 F10800.000
G1 F1800
G1 X147.671 Y81.842 E1.42140
G1 X147.166 Y82.930 E0.03762
G1 X146.404 Y84.355 E0.05066
G1 X145.550 Y85.728 E0.05070
G1 X144.608 Y87.042 E0.05070
G1 X143.582 Y88.292 E0.05070
G1 X142.477 Y89.472 E0.05070
G1 X141.297 Y90.578 E0.05070
G1 X140.047 Y91.604 E0.05070
G1 X138.733 Y92.545 E0.05070
G1 X137.360 Y93.399 E0.05070
G1 X135.934 Y94.161 E0.05070
G1 X134.461 Y94.829 E0.05070
G1 X132.947 Y95.398 E0.05070
G1 X132.537 Y95.523 E0.01346
G1 X131.400 Y95.868 E0.03724
G1 X129.825 Y96.235 E0.05070
G1 X128.230 Y96.498 E0.05070
G1 X126.621 Y96.657 E0.05070
G1 X125.005 Y96.710 E0.05070
G1 X123.389 Y96.657 E0.05070
G1 X122.962 Y96.615 E0.01346
G1 X121.779 Y96.498 E0.03724
G1 X120.184 Y96.235 E0.05070
G1 X118.609 Y95.868 E0.05070
G1 X117.062 Y95.398 E0.05070
G1 X115.549 Y94.829 E0.05070
G1 X114.076 Y94.161 E0.05070
G1 X112.650 Y93.399 E0.05070
G1 X111.277 Y92.545 E0.05070
G1 X109.962 Y91.604 E0.05070
G1 X108.712 Y90.578 E0.05070
G1 X107.532 Y89.472 E0.05070
G1 X106.427 Y88.292 E0.05070
G1 X105.401 Y87.042 E0.05070
G1 X104.459 Y85.728 E0.05070
G1 X103.605 Y84.355 E0.05070
G1 X102.844 Y82.930 E0.05066
G1 X102.363 Y81.896 E0.03574
G1 X102.276 Y81.447 F10800.000
G1 F8640
G1 X105.655 Y81.892 E-0.76000
G1 E-0.04000 F2100.00000
G1 Z0.800 F10800.000
G1 X120.637 Y72.584
G1 Z0.200
G1 E0.80000 F2100.00000
G1 F1800
G1 X124.684 Y72.584 E0.12689
G1 X125.261 Y72.602 E0.01811
G1 X125.791 Y72.661 E0.01671
G1 X126.280 Y72.775 E0.01575
G1 X126.742 Y72.979 E0.01584
G1 X126.893 Y73.091 E0.00589
G1 X126.893 Y72.584 E0.01590
G1 X130.959 Y72.584 E0.12749
G1 X131.719 Y72.650 E0.02392
G1 X132.456 Y72.886 E0.02426
G1 X132.888 Y73.182 E0.01643
G1 X132.888 Y72.584 E0.01876
G1 X136.672 Y72.584 E0.11866
G1 X136.672 Y73.742 E0.03632
G1 X136.810 Y73.554 E0.00731
G1 X137.651 Y72.926 E0.03290
G1 X138.647 Y72.564 E0.03325
G1 X139.755 Y72.451 E0.03490
G1 X140.878 Y72.561 E0.03540
G1 X141.883 Y72.916 E0.03342
G1 X142.728 Y73.536 E0.03283
G1 X142.755 Y73.573 E0.00144
G1 X142.755 Y72.584 E0.03100
G1 X145.948 Y72.584 E0.10012
G1 X146.659 Y73.639 E0.03989
G1 X146.659 Y72.584 E0.03308
G1 X150.315 Y72.584 E0.11464
G1 X150.315 Y80.464 E0.24708
G1 X147.110 Y80.464 E0.10050
G1 X146.411 Y79.427 E0.03922
G1 X146.411 Y80.464 E0.03253
G1 X142.755 Y80.464 E0.11464
G1 X142.755 Y79.456 E0.03160
G1 X142.512 Y79.708 E0.01095
G1 X141.950 Y80.100 E0.02148
G1 X141.302 Y80.382 E0.02216
G1 X140.591 Y80.543 E0.02288
G1 X139.834 Y80.594 E0.02378
G1 X139.079 Y80.551 E0.02372
G1 X138.382 Y80.415 E0.02227
G1 X137.738 Y80.173 E0.02157
G1 X137.161 Y79.811 E0.02135
G1 X136.672 Y79.341 E0.02126
G1 X136.672 Y80.464 E0.03520
G1 X132.888 Y80.464 E0.11866
G1 X132.888 Y77.626 E0.08898
G1 X132.367 Y77.976 E0.01967
G1 X131.582 Y78.219 E0.02578
G1 X130.677 Y78.288 E0.02844
G1 X130.677 Y80.464 E0.06823
G1 X124.836 Y80.464 E0.18316
G1 X124.421 Y79.710 E0.02699
G1 X124.421 Y80.464 E0.02365
G1 X120.637 Y80.464 E0.11865
G1 X120.637 Y79.456 E0.03161
G1 X120.394 Y79.708 E0.01096
G1 X119.832 Y80.100 E0.02148
G1 X119.184 Y80.382 E0.02216
G1 X118.473 Y80.543 E0.02288
G1 X117.716 Y80.594 E0.02378
G1 X116.961 Y80.551 E0.02371
G1 X116.264 Y80.415 E0.02227
G1 X115.620 Y80.173 E0.02157
G1 X115.043 Y79.811 E0.02135
G1 X114.550 Y79.337 E0.02144
G1 X114.420 Y79.153 E0.00708
G1 X114.334 Y79.287 E0.00498
G1 X113.975 Y79.686 E0.01683
G1 X113.558 Y80.018 E0.01672
G1 X113.085 Y80.279 E0.01693
G1 X112.556 Y80.460 E0.01753
G1 X111.982 Y80.562 E0.01829
G1 X111.368 Y80.593 E0.01928
G1 X110.647 Y80.556 E0.02263
G1 X109.980 Y80.438 E0.02123
G1 X109.360 Y80.221 E0.02059
G1 X108.794 Y79.879 E0.02075
G1 X108.301 Y79.417 E0.02119
G1 X108.153 Y79.217 E0.00779
G1 X107.842 Y79.609 E0.01568
G1 X107.403 Y79.978 E0.01797
G1 X106.898 Y80.260 E0.01816
G1 X106.335 Y80.452 E0.01863
G1 X105.728 Y80.560 E0.01934
G1 X105.068 Y80.594 E0.02072
G1 X104.008 Y80.518 E0.03334
G1 X103.071 Y80.257 E0.03050
G1 X102.322 Y79.763 E0.02813
G1 X101.819 Y79.122 E0.02555
G1 X101.506 Y78.417 E0.02419
G1 X101.173 Y76.671 E0.05574
G1 X102.001 Y76.618 E0.02602
G1 X101.928 Y76.533 E0.00352
G1 X101.637 Y75.886 E0.02225
G1 X101.546 Y75.194 E0.02188
G1 X101.596 Y74.686 E0.01600
G1 X101.739 Y74.215 E0.01544
G1 X101.975 Y73.768 E0.01583
G1 X102.307 Y73.361 E0.01648
G1 X102.722 Y73.026 E0.01672
G1 X103.203 Y72.766 E0.01714
G1 X103.758 Y72.585 E0.01830
G1 X104.376 Y72.486 E0.01963
G1 X105.062 Y72.454 E0.02153
G1 X105.899 Y72.510 E0.02632
G1 X106.670 Y72.696 E0.02485
G1 X107.360 Y73.046 E0.02427
G1 X107.919 Y73.586 E0.02438
G1 X108.087 Y73.900 E0.01116
G1 X108.350 Y73.535 E0.01409
G1 X109.185 Y72.916 E0.03259
G1 X110.175 Y72.561 E0.03299
G1 X111.266 Y72.452 E0.03437
G1 X112.136 Y72.516 E0.02736
G1 X112.922 Y72.721 E0.02546
G1 X113.616 Y73.088 E0.02463
G1 X114.185 Y73.612 E0.02422
G1 X114.409 Y73.942 E0.01253
G1 X114.691 Y73.554 E0.01507
G1 X115.532 Y72.926 E0.03290
G1 X116.529 Y72.564 E0.03326
G1 X117.636 Y72.451 E0.03490
G1 X118.760 Y72.561 E0.03540
G1 X119.765 Y72.916 E0.03342
G1 X120.609 Y73.536 E0.03283
G1 X120.637 Y73.573 E0.00145
G1 X120.637 Y72.644 E0.02913
G1 X121.014 Y72.961 F10800.000
G1 F1800
G1 X124.678 Y72.961 E0.11489
G1 X125.234 Y72.978 E0.01746
G1 X125.727 Y73.033 E0.01554
G1 X126.160 Y73.134 E0.01394
G1 X126.551 Y73.307 E0.01342
G1 X126.898 Y73.564 E0.01353
G1 X127.185 Y73.895 E0.01374
G1 X127.270 Y74.051 E0.00557
G1 X127.270 Y72.961 E0.03418
G1 X130.943 Y72.961 E0.11515
G1 X131.644 Y73.022 E0.02208
G1 X132.288 Y73.228 E0.02120
G1 X132.825 Y73.597 E0.02042
G1 X133.213 Y74.107 E0.02009
G1 X133.265 Y74.250 E0.00478
G1 X133.265 Y72.961 E0.04043
G1 X136.295 Y72.961 E0.09501
G1 X136.295 Y75.242 E0.07151
G1 X136.529 Y74.581 E0.02196
G1 X137.081 Y73.822 E0.02944
G1 X137.832 Y73.262 E0.02936
G1 X138.732 Y72.934 E0.03005
G1 X139.755 Y72.830 E0.03225
G1 X140.796 Y72.932 E0.03278
G1 X141.705 Y73.253 E0.03024
G1 X142.458 Y73.805 E0.02926
G1 X143.007 Y74.555 E0.02915
G1 X143.132 Y74.907 E0.01170
G1 X143.132 Y72.961 E0.06102
G1 X145.747 Y72.961 E0.08201
G1 X147.036 Y74.874 E0.07231
G1 X147.036 Y72.961 E0.05997
G1 X149.938 Y72.961 E0.09099
G1 X149.938 Y80.087 E0.22344
G1 X147.311 Y80.087 E0.08238
G1 X146.034 Y78.192 E0.07164
G1 X146.034 Y80.087 E0.05941
G1 X143.132 Y80.087 E0.09100
G1 X143.132 Y78.175 E0.05997
G1 X143.011 Y78.479 E0.01027
G1 X142.646 Y79.026 E0.02062
G1 X142.266 Y79.419 E0.01714
G1 X141.765 Y79.769 E0.01915
G1 X141.184 Y80.022 E0.01987
G1 X140.536 Y80.169 E0.02084
G1 X139.832 Y80.216 E0.02212
G1 X139.126 Y80.176 E0.02218
G1 X138.485 Y80.051 E0.02048
G1 X137.906 Y79.834 E0.01938
G1 X137.395 Y79.512 E0.01894
G1 X136.955 Y79.090 E0.01910
G1 X136.590 Y78.573 E0.01986
G1 X136.317 Y77.963 E0.02095
G1 X136.295 Y77.872 E0.00296
G1 X136.295 Y80.087 E0.06947
G1 X133.265 Y80.087 E0.09501
G1 X133.265 Y76.519 E0.11187
G1 X133.189 Y76.718 E0.00668
G1 X132.776 Y77.247 E0.02105
G1 X132.203 Y77.632 E0.02164
G1 X131.509 Y77.847 E0.02277
G1 X130.744 Y77.911 E0.02409
G1 X130.300 Y77.911 E0.01391
G1 X130.300 Y80.087 E0.06823
G1 X125.059 Y80.087 E0.16434
G1 X124.044 Y78.242 E0.06603
G1 X124.044 Y80.087 E0.05785
G1 X121.014 Y80.087 E0.09501
G1 X121.014 Y78.174 E0.05997
G1 X120.893 Y78.479 E0.01028
G1 X120.528 Y79.026 E0.02062
G1 X120.148 Y79.419 E0.01714
G1 X119.647 Y79.769 E0.01915
G1 X119.066 Y80.022 E0.01987
G1 X118.418 Y80.169 E0.02084
G1 X117.714 Y80.216 E0.02212
G1 X117.008 Y80.176 E0.02218
G1 X116.367 Y80.051 E0.02048
G1 X115.788 Y79.834 E0.01938
G1 X115.277 Y79.512 E0.01894
G1 X114.837 Y79.090 E0.01910
G1 X114.472 Y78.573 E0.01986
G1 X114.401 Y78.415 E0.00544
G1 X114.296 Y78.648 E0.00802
G1 X114.033 Y79.057 E0.01524
G1 X113.716 Y79.410 E0.01489
G1 X113.348 Y79.703 E0.01474
G1 X112.932 Y79.933 E0.01491
G1 X112.462 Y80.094 E0.01558
G1 X111.939 Y80.186 E0.01664
G1 X111.368 Y80.216 E0.01794
G1 X110.690 Y80.181 E0.02128
G1 X110.076 Y80.072 E0.01955
G1 X109.522 Y79.878 E0.01841
G1 X109.023 Y79.577 E0.01827
G1 X108.583 Y79.165 E0.01889
G1 X108.200 Y78.647 E0.02020
G1 X108.119 Y78.479 E0.00586
G1 X107.879 Y78.955 E0.01673
G1 X107.570 Y79.345 E0.01560
G1 X107.188 Y79.666 E0.01565
G1 X106.744 Y79.914 E0.01596
G1 X106.241 Y80.086 E0.01665
G1 X105.685 Y80.184 E0.01769
G1 X105.072 Y80.216 E0.01926
G1 X104.072 Y80.145 E0.03142
G1 X103.229 Y79.910 E0.02745
G1 X102.581 Y79.482 E0.02434
G1 X102.145 Y78.926 E0.02216
G1 X101.868 Y78.304 E0.02136
G1 X101.624 Y77.020 E0.04098
G1 X102.879 Y76.939 E0.03945
G1 X102.646 Y76.782 E0.00881
G1 X102.249 Y76.327 E0.01894
G1 X102.004 Y75.782 E0.01874
G1 X101.926 Y75.188 E0.01879
G1 X101.968 Y74.760 E0.01348
G1 X102.089 Y74.359 E0.01314
G1 X102.291 Y73.977 E0.01352
G1 X102.574 Y73.630 E0.01407
G1 X102.931 Y73.341 E0.01439
G1 X103.352 Y73.114 E0.01499
G1 X103.847 Y72.953 E0.01631
G1 X104.414 Y72.861 E0.01803
G1 X105.058 Y72.832 E0.02020
G1 X105.842 Y72.884 E0.02465
G1 X106.539 Y73.052 E0.02246
G1 X107.139 Y73.356 E0.02111
G1 X107.615 Y73.816 E0.02075
G1 X107.933 Y74.410 E0.02112
G1 X108.013 Y74.752 E0.01099
G1 X108.080 Y74.557 E0.00644
G1 X108.622 Y73.803 E0.02912
G1 X109.364 Y73.252 E0.02899
G1 X110.259 Y72.932 E0.02979
G1 X111.271 Y72.831 E0.03190
G1 X112.075 Y72.890 E0.02526
G1 X112.785 Y73.074 E0.02300
G1 X113.397 Y73.399 E0.02172
G1 X113.897 Y73.859 E0.02132
G1 X114.288 Y74.436 E0.02185
G1 X114.383 Y74.661 E0.00763
G1 X114.411 Y74.581 E0.00264
G1 X114.963 Y73.822 E0.02944
G1 X115.713 Y73.262 E0.02936
G1 X116.614 Y72.934 E0.03005
G1 X117.637 Y72.830 E0.03224
G1 X118.678 Y72.932 E0.03278
G1 X119.587 Y73.253 E0.03024
G1 X120.339 Y73.805 E0.02926
G1 X120.889 Y74.555 E0.02915
G1 X121.014 Y74.907 E0.01171
G1 X121.014 Y73.021 E0.05914
G1 F8640
G1 X124.305 Y72.967 E-0.76000
G1 E-0.04000 F2100.00000
G1 Z0.800 F10800.000
G1 X136.866 Y74.759
G1 Z0.200
G1 E0.80000 F2100.00000
G1 F1800
G1 X137.352 Y74.090 E0.02593
G1 X138.012 Y73.597 E0.02583
G1 X138.817 Y73.305 E0.02684
G1 X139.756 Y73.209 E0.02960
G1 X140.713 Y73.303 E0.03016
G1 X141.527 Y73.590 E0.02705
G1 X142.188 Y74.075 E0.02569
G1 X142.670 Y74.734 E0.02560
G1 X142.956 Y75.538 E0.02677
G1 X143.049 Y76.475 E0.02952
