; G-Code generated by Simplify3D(R) Version 4.0.0
; Jan 1, 2018 at 2:39:55 PM
; Settings Summary
;   processName,Dual Layer
;   applyToModels,ikea-korken-label-trattkantarell,ikea-korken-label-trattkantarell(2)
;   profileName,Prusa Research Original Prusa i3 MK2 (modified)
;   profileVersion,2017-07-23 22:27:18
;   baseProfile,
;   printMaterial,PLA
;   printQuality,Fast
;   printExtruders,
;   extruderName,Primary Extruder
;   extruderToolheadNumber,0
;   extruderDiameter,0.4
;   extruderAutoWidth,1
;   extruderWidth,0.48
;   extrusionMultiplier,1
;   extruderUseRetract,1
;   extruderRetractionDistance,1.5
;   extruderExtraRestartDistance,0
;   extruderRetractionZLift,0
;   extruderRetractionSpeed,1800
;   extruderUseCoasting,1
;   extruderCoastingDistance,0.2
;   extruderUseWipe,1
;   extruderWipeDistance,2
;   primaryExtruder,0
;   layerHeight,0.35
;   topSolidLayers,2
;   bottomSolidLayers,2
;   perimeterOutlines,2
;   printPerimetersInsideOut,1
;   startPointOption,2
;   startPointOriginX,0
;   startPointOriginY,0
;   sequentialIslands,0
;   spiralVaseMode,0
;   firstLayerHeightPercentage,100
;   firstLayerWidthPercentage,110
;   firstLayerUnderspeed,0.5
;   useRaft,0
;   raftExtruder,0
;   raftTopLayers,3
;   raftBaseLayers,2
;   raftOffset,3
;   raftSeparationDistance,0.14
;   raftTopInfill,100
;   aboveRaftSpeedMultiplier,0.3
;   useSkirt,1
;   skirtExtruder,0
;   skirtLayers,1
;   skirtOutlines,1
;   skirtOffset,4
;   usePrimePillar,0
;   primePillarExtruder,999
;   primePillarWidth,12
;   primePillarLocation,7
;   primePillarSpeedMultiplier,1
;   useOozeShield,0
;   oozeShieldExtruder,999
;   oozeShieldOffset,2
;   oozeShieldOutlines,1
;   oozeShieldSidewallShape,1
;   oozeShieldSidewallAngle,30
;   oozeShieldSpeedMultiplier,1
;   infillExtruder,0
;   internalInfillPattern,Fast Honeycomb
;   externalInfillPattern,Rectilinear
;   infillPercentage,15
;   outlineOverlapPercentage,20
;   infillExtrusionWidthPercentage,100
;   minInfillLength,5
;   infillLayerInterval,1
;   internalInfillAngles,0
;   overlapInternalInfillAngles,0
;   externalInfillAngles,45,-45
;   generateSupport,0
;   supportExtruder,0
;   supportInfillPercentage,25
;   supportExtraInflation,0
;   supportBaseLayers,0
;   denseSupportExtruder,0
;   denseSupportLayers,0
;   denseSupportInfillPercentage,70
;   supportLayerInterval,1
;   supportHorizontalPartOffset,0.3
;   supportUpperSeparationLayers,1
;   supportLowerSeparationLayers,1
;   supportType,0
;   supportGridSpacing,4
;   maxOverhangAngle,45
;   supportAngles,0
;   temperatureName,Primary Extruder,Heated Bed
;   temperatureNumber,0,0
;   temperatureSetpointCount,1,1
;   temperatureSetpointLayers,1,1
;   temperatureSetpointTemperatures,210,60
;   temperatureStabilizeAtStartup,1,1
;   temperatureHeatedBed,0,1
;   temperatureRelayBetweenLayers,0,0
;   temperatureRelayBetweenLoops,0,0
;   fanLayers,1,2
;   fanSpeeds,0,100
;   blipFanToFullPower,0
;   adjustSpeedForCooling,1
;   minSpeedLayerTime,15
;   minCoolingSpeedSlowdown,20
;   increaseFanForCooling,0
;   minFanLayerTime,45
;   maxCoolingFanSpeed,100
;   increaseFanForBridging,0
;   bridgingFanSpeed,100
;   use5D,1
;   relativeEdistances,0
;   allowEaxisZeroing,1
;   independentExtruderAxes,0
;   includeM10123,0
;   stickySupport,1
;   applyToolheadOffsets,0
;   gcodeXoffset,0
;   gcodeYoffset,0
;   gcodeZoffset,0
;   overrideMachineDefinition,1
;   machineTypeOverride,0
;   strokeXoverride,250
;   strokeYoverride,210
;   strokeZoverride,200
;   originOffsetXoverride,0
;   originOffsetYoverride,0
;   originOffsetZoverride,0
;   homeXdirOverride,-1
;   homeYdirOverride,-1
;   homeZdirOverride,-1
;   flipXoverride,1
;   flipYoverride,-1
;   flipZoverride,1
;   toolheadOffsets,0,0|0,0|0,0|0,0|0,0|0,0
;   overrideFirmwareConfiguration,1
;   firmwareTypeOverride,RepRap (Marlin/Repetier/Sprinter)
;   GPXconfigOverride,r2
;   baudRateOverride,250000
;   overridePrinterModels,1
;   printerModelsOverride
;   startingGcode,M115 U3.0.7 ; use the latest firmware version,G28 W ; home all axes without mesh bed leveling,G80 ; run mesh bed leveling routine,G1 Y-3.0 F1000.0 ; prepare to prime,G92 E0 ; reset extrusion distance,G1 X60.0 E9.0  F1000.0 ; priming,G1 X100.0 E12.5  F1000.0 ; priming
;   layerChangeGcode,
;   retractionGcode,
;   toolChangeGcode,
;   endingGcode,M106 S0 ; turn off cooling fan,M104 S0 ; turn off extruder,M140 S0 ; turn off bed,G1 X0 Y200 ; part removal,M84 ; disable motors
;   exportFileFormat,gcode
;   celebration,0
;   celebrationSong,Random Song
;   postProcessing,|{REPLACE "\n; layer 5," "\n;PAUSE\nM83\nG1 E-1.000000 F6000\nG91\nG1 Z5.000\nG90\nG1 X10 Y10 F6000\nM84 E0\nM0\nM82\nG92 E0\n;layer 5,"}
;   defaultSpeed,2400
;   outlineUnderspeed,0.8
;   solidInfillUnderspeed,0.8
;   supportUnderspeed,0.8
;   rapidXYspeed,4800
;   rapidZspeed,1002
;   minBridgingArea,50
;   bridgingExtraInflation,0
;   bridgingExtrusionMultiplier,1
;   bridgingSpeedMultiplier,1
;   useFixedBridgingAngle,0
;   fixedBridgingAngle,0
;   applyBridgingToPerimeters,0
;   filamentDiameters,1.75|1.75|1.75|1.75|1.75|1.75
;   filamentPricesPerKg,46|46|46|46|46|46
;   filamentDensities,1.25|1.25|1.25|1.25|1.25|1.25
;   useMinPrintHeight,1
;   minPrintHeight,0
;   useMaxPrintHeight,1
;   maxPrintHeight,235
;   useDiaphragm,0
;   diaphragmLayerInterval,20
;   robustSlicing,1
;   mergeAllIntoSolid,0
;   onlyRetractWhenCrossingOutline,1
;   retractBetweenLayers,1
;   useRetractionMinTravel,0
;   retractionMinTravel,3
;   retractWhileWiping,1
;   onlyWipeOutlines,1
;   avoidCrossingOutline,0
;   maxMovementDetourFactor,3
;   toolChangeRetractionDistance,12
;   toolChangeExtraRestartDistance,-0.5
;   toolChangeRetractionSpeed,600
;   externalThinWallType,0
;   internalThinWallType,2
;   thinWallAllowedOverlapPercentage,25
;   singleExtrusionMinLength,1
;   singleExtrusionMinPrintingWidthPercentage,50
;   singleExtrusionMaxPrintingWidthPercentage,200
;   singleExtrusionEndpointExtension,0.2
;   horizontalSizeCompensation,0
G90
M82
M106 S0
M140 S60
M190 S60
M104 S210 T0
M109 S210 T0
M115 U3.0.7 ; use the latest firmware version
G28 W ; home all axes without mesh bed leveling
G80 ; run mesh bed leveling routine
G1 Y-3.0 F1000.0 ; prepare to prime
G92 E0 ; reset extrusion distance
G1 X60.0 E9.0  F1000.0 ; priming
G1 X100.0 E12.5  F1000.0 ; priming
G92 E0
G1 E-1.5000 F1800
G1 Z0.350 F1002
; process Dual Layer
; layer 1, Z = 0.350
T0
; tool H0.350 W0.528
; skirt
G1 X72.589 Y41.966 F4800
G1 E0.0000 F540
G92 E0
G1 X72.633 Y41.901 E0.0061 F1200
G1 X74.844 Y40.216 E0.2196
G1 X74.918 Y40.191 E0.2257
G1 X82.785 Y40.191 E0.8300
G1 X82.828 Y40.095 E0.8381
G1 X82.829 Y40.091 E0.8384
G1 X84.022 Y37.629 E1.0486
G1 X84.024 Y37.625 E1.0489
G1 X84.083 Y37.512 E1.0588
G1 X84.085 Y37.508 E1.0591
G1 X85.430 Y35.122 E1.2695
G1 X85.432 Y35.119 E1.2698
G1 X85.498 Y35.009 E1.2797
G1 X85.500 Y35.006 E1.2800
G1 X86.991 Y32.707 E1.4904
G1 X86.993 Y32.704 E1.4907
G1 X87.066 Y32.599 E1.5006
G1 X87.068 Y32.596 E1.5009
G1 X88.699 Y30.395 E1.7113
G1 X88.701 Y30.392 E1.7116
G1 X88.781 Y30.291 E1.7215
G1 X88.783 Y30.288 E1.7218
G1 X90.548 Y28.193 E1.9322
G1 X90.550 Y28.190 E1.9325
G1 X90.636 Y28.095 E1.9424
G1 X90.638 Y28.092 E1.9426
G1 X92.530 Y26.110 E2.1531
G1 X92.532 Y26.108 E2.1534
G1 X92.624 Y26.018 E2.1633
G1 X92.626 Y26.015 E2.1635
G1 X94.637 Y24.155 E2.3740
G1 X94.640 Y24.152 E2.3743
G1 X94.737 Y24.068 E2.3841
G1 X94.740 Y24.066 E2.3844
G1 X96.862 Y22.334 E2.5949
G1 X96.865 Y22.332 E2.5952
G1 X96.967 Y22.254 E2.6050
G1 X96.970 Y22.252 E2.6053
G1 X99.196 Y20.655 E2.8158
G1 X99.199 Y20.653 E2.8161
G1 X99.306 Y20.582 E2.8259
G1 X99.309 Y20.580 E2.8262
G1 X101.630 Y19.125 E3.0367
G1 X101.633 Y19.123 E3.0370
G1 X101.744 Y19.058 E3.0468
G1 X101.747 Y19.056 E3.0471
G1 X104.154 Y17.749 E3.2576
G1 X104.158 Y17.747 E3.2579
G1 X104.272 Y17.689 E3.2677
G1 X104.275 Y17.688 E3.2680
G1 X106.759 Y16.532 E3.4785
G1 X106.763 Y16.530 E3.4788
G1 X106.880 Y16.480 E3.4886
G1 X106.884 Y16.479 E3.4889
G1 X109.435 Y15.480 E3.6994
G1 X109.438 Y15.478 E3.6997
G1 X109.559 Y15.435 E3.7095
G1 X109.562 Y15.434 E3.7098
G1 X112.170 Y14.596 E3.9203
G1 X112.174 Y14.595 E3.9206
G1 X112.297 Y14.559 E3.9304
G1 X112.301 Y14.558 E3.9307
G1 X114.956 Y13.884 E4.1412
G1 X114.959 Y13.883 E4.1415
G1 X115.085 Y13.855 E4.1513
G1 X115.088 Y13.854 E4.1516
G1 X117.780 Y13.346 E4.3621
G1 X117.784 Y13.345 E4.3624
G1 X117.910 Y13.326 E4.3722
G1 X117.914 Y13.325 E4.3725
G1 X120.632 Y12.985 E4.5830
G1 X120.636 Y12.985 E4.5833
G1 X120.764 Y12.973 E4.5931
G1 X120.767 Y12.972 E4.5934
G1 X123.502 Y12.802 E4.8039
G1 X123.505 Y12.802 E4.8042
G1 X123.633 Y12.798 E4.8140
G1 X123.637 Y12.798 E4.8143
G1 X126.377 Y12.798 E5.0248
G1 X126.380 Y12.798 E5.0250
G1 X126.508 Y12.802 E5.0349
G1 X126.512 Y12.802 E5.0352
G1 X129.246 Y12.972 E5.2457
G1 X129.250 Y12.973 E5.2459
G1 X129.378 Y12.985 E5.2558
G1 X129.381 Y12.985 E5.2561
G1 X132.100 Y13.325 E5.4665
G1 X132.103 Y13.326 E5.4668
G1 X132.230 Y13.345 E5.4767
G1 X132.234 Y13.346 E5.4770
G1 X134.926 Y13.854 E5.6874
G1 X134.929 Y13.855 E5.6877
G1 X135.054 Y13.883 E5.6976
G1 X135.058 Y13.884 E5.6979
G1 X137.713 Y14.558 E5.9083
G1 X137.717 Y14.559 E5.9086
G1 X137.840 Y14.595 E5.9185
G1 X137.843 Y14.596 E5.9188
G1 X140.451 Y15.434 E6.1292
G1 X140.455 Y15.435 E6.1295
G1 X140.576 Y15.478 E6.1394
G1 X140.579 Y15.480 E6.1397
G1 X143.130 Y16.479 E6.3501
G1 X143.133 Y16.480 E6.3504
G1 X143.251 Y16.530 E6.3603
G1 X143.255 Y16.532 E6.3606
G1 X145.739 Y17.688 E6.5710
G1 X145.742 Y17.689 E6.5713
G1 X145.856 Y17.747 E6.5812
G1 X145.860 Y17.749 E6.5815
G1 X148.267 Y19.056 E6.7919
G1 X148.270 Y19.058 E6.7922
G1 X148.381 Y19.123 E6.8021
G1 X148.384 Y19.125 E6.8023
G1 X150.705 Y20.580 E7.0128
G1 X150.708 Y20.582 E7.0131
G1 X150.815 Y20.653 E7.0230
G1 X150.818 Y20.655 E7.0232
G1 X153.044 Y22.252 E7.2337
G1 X153.047 Y22.254 E7.2340
G1 X153.149 Y22.332 E7.2438
G1 X153.152 Y22.334 E7.2441
G1 X155.274 Y24.066 E7.4546
G1 X155.277 Y24.068 E7.4549
G1 X155.374 Y24.152 E7.4647
G1 X155.377 Y24.155 E7.4650
G1 X157.388 Y26.015 E7.6755
G1 X157.390 Y26.018 E7.6758
G1 X157.482 Y26.108 E7.6856
G1 X157.484 Y26.110 E7.6859
G1 X159.376 Y28.092 E7.8964
G1 X159.378 Y28.095 E7.8967
G1 X159.464 Y28.190 E7.9065
G1 X159.466 Y28.193 E7.9068
G1 X161.231 Y30.288 E8.1173
G1 X161.233 Y30.291 E8.1176
G1 X161.312 Y30.392 E8.1274
G1 X161.315 Y30.395 E8.1277
G1 X162.946 Y32.596 E8.3382
G1 X162.948 Y32.599 E8.3385
G1 X163.021 Y32.704 E8.3483
G1 X163.023 Y32.707 E8.3486
G1 X164.514 Y35.006 E8.5591
G1 X164.516 Y35.009 E8.5594
G1 X164.582 Y35.119 E8.5692
G1 X164.584 Y35.122 E8.5695
G1 X165.929 Y37.508 E8.7800
G1 X165.931 Y37.512 E8.7803
G1 X165.990 Y37.625 E8.7901
G1 X165.992 Y37.628 E8.7904
G1 X167.185 Y40.091 E9.0007
G1 X167.186 Y40.095 E9.0009
G1 X167.229 Y40.191 E9.0090
G1 X175.082 Y40.191 E9.6123
G1 X175.156 Y40.216 E9.6184
G1 X177.367 Y41.900 E9.8319
G1 X177.411 Y41.966 E9.8380
G1 X178.511 Y45.962 E10.1564
G1 X178.512 Y45.965 E10.1567
G1 X178.538 Y46.072 E10.1651
G1 X178.539 Y46.075 E10.1653
G1 X179.139 Y48.820 E10.3812
G1 X179.140 Y48.823 E10.3815
G1 X179.161 Y48.930 E10.3899
G1 X179.161 Y48.933 E10.3901
G1 X179.616 Y51.706 E10.6060
G1 X179.616 Y51.709 E10.6062
G1 X179.631 Y51.818 E10.6147
G1 X179.631 Y51.821 E10.6149
G1 X179.938 Y54.614 E10.8308
G1 X179.938 Y54.617 E10.8310
G1 X179.947 Y54.726 E10.8394
G1 X179.947 Y54.729 E10.8397
G1 X180.105 Y57.535 E11.0556
G1 X180.105 Y57.538 E11.0558
G1 X180.109 Y57.647 E11.0642
G1 X180.109 Y57.651 E11.0645
G1 X180.118 Y60.460 E11.2803
G1 X180.118 Y60.464 E11.2806
G1 X180.115 Y60.573 E11.2890
G1 X180.115 Y60.576 E11.2892
G1 X179.975 Y63.383 E11.5051
G1 X179.975 Y63.386 E11.5054
G1 X179.966 Y63.495 E11.5138
G1 X179.966 Y63.498 E11.5140
G1 X179.677 Y66.293 E11.7299
G1 X179.677 Y66.296 E11.7302
G1 X179.663 Y66.405 E11.7386
G1 X179.662 Y66.408 E11.7388
G1 X179.226 Y69.184 E11.9547
G1 X179.225 Y69.187 E11.9549
G1 X179.205 Y69.294 E11.9633
G1 X179.205 Y69.297 E11.9636
G1 X178.621 Y72.046 E12.1795
G1 X178.620 Y72.049 E12.1797
G1 X178.595 Y72.155 E12.1881
G1 X178.594 Y72.159 E12.1884
G1 X177.518 Y76.169 E12.5074
G1 X177.474 Y76.235 E12.5135
G1 X175.257 Y77.935 E12.7281
G1 X175.182 Y77.961 E12.7342
G1 X167.140 Y77.961 E13.3521
G1 X166.636 Y79.088 E13.4469
G1 X166.635 Y79.091 E13.4472
G1 X166.579 Y79.206 E13.4570
G1 X166.577 Y79.209 E13.4573
G1 X165.307 Y81.636 E13.6677
G1 X165.306 Y81.639 E13.6680
G1 X165.243 Y81.751 E13.6779
G1 X165.241 Y81.754 E13.6782
G1 X163.822 Y84.098 E13.8886
G1 X163.820 Y84.101 E13.8889
G1 X163.750 Y84.208 E13.8988
G1 X163.748 Y84.211 E13.8991
G1 X162.187 Y86.462 E14.1095
G1 X162.185 Y86.465 E14.1098
G1 X162.108 Y86.568 E14.1197
G1 X162.106 Y86.571 E14.1200
G1 X160.408 Y88.720 E14.3304
G1 X160.405 Y88.723 E14.3307
G1 X160.323 Y88.821 E14.3406
G1 X160.320 Y88.824 E14.3409
G1 X158.491 Y90.864 E14.5513
G1 X158.489 Y90.867 E14.5516
G1 X158.400 Y90.959 E14.5615
G1 X158.398 Y90.962 E14.5618
G1 X156.446 Y92.884 E14.7722
G1 X156.443 Y92.886 E14.7725
G1 X156.349 Y92.973 E14.7824
G1 X156.346 Y92.976 E14.7826
G1 X154.278 Y94.773 E14.9931
G1 X154.275 Y94.775 E14.9934
G1 X154.176 Y94.856 E15.0033
G1 X154.173 Y94.859 E15.0035
G1 X151.998 Y96.523 E15.2140
G1 X151.995 Y96.526 E15.2143
G1 X151.890 Y96.600 E15.2242
G1 X151.887 Y96.602 E15.2244
G1 X149.613 Y98.129 E15.4349
G1 X149.609 Y98.131 E15.4352
G1 X149.501 Y98.199 E15.4450
G1 X149.498 Y98.201 E15.4453
G1 X147.132 Y99.583 E15.6558
G1 X147.129 Y99.585 E15.6561
G1 X147.017 Y99.646 E15.6659
G1 X147.013 Y99.648 E15.6662
G1 X144.567 Y100.880 E15.8767
G1 X144.563 Y100.882 E15.8770
G1 X144.447 Y100.936 E15.8868
G1 X144.444 Y100.937 E15.8871
G1 X141.925 Y102.015 E16.0976
G1 X141.922 Y102.016 E16.0979
G1 X141.802 Y102.063 E16.1077
G1 X141.799 Y102.064 E16.1080
G1 X139.218 Y102.983 E16.3185
G1 X139.215 Y102.985 E16.3188
G1 X139.093 Y103.024 E16.3286
G1 X139.089 Y103.025 E16.3289
G1 X136.456 Y103.782 E16.5394
G1 X136.453 Y103.783 E16.5397
G1 X136.328 Y103.815 E16.5495
G1 X136.325 Y103.815 E16.5498
G1 X133.650 Y104.407 E16.7603
G1 X133.646 Y104.408 E16.7606
G1 X133.520 Y104.432 E16.7704
G1 X133.517 Y104.432 E16.7707
G1 X130.810 Y104.857 E16.9812
G1 X130.807 Y104.857 E16.9815
G1 X130.679 Y104.873 E16.9913
G1 X130.676 Y104.874 E16.9916
G1 X129.425 Y104.991 E17.0881
G1 X132.100 Y105.325 E17.2952
G1 X132.103 Y105.326 E17.2955
G1 X132.230 Y105.345 E17.3054
G1 X132.234 Y105.346 E17.3057
G1 X134.926 Y105.854 E17.5161
G1 X134.929 Y105.855 E17.5164
G1 X135.054 Y105.883 E17.5263
G1 X135.058 Y105.884 E17.5266
G1 X137.713 Y106.558 E17.7370
G1 X137.717 Y106.559 E17.7373
G1 X137.840 Y106.595 E17.7472
G1 X137.843 Y106.596 E17.7474
G1 X140.451 Y107.434 E17.9579
G1 X140.455 Y107.435 E17.9582
G1 X140.576 Y107.478 E17.9680
G1 X140.579 Y107.480 E17.9683
G1 X143.130 Y108.479 E18.1788
G1 X143.133 Y108.480 E18.1791
G1 X143.251 Y108.530 E18.1890
G1 X143.255 Y108.532 E18.1892
G1 X145.739 Y109.688 E18.3997
G1 X145.742 Y109.689 E18.4000
G1 X145.856 Y109.747 E18.4098
G1 X145.860 Y109.749 E18.4101
G1 X148.267 Y111.056 E18.6206
G1 X148.270 Y111.058 E18.6209
G1 X148.381 Y111.123 E18.6307
G1 X148.384 Y111.125 E18.6310
G1 X150.705 Y112.580 E18.8415
G1 X150.708 Y112.582 E18.8418
G1 X150.815 Y112.653 E18.8516
G1 X150.818 Y112.655 E18.8519
G1 X153.044 Y114.252 E19.0624
G1 X153.047 Y114.254 E19.0627
G1 X153.149 Y114.332 E19.0725
G1 X153.152 Y114.334 E19.0728
G1 X155.274 Y116.066 E19.2833
G1 X155.277 Y116.068 E19.2836
G1 X155.374 Y116.152 E19.2934
G1 X155.377 Y116.155 E19.2937
G1 X157.388 Y118.015 E19.5042
G1 X157.390 Y118.018 E19.5045
G1 X157.482 Y118.108 E19.5143
G1 X157.484 Y118.110 E19.5146
G1 X159.376 Y120.092 E19.7251
G1 X159.378 Y120.095 E19.7254
G1 X159.464 Y120.190 E19.7352
G1 X159.466 Y120.193 E19.7355
G1 X161.231 Y122.288 E19.9460
G1 X161.233 Y122.291 E19.9463
G1 X161.312 Y122.392 E19.9561
G1 X161.315 Y122.395 E19.9564
G1 X162.946 Y124.596 E20.1669
G1 X162.948 Y124.599 E20.1672
G1 X163.021 Y124.704 E20.1770
G1 X163.023 Y124.707 E20.1773
G1 X164.514 Y127.006 E20.3878
G1 X164.516 Y127.009 E20.3881
G1 X164.582 Y127.119 E20.3979
G1 X164.584 Y127.122 E20.3982
