; G-Code generated by Simplify3D(R) Version 4.0.0
; Jan 1, 2018 at 2:24:24 PM
; Settings Summary
;   processName,Dual Layer
;   applyToModels,ikea-korken-label-trattkantarell,ikea-korken-label-trattkantarell(2)
;   profileName,Prusa Research Original Prusa i3 MK2 (modified)
;   profileVersion,2017-07-23 22:27:18
;   baseProfile,
;   printMaterial,PLA
;   printQuality,Fast
;   printExtruders,
;   extruderName,Primary Extruder
;   extruderToolheadNumber,0
;   extruderDiameter,0.4
;   extruderAutoWidth,1
;   extruderWidth,0.48
;   extrusionMultiplier,1
;   extruderUseRetract,1
;   extruderRetractionDistance,1.5
;   extruderExtraRestartDistance,0
;   extruderRetractionZLift,0
;   extruderRetractionSpeed,1800
;   extruderUseCoasting,1
;   extruderCoastingDistance,0.2
;   extruderUseWipe,1
;   extruderWipeDistance,2
;   primaryExtruder,0
;   layerHeight,0.35
;   topSolidLayers,2
;   bottomSolidLayers,2
;   perimeterOutlines,2
;   printPerimetersInsideOut,1
;   startPointOption,2
;   startPointOriginX,0
;   startPointOriginY,0
;   sequentialIslands,0
;   spiralVaseMode,0
;   firstLayerHeightPercentage,100
;   firstLayerWidthPercentage,110
;   firstLayerUnderspeed,0.5
;   useRaft,0
;   raftExtruder,0
;   raftTopLayers,3
;   raftBaseLayers,2
;   raftOffset,3
;   raftSeparationDistance,0.14
;   raftTopInfill,100
;   aboveRaftSpeedMultiplier,0.3
;   useSkirt,1
;   skirtExtruder,0
;   skirtLayers,1
;   skirtOutlines,1
;   skirtOffset,4
;   usePrimePillar,0
;   primePillarExtruder,999
;   primePillarWidth,12
;   primePillarLocation,7
;   primePillarSpeedMultiplier,1
;   useOozeShield,0
;   oozeShieldExtruder,999
;   oozeShieldOffset,2
;   oozeShieldOutlines,1
;   oozeShieldSidewallShape,1
;   oozeShieldSidewallAngle,30
;   oozeShieldSpeedMultiplier,1
;   infillExtruder,0
;   internalInfillPattern,Fast Honeycomb
;   externalInfillPattern,Rectilinear
;   infillPercentage,15
;   outlineOverlapPercentage,20
;   infillExtrusionWidthPercentage,100
;   minInfillLength,5
;   infillLayerInterval,1
;   internalInfillAngles,0
;   overlapInternalInfillAngles,0
;   externalInfillAngles,45,-45
;   generateSupport,0
;   supportExtruder,0
;   supportInfillPercentage,25
;   supportExtraInflation,0
;   supportBaseLayers,0
;   denseSupportExtruder,0
;   denseSupportLayers,0
;   denseSupportInfillPercentage,70
;   supportLayerInterval,1
;   supportHorizontalPartOffset,0.3
;   supportUpperSeparationLayers,1
;   supportLowerSeparationLayers,1
;   supportType,0
;   supportGridSpacing,4
;   maxOverhangAngle,45
;   supportAngles,0
;   temperatureName,Primary Extruder,Heated Bed
;   temperatureNumber,0,0
;   temperatureSetpointCount,1,1
;   temperatureSetpointLayers,1,1
;   temperatureSetpointTemperatures,210,60
;   temperatureStabilizeAtStartup,1,1
;   temperatureHeatedBed,0,1
;   temperatureRelayBetweenLayers,0,0
;   temperatureRelayBetweenLoops,0,0
;   fanLayers,1,2
;   fanSpeeds,0,100
;   blipFanToFullPower,0
;   adjustSpeedForCooling,1
;   minSpeedLayerTime,15
;   minCoolingSpeedSlowdown,20
;   increaseFanForCooling,0
;   minFanLayerTime,45
;   maxCoolingFanSpeed,100
;   increaseFanForBridging,0
;   bridgingFanSpeed,100
;   use5D,1
;   relativeEdistances,0
;   allowEaxisZeroing,1
;   independentExtruderAxes,0
;   includeM10123,0
;   stickySupport,1
;   applyToolheadOffsets,0
;   gcodeXoffset,0
;   gcodeYoffset,0
;   gcodeZoffset,0
;   overrideMachineDefinition,1
;   machineTypeOverride,0
;   strokeXoverride,250
;   strokeYoverride,210
;   strokeZoverride,200
;   originOffsetXoverride,0
;   originOffsetYoverride,0
;   originOffsetZoverride,0
;   homeXdirOverride,-1
;   homeYdirOverride,-1
;   homeZdirOverride,-1
;   flipXoverride,1
;   flipYoverride,-1
;   flipZoverride,1
;   toolheadOffsets,0,0|0,0|0,0|0,0|0,0|0,0
;   overrideFirmwareConfiguration,1
;   firmwareTypeOverride,RepRap (Marlin/Repetier/Sprinter)
;   GPXconfigOverride,r2
;   baudRateOverride,250000
;   overridePrinterModels,1
;   printerModelsOverride
;   startingGcode,M115 U3.0.7 ; use the latest firmware version,G28 W ; home all axes without mesh bed leveling,G80 ; run mesh bed leveling routine,G1 Y-3.0 F1000.0 ; prepare to prime,G92 E0 ; reset extrusion distance,G1 X60.0 E9.0  F1000.0 ; priming,G1 X100.0 E12.5  F1000.0 ; priming
;   layerChangeGcode,
;   retractionGcode,
;   toolChangeGcode,
;   endingGcode,M106 S0 ; turn off cooling fan,M104 S0 ; turn off extruder,M140 S0 ; turn off bed,G1 X0 Y200 ; part removal,M84 ; disable motors
;   exportFileFormat,gcode
;   celebration,0
;   celebrationSong,Random Song
;   postProcessing,|{REPLACE "\n; layer 5," "\n;PAUSE\nM83\nG1 E-1.000000 F6000\nG91\nG1 Z5.000\nG90\nG1 X10 Y10 F6000\nM84 E0\nM0\nM82\nG92 E0\n;layer 5,"}
;   defaultSpeed,2400
;   outlineUnderspeed,0.8
;   solidInfillUnderspeed,0.8
;   supportUnderspeed,0.8
;   rapidXYspeed,4800
;   rapidZspeed,1002
;   minBridgingArea,50
;   bridgingExtraInflation,0
;   bridgingExtrusionMultiplier,1
;   bridgingSpeedMultiplier,1
;   useFixedBridgingAngle,0
;   fixedBridgingAngle,0
;   applyBridgingToPerimeters,0
;   filamentDiameters,1.75|1.75|1.75|1.75|1.75|1.75
;   filamentPricesPerKg,46|46|46|46|46|46
;   filamentDensities,1.25|1.25|1.25|1.25|1.25|1.25
;   useMinPrintHeight,1
;   minPrintHeight,0
;   useMaxPrintHeight,1
;   maxPrintHeight,235
;   useDiaphragm,0
;   diaphragmLayerInterval,20
;   robustSlicing,1
;   mergeAllIntoSolid,0
;   onlyRetractWhenCrossingOutline,1
;   retractBetweenLayers,1
;   useRetractionMinTravel,0
;   retractionMinTravel,3
;   retractWhileWiping,1
;   onlyWipeOutlines,1
;   avoidCrossingOutline,0
;   maxMovementDetourFactor,3
;   toolChangeRetractionDistance,12
;   toolChangeExtraRestartDistance,-0.5
;   toolChangeRetractionSpeed,600
;   externalThinWallType,0
;   internalThinWallType,2
;   thinWallAllowedOverlapPercentage,25
;   singleExtrusionMinLength,1
;   singleExtrusionMinPrintingWidthPercentage,50
;   singleExtrusionMaxPrintingWidthPercentage,200
;   singleExtrusionEndpointExtension,0.2
;   horizontalSizeCompensation,0
G90
M82
M106 S0
M140 S60
M190 S60
M104 S210 T0
M109 S210 T0
M115 U3.0.7 ; use the latest firmware version
G28 W ; home all axes without mesh bed leveling
G80 ; run mesh bed leveling routine
G1 Y-3.0 F1000.0 ; prepare to prime
G92 E0 ; reset extrusion distance
G1 X60.0 E9.0  F1000.0 ; priming
G1 X100.0 E12.5  F1000.0 ; priming
G92 E0
G1 E-1.5000 F1800
G1 Z0.350 F1002
; process Dual Layer
; layer 1, Z = 0.350
T0
; tool H0.350 W0.528
; skirt
G1 X75.326 Y40.360 F4800
G1 E0.0000 F540
G92 E0
G1 X75.401 Y40.335 E0.0061 F1200
G1 X83.168 Y40.335 E0.6028
G1 X83.201 Y40.262 E0.6090
G1 X83.202 Y40.258 E0.6093
G1 X84.384 Y37.818 E0.8176
G1 X84.386 Y37.815 E0.8179
G1 X84.445 Y37.701 E0.8277
G1 X84.447 Y37.698 E0.8280
G1 X85.779 Y35.333 E1.0365
G1 X85.781 Y35.330 E1.0368
G1 X85.848 Y35.221 E1.0467
G1 X85.850 Y35.217 E1.0470
G1 X87.327 Y32.940 E1.2555
G1 X87.329 Y32.937 E1.2558
G1 X87.402 Y32.832 E1.2656
G1 X87.404 Y32.829 E1.2659
G1 X89.020 Y30.648 E1.4744
G1 X89.022 Y30.645 E1.4747
G1 X89.101 Y30.545 E1.4846
G1 X89.104 Y30.542 E1.4848
G1 X90.852 Y28.466 E1.6934
G1 X90.854 Y28.463 E1.6937
G1 X90.940 Y28.368 E1.7035
G1 X90.942 Y28.365 E1.7038
G1 X92.816 Y26.401 E1.9123
G1 X92.819 Y26.399 E1.9126
G1 X92.910 Y26.309 E1.9224
G1 X92.913 Y26.306 E1.9227
G1 X94.905 Y24.463 E2.1313
G1 X94.908 Y24.461 E2.1315
G1 X95.005 Y24.377 E2.1414
G1 X95.008 Y24.374 E2.1417
G1 X97.110 Y22.659 E2.3502
G1 X97.113 Y22.656 E2.3505
G1 X97.215 Y22.578 E2.3603
G1 X97.218 Y22.576 E2.3606
G1 X99.424 Y20.995 E2.5691
G1 X99.427 Y20.992 E2.5694
G1 X99.533 Y20.921 E2.5793
G1 X99.536 Y20.919 E2.5796
G1 X101.836 Y19.478 E2.7881
G1 X101.839 Y19.476 E2.7884
G1 X101.950 Y19.411 E2.7982
G1 X101.953 Y19.409 E2.7985
G1 X104.338 Y18.114 E3.0070
G1 X104.341 Y18.112 E3.0073
G1 X104.456 Y18.054 E3.0172
G1 X104.459 Y18.053 E3.0174
G1 X106.920 Y16.908 E3.2260
G1 X106.923 Y16.906 E3.2262
G1 X107.041 Y16.856 E3.2361
G1 X107.045 Y16.854 E3.2364
G1 X109.572 Y15.865 E3.4449
G1 X109.575 Y15.863 E3.4452
G1 X109.696 Y15.820 E3.4550
G1 X109.699 Y15.819 E3.4553
G1 X112.283 Y14.989 E3.6638
G1 X112.287 Y14.987 E3.6641
G1 X112.410 Y14.952 E3.6740
G1 X112.414 Y14.951 E3.6743
G1 X115.044 Y14.283 E3.8828
G1 X115.048 Y14.282 E3.8831
G1 X115.173 Y14.254 E3.8929
G1 X115.177 Y14.253 E3.8932
G1 X117.843 Y13.750 E4.1017
G1 X117.847 Y13.749 E4.1020
G1 X117.974 Y13.729 E4.1119
G1 X117.977 Y13.729 E4.1122
G1 X120.670 Y13.392 E4.3207
G1 X120.674 Y13.392 E4.3210
G1 X120.802 Y13.380 E4.3308
G1 X120.805 Y13.379 E4.3311
G1 X123.514 Y13.211 E4.5396
G1 X123.518 Y13.210 E4.5399
G1 X123.646 Y13.206 E4.5498
G1 X123.650 Y13.206 E4.5500
G1 X126.364 Y13.206 E4.7586
G1 X126.368 Y13.206 E4.7588
G1 X126.496 Y13.210 E4.7687
G1 X126.499 Y13.211 E4.7690
G1 X129.208 Y13.379 E4.9775
G1 X129.212 Y13.380 E4.9778
G1 X129.340 Y13.392 E4.9876
G1 X129.343 Y13.392 E4.9879
G1 X132.036 Y13.729 E5.1964
G1 X132.040 Y13.729 E5.1967
G1 X132.167 Y13.749 E5.2066
G1 X132.170 Y13.750 E5.2069
G1 X134.837 Y14.253 E5.4154
G1 X134.841 Y14.254 E5.4157
G1 X134.966 Y14.282 E5.4255
G1 X134.970 Y14.283 E5.4258
G1 X137.600 Y14.951 E5.6343
G1 X137.604 Y14.952 E5.6346
G1 X137.727 Y14.987 E5.6445
G1 X137.730 Y14.989 E5.6448
G1 X140.314 Y15.819 E5.8533
G1 X140.318 Y15.820 E5.8536
G1 X140.438 Y15.863 E5.8634
G1 X140.442 Y15.865 E5.8637
G1 X142.969 Y16.854 E6.0722
G1 X142.973 Y16.856 E6.0725
G1 X143.090 Y16.906 E6.0824
G1 X143.094 Y16.908 E6.0826
G1 X145.555 Y18.053 E6.2912
G1 X145.558 Y18.054 E6.2914
G1 X145.672 Y18.112 E6.3013
G1 X145.676 Y18.114 E6.3016
G1 X148.061 Y19.409 E6.5101
G1 X148.064 Y19.411 E6.5104
G1 X148.174 Y19.476 E6.5202
G1 X148.178 Y19.478 E6.5205
G1 X150.477 Y20.919 E6.7290
G1 X150.480 Y20.921 E6.7293
G1 X150.587 Y20.992 E6.7392
G1 X150.590 Y20.995 E6.7395
G1 X152.796 Y22.576 E6.9480
G1 X152.799 Y22.578 E6.9483
G1 X152.900 Y22.656 E6.9581
G1 X152.903 Y22.659 E6.9584
G1 X155.006 Y24.374 E7.1669
G1 X155.009 Y24.377 E7.1672
G1 X155.106 Y24.461 E7.1771
G1 X155.109 Y24.463 E7.1773
G1 X157.101 Y26.306 E7.3859
G1 X157.103 Y26.309 E7.3862
G1 X157.195 Y26.399 E7.3960
G1 X157.197 Y26.401 E7.3963
G1 X159.071 Y28.365 E7.6048
G1 X159.074 Y28.368 E7.6051
G1 X159.159 Y28.463 E7.6149
G1 X159.162 Y28.466 E7.6152
G1 X160.910 Y30.542 E7.8238
G1 X160.912 Y30.545 E7.8240
G1 X160.992 Y30.645 E7.8339
G1 X160.994 Y30.648 E7.8342
G1 X162.610 Y32.829 E8.0427
G1 X162.612 Y32.832 E8.0430
G1 X162.685 Y32.937 E8.0528
G1 X162.687 Y32.940 E8.0531
G1 X164.164 Y35.217 E8.2616
G1 X164.166 Y35.221 E8.2619
G1 X164.232 Y35.330 E8.2718
G1 X164.234 Y35.333 E8.2721
G1 X165.567 Y37.698 E8.4806
G1 X165.569 Y37.701 E8.4809
G1 X165.628 Y37.815 E8.4907
G1 X165.630 Y37.818 E8.4910
G1 X166.812 Y40.258 E8.6993
G1 X166.813 Y40.262 E8.6996
G1 X166.846 Y40.335 E8.7058
G1 X174.599 Y40.335 E9.3015
G1 X174.674 Y40.360 E9.3075
G1 X176.885 Y42.045 E9.5211
G1 X176.929 Y42.110 E9.5271
G1 X178.022 Y46.081 E9.8436
G1 X178.023 Y46.084 E9.8438
G1 X178.049 Y46.190 E9.8522
G1 X178.050 Y46.193 E9.8525
G1 X178.644 Y48.912 E10.0663
G1 X178.645 Y48.915 E10.0665
G1 X178.666 Y49.022 E10.0749
G1 X178.666 Y49.026 E10.0752
G1 X179.116 Y51.772 E10.2890
G1 X179.117 Y51.775 E10.2893
G1 X179.132 Y51.884 E10.2977
G1 X179.132 Y51.887 E10.2979
G1 X179.436 Y54.653 E10.5117
G1 X179.436 Y54.657 E10.5120
G1 X179.445 Y54.766 E10.5204
G1 X179.445 Y54.769 E10.5206
G1 X179.602 Y57.548 E10.7345
G1 X179.602 Y57.551 E10.7347
G1 X179.605 Y57.660 E10.7431
G1 X179.605 Y57.663 E10.7434
G1 X179.614 Y60.446 E10.9572
G1 X179.614 Y60.450 E10.9574
G1 X179.611 Y60.559 E10.9658
G1 X179.611 Y60.562 E10.9661
G1 X179.472 Y63.342 E11.1799
G1 X179.472 Y63.345 E11.1802
G1 X179.464 Y63.454 E11.1886
G1 X179.464 Y63.457 E11.1888
G1 X179.177 Y66.226 E11.4027
G1 X179.177 Y66.229 E11.4029
G1 X179.163 Y66.337 E11.4113
G1 X179.163 Y66.340 E11.4115
G1 X178.730 Y69.090 E11.6254
G1 X178.730 Y69.093 E11.6256
G1 X178.710 Y69.200 E11.6340
G1 X178.709 Y69.204 E11.6343
G1 X178.131 Y71.926 E11.8481
G1 X178.131 Y71.929 E11.8483
G1 X178.105 Y72.036 E11.8567
G1 X178.104 Y72.039 E11.8570
G1 X177.035 Y76.023 E12.1740
G1 X176.991 Y76.089 E12.1800
G1 X174.774 Y77.790 E12.3947
G1 X174.699 Y77.815 E12.4008
G1 X166.757 Y77.815 E13.0110
G1 X166.268 Y78.909 E13.1031
G1 X166.267 Y78.913 E13.1033
G1 X166.211 Y79.028 E13.1131
G1 X166.210 Y79.031 E13.1134
G1 X164.951 Y81.435 E13.3219
G1 X164.950 Y81.438 E13.3222
G1 X164.887 Y81.550 E13.3320
G1 X164.885 Y81.553 E13.3323
G1 X163.479 Y83.875 E13.5409
G1 X163.477 Y83.878 E13.5411
G1 X163.408 Y83.986 E13.5510
G1 X163.405 Y83.989 E13.5513
G1 X161.858 Y86.219 E13.7598
G1 X161.856 Y86.222 E13.7601
G1 X161.780 Y86.325 E13.7699
G1 X161.778 Y86.328 E13.7702
G1 X160.095 Y88.457 E13.9787
G1 X160.093 Y88.460 E13.9790
G1 X160.010 Y88.558 E13.9889
G1 X160.008 Y88.561 E13.9892
G1 X158.196 Y90.582 E14.1977
G1 X158.193 Y90.584 E14.1980
G1 X158.105 Y90.677 E14.2078
G1 X158.102 Y90.680 E14.2081
G1 X156.168 Y92.584 E14.4166
G1 X156.165 Y92.586 E14.4169
G1 X156.071 Y92.673 E14.4268
G1 X156.069 Y92.676 E14.4270
G1 X154.020 Y94.456 E14.6356
G1 X154.017 Y94.459 E14.6358
G1 X153.918 Y94.540 E14.6457
G1 X153.915 Y94.542 E14.6460
G1 X151.759 Y96.191 E14.8545
G1 X151.756 Y96.194 E14.8548
G1 X151.652 Y96.268 E14.8646
G1 X151.649 Y96.270 E14.8649
G1 X149.396 Y97.783 E15.0735
G1 X149.392 Y97.785 E15.0737
G1 X149.284 Y97.853 E15.0836
G1 X149.281 Y97.855 E15.0839
G1 X146.937 Y99.224 E15.2924
G1 X146.934 Y99.226 E15.2927
G1 X146.821 Y99.287 E15.3025
G1 X146.818 Y99.289 E15.3028
G1 X144.394 Y100.509 E15.5113
G1 X144.391 Y100.511 E15.5116
G1 X144.275 Y100.565 E15.5215
G1 X144.271 Y100.567 E15.5218
G1 X141.776 Y101.634 E15.7303
G1 X141.772 Y101.636 E15.7306
G1 X141.653 Y101.683 E15.7404
G1 X141.650 Y101.684 E15.7407
G1 X139.093 Y102.594 E15.9492
G1 X139.090 Y102.596 E15.9495
G1 X138.968 Y102.635 E15.9593
G1 X138.964 Y102.636 E15.9596
G1 X136.356 Y103.386 E16.1682
G1 X136.352 Y103.387 E16.1684
G1 X136.228 Y103.418 E16.1783
G1 X136.224 Y103.419 E16.1786
G1 X133.574 Y104.006 E16.3871
G1 X133.570 Y104.006 E16.3874
G1 X133.445 Y104.030 E16.3972
G1 X133.441 Y104.031 E16.3975
G1 X130.760 Y104.451 E16.6060
G1 X130.756 Y104.452 E16.6063
G1 X130.629 Y104.468 E16.6162
G1 X130.625 Y104.468 E16.6165
G1 X127.923 Y104.721 E16.8250
G1 X127.919 Y104.721 E16.8253
G1 X127.791 Y104.729 E16.8351
G1 X127.787 Y104.729 E16.8354
G1 X125.075 Y104.814 E17.0439
G1 X125.071 Y104.814 E17.0442
G1 X124.943 Y104.814 E17.0541
G1 X124.939 Y104.814 E17.0544
G1 X122.226 Y104.729 E17.2629
G1 X122.222 Y104.729 E17.2632
G1 X122.095 Y104.721 E17.2730
G1 X122.091 Y104.721 E17.2733
G1 X119.389 Y104.468 E17.4818
G1 X119.385 Y104.468 E17.4821
G1 X119.258 Y104.452 E17.4920
G1 X119.254 Y104.451 E17.4922
G1 X116.573 Y104.031 E17.7008
G1 X116.569 Y104.030 E17.7010
G1 X116.443 Y104.006 E17.7109
G1 X116.440 Y104.006 E17.7112
G1 X113.790 Y103.419 E17.9197
G1 X113.786 Y103.418 E17.9200
G1 X113.662 Y103.387 E17.9298
G1 X113.658 Y103.386 E17.9301
G1 X111.050 Y102.636 E18.1387
G1 X111.046 Y102.635 E18.1389
G1 X110.924 Y102.596 E18.1488
G1 X110.921 Y102.594 E18.1491
G1 X108.364 Y101.684 E18.3576
G1 X108.360 Y101.683 E18.3579
G1 X108.241 Y101.636 E18.3677
G1 X108.238 Y101.634 E18.3680
G1 X105.743 Y100.567 E18.5765
G1 X105.739 Y100.565 E18.5768
G1 X105.623 Y100.511 E18.5867
G1 X105.620 Y100.509 E18.5869
G1 X103.196 Y99.289 E18.7955
G1 X103.192 Y99.287 E18.7958
G1 X103.080 Y99.226 E18.8056
G1 X103.076 Y99.224 E18.8059
G1 X100.733 Y97.855 E19.0144
G1 X100.730 Y97.853 E19.0147
G1 X100.621 Y97.785 E19.0245
G1 X100.618 Y97.783 E19.0248
G1 X98.364 Y96.270 E19.2334
G1 X98.361 Y96.268 E19.2336
G1 X98.257 Y96.194 E19.2435
G1 X98.254 Y96.191 E19.2438
G1 X96.099 Y94.542 E19.4523
G1 X96.096 Y94.540 E19.4526
G1 X95.997 Y94.459 E19.4624
G1 X95.994 Y94.456 E19.4627
G1 X93.945 Y92.676 E19.6712
G1 X93.942 Y92.673 E19.6715
G1 X93.848 Y92.586 E19.6814
G1 X93.846 Y92.584 E19.6817
G1 X91.912 Y90.680 E19.8902
G1 X91.909 Y90.677 E19.8905
G1 X91.821 Y90.584 E19.9003
G1 X91.818 Y90.582 E19.9006
G1 X90.006 Y88.561 E20.1091
G1 X90.004 Y88.558 E20.1094
G1 X89.921 Y88.460 E20.1193
G1 X89.919 Y88.457 E20.1195
G1 X88.236 Y86.328 E20.3281
