; G-Code generated by Simplify3D(R) Version 4.0.0
; Oct 18, 2017 at 3:26:48 PM
; Settings Summary
;   processName,Process1
;   applyToModels,ikea-korken-13cl-goats-weed,ikea-korken-13cl-goats-weed(2)
;   profileName,Prusa Research Original Prusa i3 MK2 (modified)
;   profileVersion,2017-07-23 22:27:18
;   baseProfile,
;   printMaterial,PLA
;   printQuality,Fast
;   printExtruders,
;   extruderName,Primary Extruder
;   extruderToolheadNumber,0
;   extruderDiameter,0.4
;   extruderAutoWidth,1
;   extruderWidth,0.48
;   extrusionMultiplier,1
;   extruderUseRetract,1
;   extruderRetractionDistance,1.5
;   extruderExtraRestartDistance,0
;   extruderRetractionZLift,0
;   extruderRetractionSpeed,1800
;   extruderUseCoasting,1
;   extruderCoastingDistance,0.2
;   extruderUseWipe,1
;   extruderWipeDistance,2
;   primaryExtruder,0
;   layerHeight,0.35
;   topSolidLayers,2
;   bottomSolidLayers,2
;   perimeterOutlines,2
;   printPerimetersInsideOut,1
;   startPointOption,2
;   startPointOriginX,0
;   startPointOriginY,0
;   sequentialIslands,0
;   spiralVaseMode,0
;   firstLayerHeightPercentage,100
;   firstLayerWidthPercentage,100
;   firstLayerUnderspeed,0.5
;   useRaft,0
;   raftExtruder,0
;   raftTopLayers,3
;   raftBaseLayers,2
;   raftOffset,3
;   raftSeparationDistance,0.14
;   raftTopInfill,100
;   aboveRaftSpeedMultiplier,0.3
;   useSkirt,1
;   skirtExtruder,0
;   skirtLayers,1
;   skirtOutlines,1
;   skirtOffset,4
;   usePrimePillar,0
;   primePillarExtruder,999
;   primePillarWidth,12
;   primePillarLocation,7
;   primePillarSpeedMultiplier,1
;   useOozeShield,0
;   oozeShieldExtruder,999
;   oozeShieldOffset,2
;   oozeShieldOutlines,1
;   oozeShieldSidewallShape,1
;   oozeShieldSidewallAngle,30
;   oozeShieldSpeedMultiplier,1
;   infillExtruder,0
;   internalInfillPattern,Fast Honeycomb
;   externalInfillPattern,Rectilinear
;   infillPercentage,33
;   outlineOverlapPercentage,20
;   infillExtrusionWidthPercentage,100
;   minInfillLength,5
;   infillLayerInterval,1
;   internalInfillAngles,0
;   overlapInternalInfillAngles,0
;   externalInfillAngles,45,-45
;   generateSupport,0
;   supportExtruder,0
;   supportInfillPercentage,25
;   supportExtraInflation,0
;   supportBaseLayers,0
;   denseSupportExtruder,0
;   denseSupportLayers,0
;   denseSupportInfillPercentage,70
;   supportLayerInterval,1
;   supportHorizontalPartOffset,0.3
;   supportUpperSeparationLayers,1
;   supportLowerSeparationLayers,1
;   supportType,0
;   supportGridSpacing,4
;   maxOverhangAngle,45
;   supportAngles,0
;   temperatureName,Primary Extruder,Heated Bed
;   temperatureNumber,0,0
;   temperatureSetpointCount,1,1
;   temperatureSetpointLayers,1,1
;   temperatureSetpointTemperatures,210,60
;   temperatureStabilizeAtStartup,1,1
;   temperatureHeatedBed,0,1
;   temperatureRelayBetweenLayers,0,0
;   temperatureRelayBetweenLoops,0,0
;   fanLayers,1,2
;   fanSpeeds,0,100
;   blipFanToFullPower,0
;   adjustSpeedForCooling,1
;   minSpeedLayerTime,15
;   minCoolingSpeedSlowdown,20
;   increaseFanForCooling,0
;   minFanLayerTime,45
;   maxCoolingFanSpeed,100
;   increaseFanForBridging,0
;   bridgingFanSpeed,100
;   use5D,1
;   relativeEdistances,0
;   allowEaxisZeroing,1
;   independentExtruderAxes,0
;   includeM10123,0
;   stickySupport,1
;   applyToolheadOffsets,0
;   gcodeXoffset,0
;   gcodeYoffset,0
;   gcodeZoffset,0
;   overrideMachineDefinition,1
;   machineTypeOverride,0
;   strokeXoverride,250
;   strokeYoverride,210
;   strokeZoverride,200
;   originOffsetXoverride,0
;   originOffsetYoverride,0
;   originOffsetZoverride,0
;   homeXdirOverride,-1
;   homeYdirOverride,-1
;   homeZdirOverride,-1
;   flipXoverride,1
;   flipYoverride,-1
;   flipZoverride,1
;   toolheadOffsets,0,0|0,0|0,0|0,0|0,0|0,0
;   overrideFirmwareConfiguration,1
;   firmwareTypeOverride,RepRap (Marlin/Repetier/Sprinter)
;   GPXconfigOverride,r2
;   baudRateOverride,250000
;   overridePrinterModels,1
;   printerModelsOverride
;   startingGcode,M115 U3.0.7 ; use the latest firmware version,G28 W ; home all axes without mesh bed leveling,G80 ; run mesh bed leveling routine,G1 Y-3.0 F1000.0 ; prepare to prime,G92 E0 ; reset extrusion distance,G1 X60.0 E9.0  F1000.0 ; priming,G1 X100.0 E12.5  F1000.0 ; priming
;   layerChangeGcode,
;   retractionGcode,
;   toolChangeGcode,
;   endingGcode,M106 S0 ; turn off cooling fan,M104 S0 ; turn off extruder,M140 S0 ; turn off bed,G1 X0 Y200 ; part removal,M84 ; disable motors
;   exportFileFormat,gcode
;   celebration,0
;   celebrationSong,Random Song
;   postProcessing,
;   defaultSpeed,2400
;   outlineUnderspeed,0.8
;   solidInfillUnderspeed,0.8
;   supportUnderspeed,0.8
;   rapidXYspeed,4800
;   rapidZspeed,1002
;   minBridgingArea,50
;   bridgingExtraInflation,0
;   bridgingExtrusionMultiplier,1
;   bridgingSpeedMultiplier,1
;   useFixedBridgingAngle,0
;   fixedBridgingAngle,0
;   applyBridgingToPerimeters,0
;   filamentDiameters,1.75|1.75|1.75|1.75|1.75|1.75
;   filamentPricesPerKg,46|46|46|46|46|46
;   filamentDensities,1.25|1.25|1.25|1.25|1.25|1.25
;   useMinPrintHeight,1
;   minPrintHeight,0
;   useMaxPrintHeight,1
;   maxPrintHeight,235
;   useDiaphragm,0
;   diaphragmLayerInterval,20
;   robustSlicing,1
;   mergeAllIntoSolid,0
;   onlyRetractWhenCrossingOutline,1
;   retractBetweenLayers,1
;   useRetractionMinTravel,0
;   retractionMinTravel,3
;   retractWhileWiping,1
;   onlyWipeOutlines,1
;   avoidCrossingOutline,0
;   maxMovementDetourFactor,3
;   toolChangeRetractionDistance,12
;   toolChangeExtraRestartDistance,-0.5
;   toolChangeRetractionSpeed,600
;   externalThinWallType,0
;   internalThinWallType,2
;   thinWallAllowedOverlapPercentage,25
;   singleExtrusionMinLength,1
;   singleExtrusionMinPrintingWidthPercentage,50
;   singleExtrusionMaxPrintingWidthPercentage,200
;   singleExtrusionEndpointExtension,0.2
;   horizontalSizeCompensation,0
G90
M82
M106 S0
M140 S60
M190 S60
M104 S210 T0
M109 S210 T0
M115 U3.0.7 ; use the latest firmware version
G28 W ; home all axes without mesh bed leveling
G80 ; run mesh bed leveling routine
G1 Y-3.0 F1000.0 ; prepare to prime
G92 E0 ; reset extrusion distance
G1 X60.0 E9.0  F1000.0 ; priming
G1 X100.0 E12.5  F1000.0 ; priming
G92 E0
G1 E-1.5000 F1800
G1 Z0.350 F1002
; process Process1
; layer 1, Z = 0.350
T0
; tool H0.350 W0.480
; skirt
G1 X88.077 Y60.021 F4800
G1 E0.0000 F540
G92 E0
G1 X90.287 Y58.337 E0.1941 F1200
G1 X90.362 Y58.312 E0.1996
G1 X95.186 Y58.312 E0.5366
G1 X95.704 Y57.243 E0.6195
G1 X95.706 Y57.240 E0.6198
G1 X95.765 Y57.126 E0.6287
G1 X95.767 Y57.123 E0.6290
G1 X96.709 Y55.451 E0.7631
G1 X96.711 Y55.448 E0.7633
G1 X96.777 Y55.338 E0.7723
G1 X96.779 Y55.335 E0.7725
G1 X97.824 Y53.725 E0.9066
G1 X97.826 Y53.722 E0.9068
G1 X97.899 Y53.616 E0.9158
G1 X97.901 Y53.613 E0.9160
G1 X99.044 Y52.071 E1.0501
G1 X99.046 Y52.068 E1.0504
G1 X99.125 Y51.968 E1.0593
G1 X99.128 Y51.965 E1.0596
G1 X100.364 Y50.497 E1.1936
G1 X100.366 Y50.494 E1.1939
G1 X100.452 Y50.399 E1.2028
G1 X100.454 Y50.396 E1.2031
G1 X101.779 Y49.007 E1.3371
G1 X101.782 Y49.005 E1.3374
G1 X101.873 Y48.915 E1.3464
G1 X101.876 Y48.912 E1.3466
G1 X103.285 Y47.609 E1.4807
G1 X103.288 Y47.606 E1.4809
G1 X103.384 Y47.522 E1.4899
G1 X103.387 Y47.520 E1.4901
G1 X104.874 Y46.307 E1.6242
G1 X104.877 Y46.304 E1.6244
G1 X104.979 Y46.227 E1.6334
G1 X104.982 Y46.224 E1.6337
G1 X106.542 Y45.106 E1.7677
G1 X106.545 Y45.104 E1.7680
G1 X106.651 Y45.032 E1.7769
G1 X106.654 Y45.030 E1.7772
G1 X108.281 Y44.011 E1.9112
G1 X108.284 Y44.009 E1.9115
G1 X108.394 Y43.945 E1.9204
G1 X108.398 Y43.943 E1.9207
G1 X110.084 Y43.026 E2.0548
G1 X110.087 Y43.025 E2.0550
G1 X110.202 Y42.967 E2.0640
G1 X110.205 Y42.965 E2.0642
G1 X111.945 Y42.156 E2.1983
G1 X111.949 Y42.154 E2.1985
G1 X112.067 Y42.104 E2.2075
G1 X112.070 Y42.103 E2.2077
G1 X113.857 Y41.403 E2.3418
G1 X113.861 Y41.401 E2.3421
G1 X113.981 Y41.358 E2.3510
G1 X113.985 Y41.357 E2.3513
G1 X115.812 Y40.770 E2.4853
G1 X115.815 Y40.769 E2.4856
G1 X115.939 Y40.733 E2.4945
G1 X115.942 Y40.732 E2.4948
G1 X117.802 Y40.260 E2.6288
G1 X117.806 Y40.259 E2.6291
G1 X117.931 Y40.231 E2.6381
G1 X117.935 Y40.230 E2.6383
G1 X119.821 Y39.874 E2.7724
G1 X119.824 Y39.874 E2.7726
G1 X119.951 Y39.854 E2.7816
G1 X119.955 Y39.853 E2.7818
G1 X121.859 Y39.615 E2.9159
G1 X121.863 Y39.615 E2.9161
G1 X121.990 Y39.603 E2.9251
G1 X121.994 Y39.602 E2.9254
G1 X123.910 Y39.483 E3.0594
G1 X123.913 Y39.483 E3.0597
G1 X124.041 Y39.479 E3.0686
G1 X124.045 Y39.479 E3.0689
G1 X125.964 Y39.479 E3.2029
G1 X125.968 Y39.479 E3.2032
G1 X126.096 Y39.483 E3.2121
G1 X126.100 Y39.483 E3.2124
G1 X128.015 Y39.602 E3.3465
G1 X128.019 Y39.603 E3.3467
G1 X128.147 Y39.615 E3.3557
G1 X128.150 Y39.615 E3.3559
G1 X130.055 Y39.853 E3.4900
G1 X130.058 Y39.854 E3.4902
G1 X130.185 Y39.874 E3.4992
G1 X130.189 Y39.874 E3.4994
G1 X132.075 Y40.230 E3.6335
G1 X132.078 Y40.231 E3.6338
G1 X132.203 Y40.259 E3.6427
G1 X132.207 Y40.260 E3.6430
G1 X134.067 Y40.732 E3.7770
G1 X134.071 Y40.733 E3.7773
G1 X134.194 Y40.769 E3.7862
G1 X134.197 Y40.770 E3.7865
G1 X136.025 Y41.357 E3.9205
G1 X136.028 Y41.358 E3.9208
G1 X136.149 Y41.401 E3.9298
G1 X136.152 Y41.403 E3.9300
G1 X137.939 Y42.103 E4.0641
G1 X137.943 Y42.104 E4.0643
G1 X138.061 Y42.154 E4.0733
G1 X138.064 Y42.156 E4.0735
G1 X139.804 Y42.965 E4.2076
G1 X139.808 Y42.967 E4.2079
G1 X139.922 Y43.025 E4.2168
G1 X139.925 Y43.026 E4.2171
G1 X141.612 Y43.943 E4.3511
G1 X141.615 Y43.945 E4.3514
G1 X141.726 Y44.009 E4.3603
G1 X141.729 Y44.011 E4.3606
G1 X143.355 Y45.030 E4.4946
G1 X143.358 Y45.032 E4.4949
G1 X143.465 Y45.104 E4.5038
G1 X143.468 Y45.106 E4.5041
G1 X145.027 Y46.224 E4.6382
G1 X145.030 Y46.227 E4.6384
G1 X145.132 Y46.304 E4.6474
G1 X145.135 Y46.307 E4.6476
G1 X146.622 Y47.520 E4.7817
G1 X146.625 Y47.522 E4.7819
G1 X146.722 Y47.606 E4.7909
G1 X146.724 Y47.609 E4.7911
G1 X148.133 Y48.912 E4.9252
G1 X148.136 Y48.915 E4.9255
G1 X148.227 Y49.005 E4.9344
G1 X148.230 Y49.007 E4.9347
G1 X149.555 Y50.396 E5.0687
G1 X149.558 Y50.399 E5.0690
G1 X149.643 Y50.494 E5.0779
G1 X149.646 Y50.497 E5.0782
G1 X150.882 Y51.965 E5.2122
G1 X150.884 Y51.968 E5.2125
G1 X150.964 Y52.068 E5.2215
G1 X150.966 Y52.071 E5.2217
G1 X152.108 Y53.613 E5.3558
G1 X152.110 Y53.616 E5.3560
G1 X152.184 Y53.722 E5.3650
G1 X152.186 Y53.725 E5.3652
G1 X153.230 Y55.335 E5.4993
G1 X153.232 Y55.338 E5.4996
G1 X153.298 Y55.448 E5.5085
G1 X153.300 Y55.451 E5.5088
G1 X154.243 Y57.123 E5.6428
G1 X154.244 Y57.126 E5.6431
G1 X154.304 Y57.240 E5.6520
G1 X154.305 Y57.243 E5.6523
G1 X154.823 Y58.312 E5.7352
G1 X159.638 Y58.312 E6.0715
G1 X159.713 Y58.337 E6.0770
G1 X161.923 Y60.022 E6.2712
G1 X161.967 Y60.087 E6.2767
G1 X162.840 Y63.257 E6.5063
G1 X162.841 Y63.261 E6.5066
G1 X162.867 Y63.367 E6.5142
G1 X162.868 Y63.370 E6.5144
G1 X163.285 Y65.278 E6.6509
G1 X163.286 Y65.281 E6.6511
G1 X163.306 Y65.389 E6.6587
G1 X163.307 Y65.392 E6.6590
G1 X163.623 Y67.319 E6.7954
G1 X163.623 Y67.322 E6.7956
G1 X163.638 Y67.431 E6.8032
G1 X163.638 Y67.434 E6.8035
G1 X163.852 Y69.376 E6.9399
G1 X163.852 Y69.379 E6.9401
G1 X163.861 Y69.488 E6.9478
G1 X163.861 Y69.491 E6.9480
G1 X163.971 Y71.441 E7.0844
G1 X163.971 Y71.444 E7.0846
G1 X163.974 Y71.554 E7.0923
G1 X163.974 Y71.557 E7.0925
G1 X163.981 Y73.510 E7.2289
G1 X163.981 Y73.513 E7.2292
G1 X163.978 Y73.623 E7.2368
G1 X163.978 Y73.626 E7.2370
G1 X163.881 Y75.577 E7.3735
G1 X163.880 Y75.580 E7.3737
G1 X163.872 Y75.689 E7.3813
G1 X163.872 Y75.692 E7.3815
G1 X163.671 Y77.635 E7.5180
G1 X163.671 Y77.639 E7.5182
G1 X163.656 Y77.747 E7.5258
G1 X163.656 Y77.750 E7.5261
G1 X163.352 Y79.680 E7.6625
G1 X163.352 Y79.683 E7.6627
G1 X163.332 Y79.790 E7.6704
G1 X163.331 Y79.793 E7.6706
G1 X162.926 Y81.704 E7.8070
G1 X162.925 Y81.707 E7.8072
G1 X162.900 Y81.814 E7.8149
G1 X162.899 Y81.817 E7.8151
G1 X162.045 Y85.000 E8.0453
G1 X162.001 Y85.066 E8.0508
G1 X159.784 Y86.766 E8.2460
G1 X159.709 Y86.792 E8.2515
G1 X154.787 Y86.792 E8.5953
G1 X154.766 Y86.838 E8.5989
G1 X154.764 Y86.842 E8.5991
G1 X154.708 Y86.957 E8.6081
G1 X154.707 Y86.960 E8.6083
G1 X153.817 Y88.661 E8.7424
G1 X153.815 Y88.664 E8.7426
G1 X153.752 Y88.776 E8.7516
G1 X153.750 Y88.779 E8.7519
G1 X152.756 Y90.421 E8.8859
G1 X152.754 Y90.424 E8.8862
G1 X152.685 Y90.532 E8.8951
G1 X152.683 Y90.535 E8.8954
G1 X151.589 Y92.112 E9.0294
G1 X151.586 Y92.115 E9.0297
G1 X151.510 Y92.218 E9.0386
G1 X151.508 Y92.220 E9.0389
G1 X150.318 Y93.726 E9.1729
G1 X150.316 Y93.729 E9.1732
G1 X150.233 Y93.827 E9.1822
G1 X150.231 Y93.830 E9.1824
G1 X148.949 Y95.259 E9.3165
G1 X148.947 Y95.262 E9.3167
G1 X148.858 Y95.354 E9.3257
G1 X148.856 Y95.357 E9.3259
G1 X147.488 Y96.704 E9.4600
G1 X147.485 Y96.706 E9.4603
G1 X147.391 Y96.793 E9.4692
G1 X147.389 Y96.796 E9.4695
G1 X145.940 Y98.054 E9.6035
G1 X145.937 Y98.057 E9.6038
G1 X145.838 Y98.138 E9.6127
G1 X145.835 Y98.140 E9.6130
G1 X144.311 Y99.307 E9.7470
G1 X144.308 Y99.309 E9.7473
G1 X144.203 Y99.383 E9.7563
G1 X144.200 Y99.386 E9.7565
G1 X142.607 Y100.455 E9.8906
G1 X142.604 Y100.457 E9.8908
G1 X142.495 Y100.525 E9.8998
G1 X142.492 Y100.527 E9.9000
G1 X140.835 Y101.495 E10.0341
G1 X140.832 Y101.497 E10.0343
G1 X140.719 Y101.558 E10.0433
G1 X140.716 Y101.560 E10.0436
G1 X139.001 Y102.423 E10.1776
G1 X138.998 Y102.425 E10.1779
G1 X138.882 Y102.479 E10.1868
G1 X138.879 Y102.480 E10.1871
G1 X137.114 Y103.236 E10.3211
G1 X137.111 Y103.237 E10.3214
G1 X136.991 Y103.284 E10.3303
G1 X136.988 Y103.285 E10.3306
G1 X135.180 Y103.929 E10.4647
G1 X135.176 Y103.930 E10.4649
G1 X135.054 Y103.969 E10.4739
G1 X135.051 Y103.970 E10.4741
G1 X133.206 Y104.501 E10.6082
G1 X133.203 Y104.502 E10.6084
G1 X133.078 Y104.533 E10.6174
G1 X133.075 Y104.534 E10.6176
G1 X131.201 Y104.949 E10.7517
G1 X131.197 Y104.949 E10.7520
G1 X131.071 Y104.973 E10.7609
G1 X131.068 Y104.974 E10.7612
G1 X130.876 Y105.004 E10.7747
G1 X132.075 Y105.230 E10.8600
G1 X132.078 Y105.231 E10.8602
G1 X132.203 Y105.259 E10.8692
G1 X132.207 Y105.260 E10.8694
G1 X134.067 Y105.732 E11.0035
G1 X134.071 Y105.733 E11.0037
G1 X134.194 Y105.769 E11.0127
G1 X134.197 Y105.770 E11.0130
G1 X136.025 Y106.357 E11.1470
G1 X136.028 Y106.358 E11.1473
G1 X136.149 Y106.401 E11.1562
G1 X136.152 Y106.403 E11.1565
G1 X137.939 Y107.103 E11.2905
G1 X137.943 Y107.104 E11.2908
G1 X138.061 Y107.154 E11.2997
G1 X138.064 Y107.156 E11.3000
G1 X139.804 Y107.965 E11.4340
G1 X139.808 Y107.967 E11.4343
G1 X139.922 Y108.025 E11.4433
G1 X139.925 Y108.026 E11.4435
G1 X141.612 Y108.943 E11.5776
G1 X141.615 Y108.945 E11.5778
G1 X141.726 Y109.009 E11.5868
G1 X141.729 Y109.011 E11.5870
G1 X143.355 Y110.030 E11.7211
G1 X143.358 Y110.032 E11.7214
G1 X143.465 Y110.104 E11.7303
G1 X143.468 Y110.106 E11.7306
G1 X145.027 Y111.224 E11.8646
G1 X145.030 Y111.227 E11.8649
G1 X145.132 Y111.304 E11.8738
G1 X145.135 Y111.307 E11.8741
G1 X146.622 Y112.520 E12.0081
G1 X146.625 Y112.522 E12.0084
G1 X146.722 Y112.606 E12.0173
G1 X146.724 Y112.609 E12.0176
G1 X148.133 Y113.912 E12.1517
G1 X148.136 Y113.915 E12.1519
G1 X148.227 Y114.005 E12.1609
G1 X148.230 Y114.007 E12.1611
G1 X149.555 Y115.396 E12.2952
G1 X149.558 Y115.399 E12.2954
G1 X149.643 Y115.494 E12.3044
G1 X149.646 Y115.497 E12.3047
G1 X150.882 Y116.965 E12.4387
G1 X150.884 Y116.968 E12.4390
G1 X150.964 Y117.068 E12.4479
G1 X150.966 Y117.071 E12.4482
G1 X152.108 Y118.613 E12.5822
G1 X152.110 Y118.616 E12.5825
G1 X152.184 Y118.722 E12.5914
G1 X152.186 Y118.725 E12.5917
G1 X153.230 Y120.335 E12.7257
G1 X153.232 Y120.338 E12.7260
G1 X153.298 Y120.448 E12.7350
G1 X153.300 Y120.451 E12.7352
G1 X154.243 Y122.123 E12.8693
G1 X154.244 Y122.126 E12.8695
G1 X154.304 Y122.240 E12.8785
G1 X154.305 Y122.243 E12.8787
G1 X154.823 Y123.312 E12.9617
G1 X159.638 Y123.312 E13.2980
G1 X159.713 Y123.337 E13.3035
G1 X161.923 Y125.022 E13.4976
G1 X161.967 Y125.087 E13.5031
G1 X162.840 Y128.257 E13.7328
G1 X162.841 Y128.261 E13.7330
G1 X162.867 Y128.367 E13.7407
G1 X162.868 Y128.370 E13.7409
G1 X163.285 Y130.278 E13.8773
G1 X163.286 Y130.281 E13.8775
G1 X163.306 Y130.389 E13.8852
G1 X163.307 Y130.392 E13.8854
G1 X163.623 Y132.319 E14.0218
G1 X163.623 Y132.322 E14.0221
G1 X163.638 Y132.431 E14.0297
