; G-Code generated by Simplify3D(R) Version 4.0.0
; Oct 17, 2017 at 7:51:53 PM
; Settings Summary
;   processName,Process1
;   applyToModels,small-ikea-jar-purple-cayenne
;   profileName,Prusa Research Original Prusa i3 MK2 (modified)
;   profileVersion,2017-07-23 22:27:18
;   baseProfile,
;   printMaterial,PLA
;   printQuality,Fast
;   printExtruders,
;   extruderName,Primary Extruder
;   extruderToolheadNumber,0
;   extruderDiameter,0.4
;   extruderAutoWidth,1
;   extruderWidth,0.48
;   extrusionMultiplier,1
;   extruderUseRetract,1
;   extruderRetractionDistance,1.5
;   extruderExtraRestartDistance,0
;   extruderRetractionZLift,0
;   extruderRetractionSpeed,1800
;   extruderUseCoasting,1
;   extruderCoastingDistance,0.2
;   extruderUseWipe,1
;   extruderWipeDistance,2
;   primaryExtruder,0
;   layerHeight,0.35
;   topSolidLayers,2
;   bottomSolidLayers,2
;   perimeterOutlines,2
;   printPerimetersInsideOut,1
;   startPointOption,2
;   startPointOriginX,0
;   startPointOriginY,0
;   sequentialIslands,0
;   spiralVaseMode,0
;   firstLayerHeightPercentage,100
;   firstLayerWidthPercentage,100
;   firstLayerUnderspeed,0.5
;   useRaft,0
;   raftExtruder,0
;   raftTopLayers,3
;   raftBaseLayers,2
;   raftOffset,3
;   raftSeparationDistance,0.14
;   raftTopInfill,100
;   aboveRaftSpeedMultiplier,0.3
;   useSkirt,1
;   skirtExtruder,0
;   skirtLayers,1
;   skirtOutlines,1
;   skirtOffset,4
;   usePrimePillar,0
;   primePillarExtruder,999
;   primePillarWidth,12
;   primePillarLocation,7
;   primePillarSpeedMultiplier,1
;   useOozeShield,0
;   oozeShieldExtruder,999
;   oozeShieldOffset,2
;   oozeShieldOutlines,1
;   oozeShieldSidewallShape,1
;   oozeShieldSidewallAngle,30
;   oozeShieldSpeedMultiplier,1
;   infillExtruder,0
;   internalInfillPattern,Fast Honeycomb
;   externalInfillPattern,Rectilinear
;   infillPercentage,33
;   outlineOverlapPercentage,20
;   infillExtrusionWidthPercentage,100
;   minInfillLength,5
;   infillLayerInterval,1
;   internalInfillAngles,0
;   overlapInternalInfillAngles,0
;   externalInfillAngles,45,-45
;   generateSupport,0
;   supportExtruder,0
;   supportInfillPercentage,25
;   supportExtraInflation,0
;   supportBaseLayers,0
;   denseSupportExtruder,0
;   denseSupportLayers,0
;   denseSupportInfillPercentage,70
;   supportLayerInterval,1
;   supportHorizontalPartOffset,0.3
;   supportUpperSeparationLayers,1
;   supportLowerSeparationLayers,1
;   supportType,0
;   supportGridSpacing,4
;   maxOverhangAngle,45
;   supportAngles,0
;   temperatureName,Primary Extruder,Heated Bed
;   temperatureNumber,0,0
;   temperatureSetpointCount,1,1
;   temperatureSetpointLayers,1,1
;   temperatureSetpointTemperatures,210,60
;   temperatureStabilizeAtStartup,1,1
;   temperatureHeatedBed,0,1
;   temperatureRelayBetweenLayers,0,0
;   temperatureRelayBetweenLoops,0,0
;   fanLayers,1,2
;   fanSpeeds,0,100
;   blipFanToFullPower,0
;   adjustSpeedForCooling,1
;   minSpeedLayerTime,15
;   minCoolingSpeedSlowdown,20
;   increaseFanForCooling,0
;   minFanLayerTime,45
;   maxCoolingFanSpeed,100
;   increaseFanForBridging,0
;   bridgingFanSpeed,100
;   use5D,1
;   relativeEdistances,0
;   allowEaxisZeroing,1
;   independentExtruderAxes,0
;   includeM10123,0
;   stickySupport,1
;   applyToolheadOffsets,0
;   gcodeXoffset,0
;   gcodeYoffset,0
;   gcodeZoffset,0
;   overrideMachineDefinition,1
;   machineTypeOverride,0
;   strokeXoverride,250
;   strokeYoverride,210
;   strokeZoverride,200
;   originOffsetXoverride,0
;   originOffsetYoverride,0
;   originOffsetZoverride,0
;   homeXdirOverride,-1
;   homeYdirOverride,-1
;   homeZdirOverride,-1
;   flipXoverride,1
;   flipYoverride,-1
;   flipZoverride,1
;   toolheadOffsets,0,0|0,0|0,0|0,0|0,0|0,0
;   overrideFirmwareConfiguration,1
;   firmwareTypeOverride,RepRap (Marlin/Repetier/Sprinter)
;   GPXconfigOverride,r2
;   baudRateOverride,250000
;   overridePrinterModels,1
;   printerModelsOverride
;   startingGcode,M115 U3.0.7 ; use the latest firmware version,G28 W ; home all axes without mesh bed leveling,G80 ; run mesh bed leveling routine,G1 Y-3.0 F1000.0 ; prepare to prime,G92 E0 ; reset extrusion distance,G1 X60.0 E9.0  F1000.0 ; priming,G1 X100.0 E12.5  F1000.0 ; priming
;   layerChangeGcode,
;   retractionGcode,
;   toolChangeGcode,
;   endingGcode,M106 S0 ; turn off cooling fan,M104 S0 ; turn off extruder,M140 S0 ; turn off bed,G1 X0 Y200 ; part removal,M84 ; disable motors
;   exportFileFormat,gcode
;   celebration,0
;   celebrationSong,Random Song
;   postProcessing,
;   defaultSpeed,2400
;   outlineUnderspeed,0.8
;   solidInfillUnderspeed,0.8
;   supportUnderspeed,0.8
;   rapidXYspeed,4800
;   rapidZspeed,1002
;   minBridgingArea,50
;   bridgingExtraInflation,0
;   bridgingExtrusionMultiplier,1
;   bridgingSpeedMultiplier,1
;   useFixedBridgingAngle,0
;   fixedBridgingAngle,0
;   applyBridgingToPerimeters,0
;   filamentDiameters,1.75|1.75|1.75|1.75|1.75|1.75
;   filamentPricesPerKg,46|46|46|46|46|46
;   filamentDensities,1.25|1.25|1.25|1.25|1.25|1.25
;   useMinPrintHeight,1
;   minPrintHeight,0
;   useMaxPrintHeight,1
;   maxPrintHeight,235
;   useDiaphragm,0
;   diaphragmLayerInterval,20
;   robustSlicing,1
;   mergeAllIntoSolid,0
;   onlyRetractWhenCrossingOutline,1
;   retractBetweenLayers,1
;   useRetractionMinTravel,0
;   retractionMinTravel,3
;   retractWhileWiping,1
;   onlyWipeOutlines,1
;   avoidCrossingOutline,0
;   maxMovementDetourFactor,3
;   toolChangeRetractionDistance,12
;   toolChangeExtraRestartDistance,-0.5
;   toolChangeRetractionSpeed,600
;   externalThinWallType,0
;   internalThinWallType,2
;   thinWallAllowedOverlapPercentage,25
;   singleExtrusionMinLength,1
;   singleExtrusionMinPrintingWidthPercentage,50
;   singleExtrusionMaxPrintingWidthPercentage,200
;   singleExtrusionEndpointExtension,0.2
;   horizontalSizeCompensation,0
G90
M82
M106 S0
M140 S60
M190 S60
M104 S210 T0
M109 S210 T0
M115 U3.0.7 ; use the latest firmware version
G28 W ; home all axes without mesh bed leveling
G80 ; run mesh bed leveling routine
G1 Y-3.0 F1000.0 ; prepare to prime
G92 E0 ; reset extrusion distance
G1 X60.0 E9.0  F1000.0 ; priming
G1 X100.0 E12.5  F1000.0 ; priming
G92 E0
G1 E-1.5000 F1800
G1 Z0.350 F1002
; process Process1
; layer 1, Z = 0.350
T0
; tool H0.350 W0.480
; skirt
G1 X88.077 Y92.521 F4800
G1 E0.0000 F540
G92 E0
G1 X90.287 Y90.837 E0.1941 F1200
G1 X90.362 Y90.812 E0.1996
G1 X95.186 Y90.812 E0.5366
G1 X95.704 Y89.743 E0.6195
G1 X95.706 Y89.740 E0.6198
G1 X95.765 Y89.626 E0.6287
G1 X95.767 Y89.623 E0.6290
G1 X96.709 Y87.951 E0.7631
G1 X96.711 Y87.948 E0.7633
G1 X96.777 Y87.838 E0.7723
G1 X96.779 Y87.835 E0.7725
G1 X97.824 Y86.225 E0.9066
G1 X97.826 Y86.222 E0.9068
G1 X97.899 Y86.116 E0.9158
G1 X97.901 Y86.113 E0.9160
G1 X99.044 Y84.571 E1.0501
G1 X99.046 Y84.568 E1.0504
G1 X99.125 Y84.468 E1.0593
G1 X99.128 Y84.465 E1.0596
G1 X100.364 Y82.997 E1.1936
G1 X100.366 Y82.994 E1.1939
G1 X100.452 Y82.899 E1.2028
G1 X100.454 Y82.896 E1.2031
G1 X101.779 Y81.507 E1.3371
G1 X101.782 Y81.505 E1.3374
G1 X101.873 Y81.415 E1.3464
G1 X101.876 Y81.412 E1.3466
G1 X103.285 Y80.109 E1.4807
G1 X103.288 Y80.106 E1.4809
G1 X103.384 Y80.022 E1.4899
G1 X103.387 Y80.020 E1.4901
G1 X104.874 Y78.807 E1.6242
G1 X104.877 Y78.804 E1.6244
G1 X104.979 Y78.727 E1.6334
G1 X104.982 Y78.724 E1.6337
G1 X106.542 Y77.606 E1.7677
G1 X106.545 Y77.604 E1.7680
G1 X106.651 Y77.532 E1.7769
G1 X106.654 Y77.530 E1.7772
G1 X108.281 Y76.511 E1.9112
G1 X108.284 Y76.509 E1.9115
G1 X108.394 Y76.445 E1.9204
G1 X108.398 Y76.443 E1.9207
G1 X110.084 Y75.526 E2.0548
G1 X110.087 Y75.525 E2.0550
G1 X110.202 Y75.467 E2.0640
G1 X110.205 Y75.465 E2.0642
G1 X111.945 Y74.656 E2.1983
G1 X111.949 Y74.654 E2.1985
G1 X112.067 Y74.604 E2.2075
G1 X112.070 Y74.603 E2.2077
G1 X113.857 Y73.903 E2.3418
G1 X113.861 Y73.901 E2.3421
G1 X113.981 Y73.858 E2.3510
G1 X113.985 Y73.857 E2.3513
G1 X115.812 Y73.270 E2.4853
G1 X115.815 Y73.269 E2.4856
G1 X115.939 Y73.233 E2.4945
G1 X115.942 Y73.232 E2.4948
G1 X117.802 Y72.760 E2.6288
G1 X117.806 Y72.759 E2.6291
G1 X117.931 Y72.731 E2.6381
G1 X117.935 Y72.730 E2.6383
G1 X119.821 Y72.374 E2.7724
G1 X119.824 Y72.374 E2.7726
G1 X119.951 Y72.354 E2.7816
G1 X119.955 Y72.353 E2.7818
G1 X121.859 Y72.115 E2.9159
G1 X121.863 Y72.115 E2.9161
G1 X121.990 Y72.103 E2.9251
G1 X121.994 Y72.102 E2.9254
G1 X123.910 Y71.983 E3.0594
G1 X123.913 Y71.983 E3.0597
G1 X124.041 Y71.979 E3.0686
G1 X124.045 Y71.979 E3.0689
G1 X125.964 Y71.979 E3.2029
G1 X125.968 Y71.979 E3.2032
G1 X126.096 Y71.983 E3.2121
G1 X126.100 Y71.983 E3.2124
G1 X128.015 Y72.102 E3.3465
G1 X128.019 Y72.103 E3.3467
G1 X128.147 Y72.115 E3.3557
G1 X128.150 Y72.115 E3.3559
G1 X130.055 Y72.353 E3.4900
G1 X130.058 Y72.354 E3.4902
G1 X130.185 Y72.374 E3.4992
G1 X130.189 Y72.374 E3.4995
G1 X132.075 Y72.730 E3.6335
G1 X132.078 Y72.731 E3.6338
G1 X132.203 Y72.759 E3.6427
G1 X132.207 Y72.760 E3.6430
G1 X134.067 Y73.232 E3.7770
G1 X134.071 Y73.233 E3.7773
G1 X134.194 Y73.269 E3.7862
G1 X134.197 Y73.270 E3.7865
G1 X136.025 Y73.857 E3.9205
G1 X136.028 Y73.858 E3.9208
G1 X136.149 Y73.901 E3.9298
G1 X136.152 Y73.903 E3.9300
G1 X137.939 Y74.603 E4.0641
G1 X137.943 Y74.604 E4.0643
G1 X138.061 Y74.654 E4.0733
G1 X138.064 Y74.656 E4.0735
G1 X139.804 Y75.465 E4.2076
G1 X139.808 Y75.467 E4.2079
G1 X139.922 Y75.525 E4.2168
G1 X139.925 Y75.526 E4.2171
G1 X141.612 Y76.443 E4.3511
G1 X141.615 Y76.445 E4.3514
G1 X141.726 Y76.509 E4.3603
G1 X141.729 Y76.511 E4.3606
G1 X143.355 Y77.530 E4.4946
G1 X143.358 Y77.532 E4.4949
G1 X143.465 Y77.604 E4.5038
G1 X143.468 Y77.606 E4.5041
G1 X145.027 Y78.724 E4.6382
G1 X145.030 Y78.727 E4.6384
G1 X145.132 Y78.804 E4.6474
G1 X145.135 Y78.807 E4.6476
G1 X146.622 Y80.020 E4.7817
G1 X146.625 Y80.022 E4.7819
G1 X146.722 Y80.106 E4.7909
G1 X146.724 Y80.109 E4.7912
G1 X148.133 Y81.412 E4.9252
G1 X148.136 Y81.415 E4.9255
G1 X148.227 Y81.505 E4.9344
G1 X148.230 Y81.507 E4.9347
G1 X149.555 Y82.896 E5.0687
G1 X149.558 Y82.899 E5.0690
G1 X149.643 Y82.994 E5.0779
G1 X149.646 Y82.997 E5.0782
G1 X150.882 Y84.465 E5.2122
G1 X150.884 Y84.468 E5.2125
G1 X150.964 Y84.568 E5.2215
G1 X150.966 Y84.571 E5.2217
G1 X152.108 Y86.113 E5.3558
G1 X152.110 Y86.116 E5.3560
G1 X152.184 Y86.222 E5.3650
G1 X152.186 Y86.225 E5.3652
G1 X153.230 Y87.835 E5.4993
G1 X153.232 Y87.838 E5.4996
G1 X153.298 Y87.948 E5.5085
G1 X153.300 Y87.951 E5.5088
G1 X154.243 Y89.623 E5.6428
G1 X154.244 Y89.626 E5.6431
G1 X154.304 Y89.740 E5.6520
G1 X154.305 Y89.743 E5.6523
G1 X154.823 Y90.812 E5.7352
G1 X159.638 Y90.812 E6.0715
G1 X159.713 Y90.837 E6.0770
G1 X161.923 Y92.522 E6.2712
G1 X161.967 Y92.587 E6.2767
G1 X162.840 Y95.757 E6.5063
G1 X162.841 Y95.760 E6.5066
G1 X162.867 Y95.867 E6.5142
G1 X162.868 Y95.870 E6.5144
G1 X163.285 Y97.778 E6.6509
G1 X163.286 Y97.781 E6.6511
G1 X163.306 Y97.889 E6.6587
G1 X163.307 Y97.892 E6.6590
G1 X163.623 Y99.819 E6.7954
G1 X163.623 Y99.822 E6.7956
G1 X163.638 Y99.931 E6.8032
G1 X163.638 Y99.934 E6.8035
G1 X163.852 Y101.876 E6.9399
G1 X163.852 Y101.879 E6.9401
G1 X163.861 Y101.988 E6.9478
G1 X163.861 Y101.991 E6.9480
G1 X163.971 Y103.941 E7.0844
G1 X163.971 Y103.944 E7.0846
G1 X163.974 Y104.054 E7.0923
G1 X163.974 Y104.057 E7.0925
G1 X163.981 Y106.010 E7.2289
G1 X163.981 Y106.013 E7.2292
G1 X163.978 Y106.123 E7.2368
G1 X163.978 Y106.126 E7.2370
G1 X163.881 Y108.077 E7.3735
G1 X163.880 Y108.080 E7.3737
G1 X163.872 Y108.189 E7.3813
G1 X163.872 Y108.192 E7.3815
G1 X163.671 Y110.135 E7.5180
G1 X163.671 Y110.139 E7.5182
G1 X163.656 Y110.247 E7.5258
G1 X163.656 Y110.250 E7.5261
G1 X163.352 Y112.180 E7.6625
G1 X163.352 Y112.183 E7.6627
G1 X163.332 Y112.290 E7.6704
G1 X163.331 Y112.293 E7.6706
G1 X162.926 Y114.204 E7.8070
G1 X162.925 Y114.207 E7.8072
G1 X162.900 Y114.314 E7.8149
G1 X162.899 Y114.317 E7.8151
G1 X162.045 Y117.500 E8.0453
G1 X162.001 Y117.566 E8.0508
G1 X159.784 Y119.266 E8.2460
G1 X159.709 Y119.292 E8.2515
G1 X154.787 Y119.292 E8.5953
G1 X154.766 Y119.338 E8.5989
G1 X154.764 Y119.342 E8.5991
G1 X154.708 Y119.457 E8.6081
G1 X154.707 Y119.460 E8.6083
G1 X153.817 Y121.161 E8.7424
G1 X153.815 Y121.164 E8.7426
G1 X153.752 Y121.276 E8.7516
G1 X153.750 Y121.279 E8.7519
G1 X152.756 Y122.921 E8.8859
G1 X152.754 Y122.924 E8.8862
G1 X152.685 Y123.032 E8.8951
G1 X152.683 Y123.035 E8.8954
G1 X151.589 Y124.612 E9.0294
G1 X151.586 Y124.615 E9.0297
G1 X151.510 Y124.718 E9.0386
G1 X151.508 Y124.720 E9.0389
G1 X150.318 Y126.226 E9.1729
G1 X150.316 Y126.229 E9.1732
G1 X150.233 Y126.327 E9.1822
G1 X150.231 Y126.330 E9.1824
G1 X148.949 Y127.759 E9.3165
G1 X148.947 Y127.762 E9.3167
G1 X148.858 Y127.854 E9.3257
G1 X148.856 Y127.857 E9.3259
G1 X147.488 Y129.204 E9.4600
G1 X147.485 Y129.206 E9.4603
G1 X147.391 Y129.293 E9.4692
G1 X147.389 Y129.296 E9.4695
G1 X145.940 Y130.554 E9.6035
G1 X145.937 Y130.557 E9.6038
G1 X145.838 Y130.638 E9.6127
G1 X145.835 Y130.640 E9.6130
G1 X144.311 Y131.807 E9.7470
G1 X144.308 Y131.809 E9.7473
G1 X144.203 Y131.883 E9.7563
G1 X144.200 Y131.886 E9.7565
G1 X142.607 Y132.955 E9.8906
G1 X142.604 Y132.957 E9.8908
G1 X142.495 Y133.025 E9.8998
G1 X142.492 Y133.027 E9.9000
G1 X140.835 Y133.995 E10.0341
G1 X140.831 Y133.997 E10.0343
G1 X140.719 Y134.058 E10.0433
G1 X140.716 Y134.060 E10.0436
G1 X139.001 Y134.923 E10.1776
G1 X138.998 Y134.925 E10.1779
G1 X138.882 Y134.979 E10.1868
G1 X138.879 Y134.980 E10.1871
G1 X137.114 Y135.736 E10.3211
G1 X137.111 Y135.737 E10.3214
G1 X136.991 Y135.784 E10.3303
G1 X136.988 Y135.785 E10.3306
G1 X135.180 Y136.429 E10.4647
G1 X135.176 Y136.430 E10.4649
G1 X135.054 Y136.469 E10.4739
G1 X135.051 Y136.470 E10.4741
G1 X133.206 Y137.001 E10.6082
G1 X133.203 Y137.002 E10.6084
G1 X133.078 Y137.033 E10.6174
G1 X133.075 Y137.034 E10.6176
G1 X131.201 Y137.449 E10.7517
G1 X131.197 Y137.449 E10.7520
G1 X131.071 Y137.473 E10.7609
G1 X131.068 Y137.474 E10.7612
G1 X129.172 Y137.771 E10.8952
G1 X129.168 Y137.772 E10.8955
G1 X129.041 Y137.788 E10.9044
G1 X129.037 Y137.788 E10.9047
G1 X127.126 Y137.967 E11.0387
G1 X127.122 Y137.967 E11.0390
G1 X126.995 Y137.975 E11.0480
G1 X126.991 Y137.975 E11.0482
G1 X125.073 Y138.035 E11.1823
G1 X125.069 Y138.035 E11.1825
G1 X124.941 Y138.035 E11.1915
G1 X124.937 Y138.035 E11.1917
G1 X123.019 Y137.975 E11.3258
G1 X123.015 Y137.975 E11.3260
G1 X122.887 Y137.967 E11.3350
G1 X122.883 Y137.967 E11.3353
G1 X120.972 Y137.788 E11.4693
G1 X120.969 Y137.788 E11.4696
G1 X120.842 Y137.772 E11.4785
G1 X120.838 Y137.771 E11.4788
G1 X118.942 Y137.474 E11.6128
G1 X118.938 Y137.473 E11.6131
G1 X118.812 Y137.449 E11.6220
G1 X118.808 Y137.449 E11.6223
G1 X116.935 Y137.034 E11.7564
G1 X116.931 Y137.033 E11.7566
G1 X116.807 Y137.002 E11.7656
G1 X116.803 Y137.001 E11.7658
G1 X114.959 Y136.470 E11.8999
G1 X114.955 Y136.469 E11.9001
G1 X114.833 Y136.430 E11.9091
G1 X114.830 Y136.429 E11.9093
G1 X113.022 Y135.785 E12.0434
G1 X113.018 Y135.784 E12.0437
G1 X112.899 Y135.737 E12.0526
G1 X112.895 Y135.736 E12.0529
G1 X111.131 Y134.980 E12.1869
G1 X111.127 Y134.979 E12.1872
G1 X111.011 Y134.925 E12.1961
G1 X111.008 Y134.923 E12.1964
G1 X109.294 Y134.060 E12.3304
G1 X109.291 Y134.058 E12.3307
G1 X109.178 Y133.997 E12.3396
G1 X109.175 Y133.995 E12.3399
G1 X107.518 Y133.027 E12.4740
G1 X107.514 Y133.025 E12.4742
G1 X107.406 Y132.957 E12.4832
G1 X107.403 Y132.955 E12.4834
G1 X105.809 Y131.886 E12.6175
G1 X105.806 Y131.883 E12.6177
G1 X105.702 Y131.809 E12.6267
G1 X105.699 Y131.807 E12.6270
G1 X104.175 Y130.640 E12.7610
G1 X104.172 Y130.638 E12.7613
G1 X104.072 Y130.557 E12.7702
G1 X104.070 Y130.554 E12.7705
G1 X102.621 Y129.296 E12.9045
G1 X102.618 Y129.293 E12.9048
G1 X102.524 Y129.206 E12.9137
G1 X102.521 Y129.204 E12.9140
G1 X101.154 Y127.857 E13.0481
G1 X101.151 Y127.854 E13.0483
G1 X101.063 Y127.762 E13.0573
G1 X101.060 Y127.759 E13.0575
G1 X99.779 Y126.330 E13.1916
G1 X99.776 Y126.327 E13.1918
G1 X99.694 Y126.229 E13.2008
G1 X99.692 Y126.226 E13.2010
G1 X98.502 Y124.720 E13.3351
G1 X98.499 Y124.718 E13.3354
G1 X98.423 Y124.615 E13.3443
G1 X98.421 Y124.612 E13.3446
G1 X97.327 Y123.035 E13.4786
G1 X97.325 Y123.032 E13.4789
G1 X97.255 Y122.924 E13.4878
G1 X97.253 Y122.921 E13.4881
