; generated by Slic3r Prusa Edition 1.40.0+ on 2018-09-29 at 17:17:38

; 

; external perimeters extrusion width = 0.60mm
; perimeters extrusion width = 0.43mm
; infill extrusion width = 0.45mm
; solid infill extrusion width = 0.70mm
; top infill extrusion width = 0.43mm
; support material extrusion width = 0.35mm
; first layer extrusion width = 0.42mm

M107
M115 U3.1.0 ; tell printer latest fw version
M201 X9000 Y9000 Z500 E10000 ; sets maximum accelerations, mm/sec^2
M203 X500 Y500 Z12 E120 ; sets maximum feedrates, mm/sec
M204 S1500 T1500 ; sets acceleration (S) and retract acceleration (T)
M205 X10 Y10 Z0.2 E2.5 ; sets the jerk limits, mm/sec
M205 S0 T0 ; sets the minimum extruding and travel feed rate, mm/sec
M83  ; extruder relative mode
M104 S210 ; set extruder temp
M140 S55 ; set bed temp
M190 S55 ; wait for bed temp
M109 S210 ; wait for extruder temp
G28 W ; home all without mesh bed level
G80 ; mesh bed leveling
G1 Y-3.0 F1000.0 ; go outside print area
G92 E0.0
G1 X60.0 E9.0  F1000.0 ; intro line
G1 X100.0 E12.5  F1000.0 ; intro line
G92 E0.0
M900 K30; Filament gcode
G21 ; set units to millimeters
G90 ; use absolute coordinates
M83 ; use relative distances for extrusion
;BEFORE_LAYER_CHANGE
G92 E0.0
;0.2


G1 E-0.80000 F2100.00000
G1 Z0.600 F10800.000
;AFTER_LAYER_CHANGE
;0.2
G1 X90.020 Y27.714
G1 Z0.200
G1 E0.80000 F2100.00000
M204 S1000
G1 F1800
G1 X90.377 Y27.349 E0.01601
G1 X106.275 Y14.580 E0.63935
G1 X107.910 Y13.409 E0.06305
G1 X109.480 Y12.426 E0.05807
G1 X111.100 Y11.545 E0.05785
G1 X112.894 Y10.707 E0.06208
G1 X114.739 Y9.987 E0.06208
G1 X116.499 Y9.423 E0.05796
G1 X118.290 Y8.966 E0.05796
G1 X120.239 Y8.595 E0.06220
G1 X122.205 Y8.352 E0.06211
G1 X124.049 Y8.239 E0.05793
G1 X125.897 Y8.238 E0.05796
G1 X127.870 Y8.358 E0.06197
G1 X129.770 Y8.595 E0.06002
G1 X131.654 Y8.951 E0.06013
G1 X133.569 Y9.440 E0.06197
G1 X135.394 Y10.032 E0.06016
G1 X137.114 Y10.706 E0.05793
G1 X138.787 Y11.484 E0.05784
G1 X140.526 Y12.424 E0.06196
G1 X142.102 Y13.411 E0.05831
G1 X143.741 Y14.585 E0.06322
G1 X159.714 Y27.426 E0.64259
G1 X160.044 Y27.801 E0.01567
G1 X160.282 Y28.244 E0.01578
G1 X160.875 Y30.359 E0.06885
G1 X161.281 Y32.221 E0.05975
G1 X161.599 Y34.159 E0.06158
G1 X161.812 Y36.103 E0.06134
G1 X161.923 Y38.108 E0.06296
G1 X161.929 Y171.980 E4.19746
G1 X161.831 Y173.975 E0.06262
G1 X161.636 Y175.870 E0.05974
G1 X161.315 Y177.911 E0.06478
G1 X160.917 Y179.786 E0.06008
G1 X160.386 Y181.748 E0.06375
G1 X160.108 Y182.302 E0.01942
G1 X159.686 Y182.755 E0.01942
G1 X142.994 Y195.970 E0.66754
G1 X141.352 Y197.076 E0.06208
G1 X139.705 Y198.038 E0.05979
G1 X137.986 Y198.904 E0.06036
G1 X136.229 Y199.656 E0.05991
G1 X134.423 Y200.300 E0.06014
G1 X132.583 Y200.829 E0.06002
G1 X130.714 Y201.242 E0.06002
G1 X128.823 Y201.538 E0.06002
G1 X126.917 Y201.717 E0.06002
G1 X124.996 Y201.776 E0.06025
G1 X123.090 Y201.717 E0.05979
G1 X121.180 Y201.538 E0.06013
G1 X119.293 Y201.242 E0.05991
G1 X117.359 Y200.810 E0.06211
G1 X114.276 Y199.834 E0.10142
G1 X112.084 Y198.932 E0.07430
G1 X110.318 Y198.046 E0.06197
G1 X108.680 Y197.090 E0.05945
G1 X107.072 Y196.012 E0.06071
G1 X105.586 Y194.876 E0.05865
G1 X90.238 Y182.691 E0.61444
G1 X89.896 Y182.307 E0.01612
G1 X89.654 Y181.858 E0.01601
G1 X89.076 Y179.753 E0.06845
G1 X88.675 Y177.864 E0.06054
G1 X88.371 Y175.927 E0.06146
G1 X88.169 Y173.978 E0.06146
G1 X88.071 Y171.987 E0.06250
G1 X88.077 Y38.114 E4.19747
G1 X88.193 Y36.048 E0.06490
G1 X88.402 Y34.154 E0.05974
G1 X88.717 Y32.230 E0.06111
G1 X89.138 Y30.305 E0.06181
G1 X89.649 Y28.446 E0.06043
G1 X89.993 Y27.767 E0.02386
G1 F8640
G1 X90.377 Y27.349 E-0.13116
G1 X92.500 Y25.644 E-0.62884
G1 E-0.04000 F2100.00000
G1 Z0.800 F10800.000
G1 X101.156 Y114.088
G1 Z0.200
G1 E0.80000 F2100.00000
G1 F1800
G1 X148.854 Y114.088 E1.49553
G1 X147.841 Y116.267 E0.07535
G1 X147.057 Y117.732 E0.05210
G1 X146.178 Y119.147 E0.05225
G1 X145.207 Y120.502 E0.05225
G1 X144.150 Y121.790 E0.05225
G1 X143.011 Y123.006 E0.05225
G1 X141.795 Y124.145 E0.05225
G1 X140.506 Y125.202 E0.05225
G1 X139.152 Y126.173 E0.05225
G1 X137.737 Y127.053 E0.05225
G1 X136.267 Y127.838 E0.05224
G1 X134.749 Y128.526 E0.05225
G1 X133.190 Y129.113 E0.05225
G1 X132.756 Y129.245 E0.01423
G1 X131.595 Y129.597 E0.03802
G1 X129.973 Y129.975 E0.05225
G1 X128.328 Y130.246 E0.05225
G1 X126.670 Y130.410 E0.05225
G1 X125.005 Y130.464 E0.05225
G1 X123.339 Y130.410 E0.05225
G1 X122.888 Y130.365 E0.01423
G1 X121.681 Y130.246 E0.03802
G1 X120.037 Y129.975 E0.05225
G1 X118.414 Y129.597 E0.05225
G1 X116.819 Y129.113 E0.05225
G1 X115.260 Y128.526 E0.05225
G1 X113.742 Y127.838 E0.05225
G1 X112.273 Y127.053 E0.05224
G1 X110.858 Y126.173 E0.05225
G1 X109.503 Y125.202 E0.05225
G1 X108.215 Y124.145 E0.05225
G1 X106.999 Y123.006 E0.05225
G1 X105.860 Y121.790 E0.05225
G1 X104.803 Y120.502 E0.05225
G1 X103.832 Y119.147 E0.05225
G1 X102.952 Y117.732 E0.05225
G1 X102.169 Y116.267 E0.05210
G1 X101.181 Y114.142 E0.07347
G1 X101.747 Y114.465 F10800.000
G1 F1800
G1 X148.263 Y114.465 E1.45847
G1 X147.503 Y116.098 E0.05648
G1 X146.731 Y117.543 E0.05138
G1 X145.864 Y118.938 E0.05147
G1 X144.908 Y120.272 E0.05147
G1 X143.866 Y121.541 E0.05147
G1 X142.744 Y122.739 E0.05147
G1 X141.546 Y123.861 E0.05147
G1 X140.277 Y124.903 E0.05147
G1 X138.942 Y125.859 E0.05147
G1 X137.548 Y126.726 E0.05147
G1 X136.100 Y127.500 E0.05147
G1 X134.605 Y128.177 E0.05147
G1 X133.069 Y128.756 E0.05147
G1 X132.646 Y128.884 E0.01384
G1 X131.498 Y129.232 E0.03763
G1 X129.899 Y129.605 E0.05147
G1 X128.279 Y129.872 E0.05147
G1 X126.645 Y130.033 E0.05147
G1 X125.005 Y130.087 E0.05147
G1 X123.364 Y130.033 E0.05147
G1 X122.925 Y129.990 E0.01384
G1 X121.730 Y129.872 E0.03763
G1 X120.110 Y129.605 E0.05147
G1 X118.512 Y129.232 E0.05147
G1 X116.941 Y128.756 E0.05147
G1 X115.404 Y128.177 E0.05147
G1 X113.909 Y127.500 E0.05147
G1 X112.461 Y126.726 E0.05147
G1 X111.067 Y125.859 E0.05147
G1 X109.733 Y124.903 E0.05147
G1 X108.464 Y123.861 E0.05147
G1 X107.265 Y122.739 E0.05147
G1 X106.143 Y121.541 E0.05147
G1 X105.102 Y120.272 E0.05147
G1 X104.146 Y118.938 E0.05147
G1 X103.279 Y117.543 E0.05147
G1 X102.506 Y116.098 E0.05138
G1 X101.772 Y114.519 E0.05460
G1 X102.338 Y114.842 F10800.000
G1 F1800
G1 X147.671 Y114.842 E1.42140
G1 X147.166 Y115.930 E0.03762
G1 X146.404 Y117.355 E0.05066
G1 X145.550 Y118.728 E0.05070
G1 X144.608 Y120.042 E0.05070
G1 X143.582 Y121.292 E0.05070
G1 X142.477 Y122.472 E0.05070
G1 X141.297 Y123.578 E0.05070
G1 X140.047 Y124.604 E0.05070
G1 X138.733 Y125.545 E0.05070
G1 X137.360 Y126.399 E0.05070
G1 X135.934 Y127.161 E0.05070
G1 X134.461 Y127.829 E0.05070
G1 X132.947 Y128.398 E0.05070
G1 X132.537 Y128.523 E0.01346
G1 X131.400 Y128.868 E0.03724
G1 X129.825 Y129.235 E0.05070
G1 X128.230 Y129.498 E0.05070
G1 X126.621 Y129.657 E0.05070
G1 X125.005 Y129.710 E0.05070
G1 X123.389 Y129.657 E0.05070
G1 X122.962 Y129.615 E0.01346
G1 X121.779 Y129.498 E0.03724
G1 X120.184 Y129.235 E0.05070
G1 X118.609 Y128.868 E0.05070
G1 X117.062 Y128.398 E0.05070
G1 X115.549 Y127.829 E0.05070
G1 X114.076 Y127.161 E0.05070
G1 X112.650 Y126.399 E0.05070
G1 X111.277 Y125.545 E0.05070
G1 X109.962 Y124.604 E0.05070
G1 X108.712 Y123.578 E0.05070
G1 X107.532 Y122.472 E0.05070
G1 X106.427 Y121.292 E0.05070
G1 X105.401 Y120.042 E0.05070
G1 X104.459 Y118.728 E0.05070
G1 X103.605 Y117.355 E0.05070
G1 X102.844 Y115.930 E0.05066
G1 X102.363 Y114.896 E0.03574
G1 X102.276 Y114.447 F10800.000
G1 F8640
G1 X105.655 Y114.892 E-0.76000
G1 E-0.04000 F2100.00000
G1 Z0.800 F10800.000
G1 X105.701 Y112.164
G1 Z0.200
G1 E0.80000 F2100.00000
G1 F1800
G1 X105.701 Y103.204 E0.28093
G1 X101.925 Y103.204 E0.11839
G1 X101.925 Y98.332 E0.15277
G1 X120.132 Y98.332 E0.57089
G1 X120.132 Y102.492 E0.13043
G1 X122.236 Y102.492 E0.06596
G1 X122.236 Y98.332 E0.13043
G1 X127.876 Y98.332 E0.17685
G1 X127.876 Y108.156 E0.30802
G1 X131.517 Y98.332 E0.32850
G1 X137.008 Y98.332 E0.17217
G1 X140.796 Y108.651 E0.34465
G1 X140.796 Y98.332 E0.32354
G1 X146.436 Y98.332 E0.17685
G1 X146.436 Y112.164 E0.43370
G1 X136.132 Y112.164 E0.32308
G1 X135.543 Y110.180 E0.06489
G1 X132.851 Y110.180 E0.08441
G1 X132.250 Y112.164 E0.06500
G1 X122.236 Y112.164 E0.31397
G1 X122.236 Y107.364 E0.15050
G1 X120.132 Y107.364 E0.06596
G1 X120.132 Y112.164 E0.15050
G1 X114.492 Y112.164 E0.17685
G1 X114.492 Y103.204 E0.28093
G1 X111.341 Y103.204 E0.09880
G1 X111.341 Y112.164 E0.28093
G1 X105.761 Y112.164 E0.17497
G1 X106.078 Y111.787 F10800.000
G1 F1800
G1 X106.078 Y102.827 E0.28093
G1 X102.302 Y102.827 E0.11839
G1 X102.302 Y98.709 E0.12912
G1 X114.740 Y98.709 E0.38999
G1 X114.740 Y102.827 E0.12912
G1 X110.964 Y102.827 E0.11839
G1 X110.964 Y111.787 E0.28093
G1 X106.138 Y111.787 E0.15132
G1 X106.455 Y111.410 F10800.000
G1 F1800
G1 X106.455 Y102.450 E0.28093
G1 X102.679 Y102.450 E0.11839
G1 X102.679 Y99.086 E0.10548
G1 X114.363 Y99.086 E0.36634
G1 X114.363 Y102.450 E0.10548
G1 X110.587 Y102.450 E0.11839
G1 X110.587 Y111.410 E0.28093
G1 X106.515 Y111.410 E0.12767
G1 X106.083 Y111.558 F10800.000
G1 F8640
G1 X106.493 Y108.119 E-0.76000
G1 E-0.04000 F2100.00000
G1 Z0.800 F10800.000
G1 X114.869 Y98.709
G1 Z0.200
G1 E0.80000 F2100.00000
G1 F1800
G1 X119.755 Y98.709 E0.15320
G1 X119.755 Y102.869 E0.13043
G1 X122.613 Y102.869 E0.08961
G1 X122.613 Y98.709 E0.13043
G1 X127.499 Y98.709 E0.15320
G1 X127.499 Y110.258 E0.36212
G1 X131.780 Y98.709 E0.38619
G1 X136.745 Y98.709 E0.15569
G1 X141.173 Y110.773 E0.40292
G1 X141.173 Y98.709 E0.37825
G1 X146.059 Y98.709 E0.15320
G1 X146.059 Y111.787 E0.41006
G1 X136.413 Y111.787 E0.30244
G1 X135.824 Y109.803 E0.06489
G1 X132.571 Y109.803 E0.10201
G1 X131.970 Y111.787 E0.06500
G1 X122.613 Y111.787 E0.29338
G1 X122.613 Y106.987 E0.15050
G1 X119.755 Y106.987 E0.08961
G1 X119.755 Y111.787 E0.15050
G1 X114.869 Y111.787 E0.15320
G1 X114.869 Y98.769 E0.40817
G1 X115.246 Y99.086 F10800.000
G1 F1800
G1 X119.378 Y99.086 E0.12956
G1 X119.378 Y103.246 E0.13043
G1 X122.990 Y103.246 E0.11325
G1 X122.990 Y99.086 E0.13043
G1 X127.122 Y99.086 E0.12956
G1 X127.122 Y111.410 E0.38641
G1 X122.990 Y111.410 E0.12956
G1 X122.990 Y106.610 E0.15050
G1 X119.378 Y106.610 E0.11325
G1 X119.378 Y111.410 E0.15050
G1 X115.246 Y111.410 E0.12956
G1 X115.246 Y99.146 E0.38453
G1 X115.203 Y98.688 F10800.000
G1 F8640
G1 X118.537 Y99.098 E-0.76000
G1 E-0.04000 F2100.00000
G1 Z0.800 F10800.000
G1 X132.042 Y99.086
G1 Z0.200
G1 E0.80000 F2100.00000
G1 F1800
G1 X136.482 Y99.086 E0.13921
G1 X141.005 Y111.410 E0.41161
G1 X136.694 Y111.410 E0.13515
G1 X136.105 Y109.426 E0.06489
G1 X132.291 Y109.426 E0.11960
G1 X131.690 Y111.410 E0.06500
G1 X127.474 Y111.410 E0.13218
G1 X132.021 Y99.142 E0.41022
G1 X132.046 Y98.686 F10800.000
G1 F8640
G1 X135.312 Y99.101 E-0.76000
G1 E-0.04000 F2100.00000
G1 Z0.800 F10800.000
G1 X141.550 Y99.142
G1 Z0.200
G1 E0.80000 F2100.00000
G1 F1800
G1 X141.550 Y99.086 E0.00176
G1 X145.682 Y99.086 E0.12956
G1 X145.682 Y111.410 E0.38641
G1 X141.550 Y111.410 E0.12956
G1 X141.550 Y99.202 E0.38276
G1 X141.498 Y99.120 F10800.000
G1 F8640
G1 X141.550 Y99.086 E-0.02684
G1 X144.725 Y99.086 E-0.73316
G1 E-0.04000 F2100.00000
G1 Z0.800 F10800.000
G1 X148.897 Y96.016
G1 Z0.200
G1 E0.80000 F2100.00000
G1 F1800
G1 X101.112 Y96.016 E1.49827
G1 X102.168 Y93.734 E0.07884
G1 X102.952 Y92.268 E0.05212
G1 X103.832 Y90.853 E0.05225
G1 X104.803 Y89.498 E0.05225
G1 X105.860 Y88.210 E0.05225
G1 X106.999 Y86.994 E0.05225
G1 X108.215 Y85.855 E0.05225
G1 X109.503 Y84.798 E0.05225
G1 X110.858 Y83.827 E0.05225
G1 X112.273 Y82.947 E0.05225
G1 X113.742 Y82.162 E0.05224
G1 X115.260 Y81.474 E0.05225
G1 X116.819 Y80.887 E0.05225
G1 X118.414 Y80.403 E0.05225
G1 X120.037 Y80.025 E0.05225
G1 X121.681 Y79.754 E0.05225
G1 X123.339 Y79.590 E0.05225
G1 X125.005 Y79.536 E0.05225
G1 X126.670 Y79.590 E0.05225
G1 X128.328 Y79.754 E0.05225
G1 X129.973 Y80.025 E0.05225
G1 X131.595 Y80.403 E0.05225
G1 X133.190 Y80.887 E0.05225
G1 X134.749 Y81.474 E0.05225
G1 X136.267 Y82.162 E0.05225
G1 X137.737 Y82.947 E0.05224
G1 X139.152 Y83.827 E0.05225
G1 X140.506 Y84.798 E0.05225
G1 X141.795 Y85.855 E0.05225
G1 X143.011 Y86.994 E0.05225
G1 X144.150 Y88.210 E0.05225
G1 X145.207 Y89.498 E0.05225
G1 X146.178 Y90.853 E0.05225
G1 X147.057 Y92.268 E0.05225
G1 X147.841 Y93.734 E0.05212
G1 X148.872 Y95.961 E0.07696
G1 X148.307 Y95.639 F10800.000
G1 F1800
G1 X101.702 Y95.639 E1.46127
G1 X102.506 Y93.902 E0.06000
G1 X103.279 Y92.457 E0.05140
G1 X104.146 Y91.062 E0.05147
G1 X105.102 Y89.728 E0.05147
G1 X106.143 Y88.459 E0.05147
G1 X107.265 Y87.261 E0.05147
G1 X108.464 Y86.139 E0.05147
G1 X109.733 Y85.097 E0.05147
G1 X111.067 Y84.141 E0.05147
G1 X112.461 Y83.274 E0.05147
G1 X113.909 Y82.500 E0.05147
G1 X115.404 Y81.823 E0.05147
G1 X116.941 Y81.244 E0.05147
G1 X118.512 Y80.768 E0.05147
G1 X120.110 Y80.395 E0.05147
G1 X121.730 Y80.128 E0.05147
G1 X123.364 Y79.967 E0.05147
G1 X125.005 Y79.913 E0.05147
G1 X126.645 Y79.967 E0.05147
G1 X128.279 Y80.128 E0.05147
G1 X129.899 Y80.395 E0.05147
G1 X131.498 Y80.768 E0.05147
G1 X133.069 Y81.244 E0.05147
G1 X134.605 Y81.823 E0.05147
G1 X136.100 Y82.500 E0.05147
G1 X137.548 Y83.274 E0.05147
G1 X138.942 Y84.141 E0.05147
G1 X140.277 Y85.097 E0.05147
G1 X141.546 Y86.139 E0.05147
G1 X142.744 Y87.261 E0.05147
G1 X143.866 Y88.459 E0.05147
G1 X144.908 Y89.728 E0.05147
G1 X145.864 Y91.062 E0.05147
G1 X146.731 Y92.457 E0.05147
G1 X147.503 Y93.902 E0.05140
G1 X148.282 Y95.584 E0.05812
G1 X147.717 Y95.262 F10800.000
G1 F1800
G1 X102.292 Y95.262 E1.42427
G1 X102.844 Y94.070 E0.04116
G1 X103.605 Y92.645 E0.05067
G1 X104.459 Y91.272 E0.05070
G1 X105.401 Y89.958 E0.05070
G1 X106.427 Y88.708 E0.05070
G1 X107.532 Y87.528 E0.05070
G1 X108.712 Y86.422 E0.05070
G1 X109.962 Y85.396 E0.05070
G1 X111.277 Y84.455 E0.05070
G1 X112.650 Y83.601 E0.05070
G1 X114.076 Y82.839 E0.05070
G1 X115.549 Y82.171 E0.05070
G1 X117.062 Y81.602 E0.05070
G1 X118.609 Y81.132 E0.05070
G1 X120.184 Y80.765 E0.05070
G1 X121.779 Y80.502 E0.05070
G1 X123.389 Y80.343 E0.05070
G1 X125.005 Y80.290 E0.05070
G1 X126.621 Y80.343 E0.05070
G1 X128.230 Y80.502 E0.05070
G1 X129.825 Y80.765 E0.05070
G1 X131.400 Y81.132 E0.05070
G1 X132.947 Y81.602 E0.05070
G1 X134.461 Y82.171 E0.05070
G1 X135.934 Y82.839 E0.05070
G1 X137.360 Y83.601 E0.05070
G1 X138.733 Y84.455 E0.05070
G1 X140.047 Y85.396 E0.05070
G1 X141.297 Y86.422 E0.05070
G1 X142.477 Y87.528 E0.05070
G1 X143.582 Y88.708 E0.05070
G1 X144.608 Y89.958 E0.05070
G1 X145.550 Y91.272 E0.05070
G1 X146.404 Y92.645 E0.05070
G1 X147.166 Y94.070 E0.05067
G1 X147.692 Y95.207 E0.03928
G1 X147.779 Y95.657 F10800.000
G1 F8640
G1 X144.401 Y95.211 E-0.76000
G1 E-0.04000 F2100.00000
G1 Z0.800 F10800.000
G1 X151.156 Y96.016
G1 Z0.200
G1 E0.80000 F2100.00000
G1 F1800
G1 X157.513 Y96.016 E0.19932
G1 X157.801 Y97.061 E0.03398
G1 X158.184 Y98.812 E0.05621
G1 X158.474 Y100.582 E0.05622
G1 X158.667 Y102.336 E0.05534
G1 X158.771 Y104.154 E0.05710
G1 X158.776 Y105.947 E0.05620
G1 X158.687 Y107.737 E0.05621
G1 X158.503 Y109.521 E0.05621
G1 X158.224 Y111.292 E0.05621
G1 X157.852 Y113.045 E0.05621
G1 X157.572 Y114.088 E0.03383
G1 X151.102 Y114.088 E0.20285
G1 X150.669 Y115.245 E0.03877
G1 X149.866 Y117.040 E0.06165
G1 X149.069 Y118.563 E0.05389
G1 X148.179 Y120.033 E0.05387
G1 X147.200 Y121.444 E0.05387
G1 X146.134 Y122.792 E0.05387
G1 X144.987 Y124.071 E0.05387
G1 X143.763 Y125.277 E0.05387
G1 X142.466 Y126.404 E0.05387
G1 X141.102 Y127.448 E0.05387
G1 X139.675 Y128.405 E0.05387
G1 X138.560 Y129.057 E0.04051
G1 X138.192 Y129.272 E0.01336
G1 X136.657 Y130.045 E0.05387
G1 X135.078 Y130.721 E0.05387
G1 X133.459 Y131.297 E0.05387
G1 X131.808 Y131.772 E0.05387
G1 X130.130 Y132.143 E0.05387
G1 X128.433 Y132.409 E0.05387
G1 X126.722 Y132.570 E0.05387
G1 X125.005 Y132.623 E0.05387
G1 X123.287 Y132.570 E0.05387
G1 X121.577 Y132.409 E0.05387
G1 X119.879 Y132.143 E0.05387
G1 X118.202 Y131.772 E0.05387
G1 X116.550 Y131.297 E0.05387
G1 X114.932 Y130.721 E0.05387
G1 X113.352 Y130.045 E0.05387
G1 X111.818 Y129.272 E0.05387
G1 X110.334 Y128.405 E0.05387
G1 X108.908 Y127.448 E0.05387
G1 X107.543 Y126.404 E0.05387
G1 X106.246 Y125.277 E0.05387
G1 X105.022 Y124.071 E0.05387
