; G-Code generated by Simplify3D(R) Version 4.0.0
; Dec 22, 2017 at 10:38:49 PM
; Settings Summary
;   processName,Process1
;   applyToModels,cat-stand-connector-4-ways
;   profileName,Prusa Research Original Prusa i3 MK2 (modified)
;   profileVersion,2017-07-23 22:27:18
;   baseProfile,
;   printMaterial,PLA
;   printQuality,Fast
;   printExtruders,
;   extruderName,Primary Extruder
;   extruderToolheadNumber,0
;   extruderDiameter,0.4
;   extruderAutoWidth,1
;   extruderWidth,0.48
;   extrusionMultiplier,1
;   extruderUseRetract,1
;   extruderRetractionDistance,1.5
;   extruderExtraRestartDistance,0
;   extruderRetractionZLift,0
;   extruderRetractionSpeed,1800
;   extruderUseCoasting,1
;   extruderCoastingDistance,0.2
;   extruderUseWipe,1
;   extruderWipeDistance,2
;   primaryExtruder,0
;   layerHeight,0.35
;   topSolidLayers,4
;   bottomSolidLayers,4
;   perimeterOutlines,4
;   printPerimetersInsideOut,1
;   startPointOption,2
;   startPointOriginX,0
;   startPointOriginY,0
;   sequentialIslands,0
;   spiralVaseMode,0
;   firstLayerHeightPercentage,120
;   firstLayerWidthPercentage,100
;   firstLayerUnderspeed,0.5
;   useRaft,0
;   raftExtruder,0
;   raftTopLayers,3
;   raftBaseLayers,2
;   raftOffset,3
;   raftSeparationDistance,0.14
;   raftTopInfill,100
;   aboveRaftSpeedMultiplier,0.3
;   useSkirt,1
;   skirtExtruder,0
;   skirtLayers,1
;   skirtOutlines,1
;   skirtOffset,4
;   usePrimePillar,0
;   primePillarExtruder,999
;   primePillarWidth,12
;   primePillarLocation,7
;   primePillarSpeedMultiplier,1
;   useOozeShield,0
;   oozeShieldExtruder,999
;   oozeShieldOffset,2
;   oozeShieldOutlines,1
;   oozeShieldSidewallShape,1
;   oozeShieldSidewallAngle,30
;   oozeShieldSpeedMultiplier,1
;   infillExtruder,0
;   internalInfillPattern,Rectilinear
;   externalInfillPattern,Rectilinear
;   infillPercentage,17
;   outlineOverlapPercentage,20
;   infillExtrusionWidthPercentage,100
;   minInfillLength,5
;   infillLayerInterval,1
;   internalInfillAngles,45,-45
;   overlapInternalInfillAngles,0
;   externalInfillAngles,45,-45
;   generateSupport,1
;   supportExtruder,0
;   supportInfillPercentage,25
;   supportExtraInflation,0
;   supportBaseLayers,0
;   denseSupportExtruder,0
;   denseSupportLayers,0
;   denseSupportInfillPercentage,70
;   supportLayerInterval,1
;   supportHorizontalPartOffset,0.3
;   supportUpperSeparationLayers,1
;   supportLowerSeparationLayers,1
;   supportType,0
;   supportGridSpacing,4
;   maxOverhangAngle,45
;   supportAngles,0
;   temperatureName,Primary Extruder,Heated Bed
;   temperatureNumber,0,0
;   temperatureSetpointCount,1,1
;   temperatureSetpointLayers,1,1
;   temperatureSetpointTemperatures,210,60
;   temperatureStabilizeAtStartup,1,1
;   temperatureHeatedBed,0,1
;   temperatureRelayBetweenLayers,0,0
;   temperatureRelayBetweenLoops,0,0
;   fanLayers,1,2
;   fanSpeeds,0,100
;   blipFanToFullPower,0
;   adjustSpeedForCooling,1
;   minSpeedLayerTime,15
;   minCoolingSpeedSlowdown,20
;   increaseFanForCooling,0
;   minFanLayerTime,45
;   maxCoolingFanSpeed,100
;   increaseFanForBridging,0
;   bridgingFanSpeed,100
;   use5D,1
;   relativeEdistances,0
;   allowEaxisZeroing,1
;   independentExtruderAxes,0
;   includeM10123,0
;   stickySupport,1
;   applyToolheadOffsets,0
;   gcodeXoffset,0
;   gcodeYoffset,0
;   gcodeZoffset,0
;   overrideMachineDefinition,1
;   machineTypeOverride,0
;   strokeXoverride,250
;   strokeYoverride,210
;   strokeZoverride,200
;   originOffsetXoverride,0
;   originOffsetYoverride,0
;   originOffsetZoverride,0
;   homeXdirOverride,-1
;   homeYdirOverride,-1
;   homeZdirOverride,-1
;   flipXoverride,1
;   flipYoverride,-1
;   flipZoverride,1
;   toolheadOffsets,0,0|0,0|0,0|0,0|0,0|0,0
;   overrideFirmwareConfiguration,1
;   firmwareTypeOverride,RepRap (Marlin/Repetier/Sprinter)
;   GPXconfigOverride,r2
;   baudRateOverride,250000
;   overridePrinterModels,1
;   printerModelsOverride
;   startingGcode,M115 U3.0.7 ; use the latest firmware version,G28 W ; home all axes without mesh bed leveling,G80 ; run mesh bed leveling routine,G1 Y-3.0 F1000.0 ; prepare to prime,G92 E0 ; reset extrusion distance,G1 X60.0 E9.0  F1000.0 ; priming,G1 X100.0 E12.5  F1000.0 ; priming
;   layerChangeGcode,
;   retractionGcode,
;   toolChangeGcode,
;   endingGcode,M106 S0 ; turn off cooling fan,M104 S0 ; turn off extruder,M140 S0 ; turn off bed,G1 X0 Y200 ; part removal,M84 ; disable motors
;   exportFileFormat,gcode
;   celebration,0
;   celebrationSong,Random Song
;   postProcessing,
;   defaultSpeed,2400
;   outlineUnderspeed,0.8
;   solidInfillUnderspeed,0.8
;   supportUnderspeed,0.8
;   rapidXYspeed,4800
;   rapidZspeed,1002
;   minBridgingArea,50
;   bridgingExtraInflation,0
;   bridgingExtrusionMultiplier,1
;   bridgingSpeedMultiplier,1
;   useFixedBridgingAngle,0
;   fixedBridgingAngle,0
;   applyBridgingToPerimeters,0
;   filamentDiameters,1.75|1.75|1.75|1.75|1.75|1.75
;   filamentPricesPerKg,199|46|46|46|46|46
;   filamentDensities,1.25|1.25|1.25|1.25|1.25|1.25
;   useMinPrintHeight,0
;   minPrintHeight,0
;   useMaxPrintHeight,1
;   maxPrintHeight,235
;   useDiaphragm,0
;   diaphragmLayerInterval,20
;   robustSlicing,1
;   mergeAllIntoSolid,0
;   onlyRetractWhenCrossingOutline,1
;   retractBetweenLayers,1
;   useRetractionMinTravel,0
;   retractionMinTravel,3
;   retractWhileWiping,1
;   onlyWipeOutlines,1
;   avoidCrossingOutline,0
;   maxMovementDetourFactor,3
;   toolChangeRetractionDistance,12
;   toolChangeExtraRestartDistance,-0.5
;   toolChangeRetractionSpeed,600
;   externalThinWallType,0
;   internalThinWallType,2
;   thinWallAllowedOverlapPercentage,25
;   singleExtrusionMinLength,1
;   singleExtrusionMinPrintingWidthPercentage,50
;   singleExtrusionMaxPrintingWidthPercentage,200
;   singleExtrusionEndpointExtension,0.2
;   horizontalSizeCompensation,0
G90
M82
M106 S0
M140 S60
M190 S60
M104 S210 T0
M109 S210 T0
M115 U3.0.7 ; use the latest firmware version
G28 W ; home all axes without mesh bed leveling
G80 ; run mesh bed leveling routine
G1 Y-3.0 F1000.0 ; prepare to prime
G92 E0 ; reset extrusion distance
G1 X60.0 E9.0  F1000.0 ; priming
G1 X100.0 E12.5  F1000.0 ; priming
G92 E0
G1 E-1.5000 F1800
G1 Z0.420 F1002
; process Process1
; layer 1, Z = 0.420
T0
; tool H0.420 W0.480
; skirt
G1 X103.776 Y63.207 F4800
G1 E0.0000 F540
G92 E0
G1 X106.186 Y60.797 E0.2857 F1200
G1 X106.275 Y60.760 E0.2937
G1 X110.804 Y60.760 E0.6734
G1 X110.987 Y60.577 E0.6951
G1 X111.075 Y60.540 E0.7031
G1 X118.925 Y60.540 E1.3610
G1 X119.013 Y60.577 E1.3690
G1 X121.423 Y62.987 E1.6547
G1 X121.460 Y63.075 E1.6627
G1 X121.460 Y64.540 E1.7855
G1 X126.925 Y64.540 E2.2435
G1 X127.013 Y64.577 E2.2515
G1 X129.423 Y66.987 E2.5373
G1 X129.460 Y67.075 E2.5453
G1 X129.460 Y68.540 E2.6680
G1 X130.925 Y68.540 E2.7908
G1 X131.013 Y68.577 E2.7988
G1 X133.423 Y70.987 E3.0845
G1 X133.460 Y71.075 E3.0925
G1 X133.460 Y72.540 E3.2153
G1 X134.925 Y72.540 E3.3380
G1 X135.013 Y72.577 E3.3460
G1 X137.423 Y74.987 E3.6318
G1 X137.460 Y75.075 E3.6398
G1 X137.460 Y76.540 E3.7625
G1 X138.925 Y76.540 E3.8853
G1 X139.013 Y76.577 E3.8933
G1 X141.423 Y78.987 E4.1790
G1 X141.460 Y79.075 E4.1870
G1 X141.460 Y80.540 E4.3098
G1 X142.925 Y80.540 E4.4326
G1 X143.013 Y80.577 E4.4406
G1 X145.423 Y82.987 E4.7263
G1 X145.460 Y83.075 E4.7343
G1 X145.460 Y84.540 E4.8571
G1 X146.925 Y84.540 E4.9798
G1 X147.013 Y84.577 E4.9878
G1 X149.423 Y86.987 E5.2736
G1 X149.460 Y87.075 E5.2816
G1 X149.460 Y88.540 E5.4043
G1 X150.925 Y88.540 E5.5271
G1 X151.013 Y88.577 E5.5351
G1 X153.423 Y90.987 E5.8208
G1 X153.460 Y91.075 E5.8288
G1 X153.460 Y100.443 E6.6140
G1 X154.203 Y101.186 E6.7021
G1 X154.240 Y101.275 E6.7101
G1 X154.240 Y108.725 E7.3346
G1 X154.203 Y108.814 E7.3426
G1 X153.460 Y109.557 E7.4307
G1 X153.460 Y118.925 E8.2159
G1 X153.423 Y119.013 E8.2239
G1 X151.013 Y121.423 E8.5096
G1 X150.925 Y121.460 E8.5176
G1 X149.460 Y121.460 E8.6404
G1 X149.460 Y122.925 E8.7631
G1 X149.423 Y123.013 E8.7711
G1 X147.013 Y125.423 E9.0569
G1 X146.925 Y125.460 E9.0649
G1 X145.460 Y125.460 E9.1876
G1 X145.460 Y126.925 E9.3104
G1 X145.423 Y127.013 E9.3184
G1 X143.013 Y129.423 E9.6041
G1 X142.925 Y129.460 E9.6121
G1 X141.460 Y129.460 E9.7349
G1 X141.460 Y130.925 E9.8576
G1 X141.423 Y131.013 E9.8656
G1 X139.013 Y133.423 E10.1514
G1 X138.925 Y133.460 E10.1594
G1 X137.460 Y133.460 E10.2821
G1 X137.460 Y134.925 E10.4049
G1 X137.423 Y135.013 E10.4129
G1 X135.013 Y137.423 E10.6986
G1 X134.925 Y137.460 E10.7066
G1 X133.460 Y137.460 E10.8294
G1 X133.460 Y138.925 E10.9521
G1 X133.423 Y139.013 E10.9601
G1 X131.013 Y141.423 E11.2459
G1 X130.925 Y141.460 E11.2539
G1 X129.460 Y141.460 E11.3766
G1 X129.460 Y142.925 E11.4994
G1 X129.423 Y143.013 E11.5074
G1 X127.013 Y145.423 E11.7932
G1 X126.925 Y145.460 E11.8012
G1 X121.460 Y145.460 E12.2592
G1 X121.460 Y146.925 E12.3819
G1 X121.423 Y147.013 E12.3899
G1 X119.013 Y149.423 E12.6757
G1 X118.925 Y149.460 E12.6837
G1 X111.075 Y149.460 E13.3416
G1 X110.987 Y149.423 E13.3496
G1 X110.804 Y149.240 E13.3713
G1 X106.275 Y149.240 E13.7509
G1 X106.186 Y149.203 E13.7589
G1 X103.776 Y146.793 E14.0447
G1 X103.739 Y146.705 E14.0527
G1 X103.739 Y63.400 E21.0349
G1 X103.739 Y63.295 F1200
G1 X103.776 Y63.207 F1200
G92 E0
G1 E-1.5000 F1800
; inner perimeter
G1 X109.659 Y66.680 F4800
G1 E0.0000 F1800
G92 E0
G1 X110.341 Y66.680 E0.0571 F1080
G1 X110.341 Y104.659 E3.2404
G1 X148.320 Y104.659 E6.4236
G1 X148.320 Y105.341 E6.4808
G1 X110.341 Y105.341 E9.6640
G1 X110.341 Y143.320 E12.8472
G1 X109.659 Y143.320 E12.9044
G1 X109.659 Y66.880 E19.3112
G1 X109.659 Y66.680 F1080
G1 X109.179 Y66.200 F4800
G92 E0
G1 X110.821 Y66.200 E0.1376 F1080
G1 X110.821 Y104.179 E3.3208
G1 X148.800 Y104.179 E6.5041
G1 X148.800 Y105.821 E6.6417
G1 X110.821 Y105.821 E9.8249
G1 X110.821 Y143.800 E13.0082
G1 X109.179 Y143.800 E13.1458
G1 X109.179 Y66.400 E19.6331
G1 X109.179 Y66.200 F1080
G1 X108.699 Y65.720 F4800
G92 E0
G1 X111.301 Y65.720 E0.2181 F1080
G1 X111.301 Y103.699 E3.4013
G1 X149.280 Y103.699 E6.5845
G1 X149.280 Y106.301 E6.8026
G1 X111.301 Y106.301 E9.9859
G1 X111.301 Y144.280 E13.1691
G1 X108.699 Y144.280 E13.3872
G1 X108.699 Y65.920 E19.9549
G1 X108.699 Y65.720 F1080
; outer perimeter
G1 X108.219 Y65.240 F4800
G92 E0
G1 X111.781 Y65.240 E0.2985 F960
G1 X111.781 Y103.219 E3.4818
G1 X149.760 Y103.219 E6.6650
G1 X149.760 Y106.781 E6.9635
G1 X111.781 Y106.781 E10.1468
G1 X111.781 Y144.760 E13.3300
G1 X108.219 Y144.760 E13.6286
G1 X108.219 Y65.440 E20.2768
G1 X108.219 Y65.240 F960
G92 E0
G1 X110.219 Y65.240 E-1.5000 F2400
; support
G1 X113.923 Y66.600 F4800
G1 E0.0000 F1800
G92 E0
G1 X116.980 Y66.600 E0.2562 F960
G1 X116.980 Y68.520 E0.4171
G1 X113.923 Y68.520 E0.6733
G1 X113.923 Y70.440 E0.8342
G1 X116.980 Y70.440 E1.0904
G1 X116.980 Y72.360 E1.2514
G1 X113.923 Y72.360 E1.5076
G1 X113.923 Y74.280 E1.6685
G1 X116.980 Y74.280 E1.9247
G1 X116.980 Y76.200 E2.0856
G1 X113.923 Y76.200 E2.3418
G1 X113.923 Y78.120 E2.5027
G1 X116.980 Y78.120 E2.7589
G1 X116.980 Y80.040 E2.9198
G1 X113.923 Y80.040 E3.1760
G1 X113.923 Y81.960 E3.3370
G1 X116.980 Y81.960 E3.5932
G1 X116.980 Y83.880 E3.7541
G1 X113.923 Y83.880 E4.0103
G1 X113.923 Y85.800 E4.1712
G1 X116.980 Y85.800 E4.4274
G1 X116.980 Y87.720 E4.5883
G1 X113.923 Y87.720 E4.8445
G1 X113.923 Y89.640 E5.0054
G1 X116.980 Y89.640 E5.2616
G1 X116.980 Y91.560 E5.4226
G1 X113.923 Y91.560 E5.6788
G1 X113.923 Y93.480 E5.8397
G1 X116.980 Y93.480 E6.0959
G1 X116.980 Y95.400 E6.2568
G1 X113.923 Y95.400 E6.5130
G1 X113.923 Y97.320 E6.6739
G1 X148.980 Y97.320 E9.6122
G1 X148.980 Y99.240 E9.7731
G1 X114.123 Y99.240 E12.6947
G1 X113.923 Y99.240 F960
G92 E0
G1 E-1.5000 F1800
G1 X113.923 Y110.760 F4800
G1 E0.0000 F1800
G92 E0
G1 X148.980 Y110.760 E2.9383 F960
G1 X148.980 Y112.680 E3.0992
G1 X113.923 Y112.680 E6.0375
G1 X113.923 Y114.600 E6.1984
G1 X116.980 Y114.600 E6.4546
G1 X116.980 Y116.520 E6.6156
G1 X113.923 Y116.520 E6.8718
G1 X113.923 Y118.440 E7.0327
G1 X116.980 Y118.440 E7.2889
G1 X116.980 Y120.360 E7.4498
G1 X113.923 Y120.360 E7.7060
G1 X113.923 Y122.280 E7.8669
G1 X116.980 Y122.280 E8.1231
G1 X116.980 Y124.200 E8.2840
G1 X113.923 Y124.200 E8.5402
G1 X113.923 Y126.120 E8.7012
G1 X116.980 Y126.120 E8.9574
G1 X116.980 Y128.040 E9.1183
G1 X113.923 Y128.040 E9.3745
G1 X113.923 Y129.960 E9.5354
G1 X116.980 Y129.960 E9.7916
G1 X116.980 Y131.880 E9.9525
G1 X113.923 Y131.880 E10.2087
G1 X113.923 Y133.800 E10.3696
G1 X116.980 Y133.800 E10.6258
G1 X116.980 Y135.720 E10.7868
G1 X113.923 Y135.720 E11.0430
G1 X113.923 Y137.640 E11.2039
G1 X116.980 Y137.640 E11.4601
G1 X116.980 Y139.560 E11.6210
G1 X113.923 Y139.560 E11.8772
G1 X113.923 Y141.480 E12.0381
G1 X116.980 Y141.480 E12.2943
G1 X116.980 Y143.400 E12.4552
G1 X114.123 Y143.400 E12.6947
G1 X113.923 Y143.400 F960
G92 E0
G1 E-1.5000 F1800
G1 X121.020 Y139.560 F4800
G1 E0.0000 F1800
G92 E0
G1 X124.980 Y139.560 E0.3319 F960
G1 X124.980 Y137.640 E0.4928
G1 X121.020 Y137.640 E0.8247
G1 X121.020 Y135.720 E0.9857
G1 X128.980 Y135.720 E1.6528
G1 X128.980 Y133.800 E1.8138
G1 X121.020 Y133.800 E2.4809
G1 X121.020 Y131.880 E2.6419
G1 X132.980 Y131.880 E3.6443
G1 X132.980 Y129.960 E3.8052
G1 X121.020 Y129.960 E4.8077
G1 X121.020 Y129.020 E4.8864
G1 X125.020 Y129.020 E5.2217
G1 X125.020 Y128.040 E5.3038
G1 X136.980 Y128.040 E6.3063
G1 X136.980 Y126.120 E6.4672
G1 X125.020 Y126.120 E7.4696
G1 X125.020 Y125.020 E7.5618
G1 X129.020 Y125.020 E7.8971
G1 X129.020 Y124.200 E7.9658
G1 X140.980 Y124.200 E8.9683
G1 X140.980 Y122.280 E9.1292
G1 X129.020 Y122.280 E10.1316
G1 X129.020 Y121.020 E10.2372
G1 X133.020 Y121.020 E10.5725
G1 X133.020 Y120.360 E10.6278
G1 X144.980 Y120.360 E11.6302
G1 X144.980 Y118.440 E11.7912
G1 X133.020 Y118.440 E12.7936
G1 X133.020 Y117.020 E12.9126
G1 X137.020 Y117.020 E13.2479
G1 X137.020 Y116.520 E13.2898
G1 X148.980 Y116.520 E14.2922
G1 X148.980 Y114.600 E14.4532
G1 X137.220 Y114.600 E15.4388
G1 X137.020 Y114.600 F960
G92 E0
G1 E-1.5000 F1800
G1 X137.020 Y95.400 F4800
G1 E0.0000 F1800
G92 E0
G1 X148.980 Y95.400 E1.0024 F960
G1 X148.980 Y93.480 E1.1634
G1 X137.020 Y93.480 E2.1658
G1 X137.020 Y92.980 E2.2077
G1 X133.020 Y92.980 E2.5430
G1 X133.020 Y91.560 E2.6620
G1 X144.980 Y91.560 E3.6644
G1 X144.980 Y89.640 E3.8253
G1 X133.020 Y89.640 E4.8278
G1 X133.020 Y88.980 E4.8831
G1 X129.020 Y88.980 E5.2184
G1 X129.020 Y87.720 E5.3240
G1 X140.980 Y87.720 E6.3264
G1 X140.980 Y85.800 E6.4873
G1 X129.020 Y85.800 E7.4898
G1 X129.020 Y84.980 E7.5585
G1 X125.020 Y84.980 E7.8937
G1 X125.020 Y83.880 E7.9859
G1 X136.980 Y83.880 E8.9884
G1 X136.980 Y81.960 E9.1493
G1 X125.020 Y81.960 E10.1517
G1 X125.020 Y80.980 E10.2339
G1 X121.020 Y80.980 E10.5691
G1 X121.020 Y80.040 E10.6479
G1 X132.980 Y80.040 E11.6504
G1 X132.980 Y78.120 E11.8113
G1 X121.020 Y78.120 E12.8137
G1 X121.020 Y76.200 E12.9746
G1 X128.980 Y76.200 E13.6418
G1 X128.980 Y74.280 E13.8027
G1 X121.020 Y74.280 E14.4699
G1 X121.020 Y72.360 E14.6308
G1 X124.980 Y72.360 E14.9628
G1 X124.980 Y70.440 E15.1237
G1 X121.220 Y70.440 E15.4388
G1 X121.020 Y70.440 F960
G92 E0
G1 E-1.5000 F1800
; layer 2, Z = 0.770
M106 S255
; tool H0.350 W0.480
; inner perimeter
G1 X111.703 Y66.680 F4800
G1 Z0.770 F1002
G1 E0.0000 F1800
G92 E0
G1 X111.703 Y103.297 E2.5575 F2160
G1 X148.320 Y103.297 E5.1151
G1 X148.320 Y106.703 E5.3530
G1 X111.703 Y106.703 E7.9106
G1 X111.703 Y143.320 E10.4681
G1 X108.297 Y143.320 E10.7060
G1 X108.297 Y105.246 E13.3653
G1 X108.285 Y105.000 E13.3826
G1 X108.297 Y104.754 E13.3998
G1 X108.297 Y66.680 E16.0591
G1 X111.503 Y66.680 E16.2831
G1 X111.703 Y66.680 F2160
G1 X112.183 Y66.200 F4800
G92 E0
G1 X112.183 Y102.817 E2.5575 F2160
G1 X148.800 Y102.817 E5.1151
G1 X148.800 Y107.183 E5.4201
G1 X112.183 Y107.183 E7.9776
G1 X112.183 Y143.800 E10.5351
G1 X107.817 Y143.800 E10.8401
G1 X107.817 Y105.258 E13.5322
G1 X107.804 Y105.000 E13.5502
G1 X107.817 Y104.742 E13.5682
G1 X107.817 Y66.200 E16.2603
G1 X111.983 Y66.200 E16.5513
G1 X112.183 Y66.200 F2160
G1 X112.663 Y65.720 F4800
G92 E0
G1 X112.663 Y102.337 E2.5575 F2160
G1 X149.280 Y102.337 E5.1151
G1 X149.280 Y107.663 E5.4871
G1 X112.663 Y107.663 E8.0447
