; G-Code generated by Simplify3D(R) Version 4.0.0
; Dec 22, 2017 at 8:09:06 PM
; Settings Summary
;   processName,Process1
;   applyToModels,cat-stand-connector-5-ways
;   profileName,Prusa Research Original Prusa i3 MK2 (modified)
;   profileVersion,2017-07-23 22:27:18
;   baseProfile,
;   printMaterial,PLA
;   printQuality,Fast
;   printExtruders,
;   extruderName,Primary Extruder
;   extruderToolheadNumber,0
;   extruderDiameter,0.4
;   extruderAutoWidth,1
;   extruderWidth,0.48
;   extrusionMultiplier,1
;   extruderUseRetract,1
;   extruderRetractionDistance,1.5
;   extruderExtraRestartDistance,0
;   extruderRetractionZLift,0
;   extruderRetractionSpeed,1800
;   extruderUseCoasting,1
;   extruderCoastingDistance,0.2
;   extruderUseWipe,1
;   extruderWipeDistance,2
;   primaryExtruder,0
;   layerHeight,0.35
;   topSolidLayers,4
;   bottomSolidLayers,4
;   perimeterOutlines,4
;   printPerimetersInsideOut,1
;   startPointOption,2
;   startPointOriginX,0
;   startPointOriginY,0
;   sequentialIslands,0
;   spiralVaseMode,0
;   firstLayerHeightPercentage,120
;   firstLayerWidthPercentage,100
;   firstLayerUnderspeed,0.5
;   useRaft,0
;   raftExtruder,0
;   raftTopLayers,3
;   raftBaseLayers,2
;   raftOffset,3
;   raftSeparationDistance,0.14
;   raftTopInfill,100
;   aboveRaftSpeedMultiplier,0.3
;   useSkirt,1
;   skirtExtruder,0
;   skirtLayers,1
;   skirtOutlines,1
;   skirtOffset,4
;   usePrimePillar,0
;   primePillarExtruder,999
;   primePillarWidth,12
;   primePillarLocation,7
;   primePillarSpeedMultiplier,1
;   useOozeShield,0
;   oozeShieldExtruder,999
;   oozeShieldOffset,2
;   oozeShieldOutlines,1
;   oozeShieldSidewallShape,1
;   oozeShieldSidewallAngle,30
;   oozeShieldSpeedMultiplier,1
;   infillExtruder,0
;   internalInfillPattern,Rectilinear
;   externalInfillPattern,Rectilinear
;   infillPercentage,17
;   outlineOverlapPercentage,20
;   infillExtrusionWidthPercentage,100
;   minInfillLength,5
;   infillLayerInterval,1
;   internalInfillAngles,45,-45
;   overlapInternalInfillAngles,0
;   externalInfillAngles,45,-45
;   generateSupport,1
;   supportExtruder,0
;   supportInfillPercentage,25
;   supportExtraInflation,0
;   supportBaseLayers,0
;   denseSupportExtruder,0
;   denseSupportLayers,0
;   denseSupportInfillPercentage,70
;   supportLayerInterval,1
;   supportHorizontalPartOffset,0.3
;   supportUpperSeparationLayers,1
;   supportLowerSeparationLayers,1
;   supportType,0
;   supportGridSpacing,4
;   maxOverhangAngle,45
;   supportAngles,0
;   temperatureName,Primary Extruder,Heated Bed
;   temperatureNumber,0,0
;   temperatureSetpointCount,1,1
;   temperatureSetpointLayers,1,1
;   temperatureSetpointTemperatures,210,60
;   temperatureStabilizeAtStartup,1,1
;   temperatureHeatedBed,0,1
;   temperatureRelayBetweenLayers,0,0
;   temperatureRelayBetweenLoops,0,0
;   fanLayers,1,2
;   fanSpeeds,0,100
;   blipFanToFullPower,0
;   adjustSpeedForCooling,1
;   minSpeedLayerTime,15
;   minCoolingSpeedSlowdown,20
;   increaseFanForCooling,0
;   minFanLayerTime,45
;   maxCoolingFanSpeed,100
;   increaseFanForBridging,0
;   bridgingFanSpeed,100
;   use5D,1
;   relativeEdistances,0
;   allowEaxisZeroing,1
;   independentExtruderAxes,0
;   includeM10123,0
;   stickySupport,1
;   applyToolheadOffsets,0
;   gcodeXoffset,0
;   gcodeYoffset,0
;   gcodeZoffset,0
;   overrideMachineDefinition,1
;   machineTypeOverride,0
;   strokeXoverride,250
;   strokeYoverride,210
;   strokeZoverride,200
;   originOffsetXoverride,0
;   originOffsetYoverride,0
;   originOffsetZoverride,0
;   homeXdirOverride,-1
;   homeYdirOverride,-1
;   homeZdirOverride,-1
;   flipXoverride,1
;   flipYoverride,-1
;   flipZoverride,1
;   toolheadOffsets,0,0|0,0|0,0|0,0|0,0|0,0
;   overrideFirmwareConfiguration,1
;   firmwareTypeOverride,RepRap (Marlin/Repetier/Sprinter)
;   GPXconfigOverride,r2
;   baudRateOverride,250000
;   overridePrinterModels,1
;   printerModelsOverride
;   startingGcode,M115 U3.0.7 ; use the latest firmware version,G28 W ; home all axes without mesh bed leveling,G80 ; run mesh bed leveling routine,G1 Y-3.0 F1000.0 ; prepare to prime,G92 E0 ; reset extrusion distance,G1 X60.0 E9.0  F1000.0 ; priming,G1 X100.0 E12.5  F1000.0 ; priming
;   layerChangeGcode,
;   retractionGcode,
;   toolChangeGcode,
;   endingGcode,M106 S0 ; turn off cooling fan,M104 S0 ; turn off extruder,M140 S0 ; turn off bed,G1 X0 Y200 ; part removal,M84 ; disable motors
;   exportFileFormat,gcode
;   celebration,0
;   celebrationSong,Random Song
;   postProcessing,
;   defaultSpeed,2400
;   outlineUnderspeed,0.8
;   solidInfillUnderspeed,0.8
;   supportUnderspeed,0.8
;   rapidXYspeed,4800
;   rapidZspeed,1002
;   minBridgingArea,50
;   bridgingExtraInflation,0
;   bridgingExtrusionMultiplier,1
;   bridgingSpeedMultiplier,1
;   useFixedBridgingAngle,0
;   fixedBridgingAngle,0
;   applyBridgingToPerimeters,0
;   filamentDiameters,1.75|1.75|1.75|1.75|1.75|1.75
;   filamentPricesPerKg,199|46|46|46|46|46
;   filamentDensities,1.25|1.25|1.25|1.25|1.25|1.25
;   useMinPrintHeight,0
;   minPrintHeight,0
;   useMaxPrintHeight,1
;   maxPrintHeight,235
;   useDiaphragm,0
;   diaphragmLayerInterval,20
;   robustSlicing,1
;   mergeAllIntoSolid,0
;   onlyRetractWhenCrossingOutline,1
;   retractBetweenLayers,1
;   useRetractionMinTravel,0
;   retractionMinTravel,3
;   retractWhileWiping,1
;   onlyWipeOutlines,1
;   avoidCrossingOutline,0
;   maxMovementDetourFactor,3
;   toolChangeRetractionDistance,12
;   toolChangeExtraRestartDistance,-0.5
;   toolChangeRetractionSpeed,600
;   externalThinWallType,0
;   internalThinWallType,2
;   thinWallAllowedOverlapPercentage,25
;   singleExtrusionMinLength,1
;   singleExtrusionMinPrintingWidthPercentage,50
;   singleExtrusionMaxPrintingWidthPercentage,200
;   singleExtrusionEndpointExtension,0.2
;   horizontalSizeCompensation,0
G90
M82
M106 S0
M140 S60
M190 S60
M104 S210 T0
M109 S210 T0
M115 U3.0.7 ; use the latest firmware version
G28 W ; home all axes without mesh bed leveling
G80 ; run mesh bed leveling routine
G1 Y-3.0 F1000.0 ; prepare to prime
G92 E0 ; reset extrusion distance
G1 X60.0 E9.0  F1000.0 ; priming
G1 X100.0 E12.5  F1000.0 ; priming
G92 E0
G1 E-1.5000 F1800
G1 Z0.420 F1002
; process Process1
; layer 1, Z = 0.420
T0
; tool H0.420 W0.480
; skirt
G1 X86.987 Y88.577 F4800
G1 E0.0000 F540
G92 E0
G1 X87.075 Y88.540 E0.0080 F1200
G1 X88.540 Y88.540 E0.1308
G1 X88.540 Y87.075 E0.2535
G1 X88.577 Y86.987 E0.2615
G1 X90.987 Y84.577 E0.5473
G1 X91.075 Y84.540 E0.5553
G1 X92.540 Y84.540 E0.6780
G1 X92.540 Y83.075 E0.8008
G1 X92.577 Y82.987 E0.8088
G1 X94.987 Y80.577 E1.0945
G1 X95.075 Y80.540 E1.1025
G1 X96.540 Y80.540 E1.2253
G1 X96.540 Y79.075 E1.3480
G1 X96.577 Y78.987 E1.3560
G1 X98.987 Y76.577 E1.6418
G1 X99.075 Y76.540 E1.6498
G1 X100.540 Y76.540 E1.7725
G1 X100.540 Y75.075 E1.8953
G1 X100.577 Y74.987 E1.9033
G1 X102.987 Y72.577 E2.1890
G1 X103.075 Y72.540 E2.1970
G1 X104.540 Y72.540 E2.3198
G1 X104.540 Y71.075 E2.4425
G1 X104.577 Y70.987 E2.4506
G1 X106.987 Y68.577 E2.7363
G1 X107.075 Y68.540 E2.7443
G1 X108.540 Y68.540 E2.8671
G1 X108.540 Y67.075 E2.9898
G1 X108.577 Y66.987 E2.9978
G1 X110.987 Y64.577 E3.2836
G1 X111.075 Y64.540 E3.2916
G1 X112.540 Y64.540 E3.4143
G1 X112.540 Y63.075 E3.5371
G1 X112.577 Y62.987 E3.5451
G1 X114.987 Y60.577 E3.8308
G1 X115.075 Y60.540 E3.8388
G1 X122.925 Y60.540 E4.4967
G1 X123.013 Y60.577 E4.5047
G1 X123.196 Y60.760 E4.5264
G1 X126.804 Y60.760 E4.8288
G1 X126.987 Y60.577 E4.8506
G1 X127.075 Y60.540 E4.8586
G1 X134.925 Y60.540 E5.5164
G1 X135.013 Y60.577 E5.5244
G1 X137.423 Y62.987 E5.8102
G1 X137.460 Y63.075 E5.8182
G1 X137.460 Y64.540 E5.9409
G1 X138.925 Y64.540 E6.0637
G1 X139.013 Y64.577 E6.0717
G1 X141.423 Y66.987 E6.3574
G1 X141.460 Y67.075 E6.3654
G1 X141.460 Y68.540 E6.4882
G1 X142.925 Y68.540 E6.6110
G1 X143.013 Y68.577 E6.6190
G1 X145.423 Y70.987 E6.9047
G1 X145.460 Y71.075 E6.9127
G1 X145.460 Y72.540 E7.0355
G1 X146.925 Y72.540 E7.1582
G1 X147.013 Y72.577 E7.1662
G1 X149.423 Y74.987 E7.4520
G1 X149.460 Y75.075 E7.4600
G1 X149.460 Y76.540 E7.5827
G1 X150.925 Y76.540 E7.7055
G1 X151.013 Y76.577 E7.7135
G1 X153.423 Y78.987 E7.9992
G1 X153.460 Y79.075 E8.0072
G1 X153.460 Y80.540 E8.1300
G1 X154.925 Y80.540 E8.2527
G1 X155.013 Y80.577 E8.2607
G1 X157.423 Y82.987 E8.5465
G1 X157.460 Y83.075 E8.5545
G1 X157.460 Y84.540 E8.6772
G1 X158.925 Y84.540 E8.8000
G1 X159.013 Y84.577 E8.8080
G1 X161.423 Y86.987 E9.0937
G1 X161.460 Y87.075 E9.1017
G1 X161.460 Y88.540 E9.2245
G1 X162.925 Y88.540 E9.3473
G1 X163.013 Y88.577 E9.3553
G1 X165.423 Y90.987 E9.6410
G1 X165.460 Y91.075 E9.6490
G1 X165.460 Y92.540 E9.7718
G1 X166.925 Y92.540 E9.8945
G1 X167.013 Y92.577 E9.9025
G1 X169.423 Y94.987 E10.1883
G1 X169.460 Y95.075 E10.1963
G1 X169.460 Y102.925 E10.8541
G1 X169.423 Y103.013 E10.8621
G1 X169.240 Y103.196 E10.8839
G1 X169.240 Y106.804 E11.1863
G1 X169.423 Y106.987 E11.2080
G1 X169.460 Y107.075 E11.2160
G1 X169.460 Y114.925 E11.8739
G1 X169.423 Y115.013 E11.8819
G1 X167.013 Y117.423 E12.1676
G1 X166.925 Y117.460 E12.1756
G1 X165.460 Y117.460 E12.2984
G1 X165.460 Y118.925 E12.4211
G1 X165.423 Y119.013 E12.4292
G1 X163.013 Y121.423 E12.7149
G1 X162.925 Y121.460 E12.7229
G1 X161.460 Y121.460 E12.8457
G1 X161.460 Y122.925 E12.9684
G1 X161.423 Y123.013 E12.9764
G1 X159.013 Y125.423 E13.2622
G1 X158.925 Y125.460 E13.2702
G1 X157.460 Y125.460 E13.3929
G1 X157.460 Y126.925 E13.5157
G1 X157.423 Y127.013 E13.5237
G1 X155.013 Y129.423 E13.8094
G1 X154.925 Y129.460 E13.8174
G1 X153.460 Y129.460 E13.9402
G1 X153.460 Y130.925 E14.0629
G1 X153.423 Y131.013 E14.0709
G1 X151.013 Y133.423 E14.3567
G1 X150.925 Y133.460 E14.3647
G1 X149.460 Y133.460 E14.4874
G1 X149.460 Y134.925 E14.6102
G1 X149.423 Y135.013 E14.6182
G1 X147.013 Y137.423 E14.9039
G1 X146.925 Y137.460 E14.9119
G1 X145.460 Y137.460 E15.0347
G1 X145.460 Y138.925 E15.1574
G1 X145.423 Y139.013 E15.1654
G1 X143.013 Y141.423 E15.4512
G1 X142.925 Y141.460 E15.4592
G1 X141.460 Y141.460 E15.5819
G1 X141.460 Y142.925 E15.7047
G1 X141.423 Y143.013 E15.7127
G1 X139.013 Y145.423 E15.9984
G1 X138.925 Y145.460 E16.0064
G1 X137.460 Y145.460 E16.1292
G1 X137.460 Y146.925 E16.2520
G1 X137.423 Y147.013 E16.2600
G1 X135.013 Y149.423 E16.5457
G1 X134.925 Y149.460 E16.5537
G1 X127.075 Y149.460 E17.2116
G1 X126.987 Y149.423 E17.2196
G1 X126.804 Y149.240 E17.2413
G1 X123.196 Y149.240 E17.5437
G1 X123.013 Y149.423 E17.5654
G1 X122.925 Y149.460 E17.5735
G1 X115.075 Y149.460 E18.2313
G1 X114.987 Y149.423 E18.2393
G1 X112.577 Y147.013 E18.5251
G1 X112.540 Y146.925 E18.5331
G1 X112.540 Y145.460 E18.6558
G1 X111.075 Y145.460 E18.7786
G1 X110.987 Y145.423 E18.7866
G1 X108.577 Y143.013 E19.0723
G1 X108.540 Y142.925 E19.0803
G1 X108.540 Y141.460 E19.2031
G1 X107.075 Y141.460 E19.3259
G1 X106.987 Y141.423 E19.3339
G1 X104.577 Y139.013 E19.6196
G1 X104.540 Y138.925 E19.6276
G1 X104.540 Y137.460 E19.7504
G1 X103.075 Y137.460 E19.8731
G1 X102.987 Y137.423 E19.8811
G1 X100.577 Y135.013 E20.1669
G1 X100.540 Y134.925 E20.1749
G1 X100.540 Y133.460 E20.2976
G1 X99.075 Y133.460 E20.4204
G1 X98.987 Y133.423 E20.4284
G1 X96.577 Y131.013 E20.7141
G1 X96.540 Y130.925 E20.7221
G1 X96.540 Y129.460 E20.8449
G1 X95.075 Y129.460 E20.9676
G1 X94.987 Y129.423 E20.9756
G1 X92.577 Y127.013 E21.2614
G1 X92.540 Y126.925 E21.2694
G1 X92.540 Y125.460 E21.3921
G1 X91.075 Y125.460 E21.5149
G1 X90.987 Y125.423 E21.5229
G1 X88.577 Y123.013 E21.8086
G1 X88.540 Y122.925 E21.8166
G1 X88.540 Y121.460 E21.9394
G1 X87.075 Y121.460 E22.0621
G1 X86.987 Y121.423 E22.0701
G1 X84.577 Y119.013 E22.3559
G1 X84.540 Y118.925 E22.3639
G1 X84.540 Y117.460 E22.4866
G1 X83.075 Y117.460 E22.6094
G1 X82.987 Y117.423 E22.6174
G1 X80.577 Y115.013 E22.9031
G1 X80.540 Y114.925 E22.9112
G1 X80.540 Y107.075 E23.5690
G1 X80.577 Y106.987 E23.5770
G1 X80.760 Y106.804 E23.5988
G1 X80.760 Y103.196 E23.9011
G1 X80.577 Y103.013 E23.9229
G1 X80.540 Y102.925 E23.9309
G1 X80.540 Y95.075 E24.5888
G1 X80.577 Y94.987 E24.5968
G1 X82.987 Y92.577 E24.8825
G1 X83.075 Y92.540 E24.8905
G1 X84.540 Y92.540 E25.0133
G1 X84.540 Y91.075 E25.1360
G1 X84.577 Y90.987 E25.1440
G1 X86.846 Y88.718 E25.4130
G1 X86.987 Y88.577 F1200
G92 E0
G1 E-1.5000 F1800
; inner perimeter
G1 X86.680 Y104.659 F4800
G1 E0.0000 F1800
G92 E0
G1 X124.659 Y104.659 E3.1832 F1080
G1 X124.659 Y66.680 E6.3665
G1 X125.341 Y66.680 E6.4236
G1 X125.341 Y104.659 E9.6069
G1 X163.320 Y104.659 E12.7901
G1 X163.320 Y105.341 E12.8472
G1 X125.341 Y105.341 E16.0305
G1 X125.341 Y143.320 E19.2137
G1 X124.659 Y143.320 E19.2709
G1 X124.659 Y105.341 E22.4541
G1 X86.680 Y105.341 E25.6373
G1 X86.680 Y104.859 E25.6777
G1 X86.680 Y104.659 F1080
G1 X86.200 Y104.179 F4800
G92 E0
G1 X124.179 Y104.179 E3.1832 F1080
G1 X124.179 Y66.200 E6.3665
G1 X125.821 Y66.200 E6.5041
G1 X125.821 Y104.179 E9.6873
G1 X163.800 Y104.179 E12.8706
G1 X163.800 Y105.821 E13.0082
G1 X125.821 Y105.821 E16.1914
G1 X125.821 Y143.800 E19.3747
G1 X124.179 Y143.800 E19.5123
G1 X124.179 Y105.821 E22.6955
G1 X86.200 Y105.821 E25.8787
G1 X86.200 Y104.379 E25.9996
G1 X86.200 Y104.179 F1080
G1 X85.720 Y103.699 F4800
G92 E0
G1 X123.699 Y103.699 E3.1832 F1080
G1 X123.699 Y65.720 E6.3665
G1 X126.301 Y65.720 E6.5845
G1 X126.301 Y103.699 E9.7678
G1 X164.280 Y103.699 E12.9510
G1 X164.280 Y106.301 E13.1691
G1 X126.301 Y106.301 E16.3523
G1 X126.301 Y144.280 E19.5356
G1 X123.699 Y144.280 E19.7536
G1 X123.699 Y106.301 E22.9369
G1 X85.720 Y106.301 E26.1201
G1 X85.720 Y103.899 E26.3214
G1 X85.720 Y103.699 F1080
; outer perimeter
G1 X85.240 Y103.219 F4800
G92 E0
G1 X123.219 Y103.219 E3.1832 F960
G1 X123.219 Y65.240 E6.3665
G1 X126.781 Y65.240 E6.6650
G1 X126.781 Y103.219 E9.8483
G1 X164.760 Y103.219 E13.0315
G1 X164.760 Y106.781 E13.3300
G1 X126.781 Y106.781 E16.5133
G1 X126.781 Y144.760 E19.6965
G1 X123.219 Y144.760 E19.9950
G1 X123.219 Y106.781 E23.1783
G1 X85.240 Y106.781 E26.3615
G1 X85.240 Y103.419 E26.6433
G1 X85.240 Y103.219 F960
G92 E0
G1 X87.240 Y103.219 E-1.5000 F2400
; support
G1 X85.020 Y99.240 F4800
G1 E0.0000 F1800
G92 E0
G1 X120.980 Y99.240 E3.0140 F960
G1 X120.980 Y97.320 E3.1749
G1 X85.020 Y97.320 E6.1889
G1 X85.020 Y97.020 E6.2141
G1 X89.020 Y97.020 E6.5493
G1 X89.020 Y95.400 E6.6851
G1 X96.980 Y95.400 E7.3523
G1 X96.980 Y93.480 E7.5132
G1 X89.020 Y93.480 E8.1804
G1 X89.020 Y93.020 E8.2190
G1 X93.020 Y93.020 E8.5542
G1 X93.020 Y91.560 E8.6766
G1 X100.980 Y91.560 E9.3438
G1 X100.980 Y89.640 E9.5047
G1 X93.020 Y89.640 E10.1719
G1 X93.020 Y89.020 E10.2238
G1 X97.020 Y89.020 E10.5591
G1 X97.020 Y87.720 E10.6680
G1 X104.980 Y87.720 E11.3352
G1 X104.980 Y85.800 E11.4961
G1 X97.020 Y85.800 E12.1633
G1 X97.020 Y85.020 E12.2287
G1 X101.020 Y85.020 E12.5640
G1 X101.020 Y83.880 E12.6595
G1 X108.980 Y83.880 E13.3267
G1 X108.980 Y81.960 E13.4876
G1 X101.020 Y81.960 E14.1548
G1 X101.020 Y81.020 E14.2336
G1 X105.020 Y81.020 E14.5688
G1 X105.020 Y80.040 E14.6510
G1 X112.980 Y80.040 E15.3181
G1 X112.980 Y78.120 E15.4791
G1 X105.020 Y78.120 E16.1462
G1 X105.020 Y77.020 E16.2384
G1 X109.020 Y77.020 E16.5737
G1 X109.020 Y76.200 E16.6424
G1 X120.980 Y76.200 E17.6448
G1 X120.980 Y74.280 E17.8058
G1 X109.020 Y74.280 E18.8082
G1 X109.020 Y73.020 E18.9138
G1 X113.020 Y73.020 E19.2491
G1 X113.020 Y72.360 E19.3044
G1 X120.980 Y72.360 E19.9716
G1 X120.980 Y70.440 E20.1325
G1 X113.020 Y70.440 E20.7997
G1 X113.020 Y69.020 E20.9187
G1 X117.020 Y69.020 E21.2539
G1 X117.020 Y68.520 E21.2959
G1 X120.980 Y68.520 E21.6278
G1 X120.980 Y66.600 E21.7887
G1 X117.220 Y66.600 E22.1038
G1 X117.020 Y66.600 F960
G92 E0
G1 E-1.5000 F1800
G1 X117.020 Y78.120 F4800
G1 E0.0000 F1800
G92 E0
G1 X120.980 Y78.120 E0.3319 F960
G1 X120.980 Y80.040 E0.4928
G1 X117.020 Y80.040 E0.8247
G1 X117.020 Y81.960 E0.9857
G1 X120.980 Y81.960 E1.3176
G1 X120.980 Y83.880 E1.4785
G1 X117.020 Y83.880 E1.8104
G1 X117.020 Y85.800 E1.9713
G1 X120.980 Y85.800 E2.3033
G1 X120.980 Y87.720 E2.4642
G1 X117.020 Y87.720 E2.7961
G1 X117.020 Y89.640 E2.9570
G1 X120.980 Y89.640 E3.2889
G1 X120.980 Y91.560 E3.4498
G1 X117.020 Y91.560 E3.7818
G1 X117.020 Y93.480 E3.9427
G1 X120.980 Y93.480 E4.2746
