; G-Code generated by Simplify3D(R) Version 4.0.0
; Mar 18, 2018 at 10:32:44 PM
; Settings Summary
;   processName,Process1
;   applyToModels,2x-aa-edc-top,2x-aa-edc-bottom
;   profileName,Original Prusa i3 MK2 RC4 (modified)
;   profileVersion,2016-08-30 14:21:19
;   baseProfile,Prusa Mendel (modified)
;   printMaterial,PLA
;   printQuality,NORMAL 0.2mm
;   printExtruders,
;   extruderName,Primary Extruder
;   extruderToolheadNumber,0
;   extruderDiameter,0.4
;   extruderAutoWidth,0
;   extruderWidth,0.45
;   extrusionMultiplier,1
;   extruderUseRetract,1
;   extruderRetractionDistance,0.8
;   extruderExtraRestartDistance,0
;   extruderRetractionZLift,0
;   extruderRetractionSpeed,1800
;   extruderUseCoasting,1
;   extruderCoastingDistance,0.2
;   extruderUseWipe,1
;   extruderWipeDistance,2
;   primaryExtruder,0
;   layerHeight,0.2
;   topSolidLayers,3
;   bottomSolidLayers,3
;   perimeterOutlines,3
;   printPerimetersInsideOut,1
;   startPointOption,2
;   startPointOriginX,0
;   startPointOriginY,0
;   sequentialIslands,0
;   spiralVaseMode,0
;   firstLayerHeightPercentage,100
;   firstLayerWidthPercentage,95
;   firstLayerUnderspeed,0.6
;   useRaft,0
;   raftExtruder,0
;   raftTopLayers,3
;   raftBaseLayers,2
;   raftOffset,3
;   raftSeparationDistance,0.14
;   raftTopInfill,100
;   aboveRaftSpeedMultiplier,0.3
;   useSkirt,1
;   skirtExtruder,0
;   skirtLayers,1
;   skirtOutlines,1
;   skirtOffset,1.8
;   usePrimePillar,0
;   primePillarExtruder,999
;   primePillarWidth,12
;   primePillarLocation,7
;   primePillarSpeedMultiplier,1
;   useOozeShield,0
;   oozeShieldExtruder,999
;   oozeShieldOffset,2
;   oozeShieldOutlines,1
;   oozeShieldSidewallShape,1
;   oozeShieldSidewallAngle,30
;   oozeShieldSpeedMultiplier,1
;   infillExtruder,0
;   internalInfillPattern,Rectilinear
;   externalInfillPattern,Rectilinear
;   infillPercentage,0
;   outlineOverlapPercentage,21
;   infillExtrusionWidthPercentage,100
;   minInfillLength,2
;   infillLayerInterval,1
;   internalInfillAngles,45,-45
;   overlapInternalInfillAngles,0
;   externalInfillAngles,45,-45
;   generateSupport,0
;   supportExtruder,0
;   supportInfillPercentage,30
;   supportExtraInflation,1.4
;   supportBaseLayers,0
;   denseSupportExtruder,0
;   denseSupportLayers,0
;   denseSupportInfillPercentage,70
;   supportLayerInterval,1
;   supportHorizontalPartOffset,0.2
;   supportUpperSeparationLayers,1
;   supportLowerSeparationLayers,1
;   supportType,0
;   supportGridSpacing,4
;   maxOverhangAngle,45
;   supportAngles,0
;   temperatureName,Primary Extruder,Heated Bed
;   temperatureNumber,0,1
;   temperatureSetpointCount,1,1
;   temperatureSetpointLayers,1,1
;   temperatureSetpointTemperatures,215,55
;   temperatureStabilizeAtStartup,1,1
;   temperatureHeatedBed,0,1
;   temperatureRelayBetweenLayers,0,0
;   temperatureRelayBetweenLoops,0,0
;   fanLayers,1,2
;   fanSpeeds,0,100
;   blipFanToFullPower,1
;   adjustSpeedForCooling,1
;   minSpeedLayerTime,15
;   minCoolingSpeedSlowdown,5
;   increaseFanForCooling,0
;   minFanLayerTime,45
;   maxCoolingFanSpeed,100
;   increaseFanForBridging,1
;   bridgingFanSpeed,100
;   use5D,1
;   relativeEdistances,1
;   allowEaxisZeroing,1
;   independentExtruderAxes,0
;   includeM10123,0
;   stickySupport,1
;   applyToolheadOffsets,0
;   gcodeXoffset,0
;   gcodeYoffset,0
;   gcodeZoffset,0
;   overrideMachineDefinition,1
;   machineTypeOverride,0
;   strokeXoverride,250
;   strokeYoverride,210
;   strokeZoverride,200
;   originOffsetXoverride,0
;   originOffsetYoverride,0
;   originOffsetZoverride,0
;   homeXdirOverride,-1
;   homeYdirOverride,-1
;   homeZdirOverride,-1
;   flipXoverride,1
;   flipYoverride,-1
;   flipZoverride,1
;   toolheadOffsets,0,0|0,0|0,0|0,0|0,0|0,0
;   overrideFirmwareConfiguration,0
;   firmwareTypeOverride,RepRap (Marlin/Repetier/Sprinter)
;   GPXconfigOverride,r2
;   baudRateOverride,250000
;   overridePrinterModels,1
;   printerModelsOverride
;   startingGcode,M115 U3.0.7 ; tell the printer latest firmware varsion available,G28 W ; home all without mesh bed level,G80 ; mesh bed leveling,G1 Y-3.0 F1000.0 ; go outside printing area,G1 X60.0 E9.0  F1000.0 ; intro line,G1 X100.0 E12.5  F1000.0 ; intro line
;   layerChangeGcode,
;   retractionGcode,
;   toolChangeGcode,
;   endingGcode,M104 S0 ; turn off temperature,M140 S0 ; turn off heatbed,M107 ; turn off fan,G1 X0 Y200; home X axis,M84 ; disable motors
;   exportFileFormat,gcode
;   celebration,0
;   celebrationSong,Random Song
;   postProcessing,{REPLACE "; outer perimeter\n" "; outer perimeter\nM204 S600\n"},{REPLACE "; inner perimeter\n" "; inner perimeter\nM204 S1200\n"},{REPLACE "; solid layer\n" "; solid layer\nM204 S1500\n"},{REPLACE "; infill\n" "; infill\nM204 S2000\n"}
;   defaultSpeed,2400
;   outlineUnderspeed,0.8
;   solidInfillUnderspeed,0.8
;   supportUnderspeed,0.8
;   rapidXYspeed,4800
;   rapidZspeed,1002
;   minBridgingArea,50
;   bridgingExtraInflation,1
;   bridgingExtrusionMultiplier,1
;   bridgingSpeedMultiplier,1
;   useFixedBridgingAngle,0
;   fixedBridgingAngle,0
;   applyBridgingToPerimeters,0
;   filamentDiameters,1.75|1.75|1.75|1.75|1.75|1.75
;   filamentPricesPerKg,215|215|215|215|215|215
;   filamentDensities,1.25|1.25|1.25|1.25|1.25|1.25
;   useMinPrintHeight,0
;   minPrintHeight,0
;   useMaxPrintHeight,0
;   maxPrintHeight,0
;   useDiaphragm,0
;   diaphragmLayerInterval,20
;   robustSlicing,1
;   mergeAllIntoSolid,0
;   onlyRetractWhenCrossingOutline,0
;   retractBetweenLayers,1
;   useRetractionMinTravel,1
;   retractionMinTravel,3
;   retractWhileWiping,1
;   onlyWipeOutlines,1
;   avoidCrossingOutline,0
;   maxMovementDetourFactor,3
;   toolChangeRetractionDistance,12
;   toolChangeExtraRestartDistance,-0.5
;   toolChangeRetractionSpeed,600
;   externalThinWallType,0
;   internalThinWallType,2
;   thinWallAllowedOverlapPercentage,25
;   singleExtrusionMinLength,1
;   singleExtrusionMinPrintingWidthPercentage,50
;   singleExtrusionMaxPrintingWidthPercentage,200
;   singleExtrusionEndpointExtension,0.2
;   horizontalSizeCompensation,0
G90
M83
M106 S255
G4 P500
M106 S0
M140 S55
M190 S55
M104 S215 T0
M109 S215 T0
M115 U3.0.7 ; tell the printer latest firmware varsion available
G28 W ; home all without mesh bed level
G80 ; mesh bed leveling
G1 Y-3.0 F1000.0 ; go outside printing area
G1 X60.0 E9.0  F1000.0 ; intro line
G1 X100.0 E12.5  F1000.0 ; intro line
G1 E-0.8000 F1800
G1 Z0.200 F1002
; process Process1
; layer 1, Z = 0.200
T0
; tool H0.200 W0.428
; skirt
G1 X110.164 Y88.547 F4800
G1 E0.8000 F540
G1 X110.231 Y88.465 E0.0038 F1440
G1 X110.235 Y88.460 E0.0002
G1 X110.714 Y87.932 E0.0254
G1 X110.718 Y87.928 E0.0002
G1 X110.777 Y87.868 E0.0030
G1 X110.781 Y87.865 E0.0002
G1 X111.297 Y87.388 E0.0250
G1 X111.302 Y87.384 E0.0002
G1 X111.383 Y87.317 E0.0037
G1 X111.388 Y87.313 E0.0002
G1 X112.206 Y86.709 E0.0362
G1 X112.211 Y86.706 E0.0002
G1 X112.299 Y86.648 E0.0037
G1 X112.304 Y86.645 E0.0002
G1 X112.912 Y86.292 E0.0250
G1 X112.917 Y86.290 E0.0002
G1 X112.991 Y86.251 E0.0030
G1 X112.996 Y86.249 E0.0002
G1 X113.622 Y85.955 E0.0246
G1 X113.627 Y85.953 E0.0002
G1 X113.705 Y85.921 E0.0030
G1 X113.709 Y85.919 E0.0002
G1 X114.359 Y85.682 E0.0246
G1 X114.364 Y85.680 E0.0002
G1 X114.444 Y85.655 E0.0030
G1 X114.449 Y85.653 E0.0002
G1 X115.127 Y85.471 E0.0250
G1 X115.133 Y85.470 E0.0002
G1 X115.235 Y85.448 E0.0037
G1 X115.241 Y85.447 E0.0002
G1 X116.226 Y85.295 E0.0354
G1 X116.231 Y85.295 E0.0002
G1 X116.316 Y85.285 E0.0030
G1 X116.321 Y85.285 E0.0002
G1 X116.727 Y85.259 E0.0144
G1 X116.730 Y85.259 E0.0001
G1 X116.791 Y85.257 E0.0022
G1 X116.795 Y85.257 E0.0001
G1 X133.216 Y85.257 E0.5837
G1 X133.221 Y85.257 E0.0002
G1 X133.304 Y85.261 E0.0030
G1 X133.309 Y85.261 E0.0002
G1 X134.039 Y85.324 E0.0260
G1 X134.044 Y85.325 E0.0002
G1 X134.129 Y85.336 E0.0031
G1 X134.134 Y85.337 E0.0002
G1 X134.817 Y85.459 E0.0247
G1 X134.822 Y85.460 E0.0002
G1 X134.904 Y85.479 E0.0030
G1 X134.909 Y85.480 E0.0002
G1 X135.577 Y85.661 E0.0246
G1 X135.581 Y85.663 E0.0002
G1 X135.661 Y85.688 E0.0030
G1 X135.666 Y85.690 E0.0002
G1 X136.316 Y85.929 E0.0246
G1 X136.320 Y85.931 E0.0002
G1 X136.398 Y85.964 E0.0030
G1 X136.402 Y85.966 E0.0002
G1 X137.028 Y86.261 E0.0246
G1 X137.033 Y86.263 E0.0002
G1 X137.107 Y86.302 E0.0030
G1 X137.112 Y86.305 E0.0002
G1 X137.709 Y86.654 E0.0246
G1 X137.713 Y86.657 E0.0002
G1 X137.784 Y86.702 E0.0030
G1 X137.788 Y86.705 E0.0002
G1 X138.362 Y87.111 E0.0250
G1 X138.366 Y87.115 E0.0002
G1 X138.449 Y87.180 E0.0037
G1 X138.453 Y87.184 E0.0002
G1 X139.214 Y87.860 E0.0362
G1 X139.218 Y87.864 E0.0002
G1 X139.293 Y87.938 E0.0037
G1 X139.297 Y87.943 E0.0002
G1 X139.768 Y88.464 E0.0250
G1 X139.771 Y88.468 E0.0002
G1 X139.825 Y88.533 E0.0030
G1 X139.828 Y88.537 E0.0002
G1 X140.251 Y89.098 E0.0250
G1 X140.255 Y89.103 E0.0002
G1 X140.313 Y89.190 E0.0037
G1 X140.317 Y89.195 E0.0002
G1 X140.837 Y90.069 E0.0362
G1 X140.840 Y90.074 E0.0002
G1 X140.888 Y90.168 E0.0037
G1 X140.891 Y90.173 E0.0002
G1 X141.182 Y90.813 E0.0250
G1 X141.184 Y90.817 E0.0002
G1 X141.216 Y90.895 E0.0030
G1 X141.217 Y90.900 E0.0002
G1 X141.447 Y91.553 E0.0246
G1 X141.449 Y91.557 E0.0002
G1 X141.473 Y91.638 E0.0030
G1 X141.475 Y91.643 E0.0002
G1 X141.647 Y92.313 E0.0246
G1 X141.648 Y92.318 E0.0002
G1 X141.665 Y92.400 E0.0030
G1 X141.666 Y92.405 E0.0002
G1 X141.779 Y93.088 E0.0246
G1 X141.779 Y93.093 E0.0002
G1 X141.789 Y93.177 E0.0030
G1 X141.790 Y93.181 E0.0002
G1 X141.842 Y93.872 E0.0246
G1 X141.842 Y93.877 E0.0002
G1 X141.845 Y93.961 E0.0030
G1 X141.845 Y93.966 E0.0002
G1 X141.836 Y94.668 E0.0250
G1 X141.836 Y94.674 E0.0002
G1 X141.829 Y94.779 E0.0037
G1 X141.828 Y94.785 E0.0002
G1 X141.703 Y95.805 E0.0365
G1 X141.702 Y95.813 E0.0003
G1 X141.678 Y95.936 E0.0045
G1 X141.676 Y95.944 E0.0003
G1 X141.418 Y96.938 E0.0365
G1 X141.416 Y96.944 E0.0002
G1 X141.384 Y97.044 E0.0037
G1 X141.382 Y97.050 E0.0002
G1 X141.128 Y97.717 E0.0254
G1 X141.126 Y97.722 E0.0002
G1 X141.083 Y97.818 E0.0037
G1 X141.081 Y97.824 E0.0002
G1 X140.612 Y98.738 E0.0365
G1 X140.608 Y98.745 E0.0003
G1 X140.543 Y98.853 E0.0045
G1 X140.539 Y98.859 E0.0003
G1 X139.948 Y99.713 E0.0369
G1 X139.944 Y99.718 E0.0003
G1 X139.866 Y99.817 E0.0045
G1 X139.861 Y99.823 E0.0003
G1 X139.170 Y100.583 E0.0365
G1 X139.166 Y100.588 E0.0002
G1 X139.091 Y100.662 E0.0037
G1 X139.086 Y100.666 E0.0002
G1 X138.560 Y101.131 E0.0250
G1 X138.556 Y101.134 E0.0002
G1 X138.490 Y101.187 E0.0030
G1 X138.486 Y101.190 E0.0002
G1 X137.929 Y101.601 E0.0246
G1 X137.925 Y101.604 E0.0002
G1 X137.856 Y101.651 E0.0030
G1 X137.851 Y101.653 E0.0002
G1 X137.251 Y102.019 E0.0250
G1 X137.246 Y102.022 E0.0002
G1 X137.154 Y102.072 E0.0037
G1 X137.148 Y102.075 E0.0002
G1 X136.217 Y102.511 E0.0365
G1 X136.211 Y102.514 E0.0003
G1 X136.093 Y102.559 E0.0045
G1 X136.086 Y102.562 E0.0003
G1 X135.106 Y102.871 E0.0365
G1 X135.100 Y102.873 E0.0002
G1 X134.999 Y102.899 E0.0037
G1 X134.993 Y102.901 E0.0002
G1 X134.293 Y103.040 E0.0253
G1 X134.287 Y103.041 E0.0002
G1 X134.183 Y103.055 E0.0037
G1 X134.177 Y103.056 E0.0002
G1 X133.171 Y103.144 E0.0359
G1 X133.167 Y103.144 E0.0002
G1 X133.084 Y103.148 E0.0030
G1 X133.079 Y103.148 E0.0002
G1 X116.906 Y103.147 E0.5749
G1 X116.902 Y103.146 E0.0001
G1 X116.837 Y103.144 E0.0023
G1 X116.834 Y103.144 E0.0001
G1 X116.142 Y103.097 E0.0246
G1 X116.136 Y103.097 E0.0002
G1 X116.032 Y103.084 E0.0037
G1 X116.026 Y103.083 E0.0002
G1 X115.014 Y102.902 E0.0365
G1 X115.007 Y102.900 E0.0003
G1 X114.885 Y102.870 E0.0045
G1 X114.877 Y102.868 E0.0003
G1 X113.899 Y102.555 E0.0365
G1 X113.893 Y102.553 E0.0002
G1 X113.795 Y102.516 E0.0037
G1 X113.789 Y102.514 E0.0002
G1 X113.147 Y102.228 E0.0250
G1 X113.142 Y102.226 E0.0002
G1 X113.067 Y102.188 E0.0030
G1 X113.063 Y102.186 E0.0002
G1 X112.448 Y101.845 E0.0250
G1 X112.443 Y101.842 E0.0002
G1 X112.354 Y101.786 E0.0037
G1 X112.349 Y101.782 E0.0002
G1 X111.511 Y101.188 E0.0365
G1 X111.505 Y101.183 E0.0003
G1 X111.407 Y101.104 E0.0045
G1 X111.401 Y101.099 E0.0003
G1 X110.641 Y100.393 E0.0369
G1 X110.636 Y100.387 E0.0003
G1 X110.549 Y100.296 E0.0045
G1 X110.544 Y100.290 E0.0003
G1 X109.883 Y99.490 E0.0369
G1 X109.878 Y99.484 E0.0003
G1 X109.805 Y99.382 E0.0045
G1 X109.801 Y99.376 E0.0003
G1 X109.256 Y98.504 E0.0365
G1 X109.253 Y98.499 E0.0002
G1 X109.202 Y98.407 E0.0037
G1 X109.199 Y98.401 E0.0002
G1 X108.894 Y97.768 E0.0250
G1 X108.892 Y97.764 E0.0002
G1 X108.859 Y97.687 E0.0030
G1 X108.857 Y97.682 E0.0002
G1 X108.613 Y97.034 E0.0246
G1 X108.611 Y97.030 E0.0002
G1 X108.585 Y96.950 E0.0030
G1 X108.583 Y96.945 E0.0002
G1 X108.397 Y96.279 E0.0246
G1 X108.395 Y96.274 E0.0002
G1 X108.376 Y96.192 E0.0030
G1 X108.375 Y96.187 E0.0002
G1 X108.246 Y95.496 E0.0250
G1 X108.245 Y95.490 E0.0002
G1 X108.231 Y95.386 E0.0037
G1 X108.231 Y95.380 E0.0002
G1 X108.154 Y94.366 E0.0362
G1 X108.154 Y94.360 E0.0002
G1 X108.152 Y94.254 E0.0037
G1 X108.152 Y94.248 E0.0002
G1 X108.176 Y93.546 E0.0250
G1 X108.176 Y93.541 E0.0002
G1 X108.183 Y93.457 E0.0030
G1 X108.183 Y93.452 E0.0002
G1 X108.268 Y92.765 E0.0246
G1 X108.268 Y92.760 E0.0002
G1 X108.282 Y92.677 E0.0030
G1 X108.283 Y92.673 E0.0002
G1 X108.430 Y91.985 E0.0250
G1 X108.431 Y91.979 E0.0002
G1 X108.459 Y91.878 E0.0037
G1 X108.461 Y91.872 E0.0002
G1 X108.784 Y90.897 E0.0365
G1 X108.787 Y90.890 E0.0003
G1 X108.834 Y90.773 E0.0045
G1 X108.837 Y90.766 E0.0003
G1 X109.281 Y89.851 E0.0362
G1 X109.283 Y89.847 E0.0002
G1 X109.323 Y89.773 E0.0030
G1 X109.326 Y89.769 E0.0002
G1 X109.525 Y89.436 E0.0138
G1 X109.528 Y89.432 E0.0002
G1 X109.573 Y89.362 E0.0030
G1 X109.576 Y89.358 E0.0002
G1 X110.047 Y88.709 E0.0285
G1 X110.160 Y88.552 F1440
G1 X110.164 Y88.547 F1440
G1 E-0.8000 F1800
G1 X114.640 Y107.196 F4800
G1 E0.8000 F1800
G1 X114.646 Y107.195 E0.0002 F1440
G1 X115.442 Y107.007 E0.0291
G1 X115.447 Y107.006 E0.0002
G1 X115.545 Y106.988 E0.0035
G1 X115.551 Y106.987 E0.0002
G1 X116.355 Y106.883 E0.0288
G1 X116.361 Y106.883 E0.0002
G1 X116.446 Y106.875 E0.0030
G1 X116.451 Y106.875 E0.0002
G1 X117.041 Y106.852 E0.0210
G1 X117.043 Y106.852 E0.0001
G1 X117.080 Y106.851 E0.0013
G1 X117.082 Y106.851 E0.0001
G1 X132.936 Y106.852 E0.5636
G1 X132.940 Y106.852 E0.0001
G1 X133.004 Y106.854 E0.0023
G1 X133.007 Y106.854 E0.0001
G1 X133.996 Y106.919 E0.0352
G1 X134.003 Y106.920 E0.0002
G1 X134.114 Y106.934 E0.0040
G1 X134.120 Y106.935 E0.0002
G1 X134.931 Y107.085 E0.0293
G1 X134.936 Y107.086 E0.0002
G1 X135.033 Y107.110 E0.0035
G1 X135.039 Y107.111 E0.0002
G1 X135.823 Y107.343 E0.0291
G1 X135.829 Y107.345 E0.0002
G1 X135.922 Y107.378 E0.0035
G1 X135.928 Y107.380 E0.0002
G1 X136.696 Y107.696 E0.0295
G1 X136.702 Y107.699 E0.0003
G1 X136.814 Y107.754 E0.0044
G1 X136.820 Y107.757 E0.0003
G1 X137.863 Y108.355 E0.0427
G1 X137.869 Y108.359 E0.0003
G1 X137.972 Y108.428 E0.0044
G1 X137.978 Y108.432 E0.0003
G1 X138.639 Y108.935 E0.0295
G1 X138.644 Y108.938 E0.0002
G1 X138.719 Y109.003 E0.0035
G1 X138.724 Y109.007 E0.0002
G1 X139.320 Y109.567 E0.0291
G1 X139.324 Y109.571 E0.0002
G1 X139.393 Y109.643 E0.0035
G1 X139.397 Y109.647 E0.0002
G1 X139.931 Y110.266 E0.0291
G1 X139.935 Y110.270 E0.0002
G1 X139.996 Y110.349 E0.0035
G1 X139.999 Y110.354 E0.0002
G1 X140.467 Y111.025 E0.0291
G1 X140.470 Y111.030 E0.0002
G1 X140.523 Y111.114 E0.0035
G1 X140.526 Y111.119 E0.0002
G1 X140.921 Y111.835 E0.0291
G1 X140.924 Y111.840 E0.0002
G1 X140.968 Y111.929 E0.0035
G1 X140.970 Y111.935 E0.0002
G1 X141.289 Y112.688 E0.0291
G1 X141.291 Y112.693 E0.0002
G1 X141.325 Y112.787 E0.0035
G1 X141.327 Y112.792 E0.0002
G1 X141.567 Y113.574 E0.0291
G1 X141.568 Y113.580 E0.0002
G1 X141.592 Y113.676 E0.0035
G1 X141.594 Y113.682 E0.0002
G1 X141.751 Y114.485 E0.0291
G1 X141.752 Y114.491 E0.0002
G1 X141.766 Y114.589 E0.0035
G1 X141.766 Y114.595 E0.0002
G1 X141.839 Y115.410 E0.0291
G1 X141.840 Y115.415 E0.0002
G1 X141.843 Y115.515 E0.0035
G1 X141.843 Y115.520 E0.0002
G1 X141.832 Y116.338 E0.0291
G1 X141.831 Y116.344 E0.0002
G1 X141.825 Y116.443 E0.0035
G1 X141.824 Y116.449 E0.0002
G1 X141.726 Y117.274 E0.0295
G1 X141.725 Y117.281 E0.0003
G1 X141.702 Y117.403 E0.0044
G1 X141.701 Y117.410 E0.0003
