; G-Code generated by Simplify3D(R) Version 4.0.0
; Mar 19, 2018 at 8:57:07 PM
; Settings Summary
;   processName,Process1
;   applyToModels,peg,peg(2),peg(3),peg(4)
;   profileName,Original Prusa i3 MK2 RC4 (modified)
;   profileVersion,2016-08-30 14:21:19
;   baseProfile,Prusa Mendel (modified)
;   printMaterial,PLA
;   printQuality,FAST 0.3mm
;   printExtruders,
;   extruderName,Primary Extruder
;   extruderToolheadNumber,0
;   extruderDiameter,0.4
;   extruderAutoWidth,0
;   extruderWidth,0.45
;   extrusionMultiplier,1
;   extruderUseRetract,1
;   extruderRetractionDistance,0.8
;   extruderExtraRestartDistance,0
;   extruderRetractionZLift,0
;   extruderRetractionSpeed,1800
;   extruderUseCoasting,1
;   extruderCoastingDistance,0.2
;   extruderUseWipe,1
;   extruderWipeDistance,2
;   primaryExtruder,0
;   layerHeight,0.35
;   topSolidLayers,4
;   bottomSolidLayers,4
;   perimeterOutlines,3
;   printPerimetersInsideOut,1
;   startPointOption,2
;   startPointOriginX,0
;   startPointOriginY,0
;   sequentialIslands,0
;   spiralVaseMode,0
;   firstLayerHeightPercentage,66
;   firstLayerWidthPercentage,95
;   firstLayerUnderspeed,0.6
;   useRaft,0
;   raftExtruder,0
;   raftTopLayers,3
;   raftBaseLayers,2
;   raftOffset,3
;   raftSeparationDistance,0.14
;   raftTopInfill,100
;   aboveRaftSpeedMultiplier,0.3
;   useSkirt,1
;   skirtExtruder,0
;   skirtLayers,1
;   skirtOutlines,1
;   skirtOffset,1.8
;   usePrimePillar,0
;   primePillarExtruder,999
;   primePillarWidth,12
;   primePillarLocation,7
;   primePillarSpeedMultiplier,1
;   useOozeShield,0
;   oozeShieldExtruder,999
;   oozeShieldOffset,2
;   oozeShieldOutlines,1
;   oozeShieldSidewallShape,1
;   oozeShieldSidewallAngle,30
;   oozeShieldSpeedMultiplier,1
;   infillExtruder,0
;   internalInfillPattern,Rectilinear
;   externalInfillPattern,Rectilinear
;   infillPercentage,100
;   outlineOverlapPercentage,21
;   infillExtrusionWidthPercentage,100
;   minInfillLength,2
;   infillLayerInterval,1
;   internalInfillAngles,45,-45
;   overlapInternalInfillAngles,0
;   externalInfillAngles,45,-45
;   generateSupport,0
;   supportExtruder,0
;   supportInfillPercentage,30
;   supportExtraInflation,1.4
;   supportBaseLayers,0
;   denseSupportExtruder,0
;   denseSupportLayers,0
;   denseSupportInfillPercentage,70
;   supportLayerInterval,1
;   supportHorizontalPartOffset,0.2
;   supportUpperSeparationLayers,1
;   supportLowerSeparationLayers,1
;   supportType,0
;   supportGridSpacing,4
;   maxOverhangAngle,45
;   supportAngles,0
;   temperatureName,Primary Extruder,Heated Bed
;   temperatureNumber,0,1
;   temperatureSetpointCount,1,1
;   temperatureSetpointLayers,1,1
;   temperatureSetpointTemperatures,220,20
;   temperatureStabilizeAtStartup,1,1
;   temperatureHeatedBed,0,1
;   temperatureRelayBetweenLayers,0,0
;   temperatureRelayBetweenLoops,0,0
;   fanLayers,1,2
;   fanSpeeds,0,100
;   blipFanToFullPower,1
;   adjustSpeedForCooling,1
;   minSpeedLayerTime,15
;   minCoolingSpeedSlowdown,5
;   increaseFanForCooling,0
;   minFanLayerTime,45
;   maxCoolingFanSpeed,100
;   increaseFanForBridging,1
;   bridgingFanSpeed,100
;   use5D,1
;   relativeEdistances,1
;   allowEaxisZeroing,1
;   independentExtruderAxes,0
;   includeM10123,0
;   stickySupport,1
;   applyToolheadOffsets,0
;   gcodeXoffset,0
;   gcodeYoffset,0
;   gcodeZoffset,0
;   overrideMachineDefinition,1
;   machineTypeOverride,0
;   strokeXoverride,250
;   strokeYoverride,210
;   strokeZoverride,200
;   originOffsetXoverride,0
;   originOffsetYoverride,0
;   originOffsetZoverride,0
;   homeXdirOverride,-1
;   homeYdirOverride,-1
;   homeZdirOverride,-1
;   flipXoverride,1
;   flipYoverride,-1
;   flipZoverride,1
;   toolheadOffsets,0,0|0,0|0,0|0,0|0,0|0,0
;   overrideFirmwareConfiguration,0
;   firmwareTypeOverride,RepRap (Marlin/Repetier/Sprinter)
;   GPXconfigOverride,r2
;   baudRateOverride,250000
;   overridePrinterModels,1
;   printerModelsOverride
;   startingGcode,M115 U3.0.7 ; tell the printer latest firmware varsion available,G28 W ; home all without mesh bed level,G80 ; mesh bed leveling,G1 Y-3.0 F1000.0 ; go outside printing area,G1 X60.0 E9.0  F1000.0 ; intro line,G1 X100.0 E12.5  F1000.0 ; intro line
;   layerChangeGcode,
;   retractionGcode,
;   toolChangeGcode,
;   endingGcode,M104 S0 ; turn off temperature,M140 S0 ; turn off heatbed,M107 ; turn off fan,G1 X0 Y200; home X axis,M84 ; disable motors
;   exportFileFormat,gcode
;   celebration,0
;   celebrationSong,Random Song
;   postProcessing,{REPLACE "; outer perimeter\n" "; outer perimeter\nM204 S600\n"},{REPLACE "; inner perimeter\n" "; inner perimeter\nM204 S1200\n"},{REPLACE "; solid layer\n" "; solid layer\nM204 S1500\n"},{REPLACE "; infill\n" "; infill\nM204 S2000\n"}
;   defaultSpeed,2400
;   outlineUnderspeed,1
;   solidInfillUnderspeed,0.8
;   supportUnderspeed,0.8
;   rapidXYspeed,4800
;   rapidZspeed,1002
;   minBridgingArea,50
;   bridgingExtraInflation,1
;   bridgingExtrusionMultiplier,1
;   bridgingSpeedMultiplier,1
;   useFixedBridgingAngle,0
;   fixedBridgingAngle,0
;   applyBridgingToPerimeters,0
;   filamentDiameters,1.75|1.75|1.75|1.75|1.75|1.75
;   filamentPricesPerKg,215|215|215|215|215|215
;   filamentDensities,1.25|1.25|1.25|1.25|1.25|1.25
;   useMinPrintHeight,0
;   minPrintHeight,0
;   useMaxPrintHeight,0
;   maxPrintHeight,0
;   useDiaphragm,0
;   diaphragmLayerInterval,20
;   robustSlicing,1
;   mergeAllIntoSolid,0
;   onlyRetractWhenCrossingOutline,0
;   retractBetweenLayers,1
;   useRetractionMinTravel,1
;   retractionMinTravel,3
;   retractWhileWiping,1
;   onlyWipeOutlines,1
;   avoidCrossingOutline,0
;   maxMovementDetourFactor,3
;   toolChangeRetractionDistance,12
;   toolChangeExtraRestartDistance,-0.5
;   toolChangeRetractionSpeed,600
;   externalThinWallType,0
;   internalThinWallType,2
;   thinWallAllowedOverlapPercentage,25
;   singleExtrusionMinLength,1
;   singleExtrusionMinPrintingWidthPercentage,50
;   singleExtrusionMaxPrintingWidthPercentage,200
;   singleExtrusionEndpointExtension,0.2
;   horizontalSizeCompensation,0
G90
M83
M106 S255
G4 P500
M106 S0
M140 S20
M190 S20
M104 S220 T0
M109 S220 T0
M115 U3.0.7 ; tell the printer latest firmware varsion available
G28 W ; home all without mesh bed level
G80 ; mesh bed leveling
G1 Y-3.0 F1000.0 ; go outside printing area
G1 X60.0 E9.0  F1000.0 ; intro line
G1 X100.0 E12.5  F1000.0 ; intro line
G1 E-0.8000 F1800
G1 Z0.231 F1002
; process Process1
; layer 1, Z = 0.231
T0
; tool H0.350 W0.428
; skirt
G1 X93.912 Y77.245 F4800
G1 E0.8000 F540
G1 X93.916 Y77.241 E0.0004 F1440
G1 X94.945 Y76.005 E0.1001
G1 X94.948 Y76.001 E0.0003
G1 X95.002 Y75.941 E0.0050
G1 X95.006 Y75.938 E0.0003
G1 X95.769 Y75.165 E0.0675
G1 X95.771 Y75.162 E0.0002
G1 X95.818 Y75.118 E0.0040
G1 X95.821 Y75.115 E0.0002
G1 X96.634 Y74.396 E0.0675
G1 X96.638 Y74.393 E0.0003
G1 X96.701 Y74.342 E0.0050
G1 X96.704 Y74.339 E0.0003
G1 X97.988 Y73.383 E0.0995
G1 X97.992 Y73.381 E0.0003
G1 X98.059 Y73.335 E0.0050
G1 X98.063 Y73.332 E0.0003
G1 X98.985 Y72.760 E0.0675
G1 X98.989 Y72.758 E0.0002
G1 X99.045 Y72.726 E0.0040
G1 X99.048 Y72.724 E0.0002
G1 X100.000 Y72.219 E0.0670
G1 X100.003 Y72.217 E0.0002
G1 X100.061 Y72.189 E0.0040
G1 X100.065 Y72.187 E0.0002
G1 X101.049 Y71.747 E0.0670
G1 X101.052 Y71.746 E0.0002
G1 X101.112 Y71.721 E0.0040
G1 X101.116 Y71.720 E0.0002
G1 X102.135 Y71.345 E0.0676
G1 X102.139 Y71.343 E0.0003
G1 X102.216 Y71.319 E0.0050
G1 X102.221 Y71.317 E0.0003
G1 X103.771 Y70.891 E0.1000
G1 X103.777 Y70.890 E0.0004
G1 X103.872 Y70.869 E0.0060
G1 X103.877 Y70.868 E0.0004
G1 X105.471 Y70.599 E0.1005
G1 X105.477 Y70.598 E0.0004
G1 X105.573 Y70.587 E0.0060
G1 X105.579 Y70.586 E0.0004
G1 X107.183 Y70.481 E0.1000
G1 X107.188 Y70.481 E0.0003
G1 X107.269 Y70.479 E0.0050
G1 X107.274 Y70.479 E0.0003
G1 X108.359 Y70.499 E0.0675
G1 X108.363 Y70.499 E0.0002
G1 X108.428 Y70.503 E0.0040
G1 X108.431 Y70.503 E0.0002
G1 X109.513 Y70.597 E0.0675
G1 X109.518 Y70.597 E0.0003
G1 X109.598 Y70.608 E0.0050
G1 X109.603 Y70.608 E0.0003
G1 X111.188 Y70.882 E0.1000
G1 X111.193 Y70.883 E0.0004
G1 X111.288 Y70.904 E0.0060
G1 X111.293 Y70.906 E0.0004
G1 X112.842 Y71.338 E0.1000
G1 X112.847 Y71.339 E0.0003
G1 X112.924 Y71.364 E0.0050
G1 X112.928 Y71.366 E0.0003
G1 X113.946 Y71.745 E0.0675
G1 X113.949 Y71.746 E0.0002
G1 X114.009 Y71.771 E0.0040
G1 X114.013 Y71.773 E0.0002
G1 X114.995 Y72.216 E0.0670
G1 X114.998 Y72.218 E0.0002
G1 X115.056 Y72.246 E0.0040
G1 X115.060 Y72.248 E0.0002
G1 X116.010 Y72.757 E0.0670
G1 X116.013 Y72.759 E0.0002
G1 X116.069 Y72.791 E0.0040
G1 X116.072 Y72.793 E0.0002
G1 X116.986 Y73.365 E0.0670
G1 X116.989 Y73.367 E0.0002
G1 X117.043 Y73.403 E0.0040
G1 X117.046 Y73.406 E0.0002
G1 X117.919 Y74.038 E0.0670
G1 X117.922 Y74.040 E0.0002
G1 X117.973 Y74.080 E0.0040
G1 X117.976 Y74.082 E0.0002
G1 X118.810 Y74.777 E0.0676
G1 X118.814 Y74.780 E0.0003
G1 X118.873 Y74.834 E0.0050
G1 X118.877 Y74.838 E0.0003
G1 X120.021 Y75.967 E0.1000
G1 X120.025 Y75.972 E0.0004
G1 X120.091 Y76.043 E0.0060
G1 X120.095 Y76.047 E0.0004
G1 X121.124 Y77.293 E0.1005
G1 X121.128 Y77.298 E0.0004
G1 X121.185 Y77.376 E0.0060
G1 X121.189 Y77.380 E0.0004
G1 X122.087 Y78.724 E0.1005
G1 X122.090 Y78.729 E0.0004
G1 X122.140 Y78.812 E0.0060
G1 X122.143 Y78.817 E0.0004
G1 X122.896 Y80.238 E0.1000
G1 X122.899 Y80.242 E0.0003
G1 X122.933 Y80.315 E0.0050
G1 X122.935 Y80.319 E0.0003
G1 X123.365 Y81.325 E0.0681
G1 X123.367 Y81.330 E0.0003
G1 X123.395 Y81.405 E0.0050
G1 X123.397 Y81.410 E0.0003
G1 X123.898 Y82.929 E0.0995
G1 X123.900 Y82.934 E0.0003
G1 X123.922 Y83.012 E0.0050
G1 X123.923 Y83.016 E0.0003
G1 X124.177 Y84.080 E0.0681
G1 X124.178 Y84.085 E0.0003
G1 X124.194 Y84.164 E0.0050
G1 X124.195 Y84.169 E0.0003
G1 X124.435 Y85.759 E0.1000
G1 X124.436 Y85.765 E0.0004
G1 X124.445 Y85.861 E0.0060
G1 X124.446 Y85.867 E0.0004
G1 X124.524 Y87.481 E0.1005
G1 X124.525 Y87.487 E0.0004
G1 X124.524 Y87.584 E0.0060
G1 X124.524 Y87.590 E0.0004
G1 X124.439 Y89.204 E0.1005
G1 X124.439 Y89.209 E0.0004
G1 X124.429 Y89.306 E0.0060
G1 X124.428 Y89.311 E0.0004
G1 X124.180 Y90.909 E0.1005
G1 X124.179 Y90.914 E0.0004
G1 X124.159 Y91.009 E0.0060
G1 X124.158 Y91.015 E0.0004
G1 X123.750 Y92.579 E0.1005
G1 X123.748 Y92.584 E0.0004
G1 X123.719 Y92.677 E0.0060
G1 X123.717 Y92.682 E0.0004
G1 X123.153 Y94.197 E0.1005
G1 X123.151 Y94.202 E0.0004
G1 X123.112 Y94.291 E0.0060
G1 X123.110 Y94.296 E0.0004
G1 X122.399 Y95.739 E0.1000
G1 X122.397 Y95.743 E0.0003
G1 X122.358 Y95.814 E0.0050
G1 X122.356 Y95.818 E0.0003
G1 X121.795 Y96.748 E0.0675
G1 X121.793 Y96.751 E0.0002
G1 X121.758 Y96.805 E0.0040
G1 X121.756 Y96.808 E0.0002
G1 X121.138 Y97.692 E0.0670
G1 X121.136 Y97.695 E0.0002
G1 X121.097 Y97.747 E0.0040
G1 X121.095 Y97.750 E0.0002
G1 X120.419 Y98.589 E0.0670
G1 X120.417 Y98.592 E0.0002
G1 X120.375 Y98.641 E0.0040
G1 X120.372 Y98.644 E0.0002
G1 X119.641 Y99.436 E0.0670
G1 X119.639 Y99.439 E0.0002
G1 X119.593 Y99.485 E0.0040
G1 X119.591 Y99.488 E0.0002
G1 X118.808 Y100.229 E0.0670
G1 X118.805 Y100.231 E0.0002
G1 X118.757 Y100.274 E0.0040
G1 X118.754 Y100.276 E0.0002
G1 X117.917 Y100.968 E0.0675
G1 X117.913 Y100.971 E0.0003
G1 X117.849 Y101.020 E0.0050
G1 X117.845 Y101.023 E0.0003
G1 X116.530 Y101.934 E0.0995
G1 X116.526 Y101.937 E0.0003
G1 X116.458 Y101.980 E0.0050
G1 X116.453 Y101.982 E0.0003
G1 X115.505 Y102.528 E0.0681
G1 X115.501 Y102.530 E0.0003
G1 X115.429 Y102.567 E0.0050
G1 X115.425 Y102.569 E0.0003
G1 X113.968 Y103.250 E0.1000
G1 X113.963 Y103.252 E0.0004
G1 X113.873 Y103.289 E0.0060
G1 X113.868 Y103.291 E0.0004
G1 X112.342 Y103.824 E0.1005
G1 X112.336 Y103.825 E0.0004
G1 X112.243 Y103.853 E0.0060
G1 X112.238 Y103.854 E0.0004
G1 X110.665 Y104.230 E0.1005
G1 X110.660 Y104.231 E0.0004
G1 X110.565 Y104.249 E0.0060
G1 X110.559 Y104.250 E0.0004
G1 X108.957 Y104.464 E0.1005
G1 X108.951 Y104.465 E0.0004
G1 X108.855 Y104.473 E0.0060
G1 X108.849 Y104.473 E0.0004
G1 X107.233 Y104.525 E0.1005
G1 X107.228 Y104.525 E0.0004
G1 X107.131 Y104.523 E0.0060
G1 X107.125 Y104.522 E0.0004
G1 X105.513 Y104.410 E0.1005
G1 X105.507 Y104.410 E0.0004
G1 X105.411 Y104.398 E0.0060
G1 X105.405 Y104.397 E0.0004
G1 X103.812 Y104.122 E0.1005
G1 X103.807 Y104.121 E0.0004
G1 X103.712 Y104.100 E0.0060
G1 X103.707 Y104.099 E0.0004
G1 X102.150 Y103.664 E0.1005
G1 X102.144 Y103.662 E0.0004
G1 X102.052 Y103.632 E0.0060
G1 X102.047 Y103.630 E0.0004
G1 X100.542 Y103.040 E0.1005
G1 X100.537 Y103.038 E0.0004
G1 X100.449 Y102.998 E0.0060
G1 X100.443 Y102.995 E0.0004
G1 X99.006 Y102.256 E0.1005
G1 X99.001 Y102.254 E0.0004
G1 X98.917 Y102.205 E0.0060
G1 X98.912 Y102.202 E0.0004
G1 X97.557 Y101.321 E0.1005
G1 X97.552 Y101.318 E0.0004
G1 X97.474 Y101.261 E0.0060
G1 X97.469 Y101.258 E0.0004
G1 X96.216 Y100.249 E0.1000
G1 X96.212 Y100.246 E0.0003
G1 X96.152 Y100.193 E0.0050
G1 X96.148 Y100.190 E0.0003
G1 X95.357 Y99.435 E0.0681
G1 X95.353 Y99.431 E0.0003
G1 X95.297 Y99.373 E0.0050
G1 X95.294 Y99.370 E0.0003
G1 X94.228 Y98.165 E0.1000
G1 X94.225 Y98.161 E0.0004
G1 X94.164 Y98.085 E0.0060
G1 X94.161 Y98.080 E0.0004
G1 X93.223 Y96.774 E0.1000
G1 X93.220 Y96.770 E0.0003
G1 X93.176 Y96.703 E0.0050
G1 X93.173 Y96.699 E0.0003
G1 X92.616 Y95.767 E0.0675
G1 X92.614 Y95.763 E0.0002
G1 X92.583 Y95.707 E0.0040
G1 X92.581 Y95.704 E0.0002
G1 X92.092 Y94.743 E0.0670
G1 X92.090 Y94.740 E0.0002
G1 X92.063 Y94.681 E0.0040
G1 X92.062 Y94.678 E0.0002
G1 X91.635 Y93.679 E0.0675
G1 X91.633 Y93.674 E0.0003
G1 X91.605 Y93.599 E0.0050
G1 X91.603 Y93.594 E0.0003
G1 X91.102 Y92.075 E0.0995
G1 X91.100 Y92.070 E0.0003
G1 X91.078 Y91.993 E0.0050
G1 X91.077 Y91.988 E0.0003
G1 X90.825 Y90.932 E0.0675
G1 X90.824 Y90.928 E0.0002
G1 X90.811 Y90.865 E0.0040
G1 X90.810 Y90.861 E0.0002
G1 X90.631 Y89.798 E0.0670
G1 X90.630 Y89.795 E0.0002
G1 X90.622 Y89.731 E0.0040
G1 X90.621 Y89.727 E0.0002
G1 X90.515 Y88.654 E0.0670
G1 X90.514 Y88.651 E0.0002
G1 X90.510 Y88.586 E0.0040
G1 X90.510 Y88.582 E0.0002
G1 X90.475 Y87.505 E0.0670
G1 X90.475 Y87.501 E0.0002
G1 X90.476 Y87.437 E0.0040
G1 X90.476 Y87.433 E0.0002
G1 X90.514 Y86.356 E0.0670
G1 X90.514 Y86.352 E0.0002
G1 X90.519 Y86.287 E0.0040
G1 X90.519 Y86.284 E0.0002
G1 X90.630 Y85.212 E0.0670
G1 X90.631 Y85.208 E0.0002
G1 X90.640 Y85.144 E0.0040
G1 X90.640 Y85.140 E0.0002
G1 X90.825 Y84.070 E0.0675
G1 X90.826 Y84.065 E0.0003
G1 X90.843 Y83.986 E0.0050
G1 X90.844 Y83.982 E0.0003
G1 X91.248 Y82.433 E0.0995
G1 X91.249 Y82.429 E0.0003
G1 X91.273 Y82.352 E0.0050
G1 X91.274 Y82.347 E0.0003
G1 X91.636 Y81.323 E0.0675
G1 X91.638 Y81.320 E0.0002
G1 X91.661 Y81.260 E0.0040
G1 X91.663 Y81.256 E0.0002
G1 X92.093 Y80.260 E0.0675
G1 X92.095 Y80.255 E0.0003
G1 X92.129 Y80.184 E0.0049
G1 X92.131 Y80.180 E0.0003
G1 X92.875 Y78.787 E0.0982
G1 X92.878 Y78.782 E0.0004
G1 X92.928 Y78.698 E0.0061
G1 X92.931 Y78.694 E0.0004
G1 X93.796 Y77.408 E0.0964
G1 X93.850 Y77.328 F1440
G1 X93.854 Y77.323 F1440
G1 X93.912 Y77.245 F1440
G1 E-0.8000 F1800
G1 X103.212 Y106.022 F4800
G1 E0.8000 F1800
G1 X103.218 Y106.021 E0.0004 F1440
G1 X103.312 Y105.996 E0.0060
G1 X103.317 Y105.995 E0.0004
G1 X104.901 Y105.673 E0.1005
G1 X104.907 Y105.672 E0.0004
G1 X105.003 Y105.657 E0.0060
G1 X105.008 Y105.657 E0.0004
G1 X106.609 Y105.497 E0.1000
G1 X106.613 Y105.497 E0.0003
G1 X106.694 Y105.492 E0.0050
G1 X106.699 Y105.492 E0.0003
G1 X107.777 Y105.476 E0.0670
G1 X107.779 Y105.476 E0.0002
G1 X107.828 Y105.476 E0.0030
G1 X107.831 Y105.476 E0.0002
G1 X108.394 Y105.497 E0.0350
G1 X108.397 Y105.497 E0.0002
G1 X108.462 Y105.501 E0.0040
G1 X108.466 Y105.502 E0.0002
G1 X110.049 Y105.666 E0.0990
G1 X110.054 Y105.666 E0.0003
G1 X110.134 Y105.678 E0.0050
G1 X110.139 Y105.679 E0.0003
G1 X111.213 Y105.883 E0.0681
G1 X111.218 Y105.884 E0.0003
G1 X111.297 Y105.902 E0.0050
G1 X111.301 Y105.904 E0.0003
G1 X112.850 Y106.336 E0.1000
G1 X112.856 Y106.338 E0.0004
G1 X112.948 Y106.368 E0.0060
G1 X112.953 Y106.370 E0.0004
G1 X114.458 Y106.960 E0.1005
G1 X114.463 Y106.962 E0.0004
G1 X114.551 Y107.002 E0.0060
G1 X114.557 Y107.005 E0.0004
G1 X115.994 Y107.744 E0.1005
G1 X115.999 Y107.746 E0.0004
G1 X116.083 Y107.795 E0.0060
G1 X116.088 Y107.798 E0.0004
