; G-Code generated by Simplify3D(R) Version 4.0.0
; Mar 16, 2018 at 8:24:32 PM
; Settings Summary
;   processName,Process1
;   applyToModels,bottomv2,topv2
;   profileName,Original Prusa i3 MK2 RC4 (modified)
;   profileVersion,2016-08-30 14:21:19
;   baseProfile,Prusa Mendel (modified)
;   printMaterial,PLA
;   printQuality,NORMAL 0.2mm
;   printExtruders,
;   extruderName,Primary Extruder
;   extruderToolheadNumber,0
;   extruderDiameter,0.4
;   extruderAutoWidth,0
;   extruderWidth,0.45
;   extrusionMultiplier,1
;   extruderUseRetract,1
;   extruderRetractionDistance,0.8
;   extruderExtraRestartDistance,0
;   extruderRetractionZLift,0
;   extruderRetractionSpeed,1800
;   extruderUseCoasting,1
;   extruderCoastingDistance,0.2
;   extruderUseWipe,1
;   extruderWipeDistance,2
;   primaryExtruder,0
;   layerHeight,0.2
;   topSolidLayers,3
;   bottomSolidLayers,3
;   perimeterOutlines,3
;   printPerimetersInsideOut,1
;   startPointOption,2
;   startPointOriginX,0
;   startPointOriginY,0
;   sequentialIslands,0
;   spiralVaseMode,0
;   firstLayerHeightPercentage,100
;   firstLayerWidthPercentage,95
;   firstLayerUnderspeed,0.6
;   useRaft,0
;   raftExtruder,0
;   raftTopLayers,3
;   raftBaseLayers,2
;   raftOffset,3
;   raftSeparationDistance,0.14
;   raftTopInfill,100
;   aboveRaftSpeedMultiplier,0.3
;   useSkirt,1
;   skirtExtruder,0
;   skirtLayers,1
;   skirtOutlines,1
;   skirtOffset,1.8
;   usePrimePillar,0
;   primePillarExtruder,999
;   primePillarWidth,12
;   primePillarLocation,7
;   primePillarSpeedMultiplier,1
;   useOozeShield,0
;   oozeShieldExtruder,999
;   oozeShieldOffset,2
;   oozeShieldOutlines,1
;   oozeShieldSidewallShape,1
;   oozeShieldSidewallAngle,30
;   oozeShieldSpeedMultiplier,1
;   infillExtruder,0
;   internalInfillPattern,Rectilinear
;   externalInfillPattern,Rectilinear
;   infillPercentage,0
;   outlineOverlapPercentage,21
;   infillExtrusionWidthPercentage,100
;   minInfillLength,2
;   infillLayerInterval,1
;   internalInfillAngles,45,-45
;   overlapInternalInfillAngles,0
;   externalInfillAngles,45,-45
;   generateSupport,0
;   supportExtruder,0
;   supportInfillPercentage,30
;   supportExtraInflation,1.4
;   supportBaseLayers,0
;   denseSupportExtruder,0
;   denseSupportLayers,0
;   denseSupportInfillPercentage,70
;   supportLayerInterval,1
;   supportHorizontalPartOffset,0.2
;   supportUpperSeparationLayers,1
;   supportLowerSeparationLayers,1
;   supportType,0
;   supportGridSpacing,4
;   maxOverhangAngle,45
;   supportAngles,0
;   temperatureName,Primary Extruder,Heated Bed
;   temperatureNumber,0,1
;   temperatureSetpointCount,1,1
;   temperatureSetpointLayers,1,1
;   temperatureSetpointTemperatures,215,55
;   temperatureStabilizeAtStartup,1,1
;   temperatureHeatedBed,0,1
;   temperatureRelayBetweenLayers,0,0
;   temperatureRelayBetweenLoops,0,0
;   fanLayers,1,2
;   fanSpeeds,0,100
;   blipFanToFullPower,1
;   adjustSpeedForCooling,1
;   minSpeedLayerTime,15
;   minCoolingSpeedSlowdown,5
;   increaseFanForCooling,0
;   minFanLayerTime,45
;   maxCoolingFanSpeed,100
;   increaseFanForBridging,1
;   bridgingFanSpeed,100
;   use5D,1
;   relativeEdistances,1
;   allowEaxisZeroing,1
;   independentExtruderAxes,0
;   includeM10123,0
;   stickySupport,1
;   applyToolheadOffsets,0
;   gcodeXoffset,0
;   gcodeYoffset,0
;   gcodeZoffset,0
;   overrideMachineDefinition,1
;   machineTypeOverride,0
;   strokeXoverride,250
;   strokeYoverride,210
;   strokeZoverride,200
;   originOffsetXoverride,0
;   originOffsetYoverride,0
;   originOffsetZoverride,0
;   homeXdirOverride,-1
;   homeYdirOverride,-1
;   homeZdirOverride,-1
;   flipXoverride,1
;   flipYoverride,-1
;   flipZoverride,1
;   toolheadOffsets,0,0|0,0|0,0|0,0|0,0|0,0
;   overrideFirmwareConfiguration,0
;   firmwareTypeOverride,RepRap (Marlin/Repetier/Sprinter)
;   GPXconfigOverride,r2
;   baudRateOverride,250000
;   overridePrinterModels,1
;   printerModelsOverride
;   startingGcode,M115 U3.0.7 ; tell the printer latest firmware varsion available,G28 W ; home all without mesh bed level,G80 ; mesh bed leveling,G1 Y-3.0 F1000.0 ; go outside printing area,G1 X60.0 E9.0  F1000.0 ; intro line,G1 X100.0 E12.5  F1000.0 ; intro line
;   layerChangeGcode,
;   retractionGcode,
;   toolChangeGcode,
;   endingGcode,M104 S0 ; turn off temperature,M140 S0 ; turn off heatbed,M107 ; turn off fan,G1 X0 Y200; home X axis,M84 ; disable motors
;   exportFileFormat,gcode
;   celebration,0
;   celebrationSong,Random Song
;   postProcessing,{REPLACE "; outer perimeter\n" "; outer perimeter\nM204 S600\n"},{REPLACE "; inner perimeter\n" "; inner perimeter\nM204 S1200\n"},{REPLACE "; solid layer\n" "; solid layer\nM204 S1500\n"},{REPLACE "; infill\n" "; infill\nM204 S2000\n"}
;   defaultSpeed,2400
;   outlineUnderspeed,0.8
;   solidInfillUnderspeed,0.8
;   supportUnderspeed,0.8
;   rapidXYspeed,4800
;   rapidZspeed,1002
;   minBridgingArea,50
;   bridgingExtraInflation,1
;   bridgingExtrusionMultiplier,1
;   bridgingSpeedMultiplier,1
;   useFixedBridgingAngle,0
;   fixedBridgingAngle,0
;   applyBridgingToPerimeters,0
;   filamentDiameters,1.75|1.75|1.75|1.75|1.75|1.75
;   filamentPricesPerKg,215|215|215|215|215|215
;   filamentDensities,1.25|1.25|1.25|1.25|1.25|1.25
;   useMinPrintHeight,0
;   minPrintHeight,0
;   useMaxPrintHeight,0
;   maxPrintHeight,0
;   useDiaphragm,0
;   diaphragmLayerInterval,20
;   robustSlicing,1
;   mergeAllIntoSolid,0
;   onlyRetractWhenCrossingOutline,0
;   retractBetweenLayers,1
;   useRetractionMinTravel,1
;   retractionMinTravel,3
;   retractWhileWiping,1
;   onlyWipeOutlines,1
;   avoidCrossingOutline,0
;   maxMovementDetourFactor,3
;   toolChangeRetractionDistance,12
;   toolChangeExtraRestartDistance,-0.5
;   toolChangeRetractionSpeed,600
;   externalThinWallType,0
;   internalThinWallType,2
;   thinWallAllowedOverlapPercentage,25
;   singleExtrusionMinLength,1
;   singleExtrusionMinPrintingWidthPercentage,50
;   singleExtrusionMaxPrintingWidthPercentage,200
;   singleExtrusionEndpointExtension,0.2
;   horizontalSizeCompensation,0
G90
M83
M106 S255
G4 P500
M106 S0
M140 S55
M190 S55
M104 S215 T0
M109 S215 T0
M115 U3.0.7 ; tell the printer latest firmware varsion available
G28 W ; home all without mesh bed level
G80 ; mesh bed leveling
G1 Y-3.0 F1000.0 ; go outside printing area
G1 X60.0 E9.0  F1000.0 ; intro line
G1 X100.0 E12.5  F1000.0 ; intro line
G1 E-0.8000 F1800
G1 Z0.200 F1002
; process Process1
; layer 1, Z = 0.200
T0
; tool H0.200 W0.428
; skirt
G1 X113.507 Y91.912 F4800
G1 E0.8000 F540
G1 X113.510 Y91.907 E0.0002 F1440
G1 X113.909 Y91.418 E0.0224
G1 X113.913 Y91.414 E0.0002
G1 X113.982 Y91.338 E0.0037
G1 X113.987 Y91.333 E0.0002
G1 X114.445 Y90.881 E0.0229
G1 X114.450 Y90.876 E0.0003
G1 X114.547 Y90.792 E0.0046
G1 X114.553 Y90.788 E0.0003
G1 X115.298 Y90.228 E0.0331
G1 X115.305 Y90.223 E0.0003
G1 X115.435 Y90.141 E0.0055
G1 X115.443 Y90.136 E0.0003
G1 X116.271 Y89.701 E0.0332
G1 X116.278 Y89.698 E0.0003
G1 X116.395 Y89.646 E0.0046
G1 X116.402 Y89.643 E0.0003
G1 X117.020 Y89.419 E0.0233
G1 X117.027 Y89.416 E0.0003
G1 X117.150 Y89.381 E0.0046
G1 X117.157 Y89.379 E0.0003
G1 X118.058 Y89.182 E0.0328
G1 X118.066 Y89.181 E0.0003
G1 X118.196 Y89.162 E0.0047
G1 X118.203 Y89.161 E0.0003
G1 X118.895 Y89.107 E0.0247
G1 X118.900 Y89.107 E0.0002
G1 X118.986 Y89.104 E0.0031
G1 X118.991 Y89.104 E0.0002
G1 X131.086 Y89.255 E0.4300
G1 X131.090 Y89.255 E0.0001
G1 X131.157 Y89.258 E0.0024
G1 X131.161 Y89.259 E0.0001
G1 X131.792 Y89.311 E0.0225
G1 X131.798 Y89.311 E0.0002
G1 X131.898 Y89.325 E0.0036
G1 X131.903 Y89.326 E0.0002
G1 X132.535 Y89.446 E0.0229
G1 X132.542 Y89.448 E0.0003
G1 X132.667 Y89.480 E0.0046
G1 X132.674 Y89.482 E0.0003
G1 X133.547 Y89.774 E0.0327
G1 X133.554 Y89.776 E0.0003
G1 X133.673 Y89.825 E0.0046
G1 X133.679 Y89.828 E0.0003
G1 X134.257 Y90.112 E0.0229
G1 X134.263 Y90.115 E0.0002
G1 X134.352 Y90.165 E0.0037
G1 X134.358 Y90.168 E0.0002
G1 X134.891 Y90.505 E0.0224
G1 X134.896 Y90.509 E0.0002
G1 X134.980 Y90.568 E0.0037
G1 X134.984 Y90.572 E0.0002
G1 X135.478 Y90.964 E0.0224
G1 X135.483 Y90.968 E0.0002
G1 X135.560 Y91.036 E0.0037
G1 X135.564 Y91.040 E0.0002
G1 X136.023 Y91.492 E0.0229
G1 X136.028 Y91.498 E0.0003
G1 X136.113 Y91.594 E0.0046
G1 X136.118 Y91.600 E0.0003
G1 X136.680 Y92.328 E0.0327
G1 X136.685 Y92.334 E0.0003
G1 X136.756 Y92.441 E0.0046
G1 X136.760 Y92.447 E0.0003
G1 X137.082 Y93.005 E0.0229
G1 X137.085 Y93.010 E0.0002
G1 X137.132 Y93.102 E0.0036
G1 X137.134 Y93.107 E0.0002
G1 X137.394 Y93.696 E0.0229
G1 X137.397 Y93.703 E0.0003
G1 X137.441 Y93.824 E0.0046
G1 X137.444 Y93.831 E0.0003
G1 X137.700 Y94.715 E0.0327
G1 X137.701 Y94.722 E0.0003
G1 X137.729 Y94.847 E0.0046
G1 X137.730 Y94.855 E0.0003
G1 X137.825 Y95.492 E0.0229
G1 X137.826 Y95.498 E0.0002
G1 X137.835 Y95.600 E0.0037
G1 X137.836 Y95.606 E0.0002
G1 X137.861 Y96.236 E0.0224
G1 X137.861 Y96.242 E0.0002
G1 X137.860 Y96.345 E0.0036
G1 X137.860 Y96.351 E0.0002
G1 X137.817 Y96.981 E0.0224
G1 X137.817 Y96.987 E0.0002
G1 X137.804 Y97.089 E0.0037
G1 X137.803 Y97.095 E0.0002
G1 X137.694 Y97.716 E0.0224
G1 X137.693 Y97.722 E0.0002
G1 X137.669 Y97.822 E0.0036
G1 X137.668 Y97.828 E0.0002
G1 X137.492 Y98.434 E0.0224
G1 X137.490 Y98.439 E0.0002
G1 X137.457 Y98.536 E0.0037
G1 X137.455 Y98.542 E0.0002
G1 X137.210 Y99.138 E0.0229
G1 X137.207 Y99.145 E0.0003
G1 X137.150 Y99.260 E0.0046
G1 X137.147 Y99.267 E0.0003
G1 X136.680 Y100.075 E0.0332
G1 X136.675 Y100.082 E0.0003
G1 X136.588 Y100.209 E0.0055
G1 X136.582 Y100.216 E0.0003
G1 X136.000 Y100.929 E0.0327
G1 X135.997 Y100.934 E0.0002
G1 X135.927 Y101.010 E0.0037
G1 X135.923 Y101.014 E0.0002
G1 X135.671 Y101.263 E0.0126
G1 X135.668 Y101.266 E0.0002
G1 X135.611 Y101.318 E0.0027
G1 X135.607 Y101.321 E0.0002
G1 X135.134 Y101.718 E0.0220
G1 X135.129 Y101.722 E0.0002
G1 X135.047 Y101.784 E0.0037
G1 X135.042 Y101.787 E0.0002
G1 X134.508 Y102.146 E0.0229
G1 X134.501 Y102.150 E0.0003
G1 X134.390 Y102.214 E0.0046
G1 X134.383 Y102.217 E0.0003
G1 X133.546 Y102.629 E0.0332
G1 X133.537 Y102.632 E0.0003
G1 X133.394 Y102.689 E0.0055
G1 X133.385 Y102.692 E0.0003
G1 X132.493 Y102.964 E0.0332
G1 X132.485 Y102.965 E0.0003
G1 X132.360 Y102.995 E0.0046
G1 X132.353 Y102.996 E0.0003
G1 X131.719 Y103.099 E0.0228
G1 X131.713 Y103.100 E0.0002
G1 X131.613 Y103.111 E0.0036
G1 X131.607 Y103.111 E0.0002
G1 X130.978 Y103.146 E0.0224
G1 X130.974 Y103.147 E0.0001
G1 X130.908 Y103.148 E0.0023
G1 X130.905 Y103.148 E0.0001
G1 X118.821 Y102.992 E0.4296
G1 X118.817 Y102.992 E0.0001
G1 X118.754 Y102.989 E0.0022
G1 X118.750 Y102.989 E0.0001
G1 X118.358 Y102.958 E0.0140
G1 X118.353 Y102.957 E0.0002
G1 X118.275 Y102.948 E0.0028
G1 X118.270 Y102.947 E0.0002
G1 X117.660 Y102.848 E0.0220
G1 X117.654 Y102.847 E0.0002
G1 X117.553 Y102.825 E0.0037
G1 X117.548 Y102.824 E0.0002
G1 X116.939 Y102.656 E0.0224
G1 X116.933 Y102.654 E0.0002
G1 X116.836 Y102.622 E0.0037
G1 X116.830 Y102.620 E0.0002
G1 X116.243 Y102.388 E0.0224
G1 X116.238 Y102.386 E0.0002
G1 X116.144 Y102.343 E0.0037
G1 X116.139 Y102.340 E0.0002
G1 X115.580 Y102.047 E0.0224
G1 X115.575 Y102.044 E0.0002
G1 X115.487 Y101.992 E0.0037
G1 X115.482 Y101.989 E0.0002
G1 X114.958 Y101.637 E0.0224
G1 X114.953 Y101.634 E0.0002
G1 X114.871 Y101.572 E0.0037
G1 X114.866 Y101.568 E0.0002
G1 X114.373 Y101.154 E0.0229
G1 X114.367 Y101.149 E0.0003
G1 X114.275 Y101.060 E0.0046
G1 X114.269 Y101.055 E0.0003
G1 X113.650 Y100.374 E0.0327
G1 X113.645 Y100.369 E0.0003
G1 X113.565 Y100.268 E0.0046
G1 X113.561 Y100.262 E0.0003
G1 X113.195 Y99.732 E0.0229
G1 X113.192 Y99.727 E0.0002
G1 X113.138 Y99.640 E0.0037
G1 X113.135 Y99.634 E0.0002
G1 X112.828 Y99.068 E0.0229
G1 X112.825 Y99.062 E0.0003
G1 X112.771 Y98.945 E0.0046
G1 X112.768 Y98.938 E0.0003
G1 X112.442 Y98.077 E0.0327
G1 X112.440 Y98.070 E0.0003
G1 X112.402 Y97.947 E0.0046
G1 X112.400 Y97.940 E0.0003
G1 X112.252 Y97.301 E0.0233
G1 X112.250 Y97.293 E0.0003
G1 X112.230 Y97.166 E0.0046
G1 X112.229 Y97.159 E0.0003
G1 X112.142 Y96.243 E0.0327
G1 X112.142 Y96.236 E0.0003
G1 X112.138 Y96.107 E0.0046
G1 X112.138 Y96.100 E0.0003
G1 X112.165 Y95.443 E0.0234
G1 X112.165 Y95.436 E0.0003
G1 X112.179 Y95.308 E0.0046
G1 X112.180 Y95.300 E0.0003
G1 X112.342 Y94.382 E0.0332
G1 X112.344 Y94.373 E0.0003
G1 X112.383 Y94.224 E0.0055
G1 X112.386 Y94.215 E0.0003
G1 X112.693 Y93.334 E0.0332
G1 X112.696 Y93.327 E0.0003
G1 X112.746 Y93.209 E0.0046
G1 X112.749 Y93.202 E0.0003
G1 X113.041 Y92.628 E0.0229
G1 X113.044 Y92.623 E0.0002
G1 X113.095 Y92.534 E0.0037
G1 X113.098 Y92.528 E0.0002
G1 X113.393 Y92.076 E0.0192
G1 X113.443 Y92.000 F1440
G1 X113.446 Y91.995 F1440
G1 X113.507 Y91.912 F1440
G1 E-0.8000 F1800
G1 X117.374 Y107.216 F4800
G1 E0.8000 F1800
G1 X117.936 Y107.098 E0.0204 F1440
G1 X117.941 Y107.097 E0.0002
G1 X118.031 Y107.083 E0.0032
G1 X118.037 Y107.082 E0.0002
G1 X118.594 Y107.020 E0.0199
G1 X118.599 Y107.019 E0.0002
G1 X118.693 Y107.014 E0.0033
G1 X118.698 Y107.013 E0.0002
G1 X130.926 Y106.853 E0.4347
G1 X130.930 Y106.853 E0.0002
G1 X131.004 Y106.854 E0.0026
G1 X131.008 Y106.855 E0.0002
G1 X131.721 Y106.900 E0.0254
G1 X131.727 Y106.900 E0.0002
G1 X131.832 Y106.913 E0.0038
G1 X131.838 Y106.914 E0.0002
G1 X132.404 Y107.014 E0.0204
G1 X132.410 Y107.015 E0.0002
G1 X132.514 Y107.039 E0.0038
G1 X132.520 Y107.041 E0.0002
G1 X133.221 Y107.247 E0.0260
G1 X133.227 Y107.249 E0.0002
G1 X133.327 Y107.284 E0.0038
G1 X133.333 Y107.286 E0.0002
G1 X133.856 Y107.505 E0.0202
G1 X133.861 Y107.508 E0.0002
G1 X133.943 Y107.547 E0.0032
G1 X133.948 Y107.549 E0.0002
G1 X134.441 Y107.813 E0.0199
G1 X134.446 Y107.816 E0.0002
G1 X134.524 Y107.863 E0.0032
G1 X134.528 Y107.866 E0.0002
G1 X134.994 Y108.176 E0.0199
G1 X134.998 Y108.179 E0.0002
G1 X135.072 Y108.233 E0.0032
G1 X135.076 Y108.236 E0.0002
G1 X135.510 Y108.589 E0.0199
G1 X135.514 Y108.592 E0.0002
G1 X135.582 Y108.653 E0.0032
G1 X135.586 Y108.657 E0.0002
G1 X135.985 Y109.049 E0.0199
G1 X135.988 Y109.053 E0.0002
G1 X136.050 Y109.120 E0.0032
G1 X136.054 Y109.124 E0.0002
G1 X136.413 Y109.552 E0.0199
G1 X136.417 Y109.556 E0.0002
G1 X136.472 Y109.629 E0.0032
G1 X136.475 Y109.633 E0.0002
G1 X136.792 Y110.094 E0.0199
G1 X136.795 Y110.099 E0.0002
G1 X136.843 Y110.176 E0.0032
G1 X136.846 Y110.181 E0.0002
G1 X137.122 Y110.676 E0.0202
G1 X137.124 Y110.682 E0.0002
G1 X137.171 Y110.777 E0.0038
G1 X137.173 Y110.783 E0.0002
G1 X137.456 Y111.457 E0.0260
G1 X137.458 Y111.463 E0.0002
G1 X137.494 Y111.563 E0.0038
G1 X137.495 Y111.569 E0.0002
G1 X137.655 Y112.113 E0.0202
G1 X137.657 Y112.118 E0.0002
G1 X137.678 Y112.206 E0.0032
G1 X137.679 Y112.212 E0.0002
G1 X137.785 Y112.761 E0.0199
G1 X137.786 Y112.766 E0.0002
G1 X137.799 Y112.856 E0.0032
G1 X137.800 Y112.862 E0.0002
G1 X137.853 Y113.419 E0.0199
G1 X137.853 Y113.424 E0.0002
G1 X137.857 Y113.515 E0.0032
G1 X137.858 Y113.520 E0.0002
G1 X137.858 Y114.080 E0.0199
G1 X137.857 Y114.085 E0.0002
G1 X137.853 Y114.176 E0.0032
G1 X137.853 Y114.181 E0.0002
G1 X137.800 Y114.738 E0.0199
G1 X137.799 Y114.744 E0.0002
G1 X137.786 Y114.834 E0.0032
G1 X137.785 Y114.839 E0.0002
G1 X137.678 Y115.396 E0.0202
G1 X137.676 Y115.402 E0.0002
G1 X137.651 Y115.505 E0.0038
G1 X137.649 Y115.511 E0.0002
G1 X137.425 Y116.230 E0.0268
G1 X137.422 Y116.239 E0.0003
G1 X137.366 Y116.380 E0.0054
G1 X137.362 Y116.388 E0.0003
G1 X136.883 Y117.356 E0.0384
G1 X136.879 Y117.363 E0.0003
G1 X136.810 Y117.480 E0.0049
G1 X136.805 Y117.487 E0.0003
G1 X136.471 Y117.973 E0.0210
G1 X136.467 Y117.978 E0.0002
G1 X136.402 Y118.062 E0.0038
G1 X136.398 Y118.067 E0.0002
G1 X135.915 Y118.625 E0.0262
G1 X135.910 Y118.630 E0.0003
G1 X135.825 Y118.717 E0.0043
G1 X135.819 Y118.721 E0.0003
G1 X135.258 Y119.224 E0.0268
G1 X135.252 Y119.229 E0.0003
G1 X135.144 Y119.313 E0.0049
G1 X135.137 Y119.317 E0.0003
G1 X134.368 Y119.829 E0.0329
G1 X134.360 Y119.834 E0.0003
G1 X134.227 Y119.908 E0.0054
G1 X134.219 Y119.912 E0.0003
G1 X133.379 Y120.296 E0.0329
G1 X133.371 Y120.299 E0.0003
G1 X133.243 Y120.347 E0.0049
G1 X133.236 Y120.349 E0.0003
G1 X132.520 Y120.559 E0.0265
G1 X132.514 Y120.561 E0.0002
G1 X132.410 Y120.585 E0.0038
G1 X132.404 Y120.586 E0.0002
