; G-Code generated by Simplify3D(R) Version 4.0.0
; Mar 15, 2018 at 9:09:01 PM
; Settings Summary
;   processName,Process1
;   applyToModels,top,bottom
;   profileName,Original Prusa i3 MK2 RC4 (modified)
;   profileVersion,2016-08-30 14:21:19
;   baseProfile,Prusa Mendel (modified)
;   printMaterial,PET
;   printQuality,NORMAL 0.2mm
;   printExtruders,
;   extruderName,Primary Extruder
;   extruderToolheadNumber,0
;   extruderDiameter,0.4
;   extruderAutoWidth,0
;   extruderWidth,0.45
;   extrusionMultiplier,1
;   extruderUseRetract,1
;   extruderRetractionDistance,0.8
;   extruderExtraRestartDistance,0
;   extruderRetractionZLift,0
;   extruderRetractionSpeed,1800
;   extruderUseCoasting,1
;   extruderCoastingDistance,0.2
;   extruderUseWipe,1
;   extruderWipeDistance,2
;   primaryExtruder,0
;   layerHeight,0.2
;   topSolidLayers,3
;   bottomSolidLayers,3
;   perimeterOutlines,3
;   printPerimetersInsideOut,1
;   startPointOption,2
;   startPointOriginX,0
;   startPointOriginY,0
;   sequentialIslands,0
;   spiralVaseMode,0
;   firstLayerHeightPercentage,100
;   firstLayerWidthPercentage,95
;   firstLayerUnderspeed,0.6
;   useRaft,0
;   raftExtruder,0
;   raftTopLayers,3
;   raftBaseLayers,2
;   raftOffset,3
;   raftSeparationDistance,0.14
;   raftTopInfill,100
;   aboveRaftSpeedMultiplier,0.3
;   useSkirt,1
;   skirtExtruder,0
;   skirtLayers,1
;   skirtOutlines,1
;   skirtOffset,1.8
;   usePrimePillar,0
;   primePillarExtruder,999
;   primePillarWidth,12
;   primePillarLocation,7
;   primePillarSpeedMultiplier,1
;   useOozeShield,0
;   oozeShieldExtruder,999
;   oozeShieldOffset,2
;   oozeShieldOutlines,1
;   oozeShieldSidewallShape,1
;   oozeShieldSidewallAngle,30
;   oozeShieldSpeedMultiplier,1
;   infillExtruder,0
;   internalInfillPattern,Rectilinear
;   externalInfillPattern,Rectilinear
;   infillPercentage,0
;   outlineOverlapPercentage,21
;   infillExtrusionWidthPercentage,100
;   minInfillLength,2
;   infillLayerInterval,1
;   internalInfillAngles,45,-45
;   overlapInternalInfillAngles,0
;   externalInfillAngles,45,-45
;   generateSupport,0
;   supportExtruder,0
;   supportInfillPercentage,30
;   supportExtraInflation,1.4
;   supportBaseLayers,0
;   denseSupportExtruder,0
;   denseSupportLayers,0
;   denseSupportInfillPercentage,70
;   supportLayerInterval,1
;   supportHorizontalPartOffset,0.2
;   supportUpperSeparationLayers,1
;   supportLowerSeparationLayers,1
;   supportType,0
;   supportGridSpacing,4
;   maxOverhangAngle,45
;   supportAngles,0
;   temperatureName,Primary Extruder,Heated Bed
;   temperatureNumber,0,1
;   temperatureSetpointCount,1,1
;   temperatureSetpointLayers,1,1
;   temperatureSetpointTemperatures,240,75
;   temperatureStabilizeAtStartup,1,1
;   temperatureHeatedBed,0,1
;   temperatureRelayBetweenLayers,0,0
;   temperatureRelayBetweenLoops,0,0
;   fanLayers,1,2
;   fanSpeeds,0,50
;   blipFanToFullPower,1
;   adjustSpeedForCooling,1
;   minSpeedLayerTime,15
;   minCoolingSpeedSlowdown,5
;   increaseFanForCooling,0
;   minFanLayerTime,45
;   maxCoolingFanSpeed,100
;   increaseFanForBridging,1
;   bridgingFanSpeed,100
;   use5D,1
;   relativeEdistances,1
;   allowEaxisZeroing,1
;   independentExtruderAxes,0
;   includeM10123,0
;   stickySupport,1
;   applyToolheadOffsets,0
;   gcodeXoffset,0
;   gcodeYoffset,0
;   gcodeZoffset,0
;   overrideMachineDefinition,1
;   machineTypeOverride,0
;   strokeXoverride,250
;   strokeYoverride,210
;   strokeZoverride,200
;   originOffsetXoverride,0
;   originOffsetYoverride,0
;   originOffsetZoverride,0
;   homeXdirOverride,-1
;   homeYdirOverride,-1
;   homeZdirOverride,-1
;   flipXoverride,1
;   flipYoverride,-1
;   flipZoverride,1
;   toolheadOffsets,0,0|0,0|0,0|0,0|0,0|0,0
;   overrideFirmwareConfiguration,0
;   firmwareTypeOverride,RepRap (Marlin/Repetier/Sprinter)
;   GPXconfigOverride,r2
;   baudRateOverride,250000
;   overridePrinterModels,1
;   printerModelsOverride
;   startingGcode,M115 U3.0.7 ; tell the printer latest firmware varsion available,G28 W ; home all without mesh bed level,G80 ; mesh bed leveling,G1 Y-3.0 F1000.0 ; go outside printing area,G1 X60.0 E9.0  F1000.0 ; intro line,G1 X100.0 E12.5  F1000.0 ; intro line
;   layerChangeGcode,
;   retractionGcode,
;   toolChangeGcode,
;   endingGcode,M104 S0 ; turn off temperature,M140 S0 ; turn off heatbed,M107 ; turn off fan,G1 X0 Y200; home X axis,M84 ; disable motors
;   exportFileFormat,gcode
;   celebration,0
;   celebrationSong,Random Song
;   postProcessing,|{REPLACE "\n; layer 56," "\n;PAUSE\nM83\nG1 E-1.000000 F6000\nG91\nG1 Z5.000\nG90\nG1 X10 Y10 F6000\nM84 E0\nM0\nM82\nG92 E0\n;layer 56,"}|{REPLACE "; outer perimeter\n" "; outer perimeter\nM204 S600\n"}|{REPLACE "; inner perimeter\n" "; inner perimeter\nM204 S1200\n"}|{REPLACE "; solid layer\n" "; solid layer\nM204 S1500\n"}|{REPLACE "; infill\n" "; infill\nM204 S2000\n"}
;   defaultSpeed,2400
;   outlineUnderspeed,0.8
;   solidInfillUnderspeed,0.8
;   supportUnderspeed,0.8
;   rapidXYspeed,4800
;   rapidZspeed,1002
;   minBridgingArea,50
;   bridgingExtraInflation,1
;   bridgingExtrusionMultiplier,1
;   bridgingSpeedMultiplier,1
;   useFixedBridgingAngle,0
;   fixedBridgingAngle,0
;   applyBridgingToPerimeters,0
;   filamentDiameters,1.75|1.75|1.75|1.75|1.75|1.75
;   filamentPricesPerKg,215|215|215|215|215|215
;   filamentDensities,1.25|1.25|1.25|1.25|1.25|1.25
;   useMinPrintHeight,0
;   minPrintHeight,0
;   useMaxPrintHeight,0
;   maxPrintHeight,0
;   useDiaphragm,0
;   diaphragmLayerInterval,20
;   robustSlicing,1
;   mergeAllIntoSolid,0
;   onlyRetractWhenCrossingOutline,0
;   retractBetweenLayers,1
;   useRetractionMinTravel,1
;   retractionMinTravel,3
;   retractWhileWiping,1
;   onlyWipeOutlines,1
;   avoidCrossingOutline,0
;   maxMovementDetourFactor,3
;   toolChangeRetractionDistance,12
;   toolChangeExtraRestartDistance,-0.5
;   toolChangeRetractionSpeed,600
;   externalThinWallType,0
;   internalThinWallType,2
;   thinWallAllowedOverlapPercentage,25
;   singleExtrusionMinLength,1
;   singleExtrusionMinPrintingWidthPercentage,50
;   singleExtrusionMaxPrintingWidthPercentage,200
;   singleExtrusionEndpointExtension,0.2
;   horizontalSizeCompensation,0
G90
M83
M106 S255
G4 P500
M106 S0
M140 S75
M190 S75
M104 S240 T0
M109 S240 T0
M115 U3.0.7 ; tell the printer latest firmware varsion available
G28 W ; home all without mesh bed level
G80 ; mesh bed leveling
G1 Y-3.0 F1000.0 ; go outside printing area
G1 X60.0 E9.0  F1000.0 ; intro line
G1 X100.0 E12.5  F1000.0 ; intro line
G1 E-0.8000 F1800
G1 Z0.200 F1002
; process Process1
; layer 1, Z = 0.200
T0
; tool H0.200 W0.428
; skirt
G1 X113.383 Y90.952 F4800
G1 E0.8000 F540
G1 X113.465 Y90.858 E0.0045 F1440
G1 X113.470 Y90.853 E0.0003
G1 X113.944 Y90.379 E0.0238
G1 X113.948 Y90.375 E0.0002
G1 X114.022 Y90.308 E0.0036
G1 X114.027 Y90.304 E0.0002
G1 X114.537 Y89.891 E0.0234
G1 X114.542 Y89.887 E0.0002
G1 X114.623 Y89.828 E0.0036
G1 X114.628 Y89.825 E0.0002
G1 X115.179 Y89.467 E0.0234
G1 X115.184 Y89.464 E0.0002
G1 X115.271 Y89.414 E0.0036
G1 X115.276 Y89.411 E0.0002
G1 X115.861 Y89.113 E0.0234
G1 X115.867 Y89.110 E0.0002
G1 X115.958 Y89.070 E0.0036
G1 X115.964 Y89.067 E0.0002
G1 X116.577 Y88.832 E0.0234
G1 X116.583 Y88.830 E0.0002
G1 X116.678 Y88.799 E0.0036
G1 X116.684 Y88.797 E0.0002
G1 X117.333 Y88.623 E0.0239
G1 X117.341 Y88.621 E0.0003
G1 X117.470 Y88.596 E0.0047
G1 X117.478 Y88.595 E0.0003
G1 X118.511 Y88.466 E0.0370
G1 X118.518 Y88.465 E0.0002
G1 X118.637 Y88.458 E0.0042
G1 X118.644 Y88.458 E0.0002
G1 X131.332 Y88.458 E0.4510
G1 X131.336 Y88.458 E0.0001
G1 X131.406 Y88.460 E0.0025
G1 X131.410 Y88.461 E0.0001
G1 X131.844 Y88.492 E0.0155
G1 X131.849 Y88.493 E0.0002
G1 X131.929 Y88.502 E0.0029
G1 X131.933 Y88.503 E0.0002
G1 X132.572 Y88.604 E0.0230
G1 X132.578 Y88.605 E0.0002
G1 X132.676 Y88.626 E0.0036
G1 X132.682 Y88.627 E0.0002
G1 X133.329 Y88.800 E0.0238
G1 X133.336 Y88.803 E0.0003
G1 X133.454 Y88.843 E0.0045
G1 X133.461 Y88.845 E0.0003
G1 X134.348 Y89.213 E0.0341
G1 X134.355 Y89.216 E0.0003
G1 X134.467 Y89.271 E0.0045
G1 X134.474 Y89.275 E0.0003
G1 X135.053 Y89.610 E0.0238
G1 X135.058 Y89.613 E0.0002
G1 X135.142 Y89.667 E0.0036
G1 X135.147 Y89.670 E0.0002
G1 X135.679 Y90.057 E0.0234
G1 X135.683 Y90.060 E0.0002
G1 X135.761 Y90.123 E0.0036
G1 X135.766 Y90.127 E0.0002
G1 X136.254 Y90.567 E0.0234
G1 X136.258 Y90.571 E0.0002
G1 X136.329 Y90.642 E0.0036
G1 X136.333 Y90.646 E0.0002
G1 X136.773 Y91.134 E0.0234
G1 X136.777 Y91.139 E0.0002
G1 X136.840 Y91.217 E0.0036
G1 X136.843 Y91.221 E0.0002
G1 X137.230 Y91.753 E0.0234
G1 X137.233 Y91.758 E0.0002
G1 X137.287 Y91.842 E0.0036
G1 X137.290 Y91.847 E0.0002
G1 X137.619 Y92.416 E0.0234
G1 X137.622 Y92.421 E0.0002
G1 X137.667 Y92.510 E0.0036
G1 X137.670 Y92.515 E0.0002
G1 X137.937 Y93.116 E0.0234
G1 X137.939 Y93.121 E0.0002
G1 X137.975 Y93.214 E0.0036
G1 X137.977 Y93.220 E0.0002
G1 X138.180 Y93.845 E0.0234
G1 X138.182 Y93.851 E0.0002
G1 X138.208 Y93.947 E0.0036
G1 X138.209 Y93.953 E0.0002
G1 X138.346 Y94.596 E0.0234
G1 X138.347 Y94.601 E0.0002
G1 X138.363 Y94.700 E0.0036
G1 X138.363 Y94.706 E0.0002
G1 X138.432 Y95.360 E0.0234
G1 X138.432 Y95.366 E0.0002
G1 X138.438 Y95.466 E0.0036
G1 X138.438 Y95.471 E0.0002
G1 X138.438 Y96.129 E0.0234
G1 X138.438 Y96.134 E0.0002
G1 X138.432 Y96.234 E0.0036
G1 X138.432 Y96.240 E0.0002
G1 X138.363 Y96.894 E0.0234
G1 X138.363 Y96.900 E0.0002
G1 X138.347 Y96.999 E0.0036
G1 X138.346 Y97.004 E0.0002
G1 X138.209 Y97.647 E0.0234
G1 X138.208 Y97.653 E0.0002
G1 X138.182 Y97.749 E0.0036
G1 X138.180 Y97.755 E0.0002
G1 X137.977 Y98.380 E0.0234
G1 X137.975 Y98.386 E0.0002
G1 X137.939 Y98.479 E0.0036
G1 X137.937 Y98.484 E0.0002
G1 X137.665 Y99.096 E0.0238
G1 X137.661 Y99.103 E0.0003
G1 X137.603 Y99.214 E0.0045
G1 X137.600 Y99.220 E0.0003
G1 X137.091 Y100.049 E0.0346
G1 X137.086 Y100.057 E0.0003
G1 X136.998 Y100.178 E0.0053
G1 X136.993 Y100.185 E0.0003
G1 X136.361 Y100.925 E0.0346
G1 X136.356 Y100.930 E0.0003
G1 X136.269 Y101.020 E0.0045
G1 X136.263 Y101.025 E0.0003
G1 X135.766 Y101.473 E0.0238
G1 X135.761 Y101.477 E0.0002
G1 X135.683 Y101.540 E0.0036
G1 X135.679 Y101.543 E0.0002
G1 X135.137 Y101.937 E0.0238
G1 X135.131 Y101.941 E0.0003
G1 X135.025 Y102.008 E0.0045
G1 X135.019 Y102.012 E0.0003
G1 X134.175 Y102.470 E0.0341
G1 X134.169 Y102.473 E0.0003
G1 X134.055 Y102.525 E0.0045
G1 X134.048 Y102.528 E0.0003
G1 X133.423 Y102.768 E0.0238
G1 X133.417 Y102.770 E0.0002
G1 X133.322 Y102.801 E0.0036
G1 X133.316 Y102.803 E0.0002
G1 X132.667 Y102.977 E0.0239
G1 X132.659 Y102.979 E0.0003
G1 X132.530 Y103.004 E0.0047
G1 X132.522 Y103.005 E0.0003
G1 X131.489 Y103.134 E0.0370
G1 X131.482 Y103.135 E0.0002
G1 X131.363 Y103.142 E0.0042
G1 X131.356 Y103.142 E0.0002
G1 X118.656 Y103.142 E0.4515
G1 X118.650 Y103.142 E0.0002
G1 X118.557 Y103.138 E0.0033
G1 X118.551 Y103.137 E0.0002
G1 X117.804 Y103.063 E0.0267
G1 X117.796 Y103.062 E0.0003
G1 X117.666 Y103.041 E0.0047
G1 X117.659 Y103.039 E0.0003
G1 X116.722 Y102.814 E0.0342
G1 X116.715 Y102.812 E0.0003
G1 X116.596 Y102.775 E0.0045
G1 X116.589 Y102.773 E0.0003
G1 X115.964 Y102.533 E0.0238
G1 X115.958 Y102.530 E0.0002
G1 X115.867 Y102.490 E0.0036
G1 X115.861 Y102.487 E0.0002
G1 X115.265 Y102.183 E0.0238
G1 X115.258 Y102.180 E0.0003
G1 X115.151 Y102.116 E0.0045
G1 X115.145 Y102.112 E0.0003
G1 X114.353 Y101.568 E0.0341
G1 X114.347 Y101.564 E0.0003
G1 X114.249 Y101.486 E0.0045
G1 X114.243 Y101.481 E0.0003
G1 X113.737 Y101.025 E0.0242
G1 X113.731 Y101.020 E0.0003
G1 X113.644 Y100.930 E0.0045
G1 X113.639 Y100.925 E0.0003
G1 X113.015 Y100.195 E0.0341
G1 X113.011 Y100.189 E0.0003
G1 X112.936 Y100.089 E0.0045
G1 X112.932 Y100.082 E0.0003
G1 X112.567 Y99.521 E0.0238
G1 X112.564 Y99.516 E0.0002
G1 X112.514 Y99.429 E0.0036
G1 X112.511 Y99.424 E0.0002
G1 X112.213 Y98.839 E0.0234
G1 X112.210 Y98.833 E0.0002
G1 X112.170 Y98.742 E0.0036
G1 X112.167 Y98.736 E0.0002
G1 X111.932 Y98.123 E0.0234
G1 X111.930 Y98.117 E0.0002
G1 X111.899 Y98.022 E0.0036
G1 X111.897 Y98.016 E0.0002
G1 X111.724 Y97.370 E0.0238
G1 X111.722 Y97.363 E0.0003
G1 X111.698 Y97.240 E0.0045
G1 X111.697 Y97.233 E0.0003
G1 X111.571 Y96.281 E0.0341
G1 X111.571 Y96.273 E0.0003
G1 X111.562 Y96.148 E0.0045
G1 X111.562 Y96.141 E0.0003
G1 X111.562 Y95.459 E0.0242
G1 X111.562 Y95.452 E0.0003
G1 X111.571 Y95.327 E0.0045
G1 X111.571 Y95.319 E0.0003
G1 X111.698 Y94.355 E0.0346
G1 X111.700 Y94.346 E0.0003
G1 X111.731 Y94.199 E0.0053
G1 X111.733 Y94.191 E0.0003
G1 X112.009 Y93.258 E0.0346
G1 X112.012 Y93.251 E0.0003
G1 X112.055 Y93.134 E0.0045
G1 X112.058 Y93.127 E0.0003
G1 X112.330 Y92.515 E0.0238
G1 X112.333 Y92.510 E0.0002
G1 X112.378 Y92.421 E0.0036
G1 X112.381 Y92.416 E0.0002
G1 X112.716 Y91.836 E0.0238
G1 X112.720 Y91.829 E0.0003
G1 X112.789 Y91.725 E0.0045
G1 X112.794 Y91.719 E0.0003
G1 X113.261 Y91.111 E0.0273
G1 X113.378 Y90.958 F1440
G1 X113.383 Y90.952 F1440
G1 E-0.8000 F1800
G1 X117.005 Y107.101 F4800
G1 E0.8000 F1800
G1 X117.561 Y106.975 E0.0203 F1440
G1 X117.567 Y106.974 E0.0002
G1 X117.672 Y106.957 E0.0038
G1 X117.678 Y106.956 E0.0002
G1 X118.491 Y106.865 E0.0291
G1 X118.497 Y106.864 E0.0002
G1 X118.603 Y106.858 E0.0038
G1 X118.609 Y106.858 E0.0002
G1 X131.143 Y106.851 E0.4455
G1 X131.147 Y106.852 E0.0001
G1 X131.214 Y106.854 E0.0024
G1 X131.218 Y106.854 E0.0001
G1 X132.013 Y106.910 E0.0283
G1 X132.020 Y106.910 E0.0003
G1 X132.144 Y106.927 E0.0044
G1 X132.151 Y106.929 E0.0003
G1 X132.962 Y107.093 E0.0294
G1 X132.968 Y107.095 E0.0002
G1 X133.071 Y107.122 E0.0038
G1 X133.077 Y107.123 E0.0002
G1 X133.619 Y107.298 E0.0203
G1 X133.624 Y107.300 E0.0002
G1 X133.704 Y107.330 E0.0030
G1 X133.709 Y107.332 E0.0002
G1 X134.224 Y107.550 E0.0199
G1 X134.228 Y107.552 E0.0002
G1 X134.305 Y107.589 E0.0030
G1 X134.310 Y107.591 E0.0002
G1 X134.803 Y107.854 E0.0199
G1 X134.808 Y107.857 E0.0002
G1 X134.881 Y107.900 E0.0030
G1 X134.885 Y107.903 E0.0002
G1 X135.362 Y108.215 E0.0203
G1 X135.367 Y108.219 E0.0002
G1 X135.453 Y108.282 E0.0038
G1 X135.458 Y108.286 E0.0002
G1 X136.088 Y108.806 E0.0291
G1 X136.093 Y108.811 E0.0002
G1 X136.171 Y108.883 E0.0038
G1 X136.176 Y108.887 E0.0002
G1 X136.572 Y109.297 E0.0203
G1 X136.575 Y109.301 E0.0002
G1 X136.632 Y109.365 E0.0030
G1 X136.635 Y109.368 E0.0002
G1 X136.987 Y109.804 E0.0199
G1 X136.990 Y109.808 E0.0002
G1 X137.040 Y109.876 E0.0030
G1 X137.043 Y109.880 E0.0002
G1 X137.355 Y110.345 E0.0199
G1 X137.357 Y110.349 E0.0002
G1 X137.402 Y110.422 E0.0030
G1 X137.404 Y110.426 E0.0002
G1 X137.678 Y110.926 E0.0203
G1 X137.681 Y110.932 E0.0002
G1 X137.727 Y111.028 E0.0038
G1 X137.729 Y111.034 E0.0002
G1 X138.040 Y111.790 E0.0291
G1 X138.042 Y111.796 E0.0002
G1 X138.077 Y111.896 E0.0038
G1 X138.079 Y111.902 E0.0002
G1 X138.236 Y112.450 E0.0203
G1 X138.237 Y112.455 E0.0002
G1 X138.257 Y112.538 E0.0030
G1 X138.258 Y112.543 E0.0002
G1 X138.365 Y113.103 E0.0203
G1 X138.366 Y113.109 E0.0002
G1 X138.380 Y113.215 E0.0038
G1 X138.381 Y113.221 E0.0002
G1 X138.445 Y114.036 E0.0291
G1 X138.445 Y114.042 E0.0002
G1 X138.447 Y114.149 E0.0038
G1 X138.447 Y114.155 E0.0002
G1 X138.428 Y114.725 E0.0203
G1 X138.428 Y114.730 E0.0002
G1 X138.421 Y114.815 E0.0030
G1 X138.421 Y114.820 E0.0002
G1 X138.351 Y115.386 E0.0203
G1 X138.350 Y115.392 E0.0002
G1 X138.331 Y115.497 E0.0038
G1 X138.330 Y115.503 E0.0002
G1 X138.141 Y116.298 E0.0291
G1 X138.139 Y116.304 E0.0002
G1 X138.109 Y116.406 E0.0038
G1 X138.107 Y116.412 E0.0002
G1 X137.910 Y116.959 E0.0206
G1 X137.908 Y116.964 E0.0002
G1 X137.866 Y117.063 E0.0038
G1 X137.864 Y117.068 E0.0002
G1 X137.503 Y117.802 E0.0291
G1 X137.500 Y117.807 E0.0002
G1 X137.448 Y117.900 E0.0038
G1 X137.445 Y117.906 E0.0002
G1 X137.139 Y118.385 E0.0202
G1 X137.136 Y118.389 E0.0002
G1 X137.087 Y118.459 E0.0030
G1 X137.084 Y118.463 E0.0002
G1 X136.741 Y118.907 E0.0199
G1 X136.738 Y118.911 E0.0002
G1 X136.683 Y118.976 E0.0030
G1 X136.680 Y118.980 E0.0002
G1 X136.300 Y119.391 E0.0199
G1 X136.296 Y119.394 E0.0002
G1 X136.236 Y119.454 E0.0030
G1 X136.232 Y119.457 E0.0002
G1 X135.809 Y119.840 E0.0203
G1 X135.805 Y119.844 E0.0002
G1 X135.722 Y119.911 E0.0038
G1 X135.717 Y119.915 E0.0002
