; G-Code generated by Simplify3D(R) Version 4.0.0
; May 4, 2018 at 9:12:13 PM
; Settings Summary
;   processName,Process1
;   applyToModels,sensor-weather-protector-bottom
;   profileName,Original Prusa i3 MK2 RC4 (modified)
;   profileVersion,2016-08-30 14:21:19
;   baseProfile,Prusa Mendel (modified)
;   printMaterial,PLA
;   printQuality,FAST 0.3mm
;   printExtruders,
;   extruderName,Primary Extruder
;   extruderToolheadNumber,0
;   extruderDiameter,0.4
;   extruderAutoWidth,1
;   extruderWidth,0.48
;   extrusionMultiplier,1
;   extruderUseRetract,1
;   extruderRetractionDistance,0.8
;   extruderExtraRestartDistance,0
;   extruderRetractionZLift,0
;   extruderRetractionSpeed,1800
;   extruderUseCoasting,1
;   extruderCoastingDistance,0.2
;   extruderUseWipe,1
;   extruderWipeDistance,2
;   primaryExtruder,0
;   layerHeight,0.3
;   topSolidLayers,4
;   bottomSolidLayers,4
;   perimeterOutlines,3
;   printPerimetersInsideOut,1
;   startPointOption,2
;   startPointOriginX,0
;   startPointOriginY,0
;   sequentialIslands,0
;   spiralVaseMode,0
;   firstLayerHeightPercentage,66
;   firstLayerWidthPercentage,95
;   firstLayerUnderspeed,0.6
;   useRaft,0
;   raftExtruder,0
;   raftTopLayers,3
;   raftBaseLayers,2
;   raftOffset,3
;   raftSeparationDistance,0.14
;   raftTopInfill,100
;   aboveRaftSpeedMultiplier,0.3
;   useSkirt,1
;   skirtExtruder,0
;   skirtLayers,1
;   skirtOutlines,1
;   skirtOffset,4
;   usePrimePillar,0
;   primePillarExtruder,999
;   primePillarWidth,12
;   primePillarLocation,7
;   primePillarSpeedMultiplier,1
;   useOozeShield,0
;   oozeShieldExtruder,999
;   oozeShieldOffset,2
;   oozeShieldOutlines,1
;   oozeShieldSidewallShape,1
;   oozeShieldSidewallAngle,30
;   oozeShieldSpeedMultiplier,1
;   infillExtruder,0
;   internalInfillPattern,Rectilinear
;   externalInfillPattern,Rectilinear
;   infillPercentage,10
;   outlineOverlapPercentage,21
;   infillExtrusionWidthPercentage,100
;   minInfillLength,2
;   infillLayerInterval,1
;   internalInfillAngles,45,-45
;   overlapInternalInfillAngles,0
;   externalInfillAngles,45,-45
;   generateSupport,0
;   supportExtruder,0
;   supportInfillPercentage,30
;   supportExtraInflation,1.4
;   supportBaseLayers,0
;   denseSupportExtruder,0
;   denseSupportLayers,0
;   denseSupportInfillPercentage,70
;   supportLayerInterval,1
;   supportHorizontalPartOffset,0.2
;   supportUpperSeparationLayers,1
;   supportLowerSeparationLayers,1
;   supportType,0
;   supportGridSpacing,4
;   maxOverhangAngle,45
;   supportAngles,0
;   temperatureName,Primary Extruder,Heated Bed
;   temperatureNumber,0,1
;   temperatureSetpointCount,1,1
;   temperatureSetpointLayers,1,1
;   temperatureSetpointTemperatures,215,55
;   temperatureStabilizeAtStartup,1,1
;   temperatureHeatedBed,0,1
;   temperatureRelayBetweenLayers,0,0
;   temperatureRelayBetweenLoops,0,0
;   fanLayers,1,2
;   fanSpeeds,0,100
;   blipFanToFullPower,1
;   adjustSpeedForCooling,1
;   minSpeedLayerTime,15
;   minCoolingSpeedSlowdown,5
;   increaseFanForCooling,0
;   minFanLayerTime,45
;   maxCoolingFanSpeed,100
;   increaseFanForBridging,1
;   bridgingFanSpeed,100
;   use5D,1
;   relativeEdistances,1
;   allowEaxisZeroing,1
;   independentExtruderAxes,0
;   includeM10123,0
;   stickySupport,1
;   applyToolheadOffsets,0
;   gcodeXoffset,0
;   gcodeYoffset,0
;   gcodeZoffset,0
;   overrideMachineDefinition,1
;   machineTypeOverride,0
;   strokeXoverride,250
;   strokeYoverride,210
;   strokeZoverride,200
;   originOffsetXoverride,0
;   originOffsetYoverride,0
;   originOffsetZoverride,0
;   homeXdirOverride,-1
;   homeYdirOverride,-1
;   homeZdirOverride,-1
;   flipXoverride,1
;   flipYoverride,-1
;   flipZoverride,1
;   toolheadOffsets,0,0|0,0|0,0|0,0|0,0|0,0
;   overrideFirmwareConfiguration,0
;   firmwareTypeOverride,RepRap (Marlin/Repetier/Sprinter)
;   GPXconfigOverride,r2
;   baudRateOverride,250000
;   overridePrinterModels,1
;   printerModelsOverride
;   startingGcode,M115 U3.0.7 ; tell the printer latest firmware varsion available,G28 W ; home all without mesh bed level,G80 ; mesh bed leveling,G1 Y-3.0 F1000.0 ; go outside printing area,G1 X60.0 E9.0  F1000.0 ; intro line,G1 X100.0 E12.5  F1000.0 ; intro line
;   layerChangeGcode,
;   retractionGcode,
;   toolChangeGcode,
;   endingGcode,M104 S0 ; turn off temperature,M140 S0 ; turn off heatbed,M107 ; turn off fan,G1 X0 Y200; home X axis,M84 ; disable motors
;   exportFileFormat,gcode
;   celebration,0
;   celebrationSong,Random Song
;   postProcessing,{REPLACE "; outer perimeter\n" "; outer perimeter\nM204 S600\n"},{REPLACE "; inner perimeter\n" "; inner perimeter\nM204 S1200\n"},{REPLACE "; solid layer\n" "; solid layer\nM204 S1500\n"},{REPLACE "; infill\n" "; infill\nM204 S2000\n"}
;   defaultSpeed,2400
;   outlineUnderspeed,1
;   solidInfillUnderspeed,0.8
;   supportUnderspeed,0.8
;   rapidXYspeed,4800
;   rapidZspeed,1002
;   minBridgingArea,50
;   bridgingExtraInflation,1
;   bridgingExtrusionMultiplier,1
;   bridgingSpeedMultiplier,1
;   useFixedBridgingAngle,0
;   fixedBridgingAngle,0
;   applyBridgingToPerimeters,0
;   filamentDiameters,1.75|1.75|1.75|1.75|1.75|1.75
;   filamentPricesPerKg,215|215|215|215|215|215
;   filamentDensities,1.25|1.25|1.25|1.25|1.25|1.25
;   useMinPrintHeight,0
;   minPrintHeight,0
;   useMaxPrintHeight,0
;   maxPrintHeight,0
;   useDiaphragm,0
;   diaphragmLayerInterval,20
;   robustSlicing,1
;   mergeAllIntoSolid,0
;   onlyRetractWhenCrossingOutline,0
;   retractBetweenLayers,1
;   useRetractionMinTravel,1
;   retractionMinTravel,3
;   retractWhileWiping,1
;   onlyWipeOutlines,1
;   avoidCrossingOutline,0
;   maxMovementDetourFactor,3
;   toolChangeRetractionDistance,12
;   toolChangeExtraRestartDistance,-0.5
;   toolChangeRetractionSpeed,600
;   externalThinWallType,0
;   internalThinWallType,2
;   thinWallAllowedOverlapPercentage,25
;   singleExtrusionMinLength,1
;   singleExtrusionMinPrintingWidthPercentage,50
;   singleExtrusionMaxPrintingWidthPercentage,200
;   singleExtrusionEndpointExtension,0.2
;   horizontalSizeCompensation,0
G90
M83
M106 S255
G4 P500
M106 S0
M140 S55
M190 S55
M104 S215 T0
M109 S215 T0
M115 U3.0.7 ; tell the printer latest firmware varsion available
G28 W ; home all without mesh bed level
G80 ; mesh bed leveling
G1 Y-3.0 F1000.0 ; go outside printing area
G1 X60.0 E9.0  F1000.0 ; intro line
G1 X100.0 E12.5  F1000.0 ; intro line
G1 E-0.8000 F1800
G1 Z0.198 F1002
; process Process1
; layer 1, Z = 0.198
T0
; tool H0.300 W0.456
; skirt
G1 X78.130 Y42.331 F4800
G1 E0.8000 F540
G1 X79.764 Y39.568 E0.1826 F1440
G1 X79.766 Y39.564 E0.0002
G1 X79.835 Y39.456 E0.0073
G1 X79.837 Y39.453 E0.0002
G1 X81.657 Y36.772 E0.1843
G1 X81.660 Y36.769 E0.0002
G1 X81.736 Y36.664 E0.0074
G1 X81.738 Y36.660 E0.0002
G1 X83.706 Y34.124 E0.1826
G1 X83.709 Y34.121 E0.0002
G1 X83.791 Y34.021 E0.0073
G1 X83.793 Y34.019 E0.0002
G1 X85.935 Y31.587 E0.1843
G1 X85.938 Y31.584 E0.0002
G1 X86.027 Y31.490 E0.0074
G1 X86.030 Y31.487 E0.0002
G1 X88.300 Y29.217 E0.1826
G1 X88.302 Y29.214 E0.0002
G1 X88.396 Y29.126 E0.0073
G1 X88.399 Y29.123 E0.0002
G1 X90.818 Y26.990 E0.1834
G1 X90.820 Y26.987 E0.0002
G1 X90.920 Y26.905 E0.0074
G1 X90.923 Y26.902 E0.0002
G1 X93.483 Y24.915 E0.1843
G1 X93.486 Y24.913 E0.0002
G1 X93.592 Y24.837 E0.0074
G1 X93.595 Y24.834 E0.0002
G1 X96.250 Y23.030 E0.1826
G1 X96.253 Y23.028 E0.0002
G1 X96.362 Y22.959 E0.0073
G1 X96.365 Y22.957 E0.0002
G1 X99.154 Y21.306 E0.1843
G1 X99.157 Y21.305 E0.0002
G1 X99.271 Y21.242 E0.0074
G1 X99.274 Y21.240 E0.0002
G1 X102.135 Y19.782 E0.1826
G1 X102.138 Y19.781 E0.0002
G1 X102.255 Y19.726 E0.0073
G1 X102.258 Y19.724 E0.0002
G1 X105.232 Y18.437 E0.1843
G1 X105.236 Y18.435 E0.0002
G1 X105.356 Y18.387 E0.0074
G1 X105.360 Y18.386 E0.0002
G1 X108.395 Y17.293 E0.1835
G1 X108.399 Y17.292 E0.0002
G1 X108.522 Y17.252 E0.0074
G1 X108.525 Y17.251 E0.0002
G1 X111.623 Y16.351 E0.1834
G1 X111.626 Y16.350 E0.0002
G1 X111.752 Y16.318 E0.0074
G1 X111.755 Y16.317 E0.0002
G1 X114.889 Y15.617 E0.1826
G1 X114.892 Y15.616 E0.0002
G1 X115.019 Y15.592 E0.0073
G1 X115.022 Y15.591 E0.0002
G1 X118.223 Y15.083 E0.1843
G1 X118.226 Y15.083 E0.0002
G1 X118.356 Y15.066 E0.0074
G1 X118.359 Y15.066 E0.0002
G1 X121.571 Y14.762 E0.1835
G1 X121.575 Y14.762 E0.0002
G1 X121.704 Y14.754 E0.0074
G1 X121.708 Y14.754 E0.0002
G1 X124.916 Y14.653 E0.1826
G1 X124.920 Y14.653 E0.0002
G1 X125.049 Y14.653 E0.0073
G1 X125.053 Y14.653 E0.0002
G1 X128.291 Y14.754 E0.1843
G1 X128.295 Y14.754 E0.0002
G1 X128.425 Y14.762 E0.0074
G1 X128.429 Y14.762 E0.0002
G1 X131.625 Y15.064 E0.1826
G1 X131.629 Y15.065 E0.0002
G1 X131.757 Y15.081 E0.0073
G1 X131.760 Y15.081 E0.0002
G1 X134.946 Y15.585 E0.1834
G1 X134.950 Y15.586 E0.0002
G1 X135.077 Y15.610 E0.0074
G1 X135.081 Y15.611 E0.0002
G1 X138.244 Y16.317 E0.1843
G1 X138.247 Y16.318 E0.0002
G1 X138.373 Y16.350 E0.0074
G1 X138.377 Y16.351 E0.0002
G1 X141.460 Y17.247 E0.1826
G1 X141.464 Y17.248 E0.0002
G1 X141.586 Y17.288 E0.0073
G1 X141.590 Y17.289 E0.0002
G1 X144.624 Y18.380 E0.1834
G1 X144.628 Y18.382 E0.0002
G1 X144.748 Y18.429 E0.0074
G1 X144.752 Y18.431 E0.0002
G1 X147.712 Y19.711 E0.1835
G1 X147.716 Y19.712 E0.0002
G1 X147.833 Y19.767 E0.0074
G1 X147.836 Y19.769 E0.0002
G1 X150.724 Y21.240 E0.1843
G1 X150.728 Y21.241 E0.0002
G1 X150.842 Y21.304 E0.0074
G1 X150.845 Y21.306 E0.0002
G1 X153.609 Y22.940 E0.1826
G1 X153.612 Y22.942 E0.0002
G1 X153.720 Y23.011 E0.0073
G1 X153.724 Y23.013 E0.0002
G1 X156.404 Y24.834 E0.1843
G1 X156.407 Y24.836 E0.0002
G1 X156.513 Y24.912 E0.0074
G1 X156.516 Y24.915 E0.0002
G1 X159.053 Y26.882 E0.1826
G1 X159.056 Y26.885 E0.0002
G1 X159.155 Y26.967 E0.0073
G1 X159.158 Y26.969 E0.0002
G1 X161.589 Y29.112 E0.1843
G1 X161.592 Y29.114 E0.0002
G1 X161.687 Y29.203 E0.0074
G1 X161.689 Y29.206 E0.0002
G1 X163.970 Y31.487 E0.1835
G1 X163.973 Y31.489 E0.0002
G1 X164.061 Y31.584 E0.0074
G1 X164.064 Y31.587 E0.0002
G1 X166.187 Y33.995 E0.1826
G1 X166.189 Y33.997 E0.0002
G1 X166.272 Y34.097 E0.0073
G1 X166.274 Y34.100 E0.0002
G1 X168.261 Y36.659 E0.1843
G1 X168.263 Y36.663 E0.0002
G1 X168.340 Y36.768 E0.0074
G1 X168.342 Y36.771 E0.0002
G1 X170.146 Y39.426 E0.1826
G1 X170.148 Y39.430 E0.0002
G1 X170.217 Y39.538 E0.0073
G1 X170.219 Y39.541 E0.0002
G1 X171.870 Y42.330 E0.1843
G1 X171.872 Y42.333 E0.0002
G1 X171.934 Y42.447 E0.0074
G1 X171.936 Y42.451 E0.0002
G1 X173.394 Y45.311 E0.1826
G1 X173.395 Y45.315 E0.0002
G1 X173.450 Y45.431 E0.0073
G1 X173.452 Y45.435 E0.0002
G1 X174.740 Y48.408 E0.1843
G1 X174.741 Y48.412 E0.0002
G1 X174.789 Y48.533 E0.0074
G1 X174.790 Y48.536 E0.0002
G1 X175.883 Y51.571 E0.1835
G1 X175.884 Y51.575 E0.0002
G1 X175.924 Y51.698 E0.0074
G1 X175.925 Y51.702 E0.0002
G1 X176.825 Y54.799 E0.1834
G1 X176.826 Y54.803 E0.0002
G1 X176.858 Y54.928 E0.0074
G1 X176.859 Y54.932 E0.0002
G1 X177.560 Y58.065 E0.1826
G1 X177.560 Y58.068 E0.0002
G1 X177.584 Y58.195 E0.0073
G1 X177.585 Y58.199 E0.0002
G1 X178.093 Y61.399 E0.1843
G1 X178.094 Y61.403 E0.0002
G1 X178.110 Y61.532 E0.0074
G1 X178.110 Y61.536 E0.0002
G1 X178.414 Y64.747 E0.1835
G1 X178.414 Y64.751 E0.0002
G1 X178.422 Y64.880 E0.0074
G1 X178.422 Y64.884 E0.0002
G1 X178.523 Y68.092 E0.1826
G1 X178.523 Y68.096 E0.0002
G1 X178.523 Y68.225 E0.0073
G1 X178.523 Y68.229 E0.0002
G1 X178.423 Y71.468 E0.1843
G1 X178.422 Y71.472 E0.0002
G1 X178.414 Y71.601 E0.0074
G1 X178.414 Y71.605 E0.0002
G1 X178.112 Y74.801 E0.1826
G1 X178.111 Y74.805 E0.0002
G1 X178.095 Y74.933 E0.0073
G1 X178.095 Y74.937 E0.0002
G1 X177.591 Y78.122 E0.1834
G1 X177.590 Y78.126 E0.0002
G1 X177.566 Y78.253 E0.0074
G1 X177.566 Y78.257 E0.0002
G1 X176.860 Y81.420 E0.1843
G1 X176.859 Y81.423 E0.0002
G1 X176.826 Y81.550 E0.0074
G1 X176.825 Y81.553 E0.0002
G1 X175.930 Y84.636 E0.1826
G1 X175.928 Y84.640 E0.0002
G1 X175.889 Y84.762 E0.0073
G1 X175.887 Y84.766 E0.0002
G1 X174.796 Y87.801 E0.1834
G1 X174.795 Y87.804 E0.0002
G1 X174.747 Y87.925 E0.0074
G1 X174.746 Y87.928 E0.0002
G1 X173.465 Y90.889 E0.1835
G1 X173.464 Y90.892 E0.0002
G1 X173.409 Y91.009 E0.0074
G1 X173.407 Y91.013 E0.0002
G1 X171.937 Y93.901 E0.1843
G1 X171.935 Y93.904 E0.0002
G1 X171.872 Y94.018 E0.0074
G1 X171.870 Y94.021 E0.0002
G1 X170.236 Y96.785 E0.1826
G1 X170.234 Y96.788 E0.0002
G1 X170.165 Y96.897 E0.0073
G1 X170.163 Y96.900 E0.0002
G1 X168.343 Y99.581 E0.1843
G1 X168.340 Y99.584 E0.0002
G1 X168.264 Y99.689 E0.0074
G1 X168.262 Y99.692 E0.0002
G1 X166.294 Y102.229 E0.1826
G1 X166.291 Y102.232 E0.0002
G1 X166.209 Y102.331 E0.0073
G1 X166.207 Y102.334 E0.0002
G1 X164.065 Y104.765 E0.1843
G1 X164.062 Y104.768 E0.0002
G1 X163.973 Y104.863 E0.0074
G1 X163.970 Y104.865 E0.0002
G1 X161.700 Y107.136 E0.1826
G1 X161.698 Y107.138 E0.0002
G1 X161.604 Y107.226 E0.0073
G1 X161.601 Y107.229 E0.0002
G1 X159.182 Y109.363 E0.1834
G1 X159.180 Y109.365 E0.0002
G1 X159.080 Y109.448 E0.0074
G1 X159.077 Y109.450 E0.0002
G1 X156.517 Y111.437 E0.1843
G1 X156.514 Y111.439 E0.0002
G1 X156.408 Y111.516 E0.0074
G1 X156.405 Y111.518 E0.0002
G1 X153.750 Y113.323 E0.1826
G1 X153.747 Y113.325 E0.0002
G1 X153.638 Y113.394 E0.0073
G1 X153.635 Y113.396 E0.0002
G1 X150.846 Y115.046 E0.1843
G1 X150.843 Y115.048 E0.0002
G1 X150.729 Y115.111 E0.0074
G1 X150.726 Y115.112 E0.0002
G1 X147.865 Y116.570 E0.1826
G1 X147.862 Y116.572 E0.0002
G1 X147.745 Y116.627 E0.0073
G1 X147.742 Y116.628 E0.0002
G1 X144.768 Y117.916 E0.1843
G1 X144.764 Y117.917 E0.0002
G1 X144.644 Y117.965 E0.0074
G1 X144.640 Y117.967 E0.0002
G1 X141.605 Y119.059 E0.1835
G1 X141.601 Y119.060 E0.0002
G1 X141.478 Y119.100 E0.0074
G1 X141.475 Y119.102 E0.0002
G1 X138.377 Y120.001 E0.1834
G1 X138.374 Y120.002 E0.0002
G1 X138.248 Y120.035 E0.0074
G1 X138.244 Y120.036 E0.0002
G1 X135.111 Y120.736 E0.1826
G1 X135.108 Y120.737 E0.0002
G1 X134.981 Y120.761 E0.0073
G1 X134.978 Y120.761 E0.0002
G1 X131.777 Y121.269 E0.1843
G1 X131.773 Y121.270 E0.0002
G1 X131.644 Y121.286 E0.0074
G1 X131.641 Y121.287 E0.0002
G1 X128.429 Y121.590 E0.1835
G1 X128.425 Y121.590 E0.0002
G1 X128.296 Y121.599 E0.0074
G1 X128.292 Y121.599 E0.0002
G1 X125.084 Y121.700 E0.1826
G1 X125.080 Y121.700 E0.0002
G1 X124.951 Y121.700 E0.0073
G1 X124.947 Y121.700 E0.0002
G1 X121.709 Y121.599 E0.1843
G1 X121.705 Y121.599 E0.0002
G1 X121.575 Y121.590 E0.0074
G1 X121.571 Y121.590 E0.0002
G1 X118.375 Y121.288 E0.1826
G1 X118.371 Y121.288 E0.0002
G1 X118.243 Y121.272 E0.0073
G1 X118.240 Y121.271 E0.0002
G1 X115.054 Y120.767 E0.1834
G1 X115.050 Y120.767 E0.0002
G1 X114.923 Y120.743 E0.0074
G1 X114.919 Y120.742 E0.0002
G1 X111.756 Y120.036 E0.1843
G1 X111.753 Y120.035 E0.0002
G1 X111.627 Y120.003 E0.0074
G1 X111.623 Y120.002 E0.0002
G1 X108.540 Y119.106 E0.1826
G1 X108.536 Y119.105 E0.0002
G1 X108.414 Y119.065 E0.0073
G1 X108.410 Y119.064 E0.0002
G1 X105.376 Y117.972 E0.1834
G1 X105.372 Y117.971 E0.0002
G1 X105.252 Y117.923 E0.0074
G1 X105.248 Y117.922 E0.0002
G1 X102.288 Y116.642 E0.1835
G1 X102.284 Y116.640 E0.0002
G1 X102.167 Y116.585 E0.0074
G1 X102.163 Y116.583 E0.0002
G1 X99.276 Y115.113 E0.1843
G1 X99.272 Y115.111 E0.0002
G1 X99.158 Y115.049 E0.0074
G1 X99.155 Y115.047 E0.0002
G1 X96.391 Y113.412 E0.1826
G1 X96.388 Y113.410 E0.0002
G1 X96.280 Y113.341 E0.0073
G1 X96.276 Y113.339 E0.0002
G1 X93.596 Y111.519 E0.1843
G1 X93.593 Y111.517 E0.0002
G1 X93.487 Y111.440 E0.0074
G1 X93.484 Y111.438 E0.0002
G1 X90.947 Y109.470 E0.1826
G1 X90.944 Y109.468 E0.0002
G1 X90.845 Y109.386 E0.0073
G1 X90.842 Y109.383 E0.0002
G1 X88.411 Y107.241 E0.1843
G1 X88.408 Y107.238 E0.0002
G1 X88.313 Y107.149 E0.0074
G1 X88.311 Y107.147 E0.0002
G1 X86.030 Y104.866 E0.1835
G1 X86.027 Y104.863 E0.0002
G1 X85.939 Y104.769 E0.0074
G1 X85.936 Y104.766 E0.0002
G1 X83.813 Y102.358 E0.1826
G1 X83.811 Y102.355 E0.0002
G1 X83.728 Y102.256 E0.0073
G1 X83.726 Y102.253 E0.0002
G1 X81.739 Y99.693 E0.1843
G1 X81.737 Y99.690 E0.0002
G1 X81.660 Y99.585 E0.0074
G1 X81.658 Y99.582 E0.0002
G1 X79.854 Y96.926 E0.1826
G1 X79.852 Y96.923 E0.0002
G1 X79.783 Y96.814 E0.0073
G1 X79.781 Y96.811 E0.0002
G1 X78.130 Y94.022 E0.1843
G1 X78.128 Y94.019 E0.0002
G1 X78.066 Y93.905 E0.0074
G1 X78.064 Y93.902 E0.0002
G1 X76.606 Y91.041 E0.1826
