; G-Code generated by Simplify3D(R) Version 4.0.0
; May 4, 2018 at 5:32:42 PM
; Settings Summary
;   processName,Process1
;   applyToModels,sensor-weather-protector-middle
;   profileName,Original Prusa i3 MK2 RC4 (modified)
;   profileVersion,2016-08-30 14:21:19
;   baseProfile,Prusa Mendel (modified)
;   printMaterial,PLA
;   printQuality,FAST 0.3mm
;   printExtruders,
;   extruderName,Primary Extruder
;   extruderToolheadNumber,0
;   extruderDiameter,0.4
;   extruderAutoWidth,1
;   extruderWidth,0.48
;   extrusionMultiplier,1
;   extruderUseRetract,1
;   extruderRetractionDistance,0.8
;   extruderExtraRestartDistance,0
;   extruderRetractionZLift,0
;   extruderRetractionSpeed,1800
;   extruderUseCoasting,1
;   extruderCoastingDistance,0.2
;   extruderUseWipe,1
;   extruderWipeDistance,2
;   primaryExtruder,0
;   layerHeight,0.3
;   topSolidLayers,4
;   bottomSolidLayers,4
;   perimeterOutlines,3
;   printPerimetersInsideOut,1
;   startPointOption,2
;   startPointOriginX,0
;   startPointOriginY,0
;   sequentialIslands,0
;   spiralVaseMode,0
;   firstLayerHeightPercentage,66
;   firstLayerWidthPercentage,95
;   firstLayerUnderspeed,0.6
;   useRaft,0
;   raftExtruder,0
;   raftTopLayers,3
;   raftBaseLayers,2
;   raftOffset,3
;   raftSeparationDistance,0.14
;   raftTopInfill,100
;   aboveRaftSpeedMultiplier,0.3
;   useSkirt,1
;   skirtExtruder,0
;   skirtLayers,1
;   skirtOutlines,1
;   skirtOffset,4
;   usePrimePillar,0
;   primePillarExtruder,999
;   primePillarWidth,12
;   primePillarLocation,7
;   primePillarSpeedMultiplier,1
;   useOozeShield,0
;   oozeShieldExtruder,999
;   oozeShieldOffset,2
;   oozeShieldOutlines,1
;   oozeShieldSidewallShape,1
;   oozeShieldSidewallAngle,30
;   oozeShieldSpeedMultiplier,1
;   infillExtruder,0
;   internalInfillPattern,Rectilinear
;   externalInfillPattern,Rectilinear
;   infillPercentage,10
;   outlineOverlapPercentage,21
;   infillExtrusionWidthPercentage,100
;   minInfillLength,2
;   infillLayerInterval,1
;   internalInfillAngles,45,-45
;   overlapInternalInfillAngles,0
;   externalInfillAngles,45,-45
;   generateSupport,0
;   supportExtruder,0
;   supportInfillPercentage,30
;   supportExtraInflation,1.4
;   supportBaseLayers,0
;   denseSupportExtruder,0
;   denseSupportLayers,0
;   denseSupportInfillPercentage,70
;   supportLayerInterval,1
;   supportHorizontalPartOffset,0.2
;   supportUpperSeparationLayers,1
;   supportLowerSeparationLayers,1
;   supportType,0
;   supportGridSpacing,4
;   maxOverhangAngle,45
;   supportAngles,0
;   temperatureName,Primary Extruder,Heated Bed
;   temperatureNumber,0,1
;   temperatureSetpointCount,1,1
;   temperatureSetpointLayers,1,1
;   temperatureSetpointTemperatures,215,55
;   temperatureStabilizeAtStartup,1,1
;   temperatureHeatedBed,0,1
;   temperatureRelayBetweenLayers,0,0
;   temperatureRelayBetweenLoops,0,0
;   fanLayers,1,2
;   fanSpeeds,0,100
;   blipFanToFullPower,1
;   adjustSpeedForCooling,1
;   minSpeedLayerTime,15
;   minCoolingSpeedSlowdown,5
;   increaseFanForCooling,0
;   minFanLayerTime,45
;   maxCoolingFanSpeed,100
;   increaseFanForBridging,1
;   bridgingFanSpeed,100
;   use5D,1
;   relativeEdistances,1
;   allowEaxisZeroing,1
;   independentExtruderAxes,0
;   includeM10123,0
;   stickySupport,1
;   applyToolheadOffsets,0
;   gcodeXoffset,0
;   gcodeYoffset,0
;   gcodeZoffset,0
;   overrideMachineDefinition,1
;   machineTypeOverride,0
;   strokeXoverride,250
;   strokeYoverride,210
;   strokeZoverride,200
;   originOffsetXoverride,0
;   originOffsetYoverride,0
;   originOffsetZoverride,0
;   homeXdirOverride,-1
;   homeYdirOverride,-1
;   homeZdirOverride,-1
;   flipXoverride,1
;   flipYoverride,-1
;   flipZoverride,1
;   toolheadOffsets,0,0|0,0|0,0|0,0|0,0|0,0
;   overrideFirmwareConfiguration,0
;   firmwareTypeOverride,RepRap (Marlin/Repetier/Sprinter)
;   GPXconfigOverride,r2
;   baudRateOverride,250000
;   overridePrinterModels,1
;   printerModelsOverride
;   startingGcode,M115 U3.0.7 ; tell the printer latest firmware varsion available,G28 W ; home all without mesh bed level,G80 ; mesh bed leveling,G1 Y-3.0 F1000.0 ; go outside printing area,G1 X60.0 E9.0  F1000.0 ; intro line,G1 X100.0 E12.5  F1000.0 ; intro line
;   layerChangeGcode,
;   retractionGcode,
;   toolChangeGcode,
;   endingGcode,M104 S0 ; turn off temperature,M140 S0 ; turn off heatbed,M107 ; turn off fan,G1 X0 Y200; home X axis,M84 ; disable motors
;   exportFileFormat,gcode
;   celebration,0
;   celebrationSong,Random Song
;   postProcessing,{REPLACE "; outer perimeter\n" "; outer perimeter\nM204 S600\n"},{REPLACE "; inner perimeter\n" "; inner perimeter\nM204 S1200\n"},{REPLACE "; solid layer\n" "; solid layer\nM204 S1500\n"},{REPLACE "; infill\n" "; infill\nM204 S2000\n"}
;   defaultSpeed,2400
;   outlineUnderspeed,1
;   solidInfillUnderspeed,0.8
;   supportUnderspeed,0.8
;   rapidXYspeed,4800
;   rapidZspeed,1002
;   minBridgingArea,50
;   bridgingExtraInflation,1
;   bridgingExtrusionMultiplier,1
;   bridgingSpeedMultiplier,1
;   useFixedBridgingAngle,0
;   fixedBridgingAngle,0
;   applyBridgingToPerimeters,0
;   filamentDiameters,1.75|1.75|1.75|1.75|1.75|1.75
;   filamentPricesPerKg,215|215|215|215|215|215
;   filamentDensities,1.25|1.25|1.25|1.25|1.25|1.25
;   useMinPrintHeight,0
;   minPrintHeight,0
;   useMaxPrintHeight,0
;   maxPrintHeight,0
;   useDiaphragm,0
;   diaphragmLayerInterval,20
;   robustSlicing,1
;   mergeAllIntoSolid,0
;   onlyRetractWhenCrossingOutline,0
;   retractBetweenLayers,1
;   useRetractionMinTravel,1
;   retractionMinTravel,3
;   retractWhileWiping,1
;   onlyWipeOutlines,1
;   avoidCrossingOutline,0
;   maxMovementDetourFactor,3
;   toolChangeRetractionDistance,12
;   toolChangeExtraRestartDistance,-0.5
;   toolChangeRetractionSpeed,600
;   externalThinWallType,0
;   internalThinWallType,2
;   thinWallAllowedOverlapPercentage,25
;   singleExtrusionMinLength,1
;   singleExtrusionMinPrintingWidthPercentage,50
;   singleExtrusionMaxPrintingWidthPercentage,200
;   singleExtrusionEndpointExtension,0.2
;   horizontalSizeCompensation,0
G90
M83
M106 S255
G4 P500
M106 S0
M140 S55
M190 S55
M104 S215 T0
M109 S215 T0
M115 U3.0.7 ; tell the printer latest firmware varsion available
G28 W ; home all without mesh bed level
G80 ; mesh bed leveling
G1 Y-3.0 F1000.0 ; go outside printing area
G1 X60.0 E9.0  F1000.0 ; intro line
G1 X100.0 E12.5  F1000.0 ; intro line
G1 E-0.8000 F1800
G1 Z0.198 F1002
; process Process1
; layer 1, Z = 0.198
T0
; tool H0.300 W0.456
; skirt
G1 X78.130 Y45.225 F4800
G1 E0.8000 F540
G1 X79.764 Y42.461 E0.1826 F1440
G1 X79.766 Y42.458 E0.0002
G1 X79.835 Y42.350 E0.0073
G1 X79.837 Y42.346 E0.0002
G1 X81.657 Y39.666 E0.1843
G1 X81.660 Y39.663 E0.0002
G1 X81.736 Y39.557 E0.0074
G1 X81.738 Y39.554 E0.0002
G1 X83.706 Y37.017 E0.1826
G1 X83.709 Y37.014 E0.0002
G1 X83.791 Y36.915 E0.0073
G1 X83.793 Y36.912 E0.0002
G1 X85.935 Y34.481 E0.1843
G1 X85.938 Y34.478 E0.0002
G1 X86.027 Y34.383 E0.0074
G1 X86.030 Y34.381 E0.0002
G1 X88.300 Y32.111 E0.1826
G1 X88.302 Y32.108 E0.0002
G1 X88.396 Y32.020 E0.0073
G1 X88.399 Y32.017 E0.0002
G1 X90.818 Y29.884 E0.1834
G1 X90.820 Y29.881 E0.0002
G1 X90.920 Y29.799 E0.0074
G1 X90.923 Y29.796 E0.0002
G1 X93.483 Y27.809 E0.1843
G1 X93.486 Y27.807 E0.0002
G1 X93.592 Y27.730 E0.0074
G1 X93.595 Y27.728 E0.0002
G1 X96.250 Y25.924 E0.1826
G1 X96.253 Y25.922 E0.0002
G1 X96.362 Y25.853 E0.0073
G1 X96.365 Y25.851 E0.0002
G1 X99.154 Y24.200 E0.1843
G1 X99.157 Y24.198 E0.0002
G1 X99.271 Y24.136 E0.0074
G1 X99.274 Y24.134 E0.0002
G1 X102.135 Y22.676 E0.1826
G1 X102.138 Y22.675 E0.0002
G1 X102.255 Y22.620 E0.0073
G1 X102.258 Y22.618 E0.0002
G1 X105.232 Y21.330 E0.1843
G1 X105.236 Y21.329 E0.0002
G1 X105.356 Y21.281 E0.0074
G1 X105.360 Y21.280 E0.0002
G1 X108.395 Y20.187 E0.1835
G1 X108.399 Y20.186 E0.0002
G1 X108.522 Y20.146 E0.0074
G1 X108.525 Y20.145 E0.0002
G1 X111.623 Y19.245 E0.1834
G1 X111.626 Y19.244 E0.0002
G1 X111.752 Y19.212 E0.0074
G1 X111.755 Y19.211 E0.0002
G1 X114.889 Y18.510 E0.1826
G1 X114.892 Y18.510 E0.0002
G1 X115.019 Y18.485 E0.0073
G1 X115.022 Y18.485 E0.0002
G1 X118.223 Y17.977 E0.1843
G1 X118.226 Y17.976 E0.0002
G1 X118.356 Y17.960 E0.0074
G1 X118.359 Y17.960 E0.0002
G1 X121.571 Y17.656 E0.1835
G1 X121.575 Y17.656 E0.0002
G1 X121.704 Y17.648 E0.0074
G1 X121.708 Y17.648 E0.0002
G1 X124.916 Y17.547 E0.1826
G1 X124.920 Y17.547 E0.0002
G1 X125.049 Y17.547 E0.0073
G1 X125.053 Y17.547 E0.0002
G1 X128.291 Y17.647 E0.1843
G1 X128.295 Y17.648 E0.0002
G1 X128.425 Y17.656 E0.0074
G1 X128.429 Y17.656 E0.0002
G1 X131.625 Y17.958 E0.1826
G1 X131.629 Y17.959 E0.0002
G1 X131.757 Y17.975 E0.0073
G1 X131.760 Y17.975 E0.0002
G1 X134.946 Y18.479 E0.1834
G1 X134.950 Y18.480 E0.0002
G1 X135.077 Y18.504 E0.0074
G1 X135.081 Y18.504 E0.0002
G1 X138.244 Y19.210 E0.1843
G1 X138.247 Y19.211 E0.0002
G1 X138.373 Y19.244 E0.0074
G1 X138.377 Y19.245 E0.0002
G1 X141.460 Y20.140 E0.1826
G1 X141.464 Y20.142 E0.0002
G1 X141.586 Y20.181 E0.0073
G1 X141.590 Y20.183 E0.0002
G1 X144.624 Y21.274 E0.1834
G1 X144.628 Y21.275 E0.0002
G1 X144.748 Y21.323 E0.0074
G1 X144.752 Y21.324 E0.0002
G1 X147.712 Y22.605 E0.1835
G1 X147.716 Y22.606 E0.0002
G1 X147.833 Y22.661 E0.0074
G1 X147.836 Y22.663 E0.0002
G1 X150.724 Y24.133 E0.1843
G1 X150.728 Y24.135 E0.0002
G1 X150.842 Y24.198 E0.0074
G1 X150.845 Y24.200 E0.0002
G1 X153.609 Y25.834 E0.1826
G1 X153.612 Y25.836 E0.0002
G1 X153.720 Y25.905 E0.0073
G1 X153.724 Y25.907 E0.0002
G1 X156.404 Y27.727 E0.1843
G1 X156.407 Y27.730 E0.0002
G1 X156.513 Y27.806 E0.0074
G1 X156.516 Y27.808 E0.0002
G1 X159.053 Y29.776 E0.1826
G1 X159.056 Y29.779 E0.0002
G1 X159.155 Y29.861 E0.0073
G1 X159.158 Y29.863 E0.0002
G1 X161.589 Y32.005 E0.1843
G1 X161.592 Y32.008 E0.0002
G1 X161.687 Y32.097 E0.0074
G1 X161.689 Y32.100 E0.0002
G1 X163.970 Y34.380 E0.1835
G1 X163.973 Y34.383 E0.0002
G1 X164.061 Y34.478 E0.0074
G1 X164.064 Y34.480 E0.0002
G1 X166.187 Y36.888 E0.1826
G1 X166.189 Y36.891 E0.0002
G1 X166.272 Y36.990 E0.0073
G1 X166.274 Y36.993 E0.0002
G1 X168.261 Y39.553 E0.1843
G1 X168.263 Y39.556 E0.0002
G1 X168.340 Y39.662 E0.0074
G1 X168.342 Y39.665 E0.0002
G1 X170.146 Y42.320 E0.1826
G1 X170.148 Y42.323 E0.0002
G1 X170.217 Y42.432 E0.0073
G1 X170.219 Y42.435 E0.0002
G1 X171.870 Y45.224 E0.1843
G1 X171.872 Y45.227 E0.0002
G1 X171.934 Y45.341 E0.0074
G1 X171.936 Y45.344 E0.0002
G1 X173.394 Y48.205 E0.1826
G1 X173.395 Y48.208 E0.0002
G1 X173.450 Y48.325 E0.0073
G1 X173.452 Y48.328 E0.0002
G1 X174.740 Y51.302 E0.1843
G1 X174.741 Y51.306 E0.0002
G1 X174.789 Y51.426 E0.0074
G1 X174.790 Y51.430 E0.0002
G1 X175.883 Y54.465 E0.1835
G1 X175.884 Y54.469 E0.0002
G1 X175.924 Y54.592 E0.0074
G1 X175.925 Y54.595 E0.0002
G1 X176.825 Y57.693 E0.1835
G1 X176.826 Y57.696 E0.0002
G1 X176.858 Y57.822 E0.0074
G1 X176.859 Y57.826 E0.0002
G1 X177.560 Y60.959 E0.1826
G1 X177.560 Y60.962 E0.0002
G1 X177.584 Y61.089 E0.0073
G1 X177.585 Y61.092 E0.0002
G1 X178.093 Y64.293 E0.1843
G1 X178.094 Y64.296 E0.0002
G1 X178.110 Y64.426 E0.0074
G1 X178.110 Y64.429 E0.0002
G1 X178.414 Y67.641 E0.1835
G1 X178.414 Y67.645 E0.0002
G1 X178.422 Y67.774 E0.0074
G1 X178.422 Y67.778 E0.0002
G1 X178.523 Y70.986 E0.1826
G1 X178.523 Y70.990 E0.0002
G1 X178.523 Y71.119 E0.0073
G1 X178.523 Y71.123 E0.0002
G1 X178.423 Y74.361 E0.1843
G1 X178.422 Y74.365 E0.0002
G1 X178.414 Y74.495 E0.0074
G1 X178.414 Y74.499 E0.0002
G1 X178.112 Y77.695 E0.1826
G1 X178.111 Y77.699 E0.0002
G1 X178.095 Y77.827 E0.0073
G1 X178.095 Y77.830 E0.0002
G1 X177.591 Y81.016 E0.1834
G1 X177.590 Y81.020 E0.0002
G1 X177.566 Y81.147 E0.0074
G1 X177.566 Y81.151 E0.0002
G1 X176.860 Y84.314 E0.1843
G1 X176.859 Y84.317 E0.0002
G1 X176.826 Y84.443 E0.0074
G1 X176.825 Y84.447 E0.0002
G1 X175.930 Y87.530 E0.1826
G1 X175.928 Y87.534 E0.0002
G1 X175.889 Y87.656 E0.0073
G1 X175.887 Y87.660 E0.0002
G1 X174.796 Y90.694 E0.1834
G1 X174.795 Y90.698 E0.0002
G1 X174.747 Y90.818 E0.0074
G1 X174.746 Y90.822 E0.0002
G1 X173.465 Y93.782 E0.1835
G1 X173.464 Y93.786 E0.0002
G1 X173.409 Y93.903 E0.0074
G1 X173.407 Y93.906 E0.0002
G1 X171.937 Y96.794 E0.1843
G1 X171.935 Y96.798 E0.0002
G1 X171.872 Y96.912 E0.0074
G1 X171.870 Y96.915 E0.0002
G1 X170.236 Y99.679 E0.1826
G1 X170.234 Y99.682 E0.0002
G1 X170.165 Y99.790 E0.0073
G1 X170.163 Y99.794 E0.0002
G1 X168.343 Y102.474 E0.1843
G1 X168.340 Y102.477 E0.0002
G1 X168.264 Y102.583 E0.0074
G1 X168.262 Y102.586 E0.0002
G1 X166.294 Y105.123 E0.1826
G1 X166.291 Y105.126 E0.0002
G1 X166.209 Y105.225 E0.0073
G1 X166.207 Y105.228 E0.0002
G1 X164.065 Y107.659 E0.1843
G1 X164.062 Y107.662 E0.0002
G1 X163.973 Y107.757 E0.0074
G1 X163.970 Y107.759 E0.0002
G1 X161.700 Y110.029 E0.1826
G1 X161.698 Y110.032 E0.0002
G1 X161.604 Y110.120 E0.0073
G1 X161.601 Y110.123 E0.0002
G1 X159.182 Y112.256 E0.1834
G1 X159.180 Y112.259 E0.0002
G1 X159.080 Y112.341 E0.0074
G1 X159.077 Y112.344 E0.0002
G1 X156.517 Y114.331 E0.1843
G1 X156.514 Y114.333 E0.0002
G1 X156.408 Y114.410 E0.0074
G1 X156.405 Y114.412 E0.0002
G1 X153.750 Y116.216 E0.1826
G1 X153.747 Y116.218 E0.0002
G1 X153.638 Y116.287 E0.0073
G1 X153.635 Y116.289 E0.0002
G1 X150.846 Y117.940 E0.1843
G1 X150.843 Y117.942 E0.0002
G1 X150.729 Y118.004 E0.0074
G1 X150.726 Y118.006 E0.0002
G1 X147.865 Y119.464 E0.1826
G1 X147.862 Y119.465 E0.0002
G1 X147.745 Y119.520 E0.0073
G1 X147.742 Y119.522 E0.0002
G1 X144.768 Y120.810 E0.1843
G1 X144.764 Y120.811 E0.0002
G1 X144.644 Y120.859 E0.0074
G1 X144.640 Y120.860 E0.0002
G1 X141.605 Y121.953 E0.1835
G1 X141.601 Y121.954 E0.0002
G1 X141.478 Y121.994 E0.0074
G1 X141.475 Y121.995 E0.0002
G1 X138.377 Y122.895 E0.1834
G1 X138.374 Y122.896 E0.0002
G1 X138.248 Y122.928 E0.0074
G1 X138.244 Y122.929 E0.0002
G1 X135.111 Y123.630 E0.1826
G1 X135.108 Y123.630 E0.0002
G1 X134.981 Y123.654 E0.0073
G1 X134.978 Y123.655 E0.0002
G1 X131.777 Y124.163 E0.1843
G1 X131.774 Y124.164 E0.0002
G1 X131.644 Y124.180 E0.0074
G1 X131.641 Y124.180 E0.0002
G1 X128.429 Y124.484 E0.1835
G1 X128.425 Y124.484 E0.0002
G1 X128.296 Y124.492 E0.0074
G1 X128.292 Y124.492 E0.0002
G1 X125.084 Y124.593 E0.1826
G1 X125.080 Y124.593 E0.0002
G1 X124.951 Y124.593 E0.0073
G1 X124.947 Y124.593 E0.0002
G1 X121.709 Y124.493 E0.1843
G1 X121.705 Y124.492 E0.0002
G1 X121.575 Y124.484 E0.0074
G1 X121.571 Y124.484 E0.0002
G1 X118.375 Y124.182 E0.1826
G1 X118.371 Y124.181 E0.0002
G1 X118.243 Y124.165 E0.0073
G1 X118.240 Y124.165 E0.0002
G1 X115.054 Y123.661 E0.1834
G1 X115.050 Y123.660 E0.0002
G1 X114.923 Y123.636 E0.0074
G1 X114.919 Y123.636 E0.0002
G1 X111.756 Y122.930 E0.1843
G1 X111.753 Y122.929 E0.0002
G1 X111.627 Y122.896 E0.0074
G1 X111.623 Y122.895 E0.0002
G1 X108.540 Y122.000 E0.1826
G1 X108.536 Y121.999 E0.0002
G1 X108.414 Y121.959 E0.0073
G1 X108.410 Y121.957 E0.0002
G1 X105.376 Y120.866 E0.1834
G1 X105.372 Y120.865 E0.0002
G1 X105.252 Y120.817 E0.0074
G1 X105.248 Y120.816 E0.0002
G1 X102.288 Y119.535 E0.1835
G1 X102.284 Y119.534 E0.0002
G1 X102.167 Y119.479 E0.0074
G1 X102.163 Y119.477 E0.0002
G1 X99.276 Y118.007 E0.1843
G1 X99.272 Y118.005 E0.0002
G1 X99.158 Y117.942 E0.0074
G1 X99.155 Y117.940 E0.0002
G1 X96.391 Y116.306 E0.1826
G1 X96.388 Y116.304 E0.0002
G1 X96.280 Y116.235 E0.0073
G1 X96.276 Y116.233 E0.0002
G1 X93.596 Y114.413 E0.1843
G1 X93.593 Y114.410 E0.0002
G1 X93.487 Y114.334 E0.0074
G1 X93.484 Y114.332 E0.0002
G1 X90.947 Y112.364 E0.1826
G1 X90.944 Y112.361 E0.0002
G1 X90.845 Y112.279 E0.0073
G1 X90.842 Y112.277 E0.0002
G1 X88.411 Y110.135 E0.1843
G1 X88.408 Y110.132 E0.0002
G1 X88.313 Y110.043 E0.0074
G1 X88.311 Y110.040 E0.0002
G1 X86.030 Y107.759 E0.1835
G1 X86.027 Y107.757 E0.0002
G1 X85.939 Y107.662 E0.0074
G1 X85.936 Y107.660 E0.0002
G1 X83.813 Y105.252 E0.1826
G1 X83.811 Y105.249 E0.0002
G1 X83.728 Y105.150 E0.0073
G1 X83.726 Y105.147 E0.0002
G1 X81.739 Y102.587 E0.1843
G1 X81.737 Y102.584 E0.0002
G1 X81.660 Y102.478 E0.0074
G1 X81.658 Y102.475 E0.0002
G1 X79.854 Y99.820 E0.1826
G1 X79.852 Y99.817 E0.0002
G1 X79.783 Y99.708 E0.0073
G1 X79.781 Y99.705 E0.0002
G1 X78.130 Y96.916 E0.1843
G1 X78.128 Y96.913 E0.0002
G1 X78.066 Y96.799 E0.0074
G1 X78.064 Y96.796 E0.0002
