; G-Code generated by Simplify3D(R) Version 4.0.0
; May 4, 2018 at 11:18:03 AM
; Settings Summary
;   processName,Process1
;   applyToModels,sensor-weather-protector,sensor-weather-protector(2)
;   profileName,Original Prusa i3 MK2 RC4 (modified)
;   profileVersion,2016-08-30 14:21:19
;   baseProfile,Prusa Mendel (modified)
;   printMaterial,PLA
;   printQuality,FAST 0.3mm
;   printExtruders,
;   extruderName,Primary Extruder
;   extruderToolheadNumber,0
;   extruderDiameter,0.4
;   extruderAutoWidth,0
;   extruderWidth,0.45
;   extrusionMultiplier,1
;   extruderUseRetract,1
;   extruderRetractionDistance,0.8
;   extruderExtraRestartDistance,0
;   extruderRetractionZLift,0
;   extruderRetractionSpeed,1800
;   extruderUseCoasting,1
;   extruderCoastingDistance,0.2
;   extruderUseWipe,1
;   extruderWipeDistance,2
;   primaryExtruder,0
;   layerHeight,0.3
;   topSolidLayers,4
;   bottomSolidLayers,4
;   perimeterOutlines,3
;   printPerimetersInsideOut,1
;   startPointOption,2
;   startPointOriginX,0
;   startPointOriginY,0
;   sequentialIslands,0
;   spiralVaseMode,0
;   firstLayerHeightPercentage,66
;   firstLayerWidthPercentage,95
;   firstLayerUnderspeed,0.6
;   useRaft,0
;   raftExtruder,0
;   raftTopLayers,3
;   raftBaseLayers,2
;   raftOffset,3
;   raftSeparationDistance,0.14
;   raftTopInfill,100
;   aboveRaftSpeedMultiplier,0.3
;   useSkirt,1
;   skirtExtruder,0
;   skirtLayers,1
;   skirtOutlines,1
;   skirtOffset,4
;   usePrimePillar,0
;   primePillarExtruder,999
;   primePillarWidth,12
;   primePillarLocation,7
;   primePillarSpeedMultiplier,1
;   useOozeShield,0
;   oozeShieldExtruder,999
;   oozeShieldOffset,2
;   oozeShieldOutlines,1
;   oozeShieldSidewallShape,1
;   oozeShieldSidewallAngle,30
;   oozeShieldSpeedMultiplier,1
;   infillExtruder,0
;   internalInfillPattern,Rectilinear
;   externalInfillPattern,Rectilinear
;   infillPercentage,10
;   outlineOverlapPercentage,21
;   infillExtrusionWidthPercentage,100
;   minInfillLength,2
;   infillLayerInterval,1
;   internalInfillAngles,45,-45
;   overlapInternalInfillAngles,0
;   externalInfillAngles,45,-45
;   generateSupport,0
;   supportExtruder,0
;   supportInfillPercentage,30
;   supportExtraInflation,1.4
;   supportBaseLayers,0
;   denseSupportExtruder,0
;   denseSupportLayers,0
;   denseSupportInfillPercentage,70
;   supportLayerInterval,1
;   supportHorizontalPartOffset,0.2
;   supportUpperSeparationLayers,1
;   supportLowerSeparationLayers,1
;   supportType,0
;   supportGridSpacing,4
;   maxOverhangAngle,45
;   supportAngles,0
;   temperatureName,Primary Extruder,Heated Bed
;   temperatureNumber,0,1
;   temperatureSetpointCount,1,1
;   temperatureSetpointLayers,1,1
;   temperatureSetpointTemperatures,215,55
;   temperatureStabilizeAtStartup,1,1
;   temperatureHeatedBed,0,1
;   temperatureRelayBetweenLayers,0,0
;   temperatureRelayBetweenLoops,0,0
;   fanLayers,1,2
;   fanSpeeds,0,100
;   blipFanToFullPower,1
;   adjustSpeedForCooling,1
;   minSpeedLayerTime,15
;   minCoolingSpeedSlowdown,5
;   increaseFanForCooling,0
;   minFanLayerTime,45
;   maxCoolingFanSpeed,100
;   increaseFanForBridging,1
;   bridgingFanSpeed,100
;   use5D,1
;   relativeEdistances,1
;   allowEaxisZeroing,1
;   independentExtruderAxes,0
;   includeM10123,0
;   stickySupport,1
;   applyToolheadOffsets,0
;   gcodeXoffset,0
;   gcodeYoffset,0
;   gcodeZoffset,0
;   overrideMachineDefinition,1
;   machineTypeOverride,0
;   strokeXoverride,250
;   strokeYoverride,210
;   strokeZoverride,200
;   originOffsetXoverride,0
;   originOffsetYoverride,0
;   originOffsetZoverride,0
;   homeXdirOverride,-1
;   homeYdirOverride,-1
;   homeZdirOverride,-1
;   flipXoverride,1
;   flipYoverride,-1
;   flipZoverride,1
;   toolheadOffsets,0,0|0,0|0,0|0,0|0,0|0,0
;   overrideFirmwareConfiguration,0
;   firmwareTypeOverride,RepRap (Marlin/Repetier/Sprinter)
;   GPXconfigOverride,r2
;   baudRateOverride,250000
;   overridePrinterModels,1
;   printerModelsOverride
;   startingGcode,M115 U3.0.7 ; tell the printer latest firmware varsion available,G28 W ; home all without mesh bed level,G80 ; mesh bed leveling,G1 Y-3.0 F1000.0 ; go outside printing area,G1 X60.0 E9.0  F1000.0 ; intro line,G1 X100.0 E12.5  F1000.0 ; intro line
;   layerChangeGcode,
;   retractionGcode,
;   toolChangeGcode,
;   endingGcode,M104 S0 ; turn off temperature,M140 S0 ; turn off heatbed,M107 ; turn off fan,G1 X0 Y200; home X axis,M84 ; disable motors
;   exportFileFormat,gcode
;   celebration,0
;   celebrationSong,Random Song
;   postProcessing,{REPLACE "; outer perimeter\n" "; outer perimeter\nM204 S600\n"},{REPLACE "; inner perimeter\n" "; inner perimeter\nM204 S1200\n"},{REPLACE "; solid layer\n" "; solid layer\nM204 S1500\n"},{REPLACE "; infill\n" "; infill\nM204 S2000\n"}
;   defaultSpeed,2400
;   outlineUnderspeed,1
;   solidInfillUnderspeed,0.8
;   supportUnderspeed,0.8
;   rapidXYspeed,4800
;   rapidZspeed,1002
;   minBridgingArea,50
;   bridgingExtraInflation,1
;   bridgingExtrusionMultiplier,1
;   bridgingSpeedMultiplier,1
;   useFixedBridgingAngle,0
;   fixedBridgingAngle,0
;   applyBridgingToPerimeters,0
;   filamentDiameters,1.75|1.75|1.75|1.75|1.75|1.75
;   filamentPricesPerKg,215|215|215|215|215|215
;   filamentDensities,1.25|1.25|1.25|1.25|1.25|1.25
;   useMinPrintHeight,0
;   minPrintHeight,0
;   useMaxPrintHeight,0
;   maxPrintHeight,0
;   useDiaphragm,0
;   diaphragmLayerInterval,20
;   robustSlicing,1
;   mergeAllIntoSolid,0
;   onlyRetractWhenCrossingOutline,0
;   retractBetweenLayers,1
;   useRetractionMinTravel,1
;   retractionMinTravel,3
;   retractWhileWiping,1
;   onlyWipeOutlines,1
;   avoidCrossingOutline,0
;   maxMovementDetourFactor,3
;   toolChangeRetractionDistance,12
;   toolChangeExtraRestartDistance,-0.5
;   toolChangeRetractionSpeed,600
;   externalThinWallType,0
;   internalThinWallType,2
;   thinWallAllowedOverlapPercentage,25
;   singleExtrusionMinLength,1
;   singleExtrusionMinPrintingWidthPercentage,50
;   singleExtrusionMaxPrintingWidthPercentage,200
;   singleExtrusionEndpointExtension,0.2
;   horizontalSizeCompensation,0
G90
M83
M106 S255
G4 P500
M106 S0
M140 S55
M190 S55
M104 S215 T0
M109 S215 T0
M115 U3.0.7 ; tell the printer latest firmware varsion available
G28 W ; home all without mesh bed level
G80 ; mesh bed leveling
G1 Y-3.0 F1000.0 ; go outside printing area
G1 X60.0 E9.0  F1000.0 ; intro line
G1 X100.0 E12.5  F1000.0 ; intro line
G1 E-0.8000 F1800
G1 Z0.198 F1002
; process Process1
; layer 1, Z = 0.198
T0
; tool H0.300 W0.428
; skirt
G1 X69.905 Y54.348 F4800
G1 E0.8000 F540
G1 X70.949 Y53.003 E0.0908 F1440
G1 X70.951 Y53.000 E0.0002
G1 X71.034 Y52.901 E0.0069
G1 X71.036 Y52.898 E0.0002
G1 X72.162 Y51.621 E0.0908
G1 X72.164 Y51.618 E0.0002
G1 X72.253 Y51.524 E0.0069
G1 X72.255 Y51.521 E0.0002
G1 X73.459 Y50.317 E0.0908
G1 X73.462 Y50.315 E0.0002
G1 X73.556 Y50.226 E0.0069
G1 X73.559 Y50.224 E0.0002
G1 X74.836 Y49.098 E0.0908
G1 X74.839 Y49.096 E0.0002
G1 X74.938 Y49.013 E0.0069
G1 X74.941 Y49.011 E0.0002
G1 X76.287 Y47.967 E0.0908
G1 X76.289 Y47.965 E0.0002
G1 X76.394 Y47.889 E0.0069
G1 X76.397 Y47.887 E0.0002
G1 X77.805 Y46.930 E0.0908
G1 X77.808 Y46.928 E0.0002
G1 X77.917 Y46.859 E0.0069
G1 X77.920 Y46.857 E0.0002
G1 X79.386 Y45.990 E0.0908
G1 X79.389 Y45.988 E0.0002
G1 X79.502 Y45.926 E0.0069
G1 X79.505 Y45.925 E0.0002
G1 X81.023 Y45.151 E0.0908
G1 X81.026 Y45.150 E0.0002
G1 X81.143 Y45.095 E0.0069
G1 X81.146 Y45.093 E0.0002
G1 X82.709 Y44.417 E0.0908
G1 X82.712 Y44.416 E0.0002
G1 X82.832 Y44.368 E0.0069
G1 X82.836 Y44.367 E0.0002
G1 X84.438 Y43.790 E0.0908
G1 X84.441 Y43.789 E0.0002
G1 X84.564 Y43.749 E0.0069
G1 X84.567 Y43.748 E0.0002
G1 X86.202 Y43.273 E0.0908
G1 X86.206 Y43.272 E0.0002
G1 X86.331 Y43.240 E0.0069
G1 X86.335 Y43.239 E0.0002
G1 X87.996 Y42.868 E0.0908
G1 X88.000 Y42.867 E0.0002
G1 X88.127 Y42.843 E0.0069
G1 X88.130 Y42.842 E0.0002
G1 X89.812 Y42.576 E0.0908
G1 X89.816 Y42.575 E0.0002
G1 X89.944 Y42.559 E0.0069
G1 X89.947 Y42.559 E0.0002
G1 X91.643 Y42.398 E0.0908
G1 X91.646 Y42.398 E0.0002
G1 X91.775 Y42.390 E0.0069
G1 X91.779 Y42.390 E0.0002
G1 X93.481 Y42.336 E0.0908
G1 X93.484 Y42.336 E0.0002
G1 X93.613 Y42.336 E0.0069
G1 X93.617 Y42.336 E0.0002
G1 X95.319 Y42.390 E0.0908
G1 X95.323 Y42.390 E0.0002
G1 X95.451 Y42.398 E0.0069
G1 X95.455 Y42.398 E0.0002
G1 X97.150 Y42.559 E0.0908
G1 X97.154 Y42.559 E0.0002
G1 X97.282 Y42.575 E0.0069
G1 X97.285 Y42.576 E0.0002
G1 X98.967 Y42.842 E0.0908
G1 X98.971 Y42.843 E0.0002
G1 X99.098 Y42.867 E0.0069
G1 X99.101 Y42.868 E0.0002
G1 X100.763 Y43.239 E0.0908
G1 X100.767 Y43.240 E0.0002
G1 X100.892 Y43.272 E0.0069
G1 X100.895 Y43.273 E0.0002
G1 X102.530 Y43.748 E0.0908
G1 X102.534 Y43.749 E0.0002
G1 X102.657 Y43.789 E0.0069
G1 X102.660 Y43.790 E0.0002
G1 X104.262 Y44.367 E0.0908
G1 X104.265 Y44.368 E0.0002
G1 X104.385 Y44.416 E0.0069
G1 X104.389 Y44.417 E0.0002
G1 X105.952 Y45.093 E0.0908
G1 X105.955 Y45.095 E0.0002
G1 X106.072 Y45.150 E0.0069
G1 X106.075 Y45.151 E0.0002
G1 X107.592 Y45.925 E0.0908
G1 X107.595 Y45.926 E0.0002
G1 X107.709 Y45.988 E0.0069
G1 X107.712 Y45.990 E0.0002
G1 X109.177 Y46.857 E0.0908
G1 X109.180 Y46.859 E0.0002
G1 X109.289 Y46.928 E0.0069
G1 X109.292 Y46.930 E0.0002
G1 X110.701 Y47.887 E0.0908
G1 X110.704 Y47.889 E0.0002
G1 X110.808 Y47.965 E0.0069
G1 X110.811 Y47.967 E0.0002
G1 X112.157 Y49.011 E0.0908
G1 X112.159 Y49.013 E0.0002
G1 X112.259 Y49.096 E0.0069
G1 X112.262 Y49.098 E0.0002
G1 X113.539 Y50.224 E0.0908
G1 X113.542 Y50.226 E0.0002
G1 X113.636 Y50.315 E0.0069
G1 X113.638 Y50.317 E0.0002
G1 X114.842 Y51.521 E0.0908
G1 X114.845 Y51.524 E0.0002
G1 X114.933 Y51.618 E0.0069
G1 X114.936 Y51.621 E0.0002
G1 X116.062 Y52.898 E0.0908
G1 X116.064 Y52.901 E0.0002
G1 X116.146 Y53.000 E0.0069
G1 X116.149 Y53.003 E0.0002
G1 X117.192 Y54.348 E0.0908
G1 X117.194 Y54.351 E0.0002
G1 X117.270 Y54.456 E0.0069
G1 X117.272 Y54.459 E0.0002
G1 X118.230 Y55.867 E0.0908
G1 X118.231 Y55.870 E0.0002
G1 X118.301 Y55.979 E0.0069
G1 X118.303 Y55.982 E0.0002
G1 X119.169 Y57.448 E0.0908
G1 X119.171 Y57.451 E0.0002
G1 X119.233 Y57.564 E0.0069
G1 X119.235 Y57.567 E0.0002
G1 X120.008 Y59.085 E0.0908
G1 X120.010 Y59.088 E0.0002
G1 X120.065 Y59.205 E0.0069
G1 X120.066 Y59.208 E0.0002
G1 X120.742 Y60.771 E0.0908
G1 X120.744 Y60.774 E0.0002
G1 X120.791 Y60.894 E0.0069
G1 X120.793 Y60.897 E0.0002
G1 X121.369 Y62.500 E0.0908
G1 X121.371 Y62.503 E0.0002
G1 X121.410 Y62.626 E0.0069
G1 X121.411 Y62.629 E0.0002
G1 X121.887 Y64.264 E0.0908
G1 X121.888 Y64.268 E0.0002
G1 X121.920 Y64.393 E0.0069
G1 X121.920 Y64.396 E0.0002
G1 X122.292 Y66.058 E0.0908
G1 X122.293 Y66.062 E0.0002
G1 X122.317 Y66.189 E0.0069
G1 X122.317 Y66.192 E0.0002
G1 X122.584 Y67.874 E0.0908
G1 X122.584 Y67.878 E0.0002
G1 X122.601 Y68.006 E0.0069
G1 X122.601 Y68.009 E0.0002
G1 X122.761 Y69.705 E0.0908
G1 X122.761 Y69.708 E0.0002
G1 X122.770 Y69.837 E0.0069
G1 X122.770 Y69.841 E0.0002
G1 X122.823 Y71.543 E0.0908
G1 X122.823 Y71.546 E0.0002
G1 X122.823 Y71.675 E0.0069
G1 X122.823 Y71.679 E0.0002
G1 X122.770 Y73.381 E0.0908
G1 X122.770 Y73.384 E0.0002
G1 X122.761 Y73.513 E0.0069
G1 X122.761 Y73.517 E0.0002
G1 X122.601 Y75.212 E0.0908
G1 X122.601 Y75.216 E0.0002
G1 X122.584 Y75.344 E0.0069
G1 X122.584 Y75.347 E0.0002
G1 X122.318 Y77.029 E0.0908
G1 X122.317 Y77.033 E0.0002
G1 X122.293 Y77.160 E0.0069
G1 X122.292 Y77.163 E0.0002
G1 X121.920 Y78.825 E0.0908
G1 X121.920 Y78.828 E0.0002
G1 X121.888 Y78.954 E0.0069
G1 X121.887 Y78.957 E0.0002
G1 X121.411 Y80.592 E0.0908
G1 X121.410 Y80.596 E0.0002
G1 X121.371 Y80.718 E0.0069
G1 X121.369 Y80.722 E0.0002
G1 X120.793 Y82.324 E0.0908
G1 X120.791 Y82.327 E0.0002
G1 X120.744 Y82.447 E0.0069
G1 X120.742 Y82.451 E0.0002
G1 X120.066 Y84.013 E0.0908
G1 X120.065 Y84.017 E0.0002
G1 X120.010 Y84.134 E0.0069
G1 X120.008 Y84.137 E0.0002
G1 X119.235 Y85.654 E0.0908
G1 X119.233 Y85.657 E0.0002
G1 X119.171 Y85.770 E0.0069
G1 X119.169 Y85.774 E0.0002
G1 X118.303 Y87.239 E0.0908
G1 X118.301 Y87.242 E0.0002
G1 X118.231 Y87.351 E0.0069
G1 X118.230 Y87.354 E0.0002
G1 X117.272 Y88.763 E0.0908
G1 X117.270 Y88.766 E0.0002
G1 X117.194 Y88.870 E0.0069
G1 X117.192 Y88.873 E0.0002
G1 X116.149 Y90.218 E0.0908
G1 X116.146 Y90.221 E0.0002
G1 X116.064 Y90.321 E0.0069
G1 X116.062 Y90.323 E0.0002
G1 X114.936 Y91.601 E0.0908
G1 X114.933 Y91.603 E0.0002
G1 X114.845 Y91.698 E0.0069
G1 X114.842 Y91.700 E0.0002
G1 X113.638 Y92.904 E0.0908
G1 X113.636 Y92.907 E0.0002
G1 X113.542 Y92.995 E0.0069
G1 X113.539 Y92.997 E0.0002
G1 X112.262 Y94.124 E0.0908
G1 X112.259 Y94.126 E0.0002
G1 X112.159 Y94.208 E0.0069
G1 X112.157 Y94.210 E0.0002
G1 X110.811 Y95.254 E0.0908
G1 X110.808 Y95.256 E0.0002
G1 X110.704 Y95.332 E0.0069
G1 X110.701 Y95.334 E0.0002
G1 X109.292 Y96.291 E0.0908
G1 X109.289 Y96.293 E0.0002
G1 X109.180 Y96.363 E0.0069
G1 X109.177 Y96.364 E0.0002
G1 X107.712 Y97.231 E0.0908
G1 X107.709 Y97.233 E0.0002
G1 X107.595 Y97.295 E0.0069
G1 X107.592 Y97.297 E0.0002
G1 X106.075 Y98.070 E0.0908
G1 X106.072 Y98.072 E0.0002
G1 X105.955 Y98.127 E0.0069
G1 X105.952 Y98.128 E0.0002
G1 X104.389 Y98.804 E0.0908
G1 X104.385 Y98.806 E0.0002
G1 X104.265 Y98.853 E0.0069
G1 X104.262 Y98.854 E0.0002
G1 X102.660 Y99.431 E0.0908
G1 X102.657 Y99.432 E0.0002
G1 X102.534 Y99.472 E0.0069
G1 X102.530 Y99.473 E0.0002
G1 X100.895 Y99.949 E0.0908
G1 X100.892 Y99.949 E0.0002
G1 X100.766 Y99.982 E0.0069
G1 X100.763 Y99.982 E0.0002
G1 X99.101 Y100.354 E0.0908
G1 X99.098 Y100.355 E0.0002
G1 X98.971 Y100.379 E0.0069
G1 X98.967 Y100.379 E0.0002
G1 X97.285 Y100.646 E0.0908
G1 X97.282 Y100.646 E0.0002
G1 X97.154 Y100.662 E0.0069
G1 X97.150 Y100.663 E0.0002
G1 X95.455 Y100.823 E0.0908
G1 X95.451 Y100.823 E0.0002
G1 X95.322 Y100.831 E0.0069
G1 X95.319 Y100.832 E0.0002
G1 X93.617 Y100.885 E0.0908
G1 X93.613 Y100.885 E0.0002
G1 X93.484 Y100.885 E0.0069
G1 X93.481 Y100.885 E0.0002
G1 X91.779 Y100.832 E0.0908
G1 X91.775 Y100.831 E0.0002
G1 X91.646 Y100.823 E0.0069
G1 X91.643 Y100.823 E0.0002
G1 X89.947 Y100.663 E0.0908
G1 X89.944 Y100.662 E0.0002
G1 X89.816 Y100.646 E0.0069
G1 X89.812 Y100.646 E0.0002
G1 X88.130 Y100.379 E0.0908
G1 X88.127 Y100.379 E0.0002
G1 X88.000 Y100.355 E0.0069
G1 X87.996 Y100.354 E0.0002
G1 X86.335 Y99.982 E0.0908
G1 X86.331 Y99.982 E0.0002
G1 X86.206 Y99.949 E0.0069
G1 X86.202 Y99.949 E0.0002
G1 X84.567 Y99.473 E0.0908
G1 X84.564 Y99.472 E0.0002
G1 X84.441 Y99.432 E0.0069
G1 X84.438 Y99.431 E0.0002
G1 X82.836 Y98.854 E0.0908
G1 X82.832 Y98.853 E0.0002
G1 X82.712 Y98.806 E0.0069
G1 X82.709 Y98.804 E0.0002
G1 X81.146 Y98.128 E0.0908
G1 X81.143 Y98.127 E0.0002
G1 X81.026 Y98.072 E0.0069
G1 X81.023 Y98.070 E0.0002
G1 X79.505 Y97.297 E0.0908
G1 X79.502 Y97.295 E0.0002
G1 X79.389 Y97.233 E0.0069
G1 X79.386 Y97.231 E0.0002
G1 X77.920 Y96.364 E0.0908
G1 X77.917 Y96.363 E0.0002
G1 X77.808 Y96.293 E0.0069
G1 X77.805 Y96.291 E0.0002
G1 X76.397 Y95.334 E0.0908
G1 X76.394 Y95.332 E0.0002
G1 X76.289 Y95.256 E0.0069
G1 X76.287 Y95.254 E0.0002
G1 X74.941 Y94.210 E0.0908
G1 X74.938 Y94.208 E0.0002
G1 X74.839 Y94.126 E0.0069
G1 X74.836 Y94.124 E0.0002
G1 X73.559 Y92.997 E0.0908
G1 X73.556 Y92.995 E0.0002
G1 X73.462 Y92.907 E0.0069
G1 X73.459 Y92.904 E0.0002
G1 X72.255 Y91.700 E0.0908
G1 X72.253 Y91.698 E0.0002
G1 X72.164 Y91.603 E0.0069
G1 X72.162 Y91.601 E0.0002
G1 X71.036 Y90.323 E0.0908
G1 X71.034 Y90.321 E0.0002
G1 X70.951 Y90.221 E0.0069
G1 X70.949 Y90.218 E0.0002
G1 X69.905 Y88.873 E0.0908
G1 X69.903 Y88.870 E0.0002
G1 X69.827 Y88.766 E0.0069
G1 X69.825 Y88.763 E0.0002
G1 X68.868 Y87.354 E0.0908
G1 X68.866 Y87.351 E0.0002
G1 X68.797 Y87.242 E0.0069
G1 X68.795 Y87.239 E0.0002
G1 X67.928 Y85.773 E0.0908
G1 X67.927 Y85.770 E0.0002
G1 X67.864 Y85.657 E0.0069
G1 X67.863 Y85.654 E0.0002
G1 X67.089 Y84.137 E0.0908
G1 X67.088 Y84.134 E0.0002
G1 X67.033 Y84.017 E0.0069
G1 X67.031 Y84.013 E0.0002
G1 X66.355 Y82.451 E0.0908
G1 X66.354 Y82.447 E0.0002
G1 X66.306 Y82.327 E0.0069
G1 X66.305 Y82.324 E0.0002
G1 X65.728 Y80.722 E0.0908
G1 X65.727 Y80.718 E0.0002
G1 X65.687 Y80.596 E0.0069
G1 X65.686 Y80.592 E0.0002
G1 X65.211 Y78.957 E0.0908
G1 X65.210 Y78.954 E0.0002
