; G-Code generated by Simplify3D(R) Version 4.0.0
; May 4, 2018 at 5:33:03 PM
; Settings Summary
;   processName,Process1
;   applyToModels,sensor-weather-protector-top
;   profileName,Original Prusa i3 MK2 RC4 (modified)
;   profileVersion,2016-08-30 14:21:19
;   baseProfile,Prusa Mendel (modified)
;   printMaterial,PLA
;   printQuality,FAST 0.3mm
;   printExtruders,
;   extruderName,Primary Extruder
;   extruderToolheadNumber,0
;   extruderDiameter,0.4
;   extruderAutoWidth,1
;   extruderWidth,0.48
;   extrusionMultiplier,1
;   extruderUseRetract,1
;   extruderRetractionDistance,0.8
;   extruderExtraRestartDistance,0
;   extruderRetractionZLift,0
;   extruderRetractionSpeed,1800
;   extruderUseCoasting,1
;   extruderCoastingDistance,0.2
;   extruderUseWipe,1
;   extruderWipeDistance,2
;   primaryExtruder,0
;   layerHeight,0.3
;   topSolidLayers,4
;   bottomSolidLayers,4
;   perimeterOutlines,3
;   printPerimetersInsideOut,1
;   startPointOption,2
;   startPointOriginX,0
;   startPointOriginY,0
;   sequentialIslands,0
;   spiralVaseMode,0
;   firstLayerHeightPercentage,66
;   firstLayerWidthPercentage,95
;   firstLayerUnderspeed,0.6
;   useRaft,0
;   raftExtruder,0
;   raftTopLayers,3
;   raftBaseLayers,2
;   raftOffset,3
;   raftSeparationDistance,0.14
;   raftTopInfill,100
;   aboveRaftSpeedMultiplier,0.3
;   useSkirt,1
;   skirtExtruder,0
;   skirtLayers,1
;   skirtOutlines,1
;   skirtOffset,4
;   usePrimePillar,0
;   primePillarExtruder,999
;   primePillarWidth,12
;   primePillarLocation,7
;   primePillarSpeedMultiplier,1
;   useOozeShield,0
;   oozeShieldExtruder,999
;   oozeShieldOffset,2
;   oozeShieldOutlines,1
;   oozeShieldSidewallShape,1
;   oozeShieldSidewallAngle,30
;   oozeShieldSpeedMultiplier,1
;   infillExtruder,0
;   internalInfillPattern,Rectilinear
;   externalInfillPattern,Rectilinear
;   infillPercentage,10
;   outlineOverlapPercentage,21
;   infillExtrusionWidthPercentage,100
;   minInfillLength,2
;   infillLayerInterval,1
;   internalInfillAngles,45,-45
;   overlapInternalInfillAngles,0
;   externalInfillAngles,45,-45
;   generateSupport,0
;   supportExtruder,0
;   supportInfillPercentage,30
;   supportExtraInflation,1.4
;   supportBaseLayers,0
;   denseSupportExtruder,0
;   denseSupportLayers,0
;   denseSupportInfillPercentage,70
;   supportLayerInterval,1
;   supportHorizontalPartOffset,0.2
;   supportUpperSeparationLayers,1
;   supportLowerSeparationLayers,1
;   supportType,0
;   supportGridSpacing,4
;   maxOverhangAngle,45
;   supportAngles,0
;   temperatureName,Primary Extruder,Heated Bed
;   temperatureNumber,0,1
;   temperatureSetpointCount,1,1
;   temperatureSetpointLayers,1,1
;   temperatureSetpointTemperatures,215,55
;   temperatureStabilizeAtStartup,1,1
;   temperatureHeatedBed,0,1
;   temperatureRelayBetweenLayers,0,0
;   temperatureRelayBetweenLoops,0,0
;   fanLayers,1,2
;   fanSpeeds,0,100
;   blipFanToFullPower,1
;   adjustSpeedForCooling,1
;   minSpeedLayerTime,15
;   minCoolingSpeedSlowdown,5
;   increaseFanForCooling,0
;   minFanLayerTime,45
;   maxCoolingFanSpeed,100
;   increaseFanForBridging,1
;   bridgingFanSpeed,100
;   use5D,1
;   relativeEdistances,1
;   allowEaxisZeroing,1
;   independentExtruderAxes,0
;   includeM10123,0
;   stickySupport,1
;   applyToolheadOffsets,0
;   gcodeXoffset,0
;   gcodeYoffset,0
;   gcodeZoffset,0
;   overrideMachineDefinition,1
;   machineTypeOverride,0
;   strokeXoverride,250
;   strokeYoverride,210
;   strokeZoverride,200
;   originOffsetXoverride,0
;   originOffsetYoverride,0
;   originOffsetZoverride,0
;   homeXdirOverride,-1
;   homeYdirOverride,-1
;   homeZdirOverride,-1
;   flipXoverride,1
;   flipYoverride,-1
;   flipZoverride,1
;   toolheadOffsets,0,0|0,0|0,0|0,0|0,0|0,0
;   overrideFirmwareConfiguration,0
;   firmwareTypeOverride,RepRap (Marlin/Repetier/Sprinter)
;   GPXconfigOverride,r2
;   baudRateOverride,250000
;   overridePrinterModels,1
;   printerModelsOverride
;   startingGcode,M115 U3.0.7 ; tell the printer latest firmware varsion available,G28 W ; home all without mesh bed level,G80 ; mesh bed leveling,G1 Y-3.0 F1000.0 ; go outside printing area,G1 X60.0 E9.0  F1000.0 ; intro line,G1 X100.0 E12.5  F1000.0 ; intro line
;   layerChangeGcode,
;   retractionGcode,
;   toolChangeGcode,
;   endingGcode,M104 S0 ; turn off temperature,M140 S0 ; turn off heatbed,M107 ; turn off fan,G1 X0 Y200; home X axis,M84 ; disable motors
;   exportFileFormat,gcode
;   celebration,0
;   celebrationSong,Random Song
;   postProcessing,{REPLACE "; outer perimeter\n" "; outer perimeter\nM204 S600\n"},{REPLACE "; inner perimeter\n" "; inner perimeter\nM204 S1200\n"},{REPLACE "; solid layer\n" "; solid layer\nM204 S1500\n"},{REPLACE "; infill\n" "; infill\nM204 S2000\n"}
;   defaultSpeed,2400
;   outlineUnderspeed,1
;   solidInfillUnderspeed,0.8
;   supportUnderspeed,0.8
;   rapidXYspeed,4800
;   rapidZspeed,1002
;   minBridgingArea,50
;   bridgingExtraInflation,1
;   bridgingExtrusionMultiplier,1
;   bridgingSpeedMultiplier,1
;   useFixedBridgingAngle,0
;   fixedBridgingAngle,0
;   applyBridgingToPerimeters,0
;   filamentDiameters,1.75|1.75|1.75|1.75|1.75|1.75
;   filamentPricesPerKg,215|215|215|215|215|215
;   filamentDensities,1.25|1.25|1.25|1.25|1.25|1.25
;   useMinPrintHeight,0
;   minPrintHeight,0
;   useMaxPrintHeight,0
;   maxPrintHeight,0
;   useDiaphragm,0
;   diaphragmLayerInterval,20
;   robustSlicing,1
;   mergeAllIntoSolid,0
;   onlyRetractWhenCrossingOutline,0
;   retractBetweenLayers,1
;   useRetractionMinTravel,1
;   retractionMinTravel,3
;   retractWhileWiping,1
;   onlyWipeOutlines,1
;   avoidCrossingOutline,0
;   maxMovementDetourFactor,3
;   toolChangeRetractionDistance,12
;   toolChangeExtraRestartDistance,-0.5
;   toolChangeRetractionSpeed,600
;   externalThinWallType,0
;   internalThinWallType,2
;   thinWallAllowedOverlapPercentage,25
;   singleExtrusionMinLength,1
;   singleExtrusionMinPrintingWidthPercentage,50
;   singleExtrusionMaxPrintingWidthPercentage,200
;   singleExtrusionEndpointExtension,0.2
;   horizontalSizeCompensation,0
G90
M83
M106 S255
G4 P500
M106 S0
M140 S55
M190 S55
M104 S215 T0
M109 S215 T0
M115 U3.0.7 ; tell the printer latest firmware varsion available
G28 W ; home all without mesh bed level
G80 ; mesh bed leveling
G1 Y-3.0 F1000.0 ; go outside printing area
G1 X60.0 E9.0  F1000.0 ; intro line
G1 X100.0 E12.5  F1000.0 ; intro line
G1 E-0.8000 F1800
G1 Z0.198 F1002
; process Process1
; layer 1, Z = 0.198
T0
; tool H0.300 W0.456
; skirt
G1 X78.130 Y42.601 F4800
G1 E0.8000 F540
G1 X79.764 Y39.837 E0.1826 F1440
G1 X79.766 Y39.834 E0.0002
G1 X79.835 Y39.725 E0.0073
G1 X79.837 Y39.722 E0.0002
G1 X81.657 Y37.042 E0.1843
G1 X81.660 Y37.039 E0.0002
G1 X81.736 Y36.933 E0.0074
G1 X81.738 Y36.930 E0.0002
G1 X83.706 Y34.393 E0.1826
G1 X83.709 Y34.390 E0.0002
G1 X83.791 Y34.291 E0.0073
G1 X83.793 Y34.288 E0.0002
G1 X85.935 Y31.857 E0.1843
G1 X85.938 Y31.854 E0.0002
G1 X86.027 Y31.759 E0.0074
G1 X86.030 Y31.757 E0.0002
G1 X88.300 Y29.486 E0.1826
G1 X88.302 Y29.484 E0.0002
G1 X88.396 Y29.396 E0.0073
G1 X88.399 Y29.393 E0.0002
G1 X90.818 Y27.260 E0.1834
G1 X90.820 Y27.257 E0.0002
G1 X90.920 Y27.175 E0.0074
G1 X90.923 Y27.172 E0.0002
G1 X93.483 Y25.185 E0.1843
G1 X93.486 Y25.183 E0.0002
G1 X93.592 Y25.106 E0.0074
G1 X93.595 Y25.104 E0.0002
G1 X96.250 Y23.300 E0.1826
G1 X96.253 Y23.297 E0.0002
G1 X96.362 Y23.228 E0.0073
G1 X96.365 Y23.227 E0.0002
G1 X99.154 Y21.576 E0.1843
G1 X99.157 Y21.574 E0.0002
G1 X99.271 Y21.512 E0.0074
G1 X99.274 Y21.510 E0.0002
G1 X102.135 Y20.052 E0.1826
G1 X102.138 Y20.051 E0.0002
G1 X102.255 Y19.996 E0.0073
G1 X102.258 Y19.994 E0.0002
G1 X105.232 Y18.706 E0.1843
G1 X105.236 Y18.705 E0.0002
G1 X105.356 Y18.657 E0.0074
G1 X105.360 Y18.656 E0.0002
G1 X108.395 Y17.563 E0.1835
G1 X108.399 Y17.562 E0.0002
G1 X108.522 Y17.522 E0.0074
G1 X108.525 Y17.521 E0.0002
G1 X111.623 Y16.621 E0.1834
G1 X111.626 Y16.620 E0.0002
G1 X111.752 Y16.588 E0.0074
G1 X111.755 Y16.587 E0.0002
G1 X114.888 Y15.886 E0.1826
G1 X114.892 Y15.886 E0.0002
G1 X115.019 Y15.861 E0.0073
G1 X115.022 Y15.861 E0.0002
G1 X118.223 Y15.353 E0.1843
G1 X118.226 Y15.352 E0.0002
G1 X118.356 Y15.336 E0.0074
G1 X118.359 Y15.336 E0.0002
G1 X121.571 Y15.032 E0.1835
G1 X121.575 Y15.032 E0.0002
G1 X121.704 Y15.024 E0.0074
G1 X121.708 Y15.023 E0.0002
G1 X124.916 Y14.923 E0.1826
G1 X124.920 Y14.923 E0.0002
G1 X125.049 Y14.923 E0.0073
G1 X125.053 Y14.923 E0.0002
G1 X128.291 Y15.023 E0.1843
G1 X128.295 Y15.024 E0.0002
G1 X128.425 Y15.032 E0.0074
G1 X128.429 Y15.032 E0.0002
G1 X131.625 Y15.334 E0.1826
G1 X131.629 Y15.335 E0.0002
G1 X131.757 Y15.351 E0.0073
G1 X131.760 Y15.351 E0.0002
G1 X134.946 Y15.855 E0.1834
G1 X134.950 Y15.855 E0.0002
G1 X135.077 Y15.880 E0.0074
G1 X135.081 Y15.880 E0.0002
G1 X138.244 Y16.586 E0.1843
G1 X138.247 Y16.587 E0.0002
G1 X138.373 Y16.620 E0.0074
G1 X138.377 Y16.621 E0.0002
G1 X141.460 Y17.516 E0.1826
G1 X141.464 Y17.517 E0.0002
G1 X141.586 Y17.557 E0.0073
G1 X141.590 Y17.558 E0.0002
G1 X144.624 Y18.650 E0.1834
G1 X144.628 Y18.651 E0.0002
G1 X144.748 Y18.699 E0.0074
G1 X144.752 Y18.700 E0.0002
G1 X147.712 Y19.980 E0.1835
G1 X147.716 Y19.982 E0.0002
G1 X147.833 Y20.037 E0.0074
G1 X147.836 Y20.039 E0.0002
G1 X150.724 Y21.509 E0.1843
G1 X150.728 Y21.511 E0.0002
G1 X150.842 Y21.574 E0.0074
G1 X150.845 Y21.576 E0.0002
G1 X153.609 Y23.210 E0.1826
G1 X153.612 Y23.212 E0.0002
G1 X153.720 Y23.281 E0.0073
G1 X153.724 Y23.283 E0.0002
G1 X156.404 Y25.103 E0.1843
G1 X156.407 Y25.106 E0.0002
G1 X156.513 Y25.182 E0.0074
G1 X156.516 Y25.184 E0.0002
G1 X159.053 Y27.152 E0.1826
G1 X159.056 Y27.154 E0.0002
G1 X159.155 Y27.237 E0.0073
G1 X159.158 Y27.239 E0.0002
G1 X161.589 Y29.381 E0.1843
G1 X161.592 Y29.384 E0.0002
G1 X161.687 Y29.473 E0.0074
G1 X161.689 Y29.475 E0.0002
G1 X163.970 Y31.756 E0.1835
G1 X163.973 Y31.759 E0.0002
G1 X164.061 Y31.853 E0.0074
G1 X164.064 Y31.856 E0.0002
G1 X166.187 Y34.264 E0.1826
G1 X166.189 Y34.267 E0.0002
G1 X166.272 Y34.366 E0.0073
G1 X166.274 Y34.369 E0.0002
G1 X168.261 Y36.929 E0.1843
G1 X168.263 Y36.932 E0.0002
G1 X168.340 Y37.038 E0.0074
G1 X168.342 Y37.041 E0.0002
G1 X170.146 Y39.696 E0.1826
G1 X170.148 Y39.699 E0.0002
G1 X170.217 Y39.808 E0.0073
G1 X170.219 Y39.811 E0.0002
G1 X171.870 Y42.600 E0.1843
G1 X171.872 Y42.603 E0.0002
G1 X171.934 Y42.717 E0.0074
G1 X171.936 Y42.720 E0.0002
G1 X173.394 Y45.581 E0.1826
G1 X173.395 Y45.584 E0.0002
G1 X173.450 Y45.701 E0.0073
G1 X173.452 Y45.704 E0.0002
G1 X174.740 Y48.678 E0.1843
G1 X174.741 Y48.682 E0.0002
G1 X174.789 Y48.802 E0.0074
G1 X174.790 Y48.806 E0.0002
G1 X175.883 Y51.841 E0.1835
G1 X175.884 Y51.845 E0.0002
G1 X175.924 Y51.968 E0.0074
G1 X175.925 Y51.971 E0.0002
G1 X176.825 Y55.069 E0.1834
G1 X176.826 Y55.072 E0.0002
G1 X176.858 Y55.198 E0.0074
G1 X176.859 Y55.201 E0.0002
G1 X177.560 Y58.334 E0.1826
G1 X177.560 Y58.338 E0.0002
G1 X177.584 Y58.465 E0.0073
G1 X177.585 Y58.468 E0.0002
G1 X178.093 Y61.669 E0.1843
G1 X178.094 Y61.672 E0.0002
G1 X178.110 Y61.802 E0.0074
G1 X178.110 Y61.805 E0.0002
G1 X178.414 Y65.017 E0.1835
G1 X178.414 Y65.021 E0.0002
G1 X178.422 Y65.150 E0.0074
G1 X178.422 Y65.154 E0.0002
G1 X178.523 Y68.362 E0.1826
G1 X178.523 Y68.366 E0.0002
G1 X178.523 Y68.495 E0.0073
G1 X178.523 Y68.499 E0.0002
G1 X178.423 Y71.737 E0.1843
G1 X178.422 Y71.741 E0.0002
G1 X178.414 Y71.871 E0.0074
G1 X178.414 Y71.875 E0.0002
G1 X178.112 Y75.071 E0.1826
G1 X178.111 Y75.075 E0.0002
G1 X178.095 Y75.203 E0.0073
G1 X178.095 Y75.206 E0.0002
G1 X177.591 Y78.392 E0.1834
G1 X177.590 Y78.396 E0.0002
G1 X177.566 Y78.523 E0.0074
G1 X177.566 Y78.527 E0.0002
G1 X176.860 Y81.690 E0.1843
G1 X176.859 Y81.693 E0.0002
G1 X176.826 Y81.819 E0.0074
G1 X176.825 Y81.823 E0.0002
G1 X175.930 Y84.906 E0.1826
G1 X175.928 Y84.910 E0.0002
G1 X175.889 Y85.032 E0.0073
G1 X175.887 Y85.036 E0.0002
G1 X174.796 Y88.070 E0.1834
G1 X174.795 Y88.074 E0.0002
G1 X174.747 Y88.194 E0.0074
G1 X174.746 Y88.198 E0.0002
G1 X173.465 Y91.158 E0.1835
G1 X173.464 Y91.162 E0.0002
G1 X173.409 Y91.279 E0.0074
G1 X173.407 Y91.282 E0.0002
G1 X171.937 Y94.170 E0.1843
G1 X171.935 Y94.174 E0.0002
G1 X171.872 Y94.288 E0.0074
G1 X171.870 Y94.291 E0.0002
G1 X170.236 Y97.055 E0.1826
G1 X170.234 Y97.058 E0.0002
G1 X170.165 Y97.166 E0.0073
G1 X170.163 Y97.170 E0.0002
G1 X168.343 Y99.850 E0.1843
G1 X168.340 Y99.853 E0.0002
G1 X168.264 Y99.959 E0.0074
G1 X168.262 Y99.962 E0.0002
G1 X166.294 Y102.499 E0.1826
G1 X166.291 Y102.502 E0.0002
G1 X166.209 Y102.601 E0.0073
G1 X166.207 Y102.604 E0.0002
G1 X164.065 Y105.035 E0.1843
G1 X164.062 Y105.038 E0.0002
G1 X163.973 Y105.132 E0.0074
G1 X163.970 Y105.135 E0.0002
G1 X161.700 Y107.405 E0.1826
G1 X161.698 Y107.408 E0.0002
G1 X161.604 Y107.496 E0.0073
G1 X161.601 Y107.499 E0.0002
G1 X159.182 Y109.632 E0.1834
G1 X159.180 Y109.635 E0.0002
G1 X159.080 Y109.717 E0.0074
G1 X159.077 Y109.720 E0.0002
G1 X156.517 Y111.707 E0.1843
G1 X156.514 Y111.709 E0.0002
G1 X156.408 Y111.786 E0.0074
G1 X156.405 Y111.788 E0.0002
G1 X153.750 Y113.592 E0.1826
G1 X153.747 Y113.594 E0.0002
G1 X153.638 Y113.663 E0.0073
G1 X153.635 Y113.665 E0.0002
G1 X150.846 Y115.316 E0.1843
G1 X150.843 Y115.318 E0.0002
G1 X150.729 Y115.380 E0.0074
G1 X150.726 Y115.382 E0.0002
G1 X147.865 Y116.840 E0.1826
G1 X147.862 Y116.841 E0.0002
G1 X147.745 Y116.896 E0.0073
G1 X147.742 Y116.898 E0.0002
G1 X144.768 Y118.186 E0.1843
G1 X144.764 Y118.187 E0.0002
G1 X144.644 Y118.235 E0.0074
G1 X144.640 Y118.236 E0.0002
G1 X141.605 Y119.329 E0.1835
G1 X141.601 Y119.330 E0.0002
G1 X141.478 Y119.370 E0.0074
G1 X141.475 Y119.371 E0.0002
G1 X138.377 Y120.271 E0.1834
G1 X138.374 Y120.272 E0.0002
G1 X138.248 Y120.304 E0.0074
G1 X138.244 Y120.305 E0.0002
G1 X135.111 Y121.006 E0.1826
G1 X135.108 Y121.006 E0.0002
G1 X134.981 Y121.030 E0.0073
G1 X134.978 Y121.031 E0.0002
G1 X131.777 Y121.539 E0.1843
G1 X131.773 Y121.540 E0.0002
G1 X131.644 Y121.556 E0.0074
G1 X131.641 Y121.556 E0.0002
G1 X128.429 Y121.860 E0.1835
G1 X128.425 Y121.860 E0.0002
G1 X128.296 Y121.868 E0.0074
G1 X128.292 Y121.868 E0.0002
G1 X125.084 Y121.969 E0.1826
G1 X125.080 Y121.969 E0.0002
G1 X124.951 Y121.969 E0.0073
G1 X124.947 Y121.969 E0.0002
G1 X121.709 Y121.868 E0.1843
G1 X121.705 Y121.868 E0.0002
G1 X121.575 Y121.860 E0.0074
G1 X121.571 Y121.860 E0.0002
G1 X118.375 Y121.558 E0.1826
G1 X118.371 Y121.557 E0.0002
G1 X118.243 Y121.541 E0.0073
G1 X118.240 Y121.541 E0.0002
G1 X115.054 Y121.037 E0.1834
G1 X115.050 Y121.036 E0.0002
G1 X114.923 Y121.012 E0.0074
G1 X114.919 Y121.011 E0.0002
G1 X111.756 Y120.306 E0.1843
G1 X111.753 Y120.305 E0.0002
G1 X111.627 Y120.272 E0.0074
G1 X111.623 Y120.271 E0.0002
G1 X108.540 Y119.376 E0.1826
G1 X108.536 Y119.374 E0.0002
G1 X108.414 Y119.335 E0.0073
G1 X108.410 Y119.333 E0.0002
G1 X105.376 Y118.242 E0.1834
G1 X105.372 Y118.241 E0.0002
G1 X105.252 Y118.193 E0.0074
G1 X105.248 Y118.192 E0.0002
G1 X102.288 Y116.911 E0.1835
G1 X102.284 Y116.910 E0.0002
G1 X102.167 Y116.855 E0.0074
G1 X102.163 Y116.853 E0.0002
G1 X99.276 Y115.383 E0.1843
G1 X99.272 Y115.381 E0.0002
G1 X99.158 Y115.318 E0.0074
G1 X99.155 Y115.316 E0.0002
G1 X96.391 Y113.682 E0.1826
G1 X96.388 Y113.680 E0.0002
G1 X96.280 Y113.611 E0.0073
G1 X96.276 Y113.609 E0.0002
G1 X93.596 Y111.789 E0.1843
G1 X93.593 Y111.786 E0.0002
G1 X93.487 Y111.710 E0.0074
G1 X93.484 Y111.708 E0.0002
G1 X90.947 Y109.740 E0.1826
G1 X90.944 Y109.737 E0.0002
G1 X90.845 Y109.655 E0.0073
G1 X90.842 Y109.653 E0.0002
G1 X88.411 Y107.511 E0.1843
G1 X88.408 Y107.508 E0.0002
G1 X88.313 Y107.419 E0.0074
G1 X88.311 Y107.416 E0.0002
G1 X86.030 Y105.135 E0.1835
G1 X86.027 Y105.133 E0.0002
G1 X85.939 Y105.038 E0.0074
G1 X85.936 Y105.036 E0.0002
G1 X83.813 Y102.628 E0.1826
G1 X83.811 Y102.625 E0.0002
G1 X83.728 Y102.525 E0.0073
G1 X83.726 Y102.523 E0.0002
G1 X81.739 Y99.963 E0.1843
G1 X81.737 Y99.960 E0.0002
G1 X81.660 Y99.854 E0.0074
G1 X81.658 Y99.851 E0.0002
G1 X79.854 Y97.196 E0.1826
G1 X79.852 Y97.193 E0.0002
G1 X79.783 Y97.084 E0.0073
G1 X79.781 Y97.081 E0.0002
G1 X78.130 Y94.292 E0.1843
G1 X78.128 Y94.289 E0.0002
G1 X78.066 Y94.175 E0.0074
G1 X78.064 Y94.172 E0.0002
G1 X76.606 Y91.311 E0.1826
