; G-Code generated by Simplify3D(R) Version 4.0.0
; Sep 17, 2017 at 2:43:45 PM
; Settings Summary
;   processName,Process1
;   applyToModels,pen_holder
;   profileName,Prusa Research Original Prusa i3 MK2 (modified)
;   profileVersion,2017-07-23 22:27:18
;   baseProfile,
;   printMaterial,PLA
;   printQuality,High
;   printExtruders,
;   extruderName,Primary Extruder
;   extruderToolheadNumber,0
;   extruderDiameter,0.4
;   extruderAutoWidth,1
;   extruderWidth,0.48
;   extrusionMultiplier,1
;   extruderUseRetract,1
;   extruderRetractionDistance,1.5
;   extruderExtraRestartDistance,0
;   extruderRetractionZLift,0
;   extruderRetractionSpeed,1800
;   extruderUseCoasting,1
;   extruderCoastingDistance,0.2
;   extruderUseWipe,1
;   extruderWipeDistance,2
;   primaryExtruder,0
;   layerHeight,0.1
;   topSolidLayers,4
;   bottomSolidLayers,4
;   perimeterOutlines,3
;   printPerimetersInsideOut,1
;   startPointOption,2
;   startPointOriginX,0
;   startPointOriginY,0
;   sequentialIslands,0
;   spiralVaseMode,0
;   firstLayerHeightPercentage,120
;   firstLayerWidthPercentage,100
;   firstLayerUnderspeed,0.5
;   useRaft,0
;   raftExtruder,0
;   raftTopLayers,3
;   raftBaseLayers,2
;   raftOffset,3
;   raftSeparationDistance,0.14
;   raftTopInfill,100
;   aboveRaftSpeedMultiplier,0.3
;   useSkirt,1
;   skirtExtruder,0
;   skirtLayers,2
;   skirtOutlines,1
;   skirtOffset,4
;   usePrimePillar,0
;   primePillarExtruder,999
;   primePillarWidth,12
;   primePillarLocation,7
;   primePillarSpeedMultiplier,1
;   useOozeShield,0
;   oozeShieldExtruder,999
;   oozeShieldOffset,2
;   oozeShieldOutlines,1
;   oozeShieldSidewallShape,1
;   oozeShieldSidewallAngle,30
;   oozeShieldSpeedMultiplier,1
;   infillExtruder,0
;   internalInfillPattern,Rectilinear
;   externalInfillPattern,Rectilinear
;   infillPercentage,20
;   outlineOverlapPercentage,20
;   infillExtrusionWidthPercentage,100
;   minInfillLength,5
;   infillLayerInterval,1
;   internalInfillAngles,45,-45
;   overlapInternalInfillAngles,0
;   externalInfillAngles,45,-45
;   generateSupport,0
;   supportExtruder,0
;   supportInfillPercentage,40
;   supportExtraInflation,0
;   supportBaseLayers,0
;   denseSupportExtruder,0
;   denseSupportLayers,0
;   denseSupportInfillPercentage,70
;   supportLayerInterval,1
;   supportHorizontalPartOffset,0.3
;   supportUpperSeparationLayers,1
;   supportLowerSeparationLayers,1
;   supportType,0
;   supportGridSpacing,4
;   maxOverhangAngle,45
;   supportAngles,0
;   temperatureName,Primary Extruder,Heated Bed
;   temperatureNumber,0,0
;   temperatureSetpointCount,1,1
;   temperatureSetpointLayers,1,1
;   temperatureSetpointTemperatures,200,60
;   temperatureStabilizeAtStartup,1,1
;   temperatureHeatedBed,0,1
;   temperatureRelayBetweenLayers,0,0
;   temperatureRelayBetweenLoops,0,0
;   fanLayers,1,2
;   fanSpeeds,0,100
;   blipFanToFullPower,0
;   adjustSpeedForCooling,1
;   minSpeedLayerTime,15
;   minCoolingSpeedSlowdown,20
;   increaseFanForCooling,0
;   minFanLayerTime,45
;   maxCoolingFanSpeed,100
;   increaseFanForBridging,0
;   bridgingFanSpeed,100
;   use5D,1
;   relativeEdistances,0
;   allowEaxisZeroing,1
;   independentExtruderAxes,0
;   includeM10123,0
;   stickySupport,1
;   applyToolheadOffsets,0
;   gcodeXoffset,0
;   gcodeYoffset,0
;   gcodeZoffset,0
;   overrideMachineDefinition,1
;   machineTypeOverride,0
;   strokeXoverride,250
;   strokeYoverride,210
;   strokeZoverride,200
;   originOffsetXoverride,0
;   originOffsetYoverride,0
;   originOffsetZoverride,0
;   homeXdirOverride,-1
;   homeYdirOverride,-1
;   homeZdirOverride,-1
;   flipXoverride,1
;   flipYoverride,-1
;   flipZoverride,1
;   toolheadOffsets,0,0|0,0|0,0|0,0|0,0|0,0
;   overrideFirmwareConfiguration,1
;   firmwareTypeOverride,RepRap (Marlin/Repetier/Sprinter)
;   GPXconfigOverride,r2
;   baudRateOverride,250000
;   overridePrinterModels,1
;   printerModelsOverride
;   startingGcode,M115 U3.0.7 ; use the latest firmware version,G28 W ; home all axes without mesh bed leveling,G80 ; run mesh bed leveling routine,G1 Y-3.0 F1000.0 ; prepare to prime,G92 E0 ; reset extrusion distance,G1 X60.0 E9.0  F1000.0 ; priming,G1 X100.0 E12.5  F1000.0 ; priming
;   layerChangeGcode,
;   retractionGcode,
;   toolChangeGcode,
;   endingGcode,M106 S0 ; turn off cooling fan,M104 S0 ; turn off extruder,M140 S0 ; turn off bed,G1 X0 Y200 ; part removal,M84 ; disable motors
;   exportFileFormat,gcode
;   celebration,0
;   celebrationSong,Random Song
;   postProcessing,
;   defaultSpeed,2400
;   outlineUnderspeed,0.8
;   solidInfillUnderspeed,0.8
;   supportUnderspeed,0.8
;   rapidXYspeed,4800
;   rapidZspeed,1002
;   minBridgingArea,50
;   bridgingExtraInflation,0
;   bridgingExtrusionMultiplier,1
;   bridgingSpeedMultiplier,1
;   useFixedBridgingAngle,0
;   fixedBridgingAngle,0
;   applyBridgingToPerimeters,0
;   filamentDiameters,1.75|1.75|1.75|1.75|1.75|1.75
;   filamentPricesPerKg,46|46|46|46|46|46
;   filamentDensities,1.25|1.25|1.25|1.25|1.25|1.25
;   useMinPrintHeight,0
;   minPrintHeight,0
;   useMaxPrintHeight,1
;   maxPrintHeight,235
;   useDiaphragm,0
;   diaphragmLayerInterval,20
;   robustSlicing,1
;   mergeAllIntoSolid,0
;   onlyRetractWhenCrossingOutline,1
;   retractBetweenLayers,1
;   useRetractionMinTravel,0
;   retractionMinTravel,3
;   retractWhileWiping,1
;   onlyWipeOutlines,1
;   avoidCrossingOutline,0
;   maxMovementDetourFactor,3
;   toolChangeRetractionDistance,12
;   toolChangeExtraRestartDistance,-0.5
;   toolChangeRetractionSpeed,600
;   externalThinWallType,0
;   internalThinWallType,2
;   thinWallAllowedOverlapPercentage,25
;   singleExtrusionMinLength,1
;   singleExtrusionMinPrintingWidthPercentage,50
;   singleExtrusionMaxPrintingWidthPercentage,200
;   singleExtrusionEndpointExtension,0.2
;   horizontalSizeCompensation,0
G90
M82
M106 S0
M140 S60
M190 S60
M104 S200 T0
M109 S200 T0
M115 U3.0.7 ; use the latest firmware version
G28 W ; home all axes without mesh bed leveling
G80 ; run mesh bed leveling routine
G1 Y-3.0 F1000.0 ; prepare to prime
G92 E0 ; reset extrusion distance
G1 X60.0 E9.0  F1000.0 ; priming
G1 X100.0 E12.5  F1000.0 ; priming
G92 E0
G1 E-1.5000 F1800
G1 Z0.120 F1002
; process Process1
; layer 1, Z = 0.120
T0
; tool H0.120 W0.480
; skirt
G1 X108.668 Y98.118 F4800
G1 E0.0000 F540
G92 E0
G1 X108.672 Y98.114 E0.0001 F742
G1 X108.802 Y97.971 E0.0048
G1 X108.806 Y97.967 E0.0049
G1 X109.188 Y97.584 E0.0179
G1 X109.191 Y97.582 E0.0179
G1 X109.286 Y97.492 E0.0211
G1 X109.289 Y97.490 E0.0212
G1 X109.694 Y97.133 E0.0341
G1 X109.698 Y97.129 E0.0342
G1 X109.850 Y97.007 E0.0389
G1 X109.855 Y97.004 E0.0390
G1 X110.648 Y96.428 E0.0625
G1 X110.654 Y96.423 E0.0627
G1 X110.872 Y96.285 E0.0689
G1 X110.879 Y96.281 E0.0691
G1 X111.738 Y95.809 E0.0925
G1 X111.743 Y95.806 E0.0927
G1 X111.917 Y95.721 E0.0973
G1 X111.922 Y95.718 E0.0974
G1 X112.446 Y95.491 E0.1111
G1 X112.452 Y95.489 E0.1113
G1 X112.633 Y95.421 E0.1159
G1 X112.639 Y95.419 E0.1160
G1 X113.540 Y95.126 E0.1387
G1 X113.545 Y95.124 E0.1389
G1 X113.733 Y95.073 E0.1435
G1 X113.738 Y95.072 E0.1437
G1 X114.264 Y94.954 E0.1566
G1 X114.268 Y94.953 E0.1567
G1 X114.395 Y94.929 E0.1598
G1 X114.398 Y94.929 E0.1598
G1 X114.931 Y94.844 E0.1727
G1 X114.936 Y94.844 E0.1729
G1 X115.129 Y94.822 E0.1775
G1 X115.135 Y94.822 E0.1777
G1 X116.049 Y94.764 E0.1996
G1 X116.052 Y94.764 E0.1997
G1 X116.182 Y94.760 E0.2028
G1 X116.186 Y94.760 E0.2029
G1 X139.637 Y94.764 E0.7645
G1 X139.656 Y94.765 E0.7649
G1 X140.296 Y94.867 E0.7805
G1 X140.315 Y94.871 E0.7809
G1 X141.171 Y95.150 E0.8025
G1 X141.192 Y95.159 E0.8030
G1 X141.874 Y95.534 E0.8217
G1 X141.893 Y95.546 E0.8222
G1 X142.612 Y96.141 E0.8446
G1 X142.627 Y96.156 E0.8451
G1 X143.091 Y96.698 E0.8621
G1 X143.103 Y96.715 E0.8626
G1 X143.546 Y97.464 E0.8835
G1 X143.555 Y97.483 E0.8840
G1 X143.807 Y98.150 E0.9010
G1 X143.813 Y98.170 E0.9015
G1 X143.988 Y99.087 E0.9239
G1 X143.990 Y99.109 E0.9244
G1 X143.990 Y99.888 E0.9431
G1 X143.988 Y99.911 E0.9436
G1 X143.916 Y100.291 E0.9529
G1 X143.935 Y100.362 E0.9547
G1 X143.939 Y100.386 E0.9553
G1 X144.002 Y101.383 E0.9792
G1 X144.002 Y101.406 E0.9797
G1 X143.904 Y102.179 E0.9984
G1 X143.899 Y102.201 E0.9989
G1 X143.611 Y103.090 E1.0213
G1 X143.603 Y103.109 E1.0218
G1 X143.269 Y103.740 E1.0389
G1 X143.257 Y103.757 E1.0394
G1 X142.744 Y104.419 E1.0595
G1 X142.731 Y104.433 E1.0599
G1 X142.258 Y104.877 E1.0754
G1 X142.244 Y104.889 E1.0759
G1 X141.551 Y105.360 E1.0959
G1 X141.533 Y105.370 E1.0964
G1 X140.883 Y105.664 E1.1135
G1 X140.863 Y105.670 E1.1140
G1 X140.085 Y105.870 E1.1333
G1 X140.070 Y105.873 E1.1336
G1 X139.556 Y105.938 E1.1460
G1 X139.541 Y105.939 E1.1464
G1 X126.441 Y105.940 E1.4601
G1 X126.338 Y106.750 E1.4797
G1 X126.338 Y106.756 E1.4798
G1 X126.304 Y106.947 E1.4845
G1 X126.303 Y106.953 E1.4846
G1 X126.179 Y107.510 E1.4983
G1 X126.177 Y107.516 E1.4984
G1 X126.126 Y107.703 E1.5031
G1 X126.124 Y107.708 E1.5032
G1 X125.822 Y108.640 E1.5267
G1 X125.819 Y108.648 E1.5268
G1 X125.724 Y108.888 E1.5330
G1 X125.721 Y108.895 E1.5332
G1 X125.290 Y109.811 E1.5575
G1 X125.287 Y109.818 E1.5577
G1 X125.162 Y110.045 E1.5639
G1 X125.158 Y110.052 E1.5640
G1 X124.616 Y110.906 E1.5883
G1 X124.611 Y110.913 E1.5885
G1 X124.459 Y111.122 E1.5947
G1 X124.455 Y111.128 E1.5948
G1 X123.809 Y111.908 E1.6191
G1 X123.804 Y111.914 E1.6193
G1 X123.627 Y112.103 E1.6255
G1 X123.622 Y112.108 E1.6257
G1 X122.883 Y112.802 E1.6499
G1 X122.877 Y112.807 E1.6501
G1 X122.678 Y112.972 E1.6563
G1 X122.672 Y112.977 E1.6565
G1 X121.852 Y113.572 E1.6807
G1 X121.846 Y113.577 E1.6809
G1 X121.628 Y113.715 E1.6871
G1 X121.621 Y113.719 E1.6873
G1 X120.762 Y114.191 E1.7108
G1 X120.757 Y114.194 E1.7109
G1 X120.583 Y114.279 E1.7156
G1 X120.578 Y114.282 E1.7157
G1 X120.053 Y114.509 E1.7294
G1 X120.048 Y114.511 E1.7295
G1 X119.867 Y114.579 E1.7342
G1 X119.861 Y114.581 E1.7343
G1 X118.929 Y114.884 E1.7578
G1 X118.922 Y114.886 E1.7580
G1 X118.671 Y114.951 E1.7641
G1 X118.664 Y114.952 E1.7643
G1 X117.669 Y115.142 E1.7886
G1 X117.662 Y115.143 E1.7888
G1 X117.405 Y115.175 E1.7950
G1 X117.397 Y115.176 E1.7951
G1 X116.419 Y115.238 E1.8186
G1 X116.414 Y115.238 E1.8187
G1 X116.220 Y115.241 E1.8234
G1 X116.214 Y115.241 E1.8235
G1 X115.643 Y115.223 E1.8372
G1 X115.638 Y115.223 E1.8373
G1 X115.444 Y115.207 E1.8420
G1 X115.438 Y115.207 E1.8421
G1 X114.498 Y115.088 E1.8648
G1 X114.492 Y115.087 E1.8650
G1 X114.301 Y115.054 E1.8696
G1 X114.296 Y115.053 E1.8697
G1 X113.738 Y114.928 E1.8834
G1 X113.733 Y114.927 E1.8835
G1 X113.546 Y114.876 E1.8882
G1 X113.540 Y114.874 E1.8883
G1 X112.639 Y114.581 E1.9110
G1 X112.633 Y114.579 E1.9112
G1 X112.452 Y114.511 E1.9158
G1 X112.447 Y114.509 E1.9160
G1 X111.922 Y114.282 E1.9296
G1 X111.917 Y114.279 E1.9298
G1 X111.743 Y114.194 E1.9344
G1 X111.738 Y114.191 E1.9346
G1 X110.879 Y113.719 E1.9580
G1 X110.872 Y113.715 E1.9582
G1 X110.654 Y113.577 E1.9644
G1 X110.648 Y113.572 E1.9646
G1 X109.855 Y112.996 E1.9881
G1 X109.850 Y112.993 E1.9882
G1 X109.698 Y112.871 E1.9928
G1 X109.694 Y112.868 E1.9930
G1 X109.266 Y112.490 E2.0067
G1 X109.262 Y112.486 E2.0068
G1 X109.122 Y112.351 E2.0114
G1 X109.118 Y112.347 E2.0116
G1 X108.448 Y111.634 E2.0350
G1 X108.443 Y111.628 E2.0352
G1 X108.278 Y111.429 E2.0414
G1 X108.274 Y111.423 E2.0416
G1 X107.679 Y110.604 E2.0658
G1 X107.674 Y110.598 E2.0660
G1 X107.536 Y110.379 E2.0722
G1 X107.532 Y110.373 E2.0724
G1 X107.061 Y109.516 E2.0958
G1 X107.058 Y109.511 E2.0959
G1 X106.973 Y109.337 E2.1006
G1 X106.970 Y109.332 E2.1007
G1 X106.743 Y108.806 E2.1144
G1 X106.740 Y108.801 E2.1145
G1 X106.671 Y108.619 E2.1192
G1 X106.670 Y108.613 E2.1194
G1 X106.376 Y107.712 E2.1421
G1 X106.375 Y107.706 E2.1422
G1 X106.324 Y107.519 E2.1468
G1 X106.322 Y107.513 E2.1470
G1 X106.198 Y106.956 E2.1607
G1 X106.196 Y106.951 E2.1608
G1 X106.163 Y106.759 E2.1654
G1 X106.162 Y106.754 E2.1656
G1 X106.043 Y105.814 E2.1883
G1 X106.043 Y105.808 E2.1884
G1 X106.027 Y105.614 E2.1931
G1 X106.027 Y105.609 E2.1932
G1 X106.010 Y105.070 E2.2061
G1 X106.010 Y105.066 E2.2062
G1 X106.010 Y104.937 E2.2093
G1 X106.010 Y104.933 E2.2094
G1 X106.027 Y104.395 E2.2223
G1 X106.027 Y104.389 E2.2224
G1 X106.042 Y104.196 E2.2271
G1 X106.043 Y104.190 E2.2272
G1 X106.166 Y103.218 E2.2507
G1 X106.167 Y103.210 E2.2508
G1 X106.215 Y102.956 E2.2570
G1 X106.217 Y102.948 E2.2572
G1 X106.469 Y101.968 E2.2815
G1 X106.471 Y101.960 E2.2816
G1 X106.551 Y101.714 E2.2878
G1 X106.553 Y101.707 E2.2880
G1 X106.926 Y100.766 E2.3123
G1 X106.929 Y100.759 E2.3125
G1 X107.039 Y100.524 E2.3187
G1 X107.042 Y100.518 E2.3188
G1 X107.514 Y99.659 E2.3423
G1 X107.517 Y99.654 E2.3424
G1 X107.619 Y99.488 E2.3471
G1 X107.622 Y99.484 E2.3472
G1 X107.943 Y99.011 E2.3609
G1 X107.946 Y99.007 E2.3610
G1 X108.062 Y98.851 E2.3657
G1 X108.066 Y98.847 E2.3658
G1 X108.541 Y98.273 E2.3837
G1 X108.668 Y98.118 F742
G92 E0
G1 E-1.5000 F1800
; outer perimeter
G1 X112.051 Y101.058 F4800
G1 E0.0000 F1800
G92 E0
G1 X112.306 Y100.802 E0.0087 F593
G1 X112.579 Y100.562 E0.0174
G1 X112.864 Y100.340 E0.0260
G1 X113.164 Y100.137 E0.0347
G1 X113.476 Y99.952 E0.0434
G1 X113.798 Y99.788 E0.0520
G1 X114.130 Y99.645 E0.0607
G1 X114.470 Y99.522 E0.0693
G1 X114.818 Y99.421 E0.0780
G1 X115.171 Y99.342 E0.0867
G1 X115.528 Y99.286 E0.0953
G1 X115.888 Y99.251 E0.1040
G1 X116.254 Y99.240 E0.1128
G1 X139.275 Y99.244 E0.6641
G1 X139.373 Y99.276 E0.6665
G1 X139.450 Y99.339 E0.6689
G1 X139.487 Y99.402 E0.6707
G1 X139.506 Y99.500 E0.6730
G1 X139.487 Y99.598 E0.6754
G1 X139.450 Y99.660 E0.6772
G1 X139.364 Y99.731 E0.6798
G1 X139.334 Y99.745 E0.6806
G1 X139.259 Y99.759 E0.6825
G1 X119.388 Y99.760 E1.1583
G1 X119.280 Y100.090 E1.1666
G1 X119.922 Y100.563 E1.1857
G1 X120.338 Y100.940 E1.1992
G1 X139.227 Y100.940 E1.6515
G1 X139.352 Y100.964 E1.6546
G1 X139.402 Y100.991 E1.6559
G1 X139.452 Y101.038 E1.6576
G1 X139.475 Y101.072 E1.6585
G1 X139.497 Y101.129 E1.6600
G1 X139.504 Y101.232 E1.6625
G1 X139.473 Y101.327 E1.6649
G1 X139.426 Y101.387 E1.6667
G1 X139.363 Y101.430 E1.6685
G1 X139.251 Y101.459 E1.6713
G1 X121.118 Y101.460 E2.1055
G1 X120.980 Y101.705 E2.1123
G1 X121.298 Y102.226 E2.1269
G1 X121.461 Y102.547 E2.1355
G1 X121.605 Y102.879 E2.1442
G1 X121.728 Y103.219 E2.1528
G1 X121.829 Y103.567 E2.1615
G1 X121.908 Y103.920 E2.1702
G1 X121.964 Y104.277 E2.1788
G1 X121.998 Y104.637 E2.1875
G1 X122.010 Y104.999 E2.1962
G1 X121.999 Y105.361 E2.2048
G1 X121.965 Y105.721 E2.2135
G1 X121.908 Y106.078 E2.2222
G1 X121.829 Y106.431 E2.2308
G1 X121.728 Y106.779 E2.2395
G1 X121.606 Y107.120 E2.2482
G1 X121.462 Y107.451 E2.2568
G1 X121.298 Y107.774 E2.2655
G1 X121.114 Y108.085 E2.2741
G1 X120.910 Y108.385 E2.2828
G1 X120.689 Y108.671 E2.2915
G1 X120.449 Y108.942 E2.3001
G1 X120.194 Y109.198 E2.3088
G1 X119.921 Y109.438 E2.3175
G1 X119.636 Y109.660 E2.3262
G1 X119.336 Y109.863 E2.3348
G1 X119.025 Y110.047 E2.3435
G1 X118.702 Y110.212 E2.3522
G1 X118.370 Y110.355 E2.3608
G1 X118.030 Y110.478 E2.3695
G1 X117.682 Y110.579 E2.3782
G1 X117.329 Y110.658 E2.3868
G1 X116.972 Y110.714 E2.3955
G1 X116.612 Y110.749 E2.4041
G1 X116.250 Y110.760 E2.4128
G1 X115.888 Y110.749 E2.4215
G1 X115.528 Y110.714 E2.4301
G1 X115.171 Y110.658 E2.4388
G1 X114.818 Y110.579 E2.4475
G1 X114.470 Y110.478 E2.4561
G1 X114.130 Y110.355 E2.4648
G1 X113.798 Y110.212 E2.4735
G1 X113.475 Y110.047 E2.4821
G1 X113.164 Y109.863 E2.4908
G1 X112.864 Y109.660 E2.4995
G1 X112.579 Y109.438 E2.5081
G1 X112.307 Y109.199 E2.5168
G1 X112.052 Y108.944 E2.5254
G1 X111.813 Y108.672 E2.5341
G1 X111.591 Y108.386 E2.5428
G1 X111.387 Y108.087 E2.5514
G1 X111.203 Y107.776 E2.5601
G1 X111.039 Y107.453 E2.5688
G1 X110.895 Y107.121 E2.5774
G1 X110.772 Y106.781 E2.5861
G1 X110.671 Y106.433 E2.5948
G1 X110.592 Y106.080 E2.6034
G1 X110.536 Y105.723 E2.6121
G1 X110.502 Y105.363 E2.6208
G1 X110.490 Y105.001 E2.6294
G1 X110.501 Y104.639 E2.6381
G1 X110.535 Y104.279 E2.6467
G1 X110.592 Y103.922 E2.6554
G1 X110.671 Y103.569 E2.6641
G1 X110.772 Y103.221 E2.6727
G1 X110.894 Y102.880 E2.6814
G1 X111.038 Y102.549 E2.6901
G1 X111.202 Y102.226 E2.6987
G1 X111.386 Y101.914 E2.7074
G1 X111.590 Y101.615 E2.7161
