; G-Code generated by Simplify3D(R) Version 4.0.0
; Dec 10, 2017 at 12:32:33 PM
; Settings Summary
;   processName,Process1
;   applyToModels,pen_holder
;   profileName,Prusa Research Original Prusa i3 MK2 (modified)
;   profileVersion,2017-07-23 22:27:18
;   baseProfile,
;   printMaterial,PLA
;   printQuality,Fast
;   printExtruders,
;   extruderName,Primary Extruder
;   extruderToolheadNumber,0
;   extruderDiameter,0.4
;   extruderAutoWidth,1
;   extruderWidth,0.48
;   extrusionMultiplier,1
;   extruderUseRetract,1
;   extruderRetractionDistance,1.5
;   extruderExtraRestartDistance,0
;   extruderRetractionZLift,0
;   extruderRetractionSpeed,1800
;   extruderUseCoasting,1
;   extruderCoastingDistance,0.2
;   extruderUseWipe,1
;   extruderWipeDistance,2
;   primaryExtruder,0
;   layerHeight,0.35
;   topSolidLayers,3
;   bottomSolidLayers,3
;   perimeterOutlines,3
;   printPerimetersInsideOut,1
;   startPointOption,2
;   startPointOriginX,0
;   startPointOriginY,0
;   sequentialIslands,0
;   spiralVaseMode,0
;   firstLayerHeightPercentage,120
;   firstLayerWidthPercentage,100
;   firstLayerUnderspeed,0.5
;   useRaft,0
;   raftExtruder,0
;   raftTopLayers,3
;   raftBaseLayers,2
;   raftOffset,3
;   raftSeparationDistance,0.14
;   raftTopInfill,100
;   aboveRaftSpeedMultiplier,0.3
;   useSkirt,1
;   skirtExtruder,0
;   skirtLayers,1
;   skirtOutlines,1
;   skirtOffset,4
;   usePrimePillar,0
;   primePillarExtruder,999
;   primePillarWidth,12
;   primePillarLocation,7
;   primePillarSpeedMultiplier,1
;   useOozeShield,0
;   oozeShieldExtruder,999
;   oozeShieldOffset,2
;   oozeShieldOutlines,1
;   oozeShieldSidewallShape,1
;   oozeShieldSidewallAngle,30
;   oozeShieldSpeedMultiplier,1
;   infillExtruder,0
;   internalInfillPattern,Rectilinear
;   externalInfillPattern,Rectilinear
;   infillPercentage,10
;   outlineOverlapPercentage,20
;   infillExtrusionWidthPercentage,100
;   minInfillLength,5
;   infillLayerInterval,1
;   internalInfillAngles,45,-45
;   overlapInternalInfillAngles,0
;   externalInfillAngles,45,-45
;   generateSupport,0
;   supportExtruder,0
;   supportInfillPercentage,25
;   supportExtraInflation,0
;   supportBaseLayers,0
;   denseSupportExtruder,0
;   denseSupportLayers,0
;   denseSupportInfillPercentage,70
;   supportLayerInterval,1
;   supportHorizontalPartOffset,0.3
;   supportUpperSeparationLayers,1
;   supportLowerSeparationLayers,1
;   supportType,0
;   supportGridSpacing,4
;   maxOverhangAngle,45
;   supportAngles,0
;   temperatureName,Primary Extruder,Heated Bed
;   temperatureNumber,0,0
;   temperatureSetpointCount,1,1
;   temperatureSetpointLayers,1,1
;   temperatureSetpointTemperatures,200,60
;   temperatureStabilizeAtStartup,1,1
;   temperatureHeatedBed,0,1
;   temperatureRelayBetweenLayers,0,0
;   temperatureRelayBetweenLoops,0,0
;   fanLayers,1,2
;   fanSpeeds,0,100
;   blipFanToFullPower,0
;   adjustSpeedForCooling,1
;   minSpeedLayerTime,15
;   minCoolingSpeedSlowdown,20
;   increaseFanForCooling,0
;   minFanLayerTime,45
;   maxCoolingFanSpeed,100
;   increaseFanForBridging,0
;   bridgingFanSpeed,100
;   use5D,1
;   relativeEdistances,0
;   allowEaxisZeroing,1
;   independentExtruderAxes,0
;   includeM10123,0
;   stickySupport,1
;   applyToolheadOffsets,0
;   gcodeXoffset,0
;   gcodeYoffset,0
;   gcodeZoffset,0
;   overrideMachineDefinition,1
;   machineTypeOverride,0
;   strokeXoverride,250
;   strokeYoverride,210
;   strokeZoverride,200
;   originOffsetXoverride,0
;   originOffsetYoverride,0
;   originOffsetZoverride,0
;   homeXdirOverride,-1
;   homeYdirOverride,-1
;   homeZdirOverride,-1
;   flipXoverride,1
;   flipYoverride,-1
;   flipZoverride,1
;   toolheadOffsets,0,0|0,0|0,0|0,0|0,0|0,0
;   overrideFirmwareConfiguration,1
;   firmwareTypeOverride,RepRap (Marlin/Repetier/Sprinter)
;   GPXconfigOverride,r2
;   baudRateOverride,250000
;   overridePrinterModels,1
;   printerModelsOverride
;   startingGcode,M115 U3.0.7 ; use the latest firmware version,G28 W ; home all axes without mesh bed leveling,G80 ; run mesh bed leveling routine,G1 Y-3.0 F1000.0 ; prepare to prime,G92 E0 ; reset extrusion distance,G1 X60.0 E9.0  F1000.0 ; priming,G1 X100.0 E12.5  F1000.0 ; priming
;   layerChangeGcode,
;   retractionGcode,
;   toolChangeGcode,
;   endingGcode,M106 S0 ; turn off cooling fan,M104 S0 ; turn off extruder,M140 S0 ; turn off bed,G1 X0 Y200 ; part removal,M84 ; disable motors
;   exportFileFormat,gcode
;   celebration,0
;   celebrationSong,Random Song
;   postProcessing,
;   defaultSpeed,2400
;   outlineUnderspeed,0.8
;   solidInfillUnderspeed,0.8
;   supportUnderspeed,0.8
;   rapidXYspeed,4800
;   rapidZspeed,1002
;   minBridgingArea,50
;   bridgingExtraInflation,0
;   bridgingExtrusionMultiplier,1
;   bridgingSpeedMultiplier,1
;   useFixedBridgingAngle,0
;   fixedBridgingAngle,0
;   applyBridgingToPerimeters,0
;   filamentDiameters,1.75|1.75|1.75|1.75|1.75|1.75
;   filamentPricesPerKg,46|46|46|46|46|46
;   filamentDensities,1.25|1.25|1.25|1.25|1.25|1.25
;   useMinPrintHeight,0
;   minPrintHeight,0
;   useMaxPrintHeight,1
;   maxPrintHeight,235
;   useDiaphragm,0
;   diaphragmLayerInterval,20
;   robustSlicing,1
;   mergeAllIntoSolid,0
;   onlyRetractWhenCrossingOutline,1
;   retractBetweenLayers,1
;   useRetractionMinTravel,0
;   retractionMinTravel,3
;   retractWhileWiping,1
;   onlyWipeOutlines,1
;   avoidCrossingOutline,0
;   maxMovementDetourFactor,3
;   toolChangeRetractionDistance,12
;   toolChangeExtraRestartDistance,-0.5
;   toolChangeRetractionSpeed,600
;   externalThinWallType,0
;   internalThinWallType,2
;   thinWallAllowedOverlapPercentage,25
;   singleExtrusionMinLength,1
;   singleExtrusionMinPrintingWidthPercentage,50
;   singleExtrusionMaxPrintingWidthPercentage,200
;   singleExtrusionEndpointExtension,0.2
;   horizontalSizeCompensation,0
G90
M82
M106 S0
M140 S60
M190 S60
M104 S200 T0
M109 S200 T0
M115 U3.0.7 ; use the latest firmware version
G28 W ; home all axes without mesh bed leveling
G80 ; run mesh bed leveling routine
G1 Y-3.0 F1000.0 ; prepare to prime
G92 E0 ; reset extrusion distance
G1 X60.0 E9.0  F1000.0 ; priming
G1 X100.0 E12.5  F1000.0 ; priming
G92 E0
G1 E-1.5000 F1800
G1 Z0.420 F1002
; process Process1
; layer 1, Z = 0.420
T0
; tool H0.420 W0.480
; skirt
G1 X108.683 Y98.149 F4800
G1 E0.0000 F540
G92 E0
G1 X108.814 Y98.005 E0.0164 F735
G1 X108.818 Y98.001 E0.0169
G1 X109.225 Y97.593 E0.0651
G1 X109.229 Y97.589 E0.0656
G1 X109.373 Y97.459 E0.0819
G1 X109.377 Y97.455 E0.0824
G1 X110.100 Y96.857 E0.1610
G1 X110.105 Y96.854 E0.1614
G1 X110.260 Y96.737 E0.1777
G1 X110.264 Y96.734 E0.1782
G1 X110.734 Y96.415 E0.2258
G1 X110.739 Y96.412 E0.2262
G1 X110.904 Y96.310 E0.2425
G1 X110.909 Y96.307 E0.2430
G1 X111.762 Y95.838 E0.3246
G1 X111.769 Y95.835 E0.3252
G1 X112.003 Y95.725 E0.3469
G1 X112.010 Y95.722 E0.3476
G1 X112.916 Y95.363 E0.4292
G1 X112.921 Y95.361 E0.4297
G1 X113.105 Y95.298 E0.4459
G1 X113.110 Y95.297 E0.4464
G1 X113.656 Y95.138 E0.4940
G1 X113.661 Y95.137 E0.4945
G1 X113.850 Y95.091 E0.5108
G1 X113.855 Y95.090 E0.5112
G1 X114.812 Y94.908 E0.5929
G1 X114.819 Y94.907 E0.5935
G1 X115.076 Y94.874 E0.6152
G1 X115.084 Y94.873 E0.6158
G1 X116.023 Y94.814 E0.6947
G1 X116.027 Y94.814 E0.6951
G1 X116.156 Y94.810 E0.7059
G1 X116.160 Y94.810 E0.7062
G1 X139.419 Y94.810 E2.6557
G1 X139.431 Y94.811 E2.6566
G1 X139.817 Y94.847 E2.6892
G1 X139.828 Y94.849 E2.6901
G1 X140.586 Y94.993 E2.7548
G1 X140.608 Y94.999 E2.7567
G1 X141.332 Y95.286 E2.8220
G1 X141.352 Y95.297 E2.8239
G1 X142.196 Y95.832 E2.9076
G1 X142.215 Y95.847 E2.9096
G1 X142.821 Y96.434 E2.9803
G1 X142.836 Y96.453 E2.9824
G1 X143.433 Y97.330 E3.0714
G1 X143.445 Y97.352 E3.0734
G1 X143.768 Y98.131 E3.1441
G1 X143.775 Y98.155 E3.1462
G1 X143.950 Y99.071 E3.2244
G1 X143.952 Y99.090 E3.2260
G1 X143.973 Y99.738 E3.2803
G1 X143.972 Y99.757 E3.2819
G1 X143.887 Y100.438 E3.3395
G1 X143.963 Y100.835 E3.3733
G1 X143.965 Y100.858 E3.3752
G1 X143.965 Y101.637 E3.4405
G1 X143.963 Y101.659 E3.4424
G1 X143.783 Y102.608 E3.5234
G1 X143.776 Y102.630 E3.5253
G1 X143.490 Y103.355 E3.5906
G1 X143.480 Y103.375 E3.5925
G1 X142.962 Y104.191 E3.6735
G1 X142.948 Y104.209 E3.6754
G1 X142.415 Y104.777 E3.7407
G1 X142.398 Y104.792 E3.7426
G1 X141.616 Y105.361 E3.8236
G1 X141.597 Y105.372 E3.8255
G1 X140.891 Y105.705 E3.8909
G1 X140.870 Y105.712 E3.8928
G1 X140.060 Y105.920 E3.9629
G1 X140.045 Y105.923 E3.9641
G1 X139.531 Y105.988 E4.0076
G1 X139.516 Y105.989 E4.0089
G1 X126.361 Y105.990 E5.1114
G1 X126.352 Y106.135 E5.1236
G1 X126.351 Y106.143 E5.1242
G1 X126.319 Y106.400 E5.1460
G1 X126.318 Y106.407 E5.1466
G1 X126.130 Y107.395 E5.2309
G1 X126.128 Y107.403 E5.2315
G1 X126.064 Y107.654 E5.2532
G1 X126.062 Y107.661 E5.2539
G1 X125.752 Y108.618 E5.3382
G1 X125.749 Y108.625 E5.3388
G1 X125.654 Y108.866 E5.3606
G1 X125.651 Y108.873 E5.3612
G1 X125.223 Y109.783 E5.4455
G1 X125.220 Y109.790 E5.4461
G1 X125.095 Y110.017 E5.4678
G1 X125.091 Y110.024 E5.4685
G1 X124.553 Y110.873 E5.5528
G1 X124.548 Y110.880 E5.5534
G1 X124.396 Y111.089 E5.5751
G1 X124.392 Y111.095 E5.5758
G1 X123.751 Y111.871 E5.6601
G1 X123.746 Y111.877 E5.6608
G1 X123.568 Y112.066 E5.6825
G1 X123.563 Y112.071 E5.6831
G1 X122.827 Y112.763 E5.7678
G1 X122.821 Y112.768 E5.7684
G1 X122.621 Y112.934 E5.7902
G1 X122.615 Y112.938 E5.7909
G1 X121.801 Y113.530 E5.8752
G1 X121.794 Y113.534 E5.8759
G1 X121.576 Y113.673 E5.8976
G1 X121.569 Y113.677 E5.8982
G1 X120.716 Y114.146 E5.9798
G1 X120.711 Y114.149 E5.9803
G1 X120.537 Y114.234 E5.9965
G1 X120.532 Y114.236 E5.9970
G1 X120.010 Y114.462 E6.0446
G1 X120.005 Y114.464 E6.0451
G1 X119.823 Y114.533 E6.0614
G1 X119.818 Y114.535 E6.0619
G1 X118.892 Y114.836 E6.1435
G1 X118.885 Y114.838 E6.1441
G1 X118.634 Y114.902 E6.1658
G1 X118.626 Y114.904 E6.1664
G1 X117.670 Y115.086 E6.2481
G1 X117.664 Y115.087 E6.2485
G1 X117.472 Y115.114 E6.2648
G1 X117.467 Y115.115 E6.2653
G1 X116.901 Y115.169 E6.3129
G1 X116.896 Y115.169 E6.3133
G1 X116.701 Y115.178 E6.3296
G1 X116.696 Y115.178 E6.3301
G1 X115.754 Y115.178 E6.4090
G1 X115.749 Y115.178 E6.4095
G1 X115.554 Y115.169 E6.4258
G1 X115.549 Y115.169 E6.4263
G1 X114.983 Y115.115 E6.4739
G1 X114.978 Y115.114 E6.4743
G1 X114.786 Y115.087 E6.4906
G1 X114.780 Y115.086 E6.4911
G1 X113.855 Y114.910 E6.5700
G1 X113.850 Y114.909 E6.5704
G1 X113.661 Y114.863 E6.5867
G1 X113.656 Y114.862 E6.5872
G1 X113.141 Y114.712 E6.6321
G1 X113.138 Y114.711 E6.6324
G1 X113.015 Y114.671 E6.6432
G1 X113.011 Y114.670 E6.6436
G1 X112.507 Y114.489 E6.6885
G1 X112.502 Y114.487 E6.6889
G1 X112.322 Y114.412 E6.7052
G1 X112.317 Y114.410 E6.7057
G1 X111.465 Y114.009 E6.7846
G1 X111.460 Y114.007 E6.7851
G1 X111.289 Y113.916 E6.8013
G1 X111.284 Y113.913 E6.8018
G1 X110.795 Y113.624 E6.8494
G1 X110.791 Y113.621 E6.8498
G1 X110.628 Y113.514 E6.8662
G1 X110.623 Y113.511 E6.8666
G1 X109.835 Y112.939 E6.9482
G1 X109.830 Y112.934 E6.9489
G1 X109.630 Y112.769 E6.9706
G1 X109.625 Y112.764 E6.9712
G1 X108.894 Y112.079 E7.0552
G1 X108.889 Y112.073 E7.0558
G1 X108.712 Y111.885 E7.0774
G1 X108.707 Y111.880 E7.0781
G1 X108.086 Y111.130 E7.1596
G1 X108.083 Y111.125 E7.1601
G1 X107.966 Y110.970 E7.1764
G1 X107.963 Y110.966 E7.1769
G1 X107.643 Y110.496 E7.2245
G1 X107.640 Y110.491 E7.2249
G1 X107.539 Y110.326 E7.2412
G1 X107.536 Y110.321 E7.2417
G1 X107.066 Y109.468 E7.3233
G1 X107.063 Y109.461 E7.3239
G1 X106.952 Y109.227 E7.3456
G1 X106.949 Y109.220 E7.3463
G1 X106.590 Y108.315 E7.4279
G1 X106.588 Y108.310 E7.4284
G1 X106.525 Y108.126 E7.4446
G1 X106.524 Y108.121 E7.4451
G1 X106.374 Y107.606 E7.4900
G1 X106.373 Y107.603 E7.4903
G1 X106.341 Y107.477 E7.5012
G1 X106.340 Y107.474 E7.5015
G1 X106.223 Y106.951 E7.5464
G1 X106.221 Y106.946 E7.5468
G1 X106.188 Y106.754 E7.5631
G1 X106.187 Y106.749 E7.5636
G1 X106.065 Y105.783 E7.6452
G1 X106.064 Y105.775 E7.6458
G1 X106.047 Y105.517 E7.6676
G1 X106.047 Y105.509 E7.6682
G1 X106.047 Y104.503 E7.7525
G1 X106.047 Y104.496 E7.7531
G1 X106.063 Y104.237 E7.7748
G1 X106.064 Y104.230 E7.7755
G1 X106.189 Y103.231 E7.8598
G1 X106.190 Y103.224 E7.8604
G1 X106.239 Y102.969 E7.8821
G1 X106.240 Y102.962 E7.8828
G1 X106.482 Y102.019 E7.9644
G1 X106.483 Y102.013 E7.9649
G1 X106.540 Y101.828 E7.9811
G1 X106.542 Y101.822 E7.9816
G1 X106.734 Y101.288 E8.0292
G1 X106.736 Y101.283 E8.0297
G1 X106.810 Y101.103 E8.0460
G1 X106.813 Y101.098 E8.0464
G1 X107.213 Y100.246 E8.1254
G1 X107.216 Y100.241 E8.1258
G1 X107.306 Y100.069 E8.1421
G1 X107.309 Y100.064 E8.1426
G1 X107.582 Y99.603 E8.1875
G1 X107.584 Y99.600 E8.1878
G1 X107.653 Y99.490 E8.1986
G1 X107.655 Y99.487 E8.1989
G1 X107.956 Y99.044 E8.2438
G1 X107.959 Y99.040 E8.2443
G1 X108.075 Y98.884 E8.2606
G1 X108.079 Y98.880 E8.2611
G1 X108.555 Y98.303 E8.3237
G1 X108.679 Y98.154 F735
G1 X108.683 Y98.149 F735
G92 E0
G1 E-1.5000 F1800
; outer perimeter
G1 X112.060 Y101.094 F4800
G1 E0.0000 F1800
G92 E0
G1 X112.319 Y100.835 E0.0307 F588
G1 X112.585 Y100.601 E0.0604
G1 X112.869 Y100.381 E0.0905
G1 X113.166 Y100.179 E0.1206
G1 X113.474 Y99.996 E0.1506
G1 X113.794 Y99.833 E0.1807
G1 X114.123 Y99.691 E0.2107
G1 X114.461 Y99.570 E0.2408
G1 X114.805 Y99.470 E0.2709
G1 X115.155 Y99.391 E0.3009
G1 X115.509 Y99.335 E0.3310
G1 X115.866 Y99.301 E0.3611
G1 X116.229 Y99.290 E0.3915
G1 X139.202 Y99.290 E2.3170
G1 X139.319 Y99.312 E2.3270
G1 X139.410 Y99.370 E2.3360
G1 X139.432 Y99.395 E2.3388
G1 X139.461 Y99.448 E2.3439
G1 X139.482 Y99.557 E2.3532
G1 X139.475 Y99.618 E2.3583
G1 X139.463 Y99.649 E2.3611
G1 X139.400 Y99.736 E2.3701
G1 X139.316 Y99.790 E2.3785
G1 X139.230 Y99.809 E2.3858
G1 X119.348 Y99.810 E4.0523
G1 X119.239 Y100.140 E4.0814
G1 X119.865 Y100.601 E4.1466
G1 X120.292 Y100.989 E4.1949
G1 X139.202 Y100.990 E5.7799
G1 X139.319 Y101.012 E5.7898
G1 X139.410 Y101.070 E5.7988
G1 X139.432 Y101.095 E5.8016
G1 X139.461 Y101.148 E5.8067
G1 X139.481 Y101.250 E5.8154
G1 X139.463 Y101.344 E5.8234
G1 X139.411 Y101.425 E5.8315
G1 X139.334 Y101.481 E5.8395
G1 X139.226 Y101.509 E5.8488
G1 X121.066 Y101.510 E7.3709
G1 X120.929 Y101.754 E7.3944
G1 X121.227 Y102.247 E7.4427
G1 X121.390 Y102.566 E7.4727
G1 X121.533 Y102.895 E7.5027
G1 X121.654 Y103.232 E7.5328
G1 X121.755 Y103.577 E7.5629
G1 X121.833 Y103.927 E7.5929
G1 X121.889 Y104.281 E7.6230
G1 X121.923 Y104.638 E7.6531
G1 X121.935 Y104.997 E7.6831
G1 X121.924 Y105.355 E7.7132
G1 X121.890 Y105.712 E7.7433
G1 X121.834 Y106.067 E7.7733
G1 X121.756 Y106.417 E7.8034
G1 X121.656 Y106.761 E7.8335
G1 X121.535 Y107.099 E7.8635
G1 X121.393 Y107.428 E7.8936
G1 X121.230 Y107.748 E7.9236
G1 X121.048 Y108.057 E7.9537
G1 X120.846 Y108.353 E7.9838
G1 X120.627 Y108.637 E8.0138
G1 X120.390 Y108.906 E8.0439
G1 X120.136 Y109.160 E8.0740
G1 X119.865 Y109.400 E8.1043
G1 X119.581 Y109.619 E8.1344
G1 X119.285 Y109.821 E8.1644
G1 X118.976 Y110.004 E8.1945
G1 X118.656 Y110.166 E8.2246
G1 X118.327 Y110.309 E8.2546
G1 X117.990 Y110.430 E8.2847
G1 X117.645 Y110.531 E8.3148
G1 X117.295 Y110.609 E8.3448
G1 X116.941 Y110.665 E8.3749
G1 X116.584 Y110.699 E8.4050
G1 X116.225 Y110.710 E8.4350
G1 X115.866 Y110.699 E8.4651
G1 X115.509 Y110.665 E8.4952
G1 X115.155 Y110.609 E8.5252
G1 X114.805 Y110.531 E8.5553
G1 X114.460 Y110.430 E8.5854
G1 X114.123 Y110.309 E8.6154
G1 X113.794 Y110.166 E8.6455
G1 X113.474 Y110.004 E8.6756
G1 X113.165 Y109.821 E8.7056
G1 X112.869 Y109.619 E8.7357
G1 X112.585 Y109.400 E8.7657
G1 X112.316 Y109.162 E8.7958
G1 X112.065 Y108.911 E8.8256
G1 X111.828 Y108.642 E8.8557
G1 X111.608 Y108.359 E8.8857
G1 X111.406 Y108.062 E8.9158
G1 X111.223 Y107.754 E8.9459
G1 X111.060 Y107.434 E8.9759
G1 X110.917 Y107.105 E9.0060
G1 X110.796 Y106.768 E9.0360
G1 X110.695 Y106.423 E9.0661
G1 X110.617 Y106.073 E9.0962
G1 X110.561 Y105.719 E9.1262
G1 X110.527 Y105.362 E9.1563
G1 X110.515 Y105.003 E9.1864
G1 X110.526 Y104.645 E9.2164
G1 X110.560 Y104.288 E9.2465
G1 X110.616 Y103.933 E9.2766
G1 X110.694 Y103.583 E9.3066
G1 X110.794 Y103.239 E9.3367
G1 X110.915 Y102.901 E9.3667
G1 X111.057 Y102.572 E9.3968
G1 X111.220 Y102.252 E9.4269
G1 X111.402 Y101.943 E9.4569
G1 X111.604 Y101.647 E9.4870
G1 X111.823 Y101.363 E9.5171
G1 X111.928 Y101.244 E9.5304
