; G-Code generated by Simplify3D(R) Version 4.0.0
; Aug 29, 2017 at 10:50:38 PM
; Settings Summary
;   processName,Process1
;   applyToModels,alva-ljadas
;   profileName,Prusa Research Original Prusa i3 MK2 (modified)
;   profileVersion,2017-07-23 22:27:18
;   baseProfile,
;   printMaterial,PLA
;   printQuality,High
;   printExtruders,
;   extruderName,Primary Extruder
;   extruderToolheadNumber,0
;   extruderDiameter,0.4
;   extruderAutoWidth,1
;   extruderWidth,0.48
;   extrusionMultiplier,1
;   extruderUseRetract,1
;   extruderRetractionDistance,1.5
;   extruderExtraRestartDistance,0
;   extruderRetractionZLift,0
;   extruderRetractionSpeed,1800
;   extruderUseCoasting,1
;   extruderCoastingDistance,0.2
;   extruderUseWipe,1
;   extruderWipeDistance,2
;   primaryExtruder,0
;   layerHeight,0.1
;   topSolidLayers,3
;   bottomSolidLayers,3
;   perimeterOutlines,3
;   printPerimetersInsideOut,1
;   startPointOption,2
;   startPointOriginX,0
;   startPointOriginY,0
;   sequentialIslands,0
;   spiralVaseMode,0
;   firstLayerHeightPercentage,120
;   firstLayerWidthPercentage,100
;   firstLayerUnderspeed,0.5
;   useRaft,0
;   raftExtruder,0
;   raftTopLayers,3
;   raftBaseLayers,2
;   raftOffset,3
;   raftSeparationDistance,0.14
;   raftTopInfill,100
;   aboveRaftSpeedMultiplier,0.3
;   useSkirt,1
;   skirtExtruder,0
;   skirtLayers,2
;   skirtOutlines,1
;   skirtOffset,4
;   usePrimePillar,0
;   primePillarExtruder,999
;   primePillarWidth,12
;   primePillarLocation,7
;   primePillarSpeedMultiplier,1
;   useOozeShield,0
;   oozeShieldExtruder,999
;   oozeShieldOffset,2
;   oozeShieldOutlines,1
;   oozeShieldSidewallShape,1
;   oozeShieldSidewallAngle,30
;   oozeShieldSpeedMultiplier,1
;   infillExtruder,0
;   internalInfillPattern,Full Honeycomb
;   externalInfillPattern,Rectilinear
;   infillPercentage,25
;   outlineOverlapPercentage,20
;   infillExtrusionWidthPercentage,100
;   minInfillLength,5
;   infillLayerInterval,1
;   internalInfillAngles,0,120,-120
;   overlapInternalInfillAngles,0
;   externalInfillAngles,45,-45
;   generateSupport,0
;   supportExtruder,0
;   supportInfillPercentage,40
;   supportExtraInflation,0
;   supportBaseLayers,0
;   denseSupportExtruder,0
;   denseSupportLayers,0
;   denseSupportInfillPercentage,70
;   supportLayerInterval,1
;   supportHorizontalPartOffset,0.3
;   supportUpperSeparationLayers,1
;   supportLowerSeparationLayers,1
;   supportType,0
;   supportGridSpacing,4
;   maxOverhangAngle,45
;   supportAngles,0
;   temperatureName,Primary Extruder,Heated Bed
;   temperatureNumber,0,0
;   temperatureSetpointCount,1,1
;   temperatureSetpointLayers,1,1
;   temperatureSetpointTemperatures,200,60
;   temperatureStabilizeAtStartup,1,1
;   temperatureHeatedBed,0,1
;   temperatureRelayBetweenLayers,0,0
;   temperatureRelayBetweenLoops,0,0
;   fanLayers,1,2
;   fanSpeeds,0,100
;   blipFanToFullPower,0
;   adjustSpeedForCooling,1
;   minSpeedLayerTime,15
;   minCoolingSpeedSlowdown,20
;   increaseFanForCooling,0
;   minFanLayerTime,45
;   maxCoolingFanSpeed,100
;   increaseFanForBridging,0
;   bridgingFanSpeed,100
;   use5D,1
;   relativeEdistances,0
;   allowEaxisZeroing,1
;   independentExtruderAxes,0
;   includeM10123,0
;   stickySupport,1
;   applyToolheadOffsets,0
;   gcodeXoffset,0
;   gcodeYoffset,0
;   gcodeZoffset,0
;   overrideMachineDefinition,1
;   machineTypeOverride,0
;   strokeXoverride,250
;   strokeYoverride,210
;   strokeZoverride,200
;   originOffsetXoverride,0
;   originOffsetYoverride,0
;   originOffsetZoverride,0
;   homeXdirOverride,-1
;   homeYdirOverride,-1
;   homeZdirOverride,-1
;   flipXoverride,1
;   flipYoverride,-1
;   flipZoverride,1
;   toolheadOffsets,0,0|0,0|0,0|0,0|0,0|0,0
;   overrideFirmwareConfiguration,1
;   firmwareTypeOverride,RepRap (Marlin/Repetier/Sprinter)
;   GPXconfigOverride,r2
;   baudRateOverride,250000
;   overridePrinterModels,1
;   printerModelsOverride
;   startingGcode,M115 U3.0.7 ; use the latest firmware version,G28 W ; home all axes without mesh bed leveling,G80 ; run mesh bed leveling routine,G1 Y-3.0 F1000.0 ; prepare to prime,G92 E0 ; reset extrusion distance,G1 X60.0 E9.0  F1000.0 ; priming,G1 X100.0 E12.5  F1000.0 ; priming
;   layerChangeGcode,
;   retractionGcode,
;   toolChangeGcode,
;   endingGcode,M106 S0 ; turn off cooling fan,M104 S0 ; turn off extruder,M140 S0 ; turn off bed,G1 X0 Y200 ; part removal,M84 ; disable motors
;   exportFileFormat,gcode
;   celebration,0
;   celebrationSong,Random Song
;   postProcessing,
;   defaultSpeed,2400
;   outlineUnderspeed,0.8
;   solidInfillUnderspeed,0.8
;   supportUnderspeed,0.8
;   rapidXYspeed,4800
;   rapidZspeed,1002
;   minBridgingArea,50
;   bridgingExtraInflation,0
;   bridgingExtrusionMultiplier,1
;   bridgingSpeedMultiplier,1
;   useFixedBridgingAngle,0
;   fixedBridgingAngle,0
;   applyBridgingToPerimeters,0
;   filamentDiameters,1.75|1.75|1.75|1.75|1.75|1.75
;   filamentPricesPerKg,46|46|46|46|46|46
;   filamentDensities,1.25|1.25|1.25|1.25|1.25|1.25
;   useMinPrintHeight,1
;   minPrintHeight,0
;   useMaxPrintHeight,1
;   maxPrintHeight,235
;   useDiaphragm,0
;   diaphragmLayerInterval,20
;   robustSlicing,1
;   mergeAllIntoSolid,0
;   onlyRetractWhenCrossingOutline,1
;   retractBetweenLayers,1
;   useRetractionMinTravel,0
;   retractionMinTravel,3
;   retractWhileWiping,1
;   onlyWipeOutlines,1
;   avoidCrossingOutline,0
;   maxMovementDetourFactor,3
;   toolChangeRetractionDistance,12
;   toolChangeExtraRestartDistance,-0.5
;   toolChangeRetractionSpeed,600
;   externalThinWallType,0
;   internalThinWallType,2
;   thinWallAllowedOverlapPercentage,25
;   singleExtrusionMinLength,1
;   singleExtrusionMinPrintingWidthPercentage,50
;   singleExtrusionMaxPrintingWidthPercentage,200
;   singleExtrusionEndpointExtension,0.2
;   horizontalSizeCompensation,0
G90
M82
M106 S0
M140 S60
M190 S60
M104 S200 T0
M109 S200 T0
M115 U3.0.7 ; use the latest firmware version
G28 W ; home all axes without mesh bed leveling
G80 ; run mesh bed leveling routine
G1 Y-3.0 F1000.0 ; prepare to prime
G92 E0 ; reset extrusion distance
G1 X60.0 E9.0  F1000.0 ; priming
G1 X100.0 E12.5  F1000.0 ; priming
G92 E0
G1 E-1.5000 F1800
G1 Z0.120 F1002
; process Process1
; layer 1, Z = 0.120
T0
; tool H0.120 W0.480
; skirt
G1 X77.875 Y93.801 F4800
G1 E0.0000 F540
G92 E0
G1 X77.893 Y93.786 E0.0006 F1200
G1 X79.216 Y92.901 E0.0387
G1 X79.237 Y92.890 E0.0393
G1 X79.987 Y92.580 E0.0587
G1 X80.010 Y92.573 E0.0592
G1 X81.371 Y92.302 E0.0925
G1 X81.383 Y92.300 E0.0928
G1 X81.786 Y92.261 E0.1025
G1 X81.798 Y92.260 E0.1028
G1 X168.202 Y92.260 E2.1719
G1 X168.214 Y92.261 E2.1722
G1 X168.617 Y92.300 E2.1819
G1 X168.629 Y92.302 E2.1822
G1 X169.991 Y92.573 E2.2154
G1 X170.013 Y92.580 E2.2160
G1 X170.763 Y92.890 E2.2354
G1 X170.784 Y92.901 E2.2360
G1 X172.107 Y93.786 E2.2741
G1 X172.125 Y93.801 E2.2747
G1 X172.699 Y94.374 E2.2941
G1 X172.714 Y94.393 E2.2947
G1 X173.599 Y95.716 E2.3328
G1 X173.610 Y95.737 E2.3334
G1 X173.920 Y96.487 E2.3528
G1 X173.927 Y96.510 E2.3534
G1 X174.198 Y97.871 E2.3866
G1 X174.200 Y97.883 E2.3869
G1 X174.239 Y98.286 E2.3966
G1 X174.240 Y98.298 E2.3969
G1 X174.240 Y111.702 E2.7179
G1 X174.239 Y111.714 E2.7182
G1 X174.200 Y112.117 E2.7279
G1 X174.198 Y112.128 E2.7281
G1 X173.927 Y113.490 E2.7614
G1 X173.920 Y113.513 E2.7620
G1 X173.610 Y114.263 E2.7814
G1 X173.599 Y114.284 E2.7820
G1 X172.714 Y115.607 E2.8201
G1 X172.699 Y115.626 E2.8206
G1 X172.126 Y116.199 E2.8401
G1 X172.107 Y116.214 E2.8406
G1 X170.784 Y117.099 E2.8787
G1 X170.763 Y117.110 E2.8793
G1 X170.013 Y117.420 E2.8988
G1 X169.990 Y117.427 E2.8993
G1 X168.628 Y117.698 E2.9326
G1 X168.617 Y117.700 E2.9329
G1 X168.214 Y117.739 E2.9425
G1 X168.202 Y117.740 E2.9428
G1 X81.798 Y117.740 E5.0120
G1 X81.786 Y117.739 E5.0123
G1 X81.383 Y117.700 E5.0220
G1 X81.371 Y117.698 E5.0222
G1 X80.010 Y117.427 E5.0555
G1 X79.987 Y117.420 E5.0561
G1 X79.237 Y117.110 E5.0755
G1 X79.216 Y117.099 E5.0761
G1 X77.893 Y116.214 E5.1142
G1 X77.874 Y116.199 E5.1148
G1 X77.301 Y115.625 E5.1342
G1 X77.286 Y115.607 E5.1347
G1 X76.401 Y114.284 E5.1729
G1 X76.390 Y114.263 E5.1734
G1 X76.080 Y113.513 E5.1929
G1 X76.073 Y113.491 E5.1934
G1 X75.802 Y112.129 E5.2267
G1 X75.800 Y112.117 E5.2270
G1 X75.761 Y111.714 E5.2367
G1 X75.760 Y111.702 E5.2369
G1 X75.760 Y98.298 E5.5579
G1 X75.761 Y98.286 E5.5582
G1 X75.800 Y97.883 E5.5679
G1 X75.802 Y97.871 E5.5682
G1 X76.073 Y96.510 E5.6015
G1 X76.080 Y96.487 E5.6020
G1 X76.390 Y95.737 E5.6215
G1 X76.401 Y95.716 E5.6220
G1 X77.286 Y94.393 E5.6601
G1 X77.301 Y94.375 E5.6607
G1 X77.733 Y93.942 E5.6754
G1 X77.875 Y93.801 F1200
G92 E0
G1 E-1.5000 F1800
; inner perimeter
G1 X81.451 Y97.951 F4800
G1 E0.0000 F1800
G92 E0
G1 X81.703 Y97.783 E0.0073 F1080
G1 X82.118 Y97.700 E0.0174
G1 X167.882 Y97.700 E2.0712
G1 X168.297 Y97.783 E2.0813
G1 X168.549 Y97.951 E2.0886
G1 X168.717 Y98.203 E2.0959
G1 X168.800 Y98.618 E2.1060
G1 X168.800 Y111.382 E2.4117
G1 X168.717 Y111.797 E2.4218
G1 X168.549 Y112.049 E2.4290
G1 X168.297 Y112.217 E2.4363
G1 X167.882 Y112.300 E2.4464
G1 X82.118 Y112.300 E4.5003
G1 X81.703 Y112.217 E4.5104
G1 X81.451 Y112.049 E4.5176
G1 X81.283 Y111.797 E4.5249
G1 X81.200 Y111.382 E4.5350
G1 X81.200 Y98.618 E4.8407
G1 X81.283 Y98.203 E4.8508
G1 X81.340 Y98.117 E4.8533
G1 X81.451 Y97.951 F1080
G1 X81.105 Y97.605 F4800
G92 E0
G1 X81.516 Y97.330 E0.0118 F1080
G1 X82.071 Y97.220 E0.0254
G1 X167.929 Y97.220 E2.0815
G1 X168.484 Y97.330 E2.0950
G1 X168.895 Y97.605 E2.1068
G1 X169.170 Y98.016 E2.1187
G1 X169.280 Y98.571 E2.1322
G1 X169.280 Y111.429 E2.4402
G1 X169.170 Y111.984 E2.4537
G1 X168.895 Y112.395 E2.4655
G1 X168.484 Y112.670 E2.4774
G1 X167.929 Y112.780 E2.4909
G1 X82.071 Y112.780 E4.5470
G1 X81.516 Y112.670 E4.5606
G1 X81.105 Y112.395 E4.5724
G1 X80.830 Y111.984 E4.5842
G1 X80.720 Y111.429 E4.5978
G1 X80.720 Y98.571 E4.9057
G1 X80.830 Y98.016 E4.9193
G1 X80.994 Y97.771 E4.9263
G1 X81.105 Y97.605 F1080
; outer perimeter
G1 X80.759 Y97.259 F4800
G92 E0
G1 X81.328 Y96.878 E0.0164 F960
G1 X82.024 Y96.740 E0.0334
G1 X167.976 Y96.740 E2.0917
G1 X168.672 Y96.878 E2.1087
G1 X169.241 Y97.259 E2.1251
G1 X169.622 Y97.828 E2.1415
G1 X169.760 Y98.524 E2.1585
G1 X169.760 Y111.476 E2.4687
G1 X169.622 Y112.172 E2.4856
G1 X169.241 Y112.741 E2.5020
G1 X168.672 Y113.122 E2.5184
G1 X167.976 Y113.260 E2.5354
G1 X82.024 Y113.260 E4.5938
G1 X81.328 Y113.122 E4.6107
G1 X80.759 Y112.741 E4.6271
G1 X80.378 Y112.172 E4.6435
G1 X80.240 Y111.476 E4.6605
G1 X80.240 Y98.524 E4.9707
G1 X80.378 Y97.828 E4.9877
G1 X80.648 Y97.425 E4.9993
G1 X80.759 Y97.259 F960
G1 X81.328 Y96.878 F2400
G1 X82.024 Y96.740 F2400
G1 X82.630 Y96.740 F2400
; inner perimeter
G1 X83.766 Y98.522 F4800
G92 E0
G1 X82.721 Y99.221 E0.0301 F1080
G1 X82.022 Y100.266 E0.0602
G1 X81.800 Y101.382 E0.0875
G1 X81.800 Y108.618 E0.2608
G1 X82.022 Y109.734 E0.2880
G1 X82.721 Y110.779 E0.3181
G1 X83.766 Y111.478 E0.3482
G1 X84.882 Y111.700 E0.3755
G1 X87.118 Y111.700 E0.4290
G1 X88.234 Y111.478 E0.4563
G1 X89.279 Y110.779 E0.4864
G1 X89.978 Y109.734 E0.5165
G1 X90.200 Y108.618 E0.5437
G1 X90.200 Y101.382 E0.7170
G1 X89.978 Y100.266 E0.7443
G1 X89.279 Y99.221 E0.7744
G1 X88.234 Y98.522 E0.8045
G1 X87.118 Y98.300 E0.8317
G1 X84.882 Y98.300 E0.8853
G1 X83.963 Y98.483 E0.9077
G1 X83.766 Y98.522 F1080
G1 X83.954 Y98.974 F4800
G92 E0
G1 X83.067 Y99.567 E0.0255 F1080
G1 X82.474 Y100.454 E0.0511
G1 X82.280 Y101.429 E0.0749
G1 X82.280 Y108.571 E0.2459
G1 X82.474 Y109.546 E0.2698
G1 X83.067 Y110.433 E0.2953
G1 X83.954 Y111.026 E0.3208
G1 X84.929 Y111.220 E0.3447
G1 X87.071 Y111.220 E0.3960
G1 X88.046 Y111.026 E0.4198
G1 X88.933 Y110.433 E0.4453
G1 X89.526 Y109.546 E0.4709
G1 X89.720 Y108.571 E0.4947
G1 X89.720 Y101.429 E0.6657
G1 X89.526 Y100.454 E0.6895
G1 X88.933 Y99.567 E0.7151
G1 X88.046 Y98.974 E0.7406
G1 X87.071 Y98.780 E0.7644
G1 X84.929 Y98.780 E0.8157
G1 X84.150 Y98.935 E0.8347
G1 X83.954 Y98.974 F1080
; outer perimeter
G1 X84.141 Y99.426 F4800
G92 E0
G1 X83.413 Y99.913 E0.0210 F960
G1 X82.926 Y100.641 E0.0419
G1 X82.760 Y101.476 E0.0623
G1 X82.760 Y108.524 E0.2311
G1 X82.926 Y109.359 E0.2515
G1 X83.413 Y110.087 E0.2725
G1 X84.141 Y110.574 E0.2935
G1 X84.976 Y110.740 E0.3139
G1 X87.024 Y110.740 E0.3629
G1 X87.859 Y110.574 E0.3833
G1 X88.587 Y110.087 E0.4042
G1 X89.074 Y109.359 E0.4252
G1 X89.240 Y108.524 E0.4456
G1 X89.240 Y101.476 E0.6144
G1 X89.074 Y100.641 E0.6348
G1 X88.587 Y99.913 E0.6558
G1 X87.859 Y99.426 E0.6767
G1 X87.024 Y99.260 E0.6971
G1 X84.976 Y99.260 E0.7462
G1 X84.337 Y99.387 E0.7618
G1 X84.141 Y99.426 F960
G1 X83.413 Y99.913 F2400
G1 X82.926 Y100.641 F2400
G1 X82.878 Y100.885 F2400
; solid layer
G1 X81.621 Y100.314 F4800
G92 E0
G1 X81.584 Y100.277 E0.0012 F960
G1 X81.584 Y99.598 E0.0175
G1 X81.837 Y99.851 E0.0261
G1 X82.109 Y99.444 E0.0378
G1 X81.584 Y98.919 E0.0556
G1 X81.584 Y98.656 E0.0619
G1 X81.644 Y98.353 E0.0693
G1 X81.665 Y98.322 E0.0702
G1 X82.381 Y99.038 E0.0944
G1 X82.444 Y98.944 E0.0971
G1 X82.757 Y98.735 E0.1062
G1 X82.115 Y98.092 E0.1279
G1 X82.156 Y98.084 E0.1289
G1 X82.785 Y98.084 E0.1440
G1 X83.164 Y98.463 E0.1568
G1 X83.530 Y98.218 E0.1674
G1 X83.571 Y98.191 F960
G1 X83.464 Y98.084 F960
G1 X88.216 Y98.084 F4800
G92 E0
G1 X88.269 Y98.137 E0.0018 F960
G1 X88.383 Y98.160 E0.0046
G1 X89.556 Y98.944 E0.0384
G1 X90.340 Y100.117 E0.0722
G1 X90.363 Y100.231 E0.0749
G1 X102.048 Y111.916 E0.4707
G1 X102.727 Y111.916 E0.4869
G1 X88.895 Y98.084 E0.9554
G1 X89.573 Y98.084 E0.9716
G1 X103.405 Y111.916 E1.4401
G1 X104.084 Y111.916 E1.4563
G1 X90.252 Y98.084 E1.9248
G1 X90.931 Y98.084 E1.9410
G1 X104.763 Y111.916 E2.4095
G1 X105.442 Y111.916 E2.4257
G1 X91.610 Y98.084 E2.8942
G1 X92.289 Y98.084 E2.9104
G1 X106.121 Y111.916 E3.3789
G1 X106.800 Y111.916 E3.3951
G1 X92.968 Y98.084 E3.8636
G1 X93.646 Y98.084 E3.8798
G1 X107.478 Y111.916 E4.3483
G1 X108.157 Y111.916 E4.3645
G1 X94.325 Y98.084 E4.8330
G1 X95.004 Y98.084 E4.8492
G1 X108.836 Y111.916 E5.3177
G1 X109.515 Y111.916 E5.3339
G1 X95.683 Y98.084 E5.8024
G1 X96.362 Y98.084 E5.8186
G1 X110.194 Y111.916 E6.2871
G1 X110.873 Y111.916 E6.3033
G1 X97.041 Y98.084 E6.7718
G1 X97.719 Y98.084 E6.7880
G1 X111.551 Y111.916 E7.2565
G1 X112.230 Y111.916 E7.2727
G1 X98.398 Y98.084 E7.7412
G1 X99.077 Y98.084 E7.7574
G1 X112.909 Y111.916 E8.2259
G1 X113.588 Y111.916 E8.2421
G1 X99.756 Y98.084 E8.7106
G1 X100.435 Y98.084 E8.7268
G1 X114.267 Y111.916 E9.1953
G1 X114.945 Y111.916 E9.2115
G1 X101.113 Y98.084 E9.6800
G1 X101.792 Y98.084 E9.6962
G1 X115.624 Y111.916 E10.1647
G1 X116.303 Y111.916 E10.1809
G1 X102.471 Y98.084 E10.6494
G1 X103.150 Y98.084 E10.6656
G1 X116.982 Y111.916 E11.1341
G1 X117.661 Y111.916 E11.1503
G1 X103.829 Y98.084 E11.6187
G1 X104.508 Y98.084 E11.6350
G1 X118.340 Y111.916 E12.1034
G1 X119.018 Y111.916 E12.1197
G1 X105.186 Y98.084 E12.5881
G1 X105.865 Y98.084 E12.6044
G1 X119.697 Y111.916 E13.0728
G1 X120.376 Y111.916 E13.0891
G1 X106.544 Y98.084 E13.5575
G1 X107.223 Y98.084 E13.5738
G1 X121.055 Y111.916 E14.0422
G1 X121.734 Y111.916 E14.0585
G1 X107.902 Y98.084 E14.5269
G1 X108.580 Y98.084 E14.5432
G1 X122.412 Y111.916 E15.0116
G1 X123.091 Y111.916 E15.0279
G1 X109.259 Y98.084 E15.4963
G1 X109.938 Y98.084 E15.5126
G1 X123.770 Y111.916 E15.9810
G1 X124.449 Y111.916 E15.9973
G1 X110.617 Y98.084 E16.4657
G1 X111.296 Y98.084 E16.4820
G1 X125.128 Y111.916 E16.9504
G1 X125.807 Y111.916 E16.9667
G1 X111.975 Y98.084 E17.4351
G1 X112.653 Y98.084 E17.4514
G1 X126.485 Y111.916 E17.9198
G1 X127.164 Y111.916 E17.9361
G1 X113.332 Y98.084 E18.4045
G1 X114.011 Y98.084 E18.4208
G1 X127.843 Y111.916 E18.8892
G1 X128.522 Y111.916 E18.9055
G1 X114.690 Y98.084 E19.3739
G1 X115.369 Y98.084 E19.3902
G1 X129.201 Y111.916 E19.8586
G1 X129.880 Y111.916 E19.8749
G1 X116.048 Y98.084 E20.3433
G1 X116.726 Y98.084 E20.3596
G1 X130.558 Y111.916 E20.8280
G1 X131.237 Y111.916 E20.8443
G1 X117.405 Y98.084 E21.3127
G1 X118.084 Y98.084 E21.3290
G1 X131.916 Y111.916 E21.7974
G1 X132.595 Y111.916 E21.8137
G1 X118.763 Y98.084 E22.2821
G1 X119.442 Y98.084 E22.2984
G1 X133.274 Y111.916 E22.7668
G1 X133.952 Y111.916 E22.7831
