; generated by Slic3r Prusa Edition 1.40.0+ on 2018-12-26 at 14:58:48

; 

; external perimeters extrusion width = 0.60mm
; perimeters extrusion width = 0.43mm
; infill extrusion width = 0.45mm
; solid infill extrusion width = 0.70mm
; top infill extrusion width = 0.43mm
; support material extrusion width = 0.35mm
; first layer extrusion width = 0.42mm

M107
M115 U3.1.0 ; tell printer latest fw version
M201 X9000 Y9000 Z500 E10000 ; sets maximum accelerations, mm/sec^2
M203 X500 Y500 Z12 E120 ; sets maximum feedrates, mm/sec
M204 S1500 T1500 ; sets acceleration (S) and retract acceleration (T)
M205 X10 Y10 Z0.2 E2.5 ; sets the jerk limits, mm/sec
M205 S0 T0 ; sets the minimum extruding and travel feed rate, mm/sec
M83  ; extruder relative mode
M104 S215 ; set extruder temp
M140 S60 ; set bed temp
M190 S60 ; wait for bed temp
M109 S215 ; wait for extruder temp
G28 W ; home all without mesh bed level
G80 ; mesh bed leveling
G1 Y-3.0 F1000.0 ; go outside print area
G92 E0.0
G1 X60.0 E9.0  F1000.0 ; intro line
G1 X100.0 E12.5  F1000.0 ; intro line
G92 E0.0
M900 K30; Filament gcode
G21 ; set units to millimeters
G90 ; use absolute coordinates
M83 ; use relative distances for extrusion
;BEFORE_LAYER_CHANGE
G92 E0.0
;0.2


G1 E-0.80000 F2100.00000
G1 Z0.600 F10800.000
;AFTER_LAYER_CHANGE
;0.2
G1 X105.915 Y89.339
G1 Z0.200
G1 E0.80000 F2100.00000
M204 S1000
G1 F1800
G1 X107.542 Y87.544 E0.07596
G1 X109.337 Y85.916 E0.07597
G1 X111.283 Y84.473 E0.07596
G1 X113.361 Y83.227 E0.07597
G1 X115.551 Y82.191 E0.07596
G1 X117.832 Y81.375 E0.07597
G1 X120.182 Y80.786 E0.07597
G1 X122.579 Y80.430 E0.07596
G1 X125.002 Y80.311 E0.07608
G1 X127.418 Y80.430 E0.07585
G1 X129.815 Y80.786 E0.07597
G1 X132.165 Y81.374 E0.07596
G1 X134.447 Y82.190 E0.07597
G1 X136.637 Y83.226 E0.07597
G1 X138.715 Y84.471 E0.07596
G1 X140.661 Y85.915 E0.07597
G1 X142.456 Y87.542 E0.07596
G1 X144.084 Y89.337 E0.07597
G1 X145.527 Y91.283 E0.07596
G1 X146.773 Y93.361 E0.07597
G1 X147.809 Y95.551 E0.07596
G1 X148.625 Y97.832 E0.07597
G1 X149.214 Y100.182 E0.07597
G1 X149.570 Y102.579 E0.07596
G1 X149.689 Y104.999 E0.07597
G1 X149.570 Y107.418 E0.07596
G1 X149.214 Y109.815 E0.07597
G1 X148.626 Y112.165 E0.07597
G1 X147.810 Y114.447 E0.07597
G1 X146.774 Y116.637 E0.07597
G1 X145.529 Y118.715 E0.07596
G1 X144.085 Y120.661 E0.07597
G1 X142.458 Y122.456 E0.07596
G1 X140.663 Y124.084 E0.07597
G1 X138.730 Y125.519 E0.07550
G1 X136.649 Y126.767 E0.07608
G1 X134.839 Y127.624 E0.06279
G1 X126.450 Y129.593 E0.27018
G1 X125.001 Y129.689 E0.04551
G1 X122.582 Y129.570 E0.07596
G1 X120.185 Y129.214 E0.07597
G1 X117.835 Y128.626 E0.07596
G1 X115.553 Y127.810 E0.07597
G1 X113.363 Y126.774 E0.07597
G1 X111.285 Y125.529 E0.07596
G1 X109.339 Y124.085 E0.07597
G1 X107.544 Y122.458 E0.07596
G1 X105.916 Y120.663 E0.07597
G1 X104.473 Y118.717 E0.07596
G1 X103.227 Y116.639 E0.07597
G1 X102.191 Y114.449 E0.07596
G1 X101.375 Y112.168 E0.07597
G1 X100.786 Y109.818 E0.07597
G1 X100.430 Y107.421 E0.07596
G1 X100.311 Y105.001 E0.07597
G1 X100.430 Y102.582 E0.07596
G1 X100.786 Y100.185 E0.07597
G1 X101.374 Y97.835 E0.07596
G1 X102.190 Y95.553 E0.07597
G1 X103.226 Y93.363 E0.07597
G1 X104.471 Y91.285 E0.07596
G1 X105.879 Y89.387 E0.07409
G1 F8640
G1 X107.542 Y87.544 E-0.57320
G1 X108.141 Y87.000 E-0.18680
G1 E-0.04000 F2100.00000
G1 Z0.800 F10800.000
G1 X134.587 Y124.676
G1 Z0.200
G1 E0.80000 F2100.00000
G1 F1800
G1 X134.587 Y107.165 E0.54903
G1 X134.649 Y106.919 E0.00796
G1 X134.790 Y105.964 E0.03027
G1 X134.838 Y105.000 E0.03027
G1 X134.790 Y104.036 E0.03027
G1 X134.649 Y103.081 E0.03027
G1 X134.415 Y102.147 E0.03017
G1 X134.089 Y101.235 E0.03037
G1 X133.676 Y100.362 E0.03027
G1 X133.180 Y99.534 E0.03027
G1 X132.605 Y98.759 E0.03027
G1 X131.958 Y98.046 E0.03017
G1 X131.241 Y97.395 E0.03037
G1 X130.466 Y96.820 E0.03027
G1 X129.638 Y96.324 E0.03027
G1 X128.765 Y95.911 E0.03027
G1 X127.856 Y95.586 E0.03027
G1 X126.919 Y95.351 E0.03027
G1 X125.964 Y95.210 E0.03027
G1 X125.000 Y95.162 E0.03027
G1 X124.036 Y95.210 E0.03027
G1 X123.081 Y95.351 E0.03027
G1 X122.144 Y95.586 E0.03027
G1 X121.235 Y95.911 E0.03027
G1 X120.362 Y96.324 E0.03027
G1 X119.534 Y96.820 E0.03027
G1 X118.759 Y97.395 E0.03027
G1 X118.044 Y98.044 E0.03027
G1 X117.395 Y98.759 E0.03027
G1 X116.820 Y99.534 E0.03027
G1 X116.325 Y100.360 E0.03017
G1 X115.911 Y101.235 E0.03037
G1 X115.586 Y102.144 E0.03027
G1 X115.351 Y103.081 E0.03027
G1 X115.210 Y104.036 E0.03027
G1 X115.162 Y104.997 E0.03017
G1 X115.210 Y105.964 E0.03036
G1 X115.351 Y106.919 E0.03027
G1 X115.586 Y107.856 E0.03027
G1 X115.911 Y108.765 E0.03027
G1 X116.324 Y109.638 E0.03027
G1 X116.820 Y110.466 E0.03027
G1 X117.395 Y111.241 E0.03027
G1 X118.044 Y111.956 E0.03027
G1 X118.759 Y112.605 E0.03027
G1 X119.534 Y113.180 E0.03027
G1 X120.362 Y113.676 E0.03027
G1 X121.235 Y114.089 E0.03027
G1 X122.144 Y114.414 E0.03027
G1 X123.081 Y114.649 E0.03027
G1 X124.036 Y114.790 E0.03027
G1 X125.003 Y114.838 E0.03036
G1 X125.413 Y114.814 E0.01288
G1 X125.413 Y126.892 E0.37870
G1 X125.000 Y126.912 E0.01296
G1 X122.852 Y126.807 E0.06742
G1 X120.725 Y126.491 E0.06742
G1 X118.639 Y125.969 E0.06742
G1 X116.615 Y125.244 E0.06742
G1 X114.671 Y124.325 E0.06742
G1 X112.826 Y123.219 E0.06742
G1 X111.099 Y121.938 E0.06742
G1 X109.506 Y120.494 E0.06742
G1 X108.062 Y118.901 E0.06742
G1 X106.781 Y117.174 E0.06742
G1 X105.675 Y115.329 E0.06742
G1 X104.756 Y113.385 E0.06742
G1 X104.031 Y111.361 E0.06742
G1 X103.509 Y109.275 E0.06742
G1 X103.193 Y107.148 E0.06742
G1 X103.088 Y105.000 E0.06742
G1 X103.193 Y102.852 E0.06742
G1 X103.509 Y100.725 E0.06742
G1 X104.031 Y98.639 E0.06742
G1 X104.756 Y96.615 E0.06742
G1 X105.675 Y94.671 E0.06742
G1 X106.781 Y92.826 E0.06742
G1 X108.062 Y91.099 E0.06742
G1 X109.506 Y89.506 E0.06742
G1 X111.099 Y88.062 E0.06742
G1 X112.826 Y86.781 E0.06742
G1 X114.671 Y85.675 E0.06742
G1 X116.615 Y84.756 E0.06742
G1 X118.639 Y84.031 E0.06742
G1 X120.725 Y83.509 E0.06742
G1 X122.851 Y83.193 E0.06739
G1 X125.073 Y83.091 E0.06972
G1 X127.148 Y83.193 E0.06514
G1 X129.275 Y83.509 E0.06742
G1 X131.361 Y84.031 E0.06742
G1 X133.385 Y84.756 E0.06742
G1 X135.329 Y85.675 E0.06742
G1 X137.174 Y86.781 E0.06742
G1 X138.901 Y88.062 E0.06742
G1 X140.494 Y89.506 E0.06742
G1 X141.938 Y91.099 E0.06742
G1 X143.219 Y92.826 E0.06742
G1 X144.325 Y94.671 E0.06742
G1 X145.244 Y96.615 E0.06742
G1 X145.969 Y98.639 E0.06742
G1 X146.491 Y100.725 E0.06742
G1 X146.807 Y102.852 E0.06742
G1 X146.912 Y105.000 E0.06742
G1 X146.807 Y107.148 E0.06742
G1 X146.491 Y109.275 E0.06742
G1 X145.969 Y111.361 E0.06742
G1 X145.244 Y113.385 E0.06742
G1 X144.325 Y115.329 E0.06742
G1 X143.219 Y117.174 E0.06742
G1 X141.938 Y118.901 E0.06742
G1 X140.494 Y120.494 E0.06742
G1 X138.901 Y121.938 E0.06742
G1 X137.174 Y123.219 E0.06742
G1 X135.329 Y124.325 E0.06742
G1 X134.641 Y124.650 E0.02386
G1 X134.210 Y125.271 F10800.000
G1 F1800
G1 X134.210 Y107.119 E0.56916
G1 X134.278 Y106.846 E0.00884
G1 X134.415 Y105.927 E0.02911
G1 X134.460 Y105.000 E0.02911
G1 X134.415 Y104.073 E0.02911
G1 X134.278 Y103.154 E0.02911
G1 X134.054 Y102.257 E0.02901
G1 X133.740 Y101.380 E0.02920
G1 X133.343 Y100.540 E0.02911
G1 X132.866 Y99.744 E0.02911
G1 X132.313 Y98.998 E0.02911
G1 X131.691 Y98.313 E0.02901
G1 X131.002 Y97.687 E0.02920
G1 X130.256 Y97.134 E0.02911
G1 X129.460 Y96.657 E0.02911
G1 X128.620 Y96.260 E0.02911
G1 X127.746 Y95.947 E0.02911
G1 X126.846 Y95.722 E0.02911
G1 X125.927 Y95.585 E0.02911
G1 X125.000 Y95.540 E0.02911
G1 X124.073 Y95.585 E0.02911
G1 X123.154 Y95.722 E0.02911
G1 X122.254 Y95.947 E0.02911
G1 X121.380 Y96.260 E0.02911
G1 X120.540 Y96.657 E0.02911
G1 X119.744 Y97.134 E0.02911
G1 X118.998 Y97.687 E0.02911
G1 X118.311 Y98.311 E0.02911
G1 X117.687 Y98.998 E0.02911
G1 X117.134 Y99.744 E0.02911
G1 X116.658 Y100.538 E0.02901
G1 X116.260 Y101.380 E0.02920
G1 X115.947 Y102.254 E0.02911
G1 X115.722 Y103.154 E0.02911
G1 X115.585 Y104.073 E0.02911
G1 X115.540 Y104.997 E0.02901
G1 X115.585 Y105.927 E0.02920
G1 X115.722 Y106.846 E0.02911
G1 X115.947 Y107.746 E0.02911
G1 X116.260 Y108.620 E0.02911
G1 X116.657 Y109.460 E0.02911
G1 X117.134 Y110.256 E0.02911
G1 X117.687 Y111.002 E0.02911
G1 X118.311 Y111.689 E0.02911
G1 X118.998 Y112.313 E0.02911
G1 X119.744 Y112.866 E0.02911
G1 X120.540 Y113.343 E0.02911
G1 X121.380 Y113.740 E0.02911
G1 X122.254 Y114.053 E0.02911
G1 X123.154 Y114.278 E0.02911
G1 X124.073 Y114.415 E0.02911
G1 X125.001 Y114.460 E0.02914
G1 X125.790 Y114.414 E0.02478
G1 X125.790 Y127.251 E0.40249
G1 X125.000 Y127.290 E0.02480
G1 X122.815 Y127.182 E0.06858
G1 X120.651 Y126.861 E0.06858
G1 X118.530 Y126.330 E0.06858
G1 X116.470 Y125.593 E0.06859
G1 X114.493 Y124.658 E0.06858
G1 X112.617 Y123.533 E0.06858
G1 X110.860 Y122.230 E0.06859
G1 X109.239 Y120.761 E0.06859
G1 X107.770 Y119.140 E0.06859
G1 X106.467 Y117.383 E0.06859
G1 X105.342 Y115.507 E0.06858
G1 X104.407 Y113.530 E0.06858
G1 X103.670 Y111.470 E0.06859
G1 X103.139 Y109.349 E0.06858
G1 X102.818 Y107.185 E0.06858
G1 X102.710 Y105.000 E0.06858
G1 X102.818 Y102.815 E0.06858
G1 X103.139 Y100.651 E0.06858
G1 X103.670 Y98.530 E0.06858
G1 X104.407 Y96.470 E0.06859
G1 X105.342 Y94.493 E0.06858
G1 X106.467 Y92.617 E0.06858
G1 X107.770 Y90.860 E0.06859
G1 X109.239 Y89.239 E0.06859
G1 X110.860 Y87.770 E0.06859
G1 X112.617 Y86.467 E0.06859
G1 X114.493 Y85.342 E0.06858
G1 X116.470 Y84.407 E0.06858
G1 X118.530 Y83.670 E0.06859
G1 X120.651 Y83.139 E0.06858
G1 X122.815 Y82.818 E0.06857
G1 X125.073 Y82.714 E0.07088
G1 X127.185 Y82.818 E0.06629
G1 X129.349 Y83.139 E0.06858
G1 X131.470 Y83.670 E0.06858
G1 X133.530 Y84.407 E0.06859
G1 X135.507 Y85.342 E0.06858
G1 X137.383 Y86.467 E0.06858
G1 X139.140 Y87.770 E0.06859
G1 X140.761 Y89.239 E0.06859
G1 X142.230 Y90.860 E0.06859
G1 X143.533 Y92.617 E0.06859
G1 X144.658 Y94.493 E0.06858
G1 X145.593 Y96.470 E0.06858
G1 X146.330 Y98.530 E0.06859
G1 X146.861 Y100.651 E0.06858
G1 X147.182 Y102.815 E0.06858
G1 X147.290 Y105.000 E0.06858
G1 X147.182 Y107.185 E0.06858
G1 X146.861 Y109.349 E0.06858
G1 X146.330 Y111.470 E0.06858
G1 X145.593 Y113.530 E0.06859
G1 X144.658 Y115.507 E0.06858
G1 X143.533 Y117.383 E0.06858
G1 X142.230 Y119.140 E0.06859
G1 X140.761 Y120.761 E0.06859
G1 X139.140 Y122.230 E0.06859
G1 X137.383 Y123.533 E0.06859
G1 X135.507 Y124.658 E0.06858
G1 X134.264 Y125.246 E0.04311
G1 X134.350 Y124.897 F10800.000
G1 F8640
G1 X134.254 Y121.954 E-0.76000
G1 E-0.04000 F2100.00000
G1 Z0.800 F10800.000
G1 X134.700 Y123.823
G1 Z0.200
G1 E0.80000 F2100.00000
G1 F1800
G1 X135.031 Y124.153 E0.01475
G1 X135.379 Y123.965 E0.01250
G1 X134.870 Y123.456 E0.02273
G1 X134.870 Y122.919 E0.01693
G1 X135.715 Y123.764 E0.03770
G1 X136.050 Y123.563 E0.01234
G1 X134.870 Y122.382 E0.05268
G1 X134.870 Y121.846 E0.01693
G1 X136.386 Y123.362 E0.06765
G1 X136.721 Y123.161 E0.01234
G1 X134.870 Y121.309 E0.08262
G1 X134.870 Y120.773 E0.01693
G1 X137.054 Y122.956 E0.09744
G1 X137.362 Y122.728 E0.01210
G1 X134.870 Y120.236 E0.11119
G1 X134.870 Y119.699 E0.01693
G1 X137.670 Y122.499 E0.12493
G1 X137.978 Y122.271 E0.01210
G1 X134.870 Y119.163 E0.13868
G1 X134.870 Y118.626 E0.01693
G1 X138.286 Y122.042 E0.15243
G1 X138.594 Y121.814 E0.01210
G1 X134.870 Y118.090 E0.16617
G1 X134.870 Y117.553 E0.01693
G1 X138.887 Y121.570 E0.17922
G1 X139.168 Y121.315 E0.01199
G1 X134.870 Y117.016 E0.19178
G1 X134.870 Y116.480 E0.01693
G1 X139.450 Y121.059 E0.20434
G1 X139.731 Y120.804 E0.01199
G1 X134.870 Y115.943 E0.21690
G1 X134.870 Y115.406 E0.01693
G1 X140.013 Y120.549 E0.22946
G1 X140.294 Y120.294 E0.01199
G1 X134.870 Y114.870 E0.24202
G1 X134.870 Y114.333 E0.01693
G1 X140.549 Y120.013 E0.25341
G1 X140.804 Y119.731 E0.01199
G1 X134.870 Y113.797 E0.26479
G1 X134.870 Y113.260 E0.01693
G1 X141.059 Y119.450 E0.27617
G1 X141.315 Y119.168 E0.01199
G1 X134.870 Y112.723 E0.28756
G1 X134.870 Y112.187 E0.01693
G1 X141.570 Y118.887 E0.29894
G1 X141.814 Y118.594 E0.01202
G1 X134.870 Y111.650 E0.30983
G1 X134.870 Y111.114 E0.01693
G1 X142.042 Y118.286 E0.32003
G1 X142.271 Y117.978 E0.01210
G1 X134.870 Y110.577 E0.33022
G1 X134.870 Y110.040 E0.01693
G1 X142.499 Y117.670 E0.34042
G1 X142.728 Y117.362 E0.01210
G1 X134.870 Y109.504 E0.35062
G1 X134.870 Y108.967 E0.01693
G1 X142.956 Y117.054 E0.36081
G1 X143.161 Y116.721 E0.01231
G1 X134.870 Y108.431 E0.36993
G1 X134.870 Y107.894 E0.01693
G1 X143.362 Y116.386 E0.37891
G1 X143.563 Y116.050 E0.01234
G1 X134.870 Y107.357 E0.38788
G1 X134.870 Y107.200 E0.00495
G1 X134.939 Y106.890 E0.01004
G1 X143.764 Y115.715 E0.39377
G1 X143.965 Y115.379 E0.01234
G1 X135.008 Y106.423 E0.39965
G1 X135.074 Y105.952 E0.01500
G1 X144.153 Y115.031 E0.40510
G1 X144.325 Y114.667 E0.01271
G1 X135.099 Y105.440 E0.41167
G1 X135.117 Y104.921 E0.01638
G1 X144.498 Y114.302 E0.41856
G1 X144.670 Y113.938 E0.01271
G1 X135.089 Y104.357 E0.42749
G1 X135.072 Y104.008 E0.01103
G1 X135.037 Y103.768 E0.00766
G1 X144.842 Y113.574 E0.43753
G1 X145.009 Y113.204 E0.01280
G1 X134.943 Y103.138 E0.44913
G1 X134.779 Y102.437 E0.02270
G1 X145.150 Y112.808 E0.46276
G1 X145.292 Y112.413 E0.01324
G1 X134.542 Y101.664 E0.47963
G1 X134.351 Y101.127 E0.01799
G1 X134.179 Y100.763 E0.01269
G1 X145.566 Y112.151 E0.50810
G1 F8640
G1 X143.239 Y109.823 E-0.76000
G1 E-0.04000 F2100.00000
G1 Z0.800 F10800.000
G1 X144.695 Y95.718
G1 Z0.200
G1 E0.80000 F2100.00000
G1 F1800
G1 X134.638 Y85.661 E0.44875
G1 X133.620 Y85.179 E0.03554
G1 X144.821 Y96.380 E0.49978
G1 X144.983 Y96.723 E0.01196
G1 X145.181 Y97.277 E0.01858
G1 X132.723 Y84.819 E0.55589
G1 X131.887 Y84.520 E0.02800
G1 X145.480 Y98.113 E0.60651
G1 X145.698 Y98.721 E0.02039
G1 X145.747 Y98.916 E0.00633
G1 X131.084 Y84.253 E0.65424
G1 X130.368 Y84.074 E0.02329
G1 X145.926 Y99.632 E0.69418
G1 X146.105 Y100.348 E0.02329
G1 X129.652 Y83.895 E0.73413
G1 X129.220 Y83.786 E0.01406
G1 X128.970 Y83.749 E0.00796
G1 X146.251 Y101.030 E0.77104
G1 X146.344 Y101.660 E0.02010
G1 X128.340 Y83.656 E0.80332
G1 X127.710 Y83.563 E0.02010
G1 X146.437 Y102.290 E0.83561
G1 X146.527 Y102.916 E0.01995
G1 X127.084 Y83.473 E0.86752
G1 X126.520 Y83.446 E0.01783
G1 X146.554 Y103.480 E0.89393
G1 X146.582 Y104.045 E0.01783
G1 X125.955 Y83.418 E0.92035
G1 X125.391 Y83.390 E0.01783
G1 X146.610 Y104.609 E0.94677
G1 X146.621 Y105.157 E0.01730
G1 X124.849 Y83.385 E0.97146
G1 X124.336 Y83.408 E0.01620
G1 X146.596 Y105.669 E0.99323
G1 X146.571 Y106.180 E0.01616
G1 X123.823 Y83.432 E1.01501
G1 X123.310 Y83.455 E0.01620
G1 X146.546 Y106.691 E1.03678
G1 X146.514 Y107.196 E0.01594
G1 X122.804 Y83.486 E1.05790
G1 X122.337 Y83.556 E0.01490
G1 X146.444 Y107.663 E1.07566
G1 X146.375 Y108.130 E0.01490
G1 X121.870 Y83.625 E1.09342
G1 X121.402 Y83.694 E0.01490
G1 X146.306 Y108.598 E1.11117
G1 X146.236 Y109.065 E0.01490
G1 X120.935 Y83.764 E1.12893
G1 X120.493 Y83.858 E0.01426
G1 X146.142 Y109.507 E1.14441
G1 X146.034 Y109.936 E0.01396
G1 X120.064 Y83.966 E1.15876
G1 X119.635 Y84.073 E0.01396
G1 X145.927 Y110.365 E1.17311
G1 X145.819 Y110.794 E0.01396
G1 X119.206 Y84.181 E1.18746
G1 X118.777 Y84.288 E0.01396
G1 X145.712 Y111.223 E1.20181
G1 X145.575 Y111.623 E0.01333
G1 X132.845 Y98.893 E0.56798
G1 F8640
G1 X135.173 Y101.221 E-0.76000
G1 E-0.04000 F2100.00000
G1 Z0.800 F10800.000
G1 X131.107 Y97.155
G1 Z0.200
G1 E0.80000 F2100.00000
G1 F1800
G1 X118.377 Y84.425 E0.56798
G1 X117.982 Y84.567 E0.01324
G1 X129.237 Y95.821 E0.50217
G1 X128.873 Y95.649 E0.01269
G1 X128.336 Y95.457 E0.01800
G1 X117.587 Y84.708 E0.47962
G1 X117.192 Y84.850 E0.01324
G1 X127.563 Y95.221 E0.46276
G1 X126.862 Y95.057 E0.02270
G1 X116.796 Y84.991 E0.44913
G1 X116.426 Y85.158 E0.01280
G1 X126.232 Y94.963 E0.43753
G1 X125.992 Y94.928 E0.00766
G1 X125.643 Y94.911 E0.01103
G1 X116.062 Y85.330 E0.42749
G1 X115.698 Y85.502 E0.01271
G1 X125.079 Y94.883 E0.41856
G1 X124.560 Y94.901 E0.01638
G1 X115.333 Y85.675 E0.41167
G1 X114.969 Y85.847 E0.01271
G1 X124.048 Y94.926 E0.40510
G1 X123.577 Y94.992 E0.01500
G1 X114.621 Y86.035 E0.39965
G1 X114.285 Y86.236 E0.01234
G1 X123.110 Y95.061 E0.39377
G1 X122.674 Y95.162 E0.01412
G1 X113.950 Y86.437 E0.38928
G1 X113.614 Y86.638 E0.01234
G1 X122.245 Y95.269 E0.38511
G1 X121.835 Y95.396 E0.01353
