; G-Code generated by Simplify3D(R) Version 4.0.0
; Apr 27, 2018 at 7:04:50 PM
; Settings Summary
;   processName,Process1
;   applyToModels,tralltvatt-washer-2,tralltvatt-washer-1
;   profileName,Original Prusa i3 MK2 RC4 (modified)
;   profileVersion,2016-08-30 14:21:19
;   baseProfile,Prusa Mendel (modified)
;   printMaterial,PET
;   printQuality,FAST 0.3mm
;   printExtruders,
;   extruderName,Primary Extruder
;   extruderToolheadNumber,0
;   extruderDiameter,0.4
;   extruderAutoWidth,0
;   extruderWidth,0.4
;   extrusionMultiplier,1
;   extruderUseRetract,1
;   extruderRetractionDistance,0.8
;   extruderExtraRestartDistance,0
;   extruderRetractionZLift,0
;   extruderRetractionSpeed,1800
;   extruderUseCoasting,1
;   extruderCoastingDistance,0.2
;   extruderUseWipe,1
;   extruderWipeDistance,2
;   primaryExtruder,0
;   layerHeight,0.3
;   topSolidLayers,4
;   bottomSolidLayers,4
;   perimeterOutlines,4
;   printPerimetersInsideOut,1
;   startPointOption,2
;   startPointOriginX,0
;   startPointOriginY,0
;   sequentialIslands,0
;   spiralVaseMode,0
;   firstLayerHeightPercentage,66
;   firstLayerWidthPercentage,95
;   firstLayerUnderspeed,0.6
;   useRaft,0
;   raftExtruder,0
;   raftTopLayers,3
;   raftBaseLayers,2
;   raftOffset,3
;   raftSeparationDistance,0.14
;   raftTopInfill,100
;   aboveRaftSpeedMultiplier,0.3
;   useSkirt,1
;   skirtExtruder,0
;   skirtLayers,1
;   skirtOutlines,1
;   skirtOffset,1.8
;   usePrimePillar,0
;   primePillarExtruder,999
;   primePillarWidth,12
;   primePillarLocation,7
;   primePillarSpeedMultiplier,1
;   useOozeShield,0
;   oozeShieldExtruder,999
;   oozeShieldOffset,2
;   oozeShieldOutlines,1
;   oozeShieldSidewallShape,1
;   oozeShieldSidewallAngle,30
;   oozeShieldSpeedMultiplier,1
;   infillExtruder,0
;   internalInfillPattern,Fast Honeycomb
;   externalInfillPattern,Rectilinear
;   infillPercentage,15
;   outlineOverlapPercentage,21
;   infillExtrusionWidthPercentage,100
;   minInfillLength,2
;   infillLayerInterval,1
;   internalInfillAngles,0
;   overlapInternalInfillAngles,0
;   externalInfillAngles,45,-45
;   generateSupport,1
;   supportExtruder,0
;   supportInfillPercentage,30
;   supportExtraInflation,1.4
;   supportBaseLayers,0
;   denseSupportExtruder,0
;   denseSupportLayers,0
;   denseSupportInfillPercentage,70
;   supportLayerInterval,1
;   supportHorizontalPartOffset,0.2
;   supportUpperSeparationLayers,1
;   supportLowerSeparationLayers,1
;   supportType,0
;   supportGridSpacing,4
;   maxOverhangAngle,45
;   supportAngles,0
;   temperatureName,Primary Extruder,Heated Bed
;   temperatureNumber,0,1
;   temperatureSetpointCount,1,1
;   temperatureSetpointLayers,1,1
;   temperatureSetpointTemperatures,230,75
;   temperatureStabilizeAtStartup,1,1
;   temperatureHeatedBed,0,1
;   temperatureRelayBetweenLayers,0,0
;   temperatureRelayBetweenLoops,0,0
;   fanLayers,1,2
;   fanSpeeds,0,50
;   blipFanToFullPower,1
;   adjustSpeedForCooling,1
;   minSpeedLayerTime,15
;   minCoolingSpeedSlowdown,5
;   increaseFanForCooling,0
;   minFanLayerTime,45
;   maxCoolingFanSpeed,100
;   increaseFanForBridging,1
;   bridgingFanSpeed,100
;   use5D,1
;   relativeEdistances,1
;   allowEaxisZeroing,1
;   independentExtruderAxes,0
;   includeM10123,0
;   stickySupport,1
;   applyToolheadOffsets,0
;   gcodeXoffset,0
;   gcodeYoffset,0
;   gcodeZoffset,0
;   overrideMachineDefinition,1
;   machineTypeOverride,0
;   strokeXoverride,250
;   strokeYoverride,210
;   strokeZoverride,200
;   originOffsetXoverride,0
;   originOffsetYoverride,0
;   originOffsetZoverride,0
;   homeXdirOverride,-1
;   homeYdirOverride,-1
;   homeZdirOverride,-1
;   flipXoverride,1
;   flipYoverride,-1
;   flipZoverride,1
;   toolheadOffsets,0,0|0,0|0,0|0,0|0,0|0,0
;   overrideFirmwareConfiguration,0
;   firmwareTypeOverride,RepRap (Marlin/Repetier/Sprinter)
;   GPXconfigOverride,r2
;   baudRateOverride,250000
;   overridePrinterModels,1
;   printerModelsOverride
;   startingGcode,M115 U3.0.7 ; tell the printer latest firmware varsion available,G28 W ; home all without mesh bed level,G80 ; mesh bed leveling,G1 Y-3.0 F1000.0 ; go outside printing area,G1 X60.0 E9.0  F1000.0 ; intro line,G1 X100.0 E12.5  F1000.0 ; intro line
;   layerChangeGcode,
;   retractionGcode,
;   toolChangeGcode,
;   endingGcode,M104 S0 ; turn off temperature,M140 S0 ; turn off heatbed,M107 ; turn off fan,G1 X0 Y200; home X axis,M84 ; disable motors
;   exportFileFormat,gcode
;   celebration,0
;   celebrationSong,Random Song
;   postProcessing,{REPLACE "; outer perimeter\n" "; outer perimeter\nM204 S600\n"},{REPLACE "; inner perimeter\n" "; inner perimeter\nM204 S1200\n"},{REPLACE "; solid layer\n" "; solid layer\nM204 S1500\n"},{REPLACE "; infill\n" "; infill\nM204 S2000\n"}
;   defaultSpeed,2400
;   outlineUnderspeed,1
;   solidInfillUnderspeed,0.8
;   supportUnderspeed,0.8
;   rapidXYspeed,4800
;   rapidZspeed,1002
;   minBridgingArea,50
;   bridgingExtraInflation,1
;   bridgingExtrusionMultiplier,1
;   bridgingSpeedMultiplier,1
;   useFixedBridgingAngle,0
;   fixedBridgingAngle,0
;   applyBridgingToPerimeters,0
;   filamentDiameters,1.75|1.75|1.75|1.75|1.75|1.75
;   filamentPricesPerKg,215|215|215|215|215|215
;   filamentDensities,1.25|1.25|1.25|1.25|1.25|1.25
;   useMinPrintHeight,0
;   minPrintHeight,0
;   useMaxPrintHeight,0
;   maxPrintHeight,0
;   useDiaphragm,0
;   diaphragmLayerInterval,20
;   robustSlicing,1
;   mergeAllIntoSolid,0
;   onlyRetractWhenCrossingOutline,0
;   retractBetweenLayers,1
;   useRetractionMinTravel,1
;   retractionMinTravel,3
;   retractWhileWiping,1
;   onlyWipeOutlines,1
;   avoidCrossingOutline,0
;   maxMovementDetourFactor,3
;   toolChangeRetractionDistance,12
;   toolChangeExtraRestartDistance,-0.5
;   toolChangeRetractionSpeed,600
;   externalThinWallType,0
;   internalThinWallType,2
;   thinWallAllowedOverlapPercentage,25
;   singleExtrusionMinLength,1
;   singleExtrusionMinPrintingWidthPercentage,50
;   singleExtrusionMaxPrintingWidthPercentage,200
;   singleExtrusionEndpointExtension,0.2
;   horizontalSizeCompensation,0
G90
M83
M106 S255
G4 P500
M106 S0
M140 S75
M190 S75
M104 S230 T0
M109 S230 T0
M115 U3.0.7 ; tell the printer latest firmware varsion available
G28 W ; home all without mesh bed level
G80 ; mesh bed leveling
G1 Y-3.0 F1000.0 ; go outside printing area
G1 X60.0 E9.0  F1000.0 ; intro line
G1 X100.0 E12.5  F1000.0 ; intro line
G1 E-0.8000 F1800
G1 Z0.198 F1002
; process Process1
; layer 1, Z = 0.198
T0
; tool H0.300 W0.380
; skirt
G1 X116.564 Y87.794 F4800
G1 E0.8000 F540
G1 X116.570 Y87.786 E0.0005 F1440
G1 X117.893 Y86.318 E0.0937
G1 X117.900 Y86.310 E0.0005
G1 X118.048 Y86.177 E0.0094
G1 X118.056 Y86.170 E0.0005
G1 X119.655 Y85.009 E0.0937
G1 X119.664 Y85.003 E0.0005
G1 X119.836 Y84.903 E0.0094
G1 X119.846 Y84.899 E0.0005
G1 X121.651 Y84.095 E0.0937
G1 X121.661 Y84.091 E0.0005
G1 X121.850 Y84.030 E0.0094
G1 X121.860 Y84.027 E0.0005
G1 X123.793 Y83.616 E0.0937
G1 X123.803 Y83.614 E0.0005
G1 X124.001 Y83.594 E0.0094
G1 X124.012 Y83.593 E0.0005
G1 X125.988 Y83.593 E0.0937
G1 X125.999 Y83.594 E0.0005
G1 X126.197 Y83.614 E0.0094
G1 X126.207 Y83.616 E0.0005
G1 X128.140 Y84.027 E0.0937
G1 X128.150 Y84.030 E0.0005
G1 X128.339 Y84.091 E0.0094
G1 X128.349 Y84.095 E0.0005
G1 X130.154 Y84.899 E0.0937
G1 X130.164 Y84.904 E0.0005
G1 X130.336 Y85.003 E0.0094
G1 X130.345 Y85.009 E0.0005
G1 X131.944 Y86.170 E0.0937
G1 X131.952 Y86.177 E0.0005
G1 X132.100 Y86.310 E0.0094
G1 X132.107 Y86.318 E0.0005
G1 X133.430 Y87.786 E0.0937
G1 X133.436 Y87.794 E0.0005
G1 X133.553 Y87.955 E0.0094
G1 X133.559 Y87.964 E0.0005
G1 X134.547 Y89.676 E0.0937
G1 X134.552 Y89.685 E0.0005
G1 X134.633 Y89.867 E0.0094
G1 X134.636 Y89.877 E0.0005
G1 X135.247 Y91.756 E0.0937
G1 X135.250 Y91.766 E0.0005
G1 X135.291 Y91.961 E0.0094
G1 X135.293 Y91.971 E0.0005
G1 X135.499 Y93.937 E0.0937
G1 X135.500 Y93.947 E0.0005
G1 X135.500 Y94.146 E0.0094
G1 X135.499 Y94.157 E0.0005
G1 X135.293 Y96.122 E0.0937
G1 X135.291 Y96.132 E0.0005
G1 X135.250 Y96.327 E0.0094
G1 X135.247 Y96.337 E0.0005
G1 X134.636 Y98.217 E0.0937
G1 X134.633 Y98.226 E0.0005
G1 X134.552 Y98.408 E0.0094
G1 X134.547 Y98.418 E0.0005
G1 X133.559 Y100.129 E0.0937
G1 X133.553 Y100.138 E0.0005
G1 X133.436 Y100.299 E0.0094
G1 X133.430 Y100.307 E0.0005
G1 X132.107 Y101.776 E0.0937
G1 X132.100 Y101.783 E0.0005
G1 X131.952 Y101.916 E0.0094
G1 X131.944 Y101.923 E0.0005
G1 X130.345 Y103.084 E0.0937
G1 X130.336 Y103.090 E0.0005
G1 X130.164 Y103.190 E0.0094
G1 X130.154 Y103.194 E0.0005
G1 X128.349 Y103.998 E0.0937
G1 X128.339 Y104.002 E0.0005
G1 X128.150 Y104.063 E0.0094
G1 X128.140 Y104.066 E0.0005
G1 X126.207 Y104.477 E0.0937
G1 X126.197 Y104.479 E0.0005
G1 X125.999 Y104.499 E0.0094
G1 X125.988 Y104.500 E0.0005
G1 X124.012 Y104.500 E0.0937
G1 X124.001 Y104.499 E0.0005
G1 X123.803 Y104.479 E0.0094
G1 X123.793 Y104.477 E0.0005
G1 X121.860 Y104.066 E0.0937
G1 X121.850 Y104.063 E0.0005
G1 X121.661 Y104.002 E0.0094
G1 X121.651 Y103.998 E0.0005
G1 X119.846 Y103.194 E0.0937
G1 X119.836 Y103.190 E0.0005
G1 X119.664 Y103.090 E0.0094
G1 X119.655 Y103.084 E0.0005
G1 X118.056 Y101.923 E0.0937
G1 X118.048 Y101.916 E0.0005
G1 X117.900 Y101.783 E0.0094
G1 X117.893 Y101.776 E0.0005
G1 X116.570 Y100.307 E0.0937
G1 X116.564 Y100.299 E0.0005
G1 X116.447 Y100.138 E0.0094
G1 X116.441 Y100.129 E0.0005
G1 X115.453 Y98.418 E0.0937
G1 X115.448 Y98.408 E0.0005
G1 X115.367 Y98.226 E0.0094
G1 X115.364 Y98.217 E0.0005
G1 X114.753 Y96.337 E0.0937
G1 X114.750 Y96.327 E0.0005
G1 X114.709 Y96.132 E0.0094
G1 X114.707 Y96.122 E0.0005
G1 X114.501 Y94.157 E0.0937
G1 X114.500 Y94.146 E0.0005
G1 X114.500 Y93.947 E0.0094
G1 X114.501 Y93.937 E0.0005
G1 X114.707 Y91.971 E0.0937
G1 X114.709 Y91.961 E0.0005
G1 X114.750 Y91.766 E0.0094
G1 X114.753 Y91.756 E0.0005
G1 X115.364 Y89.877 E0.0937
G1 X115.367 Y89.867 E0.0005
G1 X115.448 Y89.685 E0.0094
G1 X115.453 Y89.676 E0.0005
G1 X116.441 Y87.964 E0.0937
G1 X116.446 Y87.956 E0.0005
G1 X116.447 Y87.955 F1440
G1 X116.564 Y87.794 F1440
G1 E-0.8000 F1800
G1 X121.850 Y105.937 F4800
G1 E0.8000 F1800
G1 X121.860 Y105.934 E0.0005 F1440
G1 X123.793 Y105.523 E0.0937
G1 X123.803 Y105.521 E0.0005
G1 X124.001 Y105.501 E0.0094
G1 X124.012 Y105.500 E0.0005
G1 X125.988 Y105.500 E0.0937
G1 X125.999 Y105.501 E0.0005
G1 X126.197 Y105.521 E0.0094
G1 X126.207 Y105.523 E0.0005
G1 X128.140 Y105.934 E0.0937
G1 X128.150 Y105.937 E0.0005
G1 X128.339 Y105.998 E0.0094
G1 X128.349 Y106.002 E0.0005
G1 X130.154 Y106.806 E0.0937
G1 X130.164 Y106.810 E0.0005
G1 X130.336 Y106.910 E0.0094
G1 X130.345 Y106.916 E0.0005
G1 X131.944 Y108.077 E0.0937
G1 X131.952 Y108.084 E0.0005
G1 X132.100 Y108.217 E0.0094
G1 X132.107 Y108.224 E0.0005
G1 X133.430 Y109.693 E0.0937
G1 X133.436 Y109.701 E0.0005
G1 X133.553 Y109.862 E0.0094
G1 X133.559 Y109.871 E0.0005
G1 X134.547 Y111.582 E0.0937
G1 X134.552 Y111.592 E0.0005
G1 X134.633 Y111.774 E0.0094
G1 X134.636 Y111.783 E0.0005
G1 X135.247 Y113.663 E0.0937
G1 X135.250 Y113.673 E0.0005
G1 X135.291 Y113.868 E0.0094
G1 X135.293 Y113.878 E0.0005
G1 X135.499 Y115.843 E0.0937
G1 X135.500 Y115.854 E0.0005
G1 X135.500 Y116.053 E0.0094
G1 X135.499 Y116.063 E0.0005
G1 X135.293 Y118.029 E0.0937
G1 X135.291 Y118.039 E0.0005
G1 X135.250 Y118.234 E0.0094
G1 X135.247 Y118.244 E0.0005
G1 X134.636 Y120.123 E0.0937
G1 X134.633 Y120.133 E0.0005
G1 X134.552 Y120.315 E0.0094
G1 X134.547 Y120.324 E0.0005
G1 X133.559 Y122.036 E0.0937
G1 X133.553 Y122.045 E0.0005
G1 X133.436 Y122.206 E0.0094
G1 X133.430 Y122.214 E0.0005
G1 X132.107 Y123.682 E0.0937
G1 X132.100 Y123.690 E0.0005
G1 X131.952 Y123.823 E0.0094
G1 X131.944 Y123.830 E0.0005
G1 X130.345 Y124.991 E0.0937
G1 X130.336 Y124.997 E0.0005
G1 X130.164 Y125.096 E0.0094
G1 X130.154 Y125.101 E0.0005
G1 X128.349 Y125.905 E0.0937
G1 X128.339 Y125.909 E0.0005
G1 X128.150 Y125.970 E0.0094
G1 X128.140 Y125.973 E0.0005
G1 X126.207 Y126.384 E0.0937
G1 X126.197 Y126.386 E0.0005
G1 X125.999 Y126.406 E0.0094
G1 X125.988 Y126.407 E0.0005
G1 X124.012 Y126.407 E0.0937
G1 X124.001 Y126.406 E0.0005
G1 X123.803 Y126.386 E0.0094
G1 X123.793 Y126.384 E0.0005
G1 X121.860 Y125.973 E0.0937
G1 X121.850 Y125.970 E0.0005
G1 X121.661 Y125.909 E0.0094
G1 X121.651 Y125.905 E0.0005
G1 X119.846 Y125.101 E0.0937
G1 X119.836 Y125.096 E0.0005
G1 X119.664 Y124.997 E0.0094
G1 X119.655 Y124.991 E0.0005
G1 X118.056 Y123.830 E0.0937
G1 X118.048 Y123.823 E0.0005
G1 X117.900 Y123.690 E0.0094
G1 X117.893 Y123.682 E0.0005
G1 X116.570 Y122.214 E0.0937
G1 X116.564 Y122.206 E0.0005
G1 X116.447 Y122.045 E0.0094
G1 X116.441 Y122.036 E0.0005
G1 X115.453 Y120.324 E0.0937
G1 X115.448 Y120.315 E0.0005
G1 X115.367 Y120.133 E0.0094
G1 X115.364 Y120.123 E0.0005
G1 X114.753 Y118.244 E0.0937
G1 X114.750 Y118.234 E0.0005
G1 X114.709 Y118.039 E0.0094
G1 X114.707 Y118.029 E0.0005
G1 X114.501 Y116.063 E0.0937
G1 X114.500 Y116.053 E0.0005
G1 X114.500 Y115.854 E0.0094
G1 X114.501 Y115.843 E0.0005
G1 X114.707 Y113.878 E0.0937
G1 X114.709 Y113.868 E0.0005
G1 X114.750 Y113.673 E0.0094
G1 X114.753 Y113.663 E0.0005
G1 X115.364 Y111.783 E0.0937
G1 X115.367 Y111.774 E0.0005
G1 X115.448 Y111.592 E0.0094
G1 X115.453 Y111.582 E0.0005
G1 X116.441 Y109.871 E0.0937
G1 X116.447 Y109.862 E0.0005
G1 X116.564 Y109.701 E0.0094
G1 X116.570 Y109.693 E0.0005
G1 X117.893 Y108.224 E0.0937
G1 X117.900 Y108.217 E0.0005
G1 X118.048 Y108.084 E0.0094
G1 X118.056 Y108.077 E0.0005
G1 X119.655 Y106.916 E0.0937
G1 X119.664 Y106.910 E0.0005
G1 X119.836 Y106.810 E0.0094
G1 X119.846 Y106.806 E0.0005
G1 X121.651 Y106.002 E0.0937
G1 X121.660 Y105.998 E0.0005
G1 X121.661 Y105.998 F1440
G1 X121.850 Y105.937 F1440
G1 E-0.8000 F1800
; inner perimeter
M204 S1200
G1 X122.787 Y109.141 F4800
G1 E0.8000 F1800
G1 X124.251 Y108.830 E0.0710 F1440
G1 X125.749 Y108.830 E0.0710
G1 X127.213 Y109.141 E0.0710
G1 X128.581 Y109.750 E0.0710
G1 X129.793 Y110.631 E0.0710
G1 X130.795 Y111.743 E0.0710
G1 X131.543 Y113.040 E0.0710
G1 X132.006 Y114.464 E0.0710
G1 X132.163 Y115.953 E0.0710
G1 X132.006 Y117.443 E0.0710
G1 X131.543 Y118.867 E0.0710
G1 X130.795 Y120.164 E0.0710
G1 X129.793 Y121.276 E0.0710
G1 X128.581 Y122.156 E0.0710
G1 X127.213 Y122.766 E0.0710
G1 X125.749 Y123.077 E0.0710
G1 X124.251 Y123.077 E0.0710
G1 X122.787 Y122.766 E0.0710
G1 X121.419 Y122.156 E0.0710
G1 X120.207 Y121.276 E0.0710
G1 X119.205 Y120.164 E0.0710
G1 X118.457 Y118.867 E0.0710
G1 X117.994 Y117.443 E0.0710
G1 X117.837 Y115.953 E0.0710
G1 X117.994 Y114.464 E0.0710
G1 X118.457 Y113.040 E0.0710
G1 X119.205 Y111.743 E0.0710
G1 X120.207 Y110.631 E0.0710
G1 X121.419 Y109.750 E0.0710
G1 X122.604 Y109.223 E0.0615
G1 X122.787 Y109.141 F1440
G1 X122.668 Y108.778 F4800
G1 X124.211 Y108.450 E0.0748 F1440
G1 X125.789 Y108.450 E0.0748
G1 X127.332 Y108.778 E0.0748
G1 X128.772 Y109.419 E0.0748
G1 X130.048 Y110.347 E0.0748
G1 X131.104 Y111.519 E0.0748
G1 X131.892 Y112.885 E0.0748
G1 X132.380 Y114.385 E0.0748
G1 X132.545 Y115.953 E0.0748
G1 X132.380 Y117.522 E0.0748
G1 X131.892 Y119.022 E0.0748
G1 X131.104 Y120.388 E0.0748
G1 X130.048 Y121.560 E0.0748
G1 X128.772 Y122.487 E0.0748
G1 X127.331 Y123.129 E0.0748
G1 X125.789 Y123.457 E0.0748
G1 X124.211 Y123.457 E0.0748
G1 X122.669 Y123.129 E0.0748
G1 X121.228 Y122.487 E0.0748
G1 X119.952 Y121.560 E0.0748
G1 X118.896 Y120.388 E0.0748
G1 X118.108 Y119.022 E0.0748
G1 X117.620 Y117.522 E0.0748
G1 X117.455 Y115.953 E0.0748
G1 X117.620 Y114.385 E0.0748
G1 X118.108 Y112.885 E0.0748
G1 X118.896 Y111.519 E0.0748
G1 X119.952 Y110.347 E0.0748
G1 X121.228 Y109.419 E0.0748
G1 X122.486 Y108.859 E0.0653
G1 X122.668 Y108.778 F1440
G1 X122.550 Y108.415 F4800
G1 X124.171 Y108.070 E0.0785 F1440
G1 X125.829 Y108.070 E0.0785
G1 X127.450 Y108.415 E0.0785
G1 X128.963 Y109.089 E0.0785
G1 X130.304 Y110.063 E0.0785
G1 X131.413 Y111.294 E0.0785
G1 X132.242 Y112.729 E0.0785
G1 X132.754 Y114.305 E0.0785
G1 X132.927 Y115.953 E0.0785
G1 X132.754 Y117.602 E0.0785
G1 X132.242 Y119.178 E0.0785
G1 X131.413 Y120.613 E0.0785
G1 X130.304 Y121.844 E0.0785
G1 X128.963 Y122.818 E0.0785
G1 X127.450 Y123.492 E0.0785
G1 X125.829 Y123.837 E0.0785
G1 X124.171 Y123.837 E0.0785
