; G-Code generated by Simplify3D(R) Version 4.0.0
; Dec 19, 2017 at 10:43:44 AM
; Settings Summary
;   processName,Fine
;   applyToModels,36_thumbnutMiddle,37_thumbNutPin
;   profileName,Prusa Research Original Prusa i3 MK2 (modified)
;   profileVersion,2017-07-23 22:27:18
;   baseProfile,
;   printMaterial,PLA
;   printQuality,High
;   printExtruders,
;   extruderName,Primary Extruder
;   extruderToolheadNumber,0
;   extruderDiameter,0.4
;   extruderAutoWidth,1
;   extruderWidth,0.48
;   extrusionMultiplier,1
;   extruderUseRetract,1
;   extruderRetractionDistance,1.5
;   extruderExtraRestartDistance,0
;   extruderRetractionZLift,0
;   extruderRetractionSpeed,1800
;   extruderUseCoasting,1
;   extruderCoastingDistance,0.2
;   extruderUseWipe,1
;   extruderWipeDistance,2
;   primaryExtruder,0
;   layerHeight,0.1
;   topSolidLayers,3
;   bottomSolidLayers,3
;   perimeterOutlines,3
;   printPerimetersInsideOut,1
;   startPointOption,2
;   startPointOriginX,0
;   startPointOriginY,0
;   sequentialIslands,0
;   spiralVaseMode,0
;   firstLayerHeightPercentage,120
;   firstLayerWidthPercentage,100
;   firstLayerUnderspeed,0.5
;   useRaft,0
;   raftExtruder,0
;   raftTopLayers,3
;   raftBaseLayers,2
;   raftOffset,3
;   raftSeparationDistance,0.14
;   raftTopInfill,100
;   aboveRaftSpeedMultiplier,0.3
;   useSkirt,1
;   skirtExtruder,0
;   skirtLayers,2
;   skirtOutlines,1
;   skirtOffset,4
;   usePrimePillar,0
;   primePillarExtruder,999
;   primePillarWidth,12
;   primePillarLocation,7
;   primePillarSpeedMultiplier,1
;   useOozeShield,0
;   oozeShieldExtruder,999
;   oozeShieldOffset,2
;   oozeShieldOutlines,1
;   oozeShieldSidewallShape,1
;   oozeShieldSidewallAngle,30
;   oozeShieldSpeedMultiplier,1
;   infillExtruder,0
;   internalInfillPattern,Rectilinear
;   externalInfillPattern,Rectilinear
;   infillPercentage,15
;   outlineOverlapPercentage,20
;   infillExtrusionWidthPercentage,100
;   minInfillLength,5
;   infillLayerInterval,1
;   internalInfillAngles,45,-45
;   overlapInternalInfillAngles,0
;   externalInfillAngles,45,-45
;   generateSupport,1
;   supportExtruder,0
;   supportInfillPercentage,40
;   supportExtraInflation,0
;   supportBaseLayers,0
;   denseSupportExtruder,0
;   denseSupportLayers,0
;   denseSupportInfillPercentage,70
;   supportLayerInterval,1
;   supportHorizontalPartOffset,0.3
;   supportUpperSeparationLayers,1
;   supportLowerSeparationLayers,1
;   supportType,0
;   supportGridSpacing,4
;   maxOverhangAngle,45
;   supportAngles,0
;   temperatureName,Primary Extruder,Heated Bed
;   temperatureNumber,0,0
;   temperatureSetpointCount,1,1
;   temperatureSetpointLayers,1,1
;   temperatureSetpointTemperatures,210,60
;   temperatureStabilizeAtStartup,1,1
;   temperatureHeatedBed,0,1
;   temperatureRelayBetweenLayers,0,0
;   temperatureRelayBetweenLoops,0,0
;   fanLayers,1,2
;   fanSpeeds,0,100
;   blipFanToFullPower,0
;   adjustSpeedForCooling,1
;   minSpeedLayerTime,15
;   minCoolingSpeedSlowdown,20
;   increaseFanForCooling,0
;   minFanLayerTime,45
;   maxCoolingFanSpeed,100
;   increaseFanForBridging,0
;   bridgingFanSpeed,100
;   use5D,1
;   relativeEdistances,0
;   allowEaxisZeroing,1
;   independentExtruderAxes,0
;   includeM10123,0
;   stickySupport,1
;   applyToolheadOffsets,0
;   gcodeXoffset,0
;   gcodeYoffset,0
;   gcodeZoffset,0
;   overrideMachineDefinition,1
;   machineTypeOverride,0
;   strokeXoverride,250
;   strokeYoverride,210
;   strokeZoverride,200
;   originOffsetXoverride,0
;   originOffsetYoverride,0
;   originOffsetZoverride,0
;   homeXdirOverride,-1
;   homeYdirOverride,-1
;   homeZdirOverride,-1
;   flipXoverride,1
;   flipYoverride,-1
;   flipZoverride,1
;   toolheadOffsets,0,0|0,0|0,0|0,0|0,0|0,0
;   overrideFirmwareConfiguration,1
;   firmwareTypeOverride,RepRap (Marlin/Repetier/Sprinter)
;   GPXconfigOverride,r2
;   baudRateOverride,250000
;   overridePrinterModels,1
;   printerModelsOverride
;   startingGcode,M115 U3.0.7 ; use the latest firmware version,G28 W ; home all axes without mesh bed leveling,G80 ; run mesh bed leveling routine,G1 Y-3.0 F1000.0 ; prepare to prime,G92 E0 ; reset extrusion distance,G1 X60.0 E9.0  F1000.0 ; priming,G1 X100.0 E12.5  F1000.0 ; priming
;   layerChangeGcode,
;   retractionGcode,
;   toolChangeGcode,
;   endingGcode,M106 S0 ; turn off cooling fan,M104 S0 ; turn off extruder,M140 S0 ; turn off bed,G1 X0 Y200 ; part removal,M84 ; disable motors
;   exportFileFormat,gcode
;   celebration,0
;   celebrationSong,Random Song
;   postProcessing,
;   defaultSpeed,2400
;   outlineUnderspeed,0.8
;   solidInfillUnderspeed,0.8
;   supportUnderspeed,0.8
;   rapidXYspeed,4800
;   rapidZspeed,1002
;   minBridgingArea,50
;   bridgingExtraInflation,0
;   bridgingExtrusionMultiplier,1
;   bridgingSpeedMultiplier,1
;   useFixedBridgingAngle,0
;   fixedBridgingAngle,0
;   applyBridgingToPerimeters,0
;   filamentDiameters,1.75|1.75|1.75|1.75|1.75|1.75
;   filamentPricesPerKg,199|46|46|46|46|46
;   filamentDensities,1.25|1.25|1.25|1.25|1.25|1.25
;   useMinPrintHeight,0
;   minPrintHeight,0
;   useMaxPrintHeight,1
;   maxPrintHeight,235
;   useDiaphragm,0
;   diaphragmLayerInterval,20
;   robustSlicing,1
;   mergeAllIntoSolid,0
;   onlyRetractWhenCrossingOutline,1
;   retractBetweenLayers,1
;   useRetractionMinTravel,0
;   retractionMinTravel,3
;   retractWhileWiping,1
;   onlyWipeOutlines,1
;   avoidCrossingOutline,0
;   maxMovementDetourFactor,3
;   toolChangeRetractionDistance,12
;   toolChangeExtraRestartDistance,-0.5
;   toolChangeRetractionSpeed,600
;   externalThinWallType,0
;   internalThinWallType,2
;   thinWallAllowedOverlapPercentage,25
;   singleExtrusionMinLength,1
;   singleExtrusionMinPrintingWidthPercentage,50
;   singleExtrusionMaxPrintingWidthPercentage,200
;   singleExtrusionEndpointExtension,0.2
;   horizontalSizeCompensation,0
G90
M82
M106 S0
M140 S60
M190 S60
M104 S210 T0
M109 S210 T0
M115 U3.0.7 ; use the latest firmware version
G28 W ; home all axes without mesh bed leveling
G80 ; run mesh bed leveling routine
G1 Y-3.0 F1000.0 ; prepare to prime
G92 E0 ; reset extrusion distance
G1 X60.0 E9.0  F1000.0 ; priming
G1 X100.0 E12.5  F1000.0 ; priming
G92 E0
G1 E-1.5000 F1800
G1 Z0.120 F1002
; process Fine
; layer 1, Z = 0.120
T0
; tool H0.120 W0.480
; skirt
G1 X115.384 Y92.627 F4800
G1 E0.0000 F540
G92 E0
G1 X115.387 Y92.623 E0.0001 F1200
G1 X115.518 Y92.460 E0.0051
G1 X115.522 Y92.455 E0.0053
G1 X116.199 Y91.693 E0.0297
G1 X116.203 Y91.689 E0.0298
G1 X116.350 Y91.540 E0.0348
G1 X116.354 Y91.536 E0.0350
G1 X117.105 Y90.847 E0.0594
G1 X117.110 Y90.843 E0.0595
G1 X117.270 Y90.710 E0.0645
G1 X117.275 Y90.706 E0.0647
G1 X118.092 Y90.096 E0.0891
G1 X118.097 Y90.093 E0.0892
G1 X118.270 Y89.976 E0.0942
G1 X118.275 Y89.973 E0.0944
G1 X119.150 Y89.449 E0.1188
G1 X119.155 Y89.446 E0.1189
G1 X119.339 Y89.348 E0.1239
G1 X119.345 Y89.345 E0.1241
G1 X120.267 Y88.912 E0.1485
G1 X120.273 Y88.910 E0.1486
G1 X120.466 Y88.831 E0.1536
G1 X120.472 Y88.829 E0.1538
G1 X121.434 Y88.491 E0.1782
G1 X121.439 Y88.490 E0.1783
G1 X121.640 Y88.430 E0.1833
G1 X121.646 Y88.429 E0.1835
G1 X122.636 Y88.191 E0.2079
G1 X122.642 Y88.189 E0.2080
G1 X122.848 Y88.151 E0.2130
G1 X122.854 Y88.150 E0.2132
G1 X123.847 Y88.015 E0.2372
G1 X123.852 Y88.015 E0.2373
G1 X124.027 Y87.999 E0.2415
G1 X124.032 Y87.998 E0.2416
G1 X124.754 Y87.963 E0.2589
G1 X124.759 Y87.962 E0.2591
G1 X124.933 Y87.961 E0.2632
G1 X124.938 Y87.961 E0.2634
G1 X125.155 Y87.969 E0.2686
G1 X125.940 Y87.997 E0.2874
G1 X125.946 Y87.997 E0.2875
G1 X126.154 Y88.015 E0.2925
G1 X126.160 Y88.016 E0.2926
G1 X127.170 Y88.154 E0.3171
G1 X127.176 Y88.155 E0.3172
G1 X127.381 Y88.194 E0.3222
G1 X127.387 Y88.195 E0.3223
G1 X128.377 Y88.436 E0.3468
G1 X128.383 Y88.437 E0.3469
G1 X128.583 Y88.497 E0.3519
G1 X128.589 Y88.498 E0.3520
G1 X129.550 Y88.838 E0.3765
G1 X129.556 Y88.840 E0.3766
G1 X129.749 Y88.919 E0.3816
G1 X129.755 Y88.922 E0.3817
G1 X130.676 Y89.356 E0.4061
G1 X130.681 Y89.359 E0.4063
G1 X130.864 Y89.457 E0.4113
G1 X130.870 Y89.460 E0.4114
G1 X131.736 Y89.981 E0.4356
G1 X131.742 Y89.984 E0.4358
G1 X131.915 Y90.101 E0.4408
G1 X131.920 Y90.104 E0.4409
G1 X132.742 Y90.720 E0.4655
G1 X132.747 Y90.724 E0.4657
G1 X132.908 Y90.858 E0.4707
G1 X132.913 Y90.862 E0.4708
G1 X133.662 Y91.553 E0.4952
G1 X133.667 Y91.557 E0.4954
G1 X133.813 Y91.706 E0.5004
G1 X133.817 Y91.711 E0.5005
G1 X134.493 Y92.474 E0.5249
G1 X134.497 Y92.478 E0.5251
G1 X134.627 Y92.641 E0.5301
G1 X134.631 Y92.646 E0.5302
G1 X135.226 Y93.474 E0.5546
G1 X135.229 Y93.479 E0.5548
G1 X135.343 Y93.654 E0.5598
G1 X135.346 Y93.659 E0.5599
G1 X135.845 Y94.528 E0.5839
G1 X135.848 Y94.532 E0.5840
G1 X135.928 Y94.686 E0.5882
G1 X135.930 Y94.691 E0.5883
G1 X136.233 Y95.337 E0.6054
G1 X136.235 Y95.342 E0.6055
G1 X136.302 Y95.501 E0.6097
G1 X136.303 Y95.506 E0.6098
G1 X136.648 Y96.438 E0.6336
G1 X136.650 Y96.444 E0.6337
G1 X136.712 Y96.642 E0.6387
G1 X136.713 Y96.648 E0.6389
G1 X136.968 Y97.635 E0.6633
G1 X136.970 Y97.641 E0.6634
G1 X137.012 Y97.845 E0.6684
G1 X137.013 Y97.851 E0.6686
G1 X137.166 Y98.859 E0.6930
G1 X137.167 Y98.865 E0.6931
G1 X137.188 Y99.072 E0.6981
G1 X137.189 Y99.078 E0.6983
G1 X137.240 Y100.096 E0.7227
G1 X137.240 Y100.102 E0.7228
G1 X137.240 Y100.311 E0.7278
G1 X137.240 Y100.317 E0.7280
G1 X137.188 Y101.335 E0.7524
G1 X137.187 Y101.341 E0.7525
G1 X137.166 Y101.549 E0.7575
G1 X137.165 Y101.555 E0.7577
G1 X137.010 Y102.562 E0.7821
G1 X137.009 Y102.568 E0.7822
G1 X136.967 Y102.773 E0.7872
G1 X136.966 Y102.779 E0.7873
G1 X136.710 Y103.765 E0.8118
G1 X136.708 Y103.771 E0.8119
G1 X136.645 Y103.970 E0.8169
G1 X136.643 Y103.976 E0.8170
G1 X136.295 Y104.916 E0.8411
G1 X136.293 Y104.921 E0.8412
G1 X136.225 Y105.082 E0.8454
G1 X136.223 Y105.087 E0.8455
G1 X135.915 Y105.740 E0.8628
G1 X135.913 Y105.745 E0.8629
G1 X135.832 Y105.898 E0.8671
G1 X135.830 Y105.903 E0.8672
G1 X135.332 Y106.763 E0.8910
G1 X135.329 Y106.768 E0.8911
G1 X135.216 Y106.943 E0.8961
G1 X135.213 Y106.948 E0.8963
G1 X134.616 Y107.774 E0.9207
G1 X134.613 Y107.778 E0.9208
G1 X134.482 Y107.941 E0.9258
G1 X134.478 Y107.946 E0.9259
G1 X133.812 Y108.695 E0.9499
G1 X133.809 Y108.698 E0.9501
G1 X133.688 Y108.823 E0.9542
G1 X133.684 Y108.827 E0.9543
G1 X133.166 Y109.319 E0.9715
G1 X133.162 Y109.323 E0.9716
G1 X133.030 Y109.438 E0.9758
G1 X133.026 Y109.441 E0.9759
G1 X132.238 Y110.072 E1.0001
G1 X132.233 Y110.075 E1.0002
G1 X132.064 Y110.197 E1.0052
G1 X132.059 Y110.200 E1.0054
G1 X131.209 Y110.749 E1.0296
G1 X131.204 Y110.752 E1.0297
G1 X131.022 Y110.857 E1.0347
G1 X131.017 Y110.860 E1.0349
G1 X130.102 Y111.327 E1.0595
G1 X130.097 Y111.329 E1.0596
G1 X129.907 Y111.414 E1.0646
G1 X129.901 Y111.417 E1.0648
G1 X128.959 Y111.783 E1.0890
G1 X128.953 Y111.785 E1.0891
G1 X128.756 Y111.851 E1.0941
G1 X128.750 Y111.852 E1.0942
G1 X127.768 Y112.124 E1.1186
G1 X127.762 Y112.125 E1.1188
G1 X127.558 Y112.171 E1.1238
G1 X127.552 Y112.172 E1.1239
G1 X126.547 Y112.343 E1.1483
G1 X126.541 Y112.344 E1.1485
G1 X126.334 Y112.368 E1.1535
G1 X126.328 Y112.369 E1.1536
G1 X125.311 Y112.437 E1.1780
G1 X125.305 Y112.437 E1.1782
G1 X125.096 Y112.441 E1.1832
G1 X125.090 Y112.441 E1.1833
G1 X125.083 Y112.440 E1.1835
G1 X125.117 Y112.501 E1.1852
G1 X125.122 Y112.512 E1.1855
G1 X125.448 Y113.261 E1.2050
G1 X125.452 Y113.271 E1.2053
G1 X125.569 Y113.628 E1.2143
G1 X125.572 Y113.638 E1.2145
G1 X125.752 Y114.412 E1.2335
G1 X125.754 Y114.422 E1.2338
G1 X125.805 Y114.794 E1.2428
G1 X125.806 Y114.805 E1.2431
G1 X125.842 Y115.598 E1.2621
G1 X125.842 Y115.609 E1.2623
G1 X125.825 Y115.984 E1.2713
G1 X125.824 Y115.995 E1.2716
G1 X125.716 Y116.781 E1.2906
G1 X125.714 Y116.792 E1.2908
G1 X125.629 Y117.158 E1.2998
G1 X125.626 Y117.168 E1.3001
G1 X125.377 Y117.922 E1.3191
G1 X125.373 Y117.932 E1.3194
G1 X125.224 Y118.277 E1.3284
G1 X125.219 Y118.286 E1.3286
G1 X124.827 Y119.003 E1.3482
G1 X124.820 Y119.014 E1.3485
G1 X124.580 Y119.362 E1.3586
G1 X124.573 Y119.371 E1.3589
G1 X123.960 Y120.091 E1.3815
G1 X123.952 Y120.100 E1.3818
G1 X123.646 Y120.391 E1.3919
G1 X123.637 Y120.399 E1.3922
G1 X122.991 Y120.900 E1.4118
G1 X122.983 Y120.907 E1.4121
G1 X122.666 Y121.109 E1.4210
G1 X122.657 Y121.115 E1.4213
G1 X121.931 Y121.491 E1.4409
G1 X121.920 Y121.496 E1.4412
G1 X121.527 Y121.651 E1.4513
G1 X121.515 Y121.655 E1.4516
G1 X120.606 Y121.909 E1.4742
G1 X120.594 Y121.912 E1.4745
G1 X120.177 Y121.984 E1.4846
G1 X120.165 Y121.985 E1.4849
G1 X119.326 Y122.043 E1.5051
G1 X119.314 Y122.043 E1.5053
G1 X118.892 Y122.029 E1.5155
G1 X118.880 Y122.028 E1.5158
G1 X117.943 Y121.899 E1.5384
G1 X117.931 Y121.897 E1.5387
G1 X117.521 Y121.797 E1.5488
G1 X117.509 Y121.793 E1.5491
G1 X116.717 Y121.511 E1.5692
G1 X116.706 Y121.507 E1.5695
G1 X116.324 Y121.325 E1.5796
G1 X116.313 Y121.320 E1.5799
G1 X115.506 Y120.829 E1.6026
G1 X115.496 Y120.822 E1.6029
G1 X115.159 Y120.566 E1.6130
G1 X115.150 Y120.558 E1.6133
G1 X114.553 Y120.001 E1.6328
G1 X114.545 Y119.993 E1.6331
G1 X114.295 Y119.713 E1.6421
G1 X114.288 Y119.704 E1.6423
G1 X113.802 Y119.048 E1.6619
G1 X113.795 Y119.037 E1.6622
G1 X113.580 Y118.674 E1.6723
G1 X113.574 Y118.663 E1.6726
G1 X113.178 Y117.805 E1.6952
G1 X113.173 Y117.794 E1.6955
G1 X113.036 Y117.394 E1.7057
G1 X113.033 Y117.382 E1.7060
G1 X112.848 Y116.586 E1.7255
G1 X112.846 Y116.575 E1.7258
G1 X112.795 Y116.203 E1.7348
G1 X112.794 Y116.193 E1.7350
G1 X112.757 Y115.376 E1.7546
G1 X112.757 Y115.364 E1.7549
G1 X112.781 Y114.942 E1.7650
G1 X112.783 Y114.930 E1.7653
G1 X112.933 Y113.997 E1.7879
G1 X112.935 Y113.985 E1.7882
G1 X113.044 Y113.577 E1.7984
G1 X113.048 Y113.565 E1.7986
G1 X113.339 Y112.802 E1.8182
G1 X113.344 Y112.792 E1.8185
G1 X113.509 Y112.454 E1.8275
G1 X113.514 Y112.445 E1.8277
G1 X113.926 Y111.767 E1.8467
G1 X113.933 Y111.758 E1.8470
G1 X114.156 Y111.456 E1.8560
G1 X114.163 Y111.447 E1.8563
G1 X114.707 Y110.838 E1.8758
G1 X114.716 Y110.829 E1.8761
G1 X115.028 Y110.544 E1.8862
G1 X115.037 Y110.536 E1.8865
G1 X115.796 Y109.974 E1.9092
G1 X115.807 Y109.967 E1.9094
G1 X116.170 Y109.752 E1.9196
G1 X116.181 Y109.746 E1.9199
G1 X116.923 Y109.403 E1.9394
G1 X116.932 Y109.400 E1.9397
G1 X116.595 Y109.100 E1.9505
G1 X116.592 Y109.096 E1.9506
G1 X116.466 Y108.975 E1.9548
G1 X116.463 Y108.971 E1.9549
G1 X115.773 Y108.244 E1.9789
G1 X115.769 Y108.239 E1.9790
G1 X115.634 Y108.081 E1.9840
G1 X115.630 Y108.076 E1.9842
G1 X115.007 Y107.269 E2.0086
G1 X115.003 Y107.264 E2.0087
G1 X114.884 Y107.093 E2.0137
G1 X114.881 Y107.088 E2.0139
G1 X114.343 Y106.222 E2.0383
G1 X114.340 Y106.217 E2.0384
G1 X114.239 Y106.034 E2.0434
G1 X114.236 Y106.028 E2.0436
G1 X113.789 Y105.113 E2.0680
G1 X113.786 Y105.107 E2.0681
G1 X113.704 Y104.915 E2.0731
G1 X113.702 Y104.910 E2.0733
G1 X113.350 Y103.954 E2.0977
G1 X113.348 Y103.948 E2.0978
G1 X113.286 Y103.750 E2.1028
G1 X113.284 Y103.744 E2.1029
G1 X113.031 Y102.766 E2.1271
G1 X113.030 Y102.760 E2.1273
G1 X112.988 Y102.556 E2.1323
G1 X112.987 Y102.550 E2.1324
G1 X112.834 Y101.543 E2.1568
G1 X112.833 Y101.537 E2.1570
G1 X112.812 Y101.329 E2.1620
G1 X112.811 Y101.323 E2.1621
G1 X112.760 Y100.305 E2.1865
G1 X112.760 Y100.299 E2.1867
G1 X112.760 Y100.090 E2.1917
G1 X112.760 Y100.084 E2.1918
G1 X112.812 Y99.066 E2.2162
G1 X112.813 Y99.060 E2.2164
G1 X112.834 Y98.852 E2.2214
G1 X112.835 Y98.846 E2.2215
G1 X112.990 Y97.839 E2.2459
G1 X112.991 Y97.833 E2.2461
G1 X113.033 Y97.628 E2.2511
G1 X113.034 Y97.622 E2.2512
G1 X113.286 Y96.652 E2.2752
G1 X113.287 Y96.647 E2.2753
G1 X113.339 Y96.479 E2.2795
G1 X113.340 Y96.475 E2.2797
G1 X113.580 Y95.794 E2.2969
G1 X113.582 Y95.789 E2.2971
G1 X113.647 Y95.628 E2.3012
G1 X113.649 Y95.623 E2.3013
G1 X114.057 Y94.717 E2.3251
G1 X114.059 Y94.712 E2.3253
G1 X114.154 Y94.527 E2.3303
G1 X114.157 Y94.521 E2.3304
G1 X114.667 Y93.639 E2.3548
G1 X114.670 Y93.634 E2.3550
G1 X114.784 Y93.459 E2.3600
G1 X114.787 Y93.454 E2.3601
G1 X115.267 Y92.790 E2.3797
G1 X115.384 Y92.627 F1200
G92 E0
G1 E-1.5000 F1800
; inner perimeter
G1 X119.691 Y95.954 F4800
G1 E0.0000 F1800
G92 E0
G1 X120.155 Y95.432 E0.0167 F1080
G1 X120.662 Y94.966 E0.0332
G1 X121.214 Y94.554 E0.0497
G1 X121.805 Y94.200 E0.0662
