; G-Code generated by Simplify3D(R) Version 4.0.0
; Dec 27, 2017 at 9:20:31 PM
; Settings Summary
;   processName,Process1
;   applyToModels,Dji_Spark_Gymbal_Cover
;   profileName,Prusa Research Original Prusa i3 MK2 (modified)
;   profileVersion,2017-07-23 22:27:18
;   baseProfile,
;   printMaterial,PLA
;   printQuality,Medium
;   printExtruders,
;   extruderName,Primary Extruder
;   extruderToolheadNumber,0
;   extruderDiameter,0.4
;   extruderAutoWidth,1
;   extruderWidth,0.48
;   extrusionMultiplier,1
;   extruderUseRetract,1
;   extruderRetractionDistance,1.5
;   extruderExtraRestartDistance,0
;   extruderRetractionZLift,0
;   extruderRetractionSpeed,1800
;   extruderUseCoasting,1
;   extruderCoastingDistance,0.2
;   extruderUseWipe,1
;   extruderWipeDistance,2
;   primaryExtruder,0
;   layerHeight,0.15
;   topSolidLayers,3
;   bottomSolidLayers,3
;   perimeterOutlines,3
;   printPerimetersInsideOut,1
;   startPointOption,2
;   startPointOriginX,0
;   startPointOriginY,0
;   sequentialIslands,0
;   spiralVaseMode,0
;   firstLayerHeightPercentage,120
;   firstLayerWidthPercentage,100
;   firstLayerUnderspeed,0.5
;   useRaft,0
;   raftExtruder,0
;   raftTopLayers,3
;   raftBaseLayers,2
;   raftOffset,3
;   raftSeparationDistance,0.14
;   raftTopInfill,100
;   aboveRaftSpeedMultiplier,0.3
;   useSkirt,1
;   skirtExtruder,0
;   skirtLayers,1
;   skirtOutlines,1
;   skirtOffset,4
;   usePrimePillar,0
;   primePillarExtruder,999
;   primePillarWidth,12
;   primePillarLocation,7
;   primePillarSpeedMultiplier,1
;   useOozeShield,0
;   oozeShieldExtruder,999
;   oozeShieldOffset,2
;   oozeShieldOutlines,1
;   oozeShieldSidewallShape,1
;   oozeShieldSidewallAngle,30
;   oozeShieldSpeedMultiplier,1
;   infillExtruder,0
;   internalInfillPattern,Rectilinear
;   externalInfillPattern,Rectilinear
;   infillPercentage,15
;   outlineOverlapPercentage,20
;   infillExtrusionWidthPercentage,100
;   minInfillLength,5
;   infillLayerInterval,1
;   internalInfillAngles,45,-45
;   overlapInternalInfillAngles,0
;   externalInfillAngles,45,-45
;   generateSupport,1
;   supportExtruder,0
;   supportInfillPercentage,30
;   supportExtraInflation,0
;   supportBaseLayers,0
;   denseSupportExtruder,0
;   denseSupportLayers,0
;   denseSupportInfillPercentage,70
;   supportLayerInterval,1
;   supportHorizontalPartOffset,0.3
;   supportUpperSeparationLayers,1
;   supportLowerSeparationLayers,1
;   supportType,0
;   supportGridSpacing,4
;   maxOverhangAngle,45
;   supportAngles,0
;   temperatureName,Primary Extruder,Heated Bed
;   temperatureNumber,0,0
;   temperatureSetpointCount,1,1
;   temperatureSetpointLayers,1,1
;   temperatureSetpointTemperatures,210,60
;   temperatureStabilizeAtStartup,1,1
;   temperatureHeatedBed,0,1
;   temperatureRelayBetweenLayers,0,0
;   temperatureRelayBetweenLoops,0,0
;   fanLayers,1,2
;   fanSpeeds,0,100
;   blipFanToFullPower,0
;   adjustSpeedForCooling,1
;   minSpeedLayerTime,15
;   minCoolingSpeedSlowdown,20
;   increaseFanForCooling,0
;   minFanLayerTime,45
;   maxCoolingFanSpeed,100
;   increaseFanForBridging,0
;   bridgingFanSpeed,100
;   use5D,1
;   relativeEdistances,0
;   allowEaxisZeroing,1
;   independentExtruderAxes,0
;   includeM10123,0
;   stickySupport,1
;   applyToolheadOffsets,0
;   gcodeXoffset,0
;   gcodeYoffset,0
;   gcodeZoffset,0
;   overrideMachineDefinition,1
;   machineTypeOverride,0
;   strokeXoverride,250
;   strokeYoverride,210
;   strokeZoverride,200
;   originOffsetXoverride,0
;   originOffsetYoverride,0
;   originOffsetZoverride,0
;   homeXdirOverride,-1
;   homeYdirOverride,-1
;   homeZdirOverride,-1
;   flipXoverride,1
;   flipYoverride,-1
;   flipZoverride,1
;   toolheadOffsets,0,0|0,0|0,0|0,0|0,0|0,0
;   overrideFirmwareConfiguration,1
;   firmwareTypeOverride,RepRap (Marlin/Repetier/Sprinter)
;   GPXconfigOverride,r2
;   baudRateOverride,250000
;   overridePrinterModels,1
;   printerModelsOverride
;   startingGcode,M115 U3.0.7 ; use the latest firmware version,G28 W ; home all axes without mesh bed leveling,G80 ; run mesh bed leveling routine,G1 Y-3.0 F1000.0 ; prepare to prime,G92 E0 ; reset extrusion distance,G1 X60.0 E9.0  F1000.0 ; priming,G1 X100.0 E12.5  F1000.0 ; priming
;   layerChangeGcode,
;   retractionGcode,
;   toolChangeGcode,
;   endingGcode,M106 S0 ; turn off cooling fan,M104 S0 ; turn off extruder,M140 S0 ; turn off bed,G1 X0 Y200 ; part removal,M84 ; disable motors
;   exportFileFormat,gcode
;   celebration,0
;   celebrationSong,Random Song
;   postProcessing,
;   defaultSpeed,2400
;   outlineUnderspeed,0.8
;   solidInfillUnderspeed,0.8
;   supportUnderspeed,0.8
;   rapidXYspeed,4800
;   rapidZspeed,1002
;   minBridgingArea,50
;   bridgingExtraInflation,0
;   bridgingExtrusionMultiplier,1
;   bridgingSpeedMultiplier,1
;   useFixedBridgingAngle,0
;   fixedBridgingAngle,0
;   applyBridgingToPerimeters,0
;   filamentDiameters,1.75|1.75|1.75|1.75|1.75|1.75
;   filamentPricesPerKg,199|46|46|46|46|46
;   filamentDensities,1.25|1.25|1.25|1.25|1.25|1.25
;   useMinPrintHeight,0
;   minPrintHeight,0
;   useMaxPrintHeight,1
;   maxPrintHeight,235
;   useDiaphragm,0
;   diaphragmLayerInterval,20
;   robustSlicing,1
;   mergeAllIntoSolid,0
;   onlyRetractWhenCrossingOutline,1
;   retractBetweenLayers,1
;   useRetractionMinTravel,0
;   retractionMinTravel,3
;   retractWhileWiping,1
;   onlyWipeOutlines,1
;   avoidCrossingOutline,0
;   maxMovementDetourFactor,3
;   toolChangeRetractionDistance,12
;   toolChangeExtraRestartDistance,-0.5
;   toolChangeRetractionSpeed,600
;   externalThinWallType,0
;   internalThinWallType,2
;   thinWallAllowedOverlapPercentage,25
;   singleExtrusionMinLength,1
;   singleExtrusionMinPrintingWidthPercentage,50
;   singleExtrusionMaxPrintingWidthPercentage,200
;   singleExtrusionEndpointExtension,0.2
;   horizontalSizeCompensation,0
G90
M82
M106 S0
M140 S60
M190 S60
M104 S210 T0
M109 S210 T0
M115 U3.0.7 ; use the latest firmware version
G28 W ; home all axes without mesh bed leveling
G80 ; run mesh bed leveling routine
G1 Y-3.0 F1000.0 ; prepare to prime
G92 E0 ; reset extrusion distance
G1 X60.0 E9.0  F1000.0 ; priming
G1 X100.0 E12.5  F1000.0 ; priming
G92 E0
G1 E-1.5000 F1800
G1 Z0.180 F1002
; process Process1
; layer 1, Z = 0.180
T0
; tool H0.180 W0.480
; skirt
G1 X102.577 Y84.987 F4800
G1 E0.0000 F540
G92 E0
G1 X104.987 Y82.577 E0.1225 F1200
G1 X105.075 Y82.540 E0.1259
G1 X112.925 Y82.540 E0.4078
G1 X113.013 Y82.577 E0.4113
G1 X115.423 Y84.987 E0.5337
G1 X115.460 Y85.075 E0.5372
G1 X115.460 Y92.925 E0.8191
G1 X115.423 Y93.013 E0.8225
G1 X114.158 Y94.278 E0.8868
G1 X119.036 Y94.116 E1.0621
G1 X119.074 Y94.115 E1.0635
G1 X124.679 Y94.031 E1.2648
G1 X124.721 Y94.031 E1.2662
G1 X126.809 Y94.041 E1.3412
G1 X126.836 Y94.041 E1.3421
G1 X130.615 Y94.107 E1.4779
G1 X130.647 Y94.108 E1.4790
G1 X135.843 Y94.279 E1.6657
G1 X134.577 Y93.013 E1.7300
G1 X134.540 Y92.925 E1.7335
G1 X134.540 Y85.075 E2.0154
G1 X134.577 Y84.987 E2.0188
G1 X136.987 Y82.577 E2.1413
G1 X137.075 Y82.540 E2.1447
G1 X144.925 Y82.540 E2.4267
G1 X145.013 Y82.577 E2.4301
G1 X147.423 Y84.987 E2.5526
G1 X147.460 Y85.075 E2.5560
G1 X147.460 Y92.925 E2.8379
G1 X147.423 Y93.013 E2.8414
G1 X145.013 Y95.423 E2.9638
G1 X144.925 Y95.460 E2.9673
G1 X143.191 Y95.460 E3.0295
G1 X144.163 Y96.247 E3.0744
G1 X144.205 Y96.313 E3.0773
G1 X145.144 Y100.111 E3.2178
G1 X145.145 Y100.115 E3.2179
G1 X145.173 Y100.250 E3.2229
G1 X145.174 Y100.254 E3.2230
G1 X145.834 Y103.981 E3.3590
G1 X145.841 Y104.025 E3.3605
G1 X146.211 Y106.401 E3.4469
G1 X146.211 Y106.403 E3.4470
G1 X146.220 Y106.464 E3.4492
G1 X146.220 Y106.465 E3.4492
G1 X146.847 Y111.458 E3.6300
G1 X146.852 Y111.498 E3.6314
G1 X147.116 Y113.990 E3.7214
G1 X147.116 Y113.993 E3.7215
G1 X147.123 Y114.076 E3.7245
G1 X147.123 Y114.078 E3.7245
G1 X147.308 Y116.916 E3.8267
G1 X147.309 Y116.920 E3.8268
G1 X147.313 Y117.044 E3.8313
G1 X147.313 Y117.047 E3.8314
G1 X147.319 Y118.284 E3.8758
G1 X147.319 Y118.287 E3.8759
G1 X147.317 Y118.400 E3.8800
G1 X147.316 Y118.404 E3.8801
G1 X147.244 Y119.852 E3.9322
G1 X147.243 Y119.864 E3.9326
G1 X147.184 Y120.261 E3.9471
G1 X147.182 Y120.273 E3.9475
G1 X147.026 Y120.899 E3.9707
G1 X147.021 Y120.913 E3.9712
G1 X146.829 Y121.404 E3.9901
G1 X146.823 Y121.418 E3.9907
G1 X146.406 Y122.180 E4.0219
G1 X146.397 Y122.194 E4.0225
G1 X146.050 Y122.660 E4.0434
G1 X146.038 Y122.673 E4.0440
G1 X145.479 Y123.236 E4.0725
G1 X145.467 Y123.247 E4.0731
G1 X145.032 Y123.582 E4.0928
G1 X145.019 Y123.591 E4.0934
G1 X144.335 Y123.984 E4.1217
G1 X144.321 Y123.992 E4.1223
G1 X143.814 Y124.200 E4.1420
G1 X143.799 Y124.205 E4.1425
G1 X143.080 Y124.394 E4.1692
G1 X143.069 Y124.397 E4.1697
G1 X142.676 Y124.460 E4.1839
G1 X142.665 Y124.461 E4.1844
G1 X140.293 Y124.614 E4.2697
G1 X140.291 Y124.614 E4.2698
G1 X140.220 Y124.618 E4.2724
G1 X140.217 Y124.618 E4.2724
G1 X136.801 Y124.719 E4.3952
G1 X136.760 Y124.720 E4.3967
G1 X130.463 Y124.783 E4.6228
G1 X130.441 Y124.783 E4.6236
G1 X118.755 Y124.779 E5.0433
G1 X118.738 Y124.779 E5.0439
G1 X115.075 Y124.749 E5.1755
G1 X115.048 Y124.749 E5.1764
G1 X111.159 Y124.668 E5.3161
G1 X111.116 Y124.667 E5.3177
G1 X108.902 Y124.575 E5.3972
G1 X108.899 Y124.575 E5.3973
G1 X108.816 Y124.570 E5.4003
G1 X108.814 Y124.570 E5.4004
G1 X107.022 Y124.423 E5.4649
G1 X107.003 Y124.420 E5.4656
G1 X106.351 Y124.258 E5.4898
G1 X106.333 Y124.251 E5.4905
G1 X105.383 Y123.842 E5.5276
G1 X105.365 Y123.832 E5.5283
G1 X104.778 Y123.451 E5.5535
G1 X104.762 Y123.438 E5.5542
G1 X104.122 Y122.847 E5.5855
G1 X104.112 Y122.836 E5.5860
G1 X103.783 Y122.447 E5.6043
G1 X103.774 Y122.435 E5.6049
G1 X103.364 Y121.806 E5.6318
G1 X103.356 Y121.792 E5.6324
G1 X103.116 Y121.283 E5.6527
G1 X103.110 Y121.267 E5.6533
G1 X102.857 Y120.463 E5.6836
G1 X102.853 Y120.448 E5.6841
G1 X102.760 Y119.925 E5.7032
G1 X102.758 Y119.909 E5.7038
G1 X102.681 Y118.285 E5.7622
G1 X102.681 Y118.281 E5.7623
G1 X102.679 Y118.137 E5.7675
G1 X102.679 Y118.133 E5.7676
G1 X102.723 Y116.162 E5.8385
G1 X102.724 Y116.158 E5.8386
G1 X102.730 Y116.034 E5.8430
G1 X102.730 Y116.031 E5.8432
G1 X102.980 Y113.018 E5.9518
G1 X102.980 Y113.016 E5.9518
G1 X102.988 Y112.935 E5.9547
G1 X102.988 Y112.933 E5.9548
G1 X103.789 Y106.399 E6.1913
G1 X103.789 Y106.397 E6.1914
G1 X103.799 Y106.326 E6.1939
G1 X103.799 Y106.324 E6.1940
G1 X104.224 Y103.633 E6.2919
G1 X104.231 Y103.591 E6.2933
G1 X104.826 Y100.253 E6.4151
G1 X104.827 Y100.249 E6.4153
G1 X104.855 Y100.116 E6.4201
G1 X104.856 Y100.112 E6.4203
G1 X105.795 Y96.314 E6.5608
G1 X105.837 Y96.247 E6.5636
G1 X106.809 Y95.460 E6.6086
G1 X105.075 Y95.460 E6.6708
G1 X104.987 Y95.423 E6.6743
G1 X102.577 Y93.013 E6.7967
G1 X102.540 Y92.925 E6.8002
G1 X102.540 Y85.156 E7.0792
G1 X102.540 Y85.075 F1200
G1 X102.577 Y84.987 F1200
G1 X118.540 Y81.075 F4800
G92 E0
G1 X118.577 Y80.987 E0.0034 F1200
G1 X120.987 Y78.577 E0.1259
G1 X121.075 Y78.540 E0.1293
G1 X128.925 Y78.540 E0.4113
G1 X129.013 Y78.577 E0.4147
G1 X131.423 Y80.987 E0.5372
G1 X131.460 Y81.075 E0.5406
G1 X131.460 Y88.925 E0.8225
G1 X131.423 Y89.013 E0.8260
G1 X129.013 Y91.423 E0.9484
G1 X128.925 Y91.460 E0.9519
G1 X121.075 Y91.460 E1.2338
G1 X120.987 Y91.423 E1.2372
G1 X118.577 Y89.013 E1.3597
G1 X118.540 Y88.925 E1.3631
G1 X118.540 Y81.275 E1.6379
G1 X118.540 Y81.075 F1200
G92 E0
G1 E-1.5000 F1800
; inner perimeter
G1 X118.687 Y99.569 F4800
G1 E0.0000 F1800
G92 E0
G1 X118.791 Y99.771 E0.0081 F1080
G1 X118.716 Y99.870 E0.0126
G1 X118.472 Y100.249 E0.0288
G1 X118.257 Y100.645 E0.0450
G1 X118.141 Y100.902 E0.0551
G1 X113.168 Y100.902 E0.2338
G1 X110.642 Y111.278 E0.6174
G1 X120.520 Y111.278 E0.9722
G1 X119.830 Y114.203 E1.0801
G1 X126.173 Y114.203 E1.3080
G1 X126.862 Y111.273 E1.4161
G1 X133.909 Y111.278 E1.6693
G1 X134.396 Y111.246 E1.6868
G1 X134.734 Y111.180 E1.6991
G1 X135.256 Y111.007 E1.7189
G1 X135.754 Y110.743 E1.7391
G1 X136.037 Y110.542 E1.7516
G1 X136.442 Y110.169 E1.7714
G1 X136.802 Y109.704 E1.7925
G1 X137.061 Y109.217 E1.8123
G1 X137.183 Y108.895 E1.8247
G1 X138.352 Y104.037 E2.0042
G1 X138.395 Y103.746 E2.0147
G1 X138.404 Y103.435 E2.0259
G1 X138.375 Y103.124 E2.0371
G1 X138.303 Y102.785 E2.0496
G1 X138.096 Y102.280 E2.0692
G1 X137.911 Y101.988 E2.0816
G1 X137.715 Y101.747 E2.0928
G1 X137.491 Y101.530 E2.1040
G1 X137.216 Y101.321 E2.1164
G1 X136.731 Y101.073 E2.1360
G1 X136.366 Y100.961 E2.1497
G1 X135.855 Y100.900 E2.1681
G1 X129.438 Y100.902 E2.3986
G1 X129.917 Y99.536 E2.4507
G1 X130.494 Y99.546 E2.4714
G1 X139.474 Y99.842 E2.7941
G1 X139.836 Y101.310 E2.8485
G1 X140.471 Y104.897 E2.9793
G1 X140.828 Y107.191 E3.0627
G1 X141.445 Y112.105 E3.2406
G1 X141.700 Y114.509 E3.3274
G1 X141.791 Y115.602 E3.3668
G1 X141.874 Y117.165 E3.4231
G1 X141.879 Y118.230 E3.4613
G1 X141.848 Y119.074 E3.4917
G1 X140.000 Y119.182 E3.5582
G1 X138.339 Y119.241 E3.6179
G1 X136.673 Y119.281 E3.6777
G1 X133.666 Y119.323 E3.7857
G1 X130.427 Y119.343 E3.9021
G1 X123.942 Y119.350 E4.1350
G1 X118.770 Y119.339 E4.3208
G1 X115.140 Y119.310 E4.4512
G1 X111.306 Y119.230 E4.5890
G1 X109.183 Y119.142 E4.6653
G1 X108.156 Y119.074 E4.7023
G1 X108.120 Y118.138 E4.7359
G1 X108.128 Y117.081 E4.7739
G1 X108.159 Y116.388 E4.7988
G1 X108.260 Y114.958 E4.8503
G1 X108.396 Y113.531 E4.9018
G1 X108.554 Y112.108 E4.9532
G1 X109.181 Y107.118 E5.1339
G1 X109.593 Y104.513 E5.2286
G1 X110.162 Y101.316 E5.3453
G1 X110.331 Y100.653 E5.3699
G1 X110.529 Y99.840 E5.3999
G1 X116.085 Y99.646 E5.5996
G1 X118.487 Y99.575 E5.6859
G1 X118.687 Y99.569 F1080
G92 E0
G1 E-1.5000 F1800
G1 X128.273 Y105.270 F4800
G1 E0.0000 F1800
G92 E0
G1 X131.104 Y105.269 E0.1017 F1080
G1 X130.703 Y106.855 E0.1605
G1 X127.901 Y106.855 E0.2611
G1 X128.228 Y105.464 E0.3125
G1 X128.273 Y105.269 F1080
G1 X128.131 Y104.790 F4800
G92 E0
G1 X131.721 Y104.789 E0.1289 F1080
G1 X131.077 Y107.335 E0.2233
G1 X127.295 Y107.335 E0.3592
G1 X127.848 Y104.980 E0.4461
G1 X127.864 Y104.943 E0.4475
G1 X127.886 Y104.905 E0.4491
G1 X127.914 Y104.872 E0.4506
G1 X127.943 Y104.846 E0.4520
G1 X127.946 Y104.844 F1080
G1 X127.982 Y104.822 F1080
G1 X128.021 Y104.805 F1080
G1 X128.062 Y104.795 F1080
G1 X128.131 Y104.790 F1080
G92 E0
G1 E-1.5000 F1800
G1 X128.762 Y101.383 F4800
G1 E0.0000 F1800
G92 E0
G1 X129.579 Y99.050 E0.0888 F1080
G1 X130.506 Y99.066 E0.1221
G1 X139.852 Y99.374 E0.4580
G1 X140.306 Y101.211 E0.5260
G1 X140.945 Y104.817 E0.6575
G1 X141.304 Y107.124 E0.7414
G1 X141.922 Y112.049 E0.9197
G1 X142.178 Y114.464 E1.0069
G1 X142.269 Y115.569 E1.0468
G1 X142.353 Y117.151 E1.1037
G1 X142.359 Y118.238 E1.1427
G1 X142.331 Y119.025 E1.1710
G1 X142.307 Y119.324 E1.1818
G1 X142.292 Y119.380 E1.1838
G1 X142.272 Y119.426 E1.1857
G1 X142.203 Y119.496 E1.1892
G1 X142.063 Y119.533 E1.1944
G1 X141.869 Y119.554 E1.2014
G1 X140.022 Y119.661 E1.2679
G1 X138.353 Y119.721 E1.3279
G1 X136.682 Y119.761 E1.3879
G1 X133.672 Y119.803 E1.4960
G1 X130.429 Y119.823 E1.6125
G1 X123.942 Y119.830 E1.8456
G1 X118.768 Y119.819 E2.0314
G1 X115.133 Y119.790 E2.1620
G1 X111.290 Y119.710 E2.3000
G1 X109.157 Y119.622 E2.3767
G1 X108.251 Y119.561 E2.4094
G1 X107.823 Y119.514 E2.4248
G1 X107.741 Y119.438 E2.4288
G1 X107.708 Y119.387 E2.4310
G1 X107.693 Y119.326 E2.4333
G1 X107.679 Y119.165 E2.4391
G1 X107.640 Y118.145 E2.4757
G1 X107.649 Y117.068 E2.5144
G1 X107.680 Y116.360 E2.5399
G1 X107.782 Y114.917 E2.5918
G1 X107.918 Y113.482 E2.6436
G1 X108.078 Y112.052 E2.6953
G1 X108.706 Y107.051 E2.8764
G1 X109.119 Y104.434 E2.9715
G1 X109.693 Y101.215 E3.0890
G1 X109.865 Y100.537 E3.1141
G1 X110.149 Y99.373 E3.1572
G1 X116.068 Y99.167 E3.3699
G1 X119.177 Y99.074 E3.4816
G1 X119.762 Y99.062 E3.5026
G1 X119.856 Y99.289 E3.5114
G1 X119.634 Y99.504 E3.5225
G1 X119.360 Y99.815 E3.5374
G1 X119.110 Y100.145 E3.5523
G1 X118.885 Y100.494 E3.5672
G1 X118.687 Y100.858 E3.5821
G1 X118.517 Y101.237 E3.5970
G1 X118.465 Y101.382 E3.6026
G1 X113.545 Y101.382 E3.7793
G1 X111.253 Y110.799 E4.1274
G1 X121.127 Y110.799 E4.4821
G1 X120.437 Y113.723 E4.5900
G1 X125.793 Y113.723 E4.7824
G1 X126.482 Y110.792 E4.8905
G1 X133.893 Y110.798 E5.1568
G1 X134.333 Y110.769 E5.1726
G1 X134.612 Y110.714 E5.1828
