; G-Code generated by Simplify3D(R) Version 4.0.0
; Feb 8, 2018 at 10:23:40 PM
; Settings Summary
;   processName,Process1
;   applyToModels,sealant-ring
;   profileName,Prusa Research Original Prusa i3 MK2 (modified)
;   profileVersion,2017-07-23 22:27:18
;   baseProfile,
;   printMaterial,PLA
;   printQuality,Fast
;   printExtruders,
;   extruderName,Primary Extruder
;   extruderToolheadNumber,0
;   extruderDiameter,0.4
;   extruderAutoWidth,1
;   extruderWidth,0.48
;   extrusionMultiplier,1
;   extruderUseRetract,1
;   extruderRetractionDistance,1.5
;   extruderExtraRestartDistance,0
;   extruderRetractionZLift,0
;   extruderRetractionSpeed,1800
;   extruderUseCoasting,1
;   extruderCoastingDistance,0.2
;   extruderUseWipe,1
;   extruderWipeDistance,2
;   primaryExtruder,0
;   layerHeight,0.35
;   topSolidLayers,3
;   bottomSolidLayers,3
;   perimeterOutlines,3
;   printPerimetersInsideOut,1
;   startPointOption,2
;   startPointOriginX,0
;   startPointOriginY,0
;   sequentialIslands,0
;   spiralVaseMode,0
;   firstLayerHeightPercentage,120
;   firstLayerWidthPercentage,100
;   firstLayerUnderspeed,0.5
;   useRaft,0
;   raftExtruder,0
;   raftTopLayers,3
;   raftBaseLayers,2
;   raftOffset,3
;   raftSeparationDistance,0.14
;   raftTopInfill,100
;   aboveRaftSpeedMultiplier,0.3
;   useSkirt,1
;   skirtExtruder,0
;   skirtLayers,1
;   skirtOutlines,1
;   skirtOffset,4
;   usePrimePillar,0
;   primePillarExtruder,999
;   primePillarWidth,12
;   primePillarLocation,7
;   primePillarSpeedMultiplier,1
;   useOozeShield,0
;   oozeShieldExtruder,999
;   oozeShieldOffset,2
;   oozeShieldOutlines,1
;   oozeShieldSidewallShape,1
;   oozeShieldSidewallAngle,30
;   oozeShieldSpeedMultiplier,1
;   infillExtruder,0
;   internalInfillPattern,Rectilinear
;   externalInfillPattern,Rectilinear
;   infillPercentage,10
;   outlineOverlapPercentage,20
;   infillExtrusionWidthPercentage,100
;   minInfillLength,5
;   infillLayerInterval,1
;   internalInfillAngles,45,-45
;   overlapInternalInfillAngles,0
;   externalInfillAngles,45,-45
;   generateSupport,0
;   supportExtruder,0
;   supportInfillPercentage,25
;   supportExtraInflation,0
;   supportBaseLayers,0
;   denseSupportExtruder,0
;   denseSupportLayers,0
;   denseSupportInfillPercentage,70
;   supportLayerInterval,1
;   supportHorizontalPartOffset,0.3
;   supportUpperSeparationLayers,1
;   supportLowerSeparationLayers,1
;   supportType,0
;   supportGridSpacing,4
;   maxOverhangAngle,45
;   supportAngles,0
;   temperatureName,Primary Extruder,Heated Bed
;   temperatureNumber,0,0
;   temperatureSetpointCount,1,1
;   temperatureSetpointLayers,1,1
;   temperatureSetpointTemperatures,200,60
;   temperatureStabilizeAtStartup,1,1
;   temperatureHeatedBed,0,1
;   temperatureRelayBetweenLayers,0,0
;   temperatureRelayBetweenLoops,0,0
;   fanLayers,1,2
;   fanSpeeds,0,100
;   blipFanToFullPower,0
;   adjustSpeedForCooling,1
;   minSpeedLayerTime,15
;   minCoolingSpeedSlowdown,20
;   increaseFanForCooling,0
;   minFanLayerTime,45
;   maxCoolingFanSpeed,100
;   increaseFanForBridging,0
;   bridgingFanSpeed,100
;   use5D,1
;   relativeEdistances,0
;   allowEaxisZeroing,1
;   independentExtruderAxes,0
;   includeM10123,0
;   stickySupport,1
;   applyToolheadOffsets,0
;   gcodeXoffset,0
;   gcodeYoffset,0
;   gcodeZoffset,0
;   overrideMachineDefinition,1
;   machineTypeOverride,0
;   strokeXoverride,250
;   strokeYoverride,210
;   strokeZoverride,200
;   originOffsetXoverride,0
;   originOffsetYoverride,0
;   originOffsetZoverride,0
;   homeXdirOverride,-1
;   homeYdirOverride,-1
;   homeZdirOverride,-1
;   flipXoverride,1
;   flipYoverride,-1
;   flipZoverride,1
;   toolheadOffsets,0,0|0,0|0,0|0,0|0,0|0,0
;   overrideFirmwareConfiguration,1
;   firmwareTypeOverride,RepRap (Marlin/Repetier/Sprinter)
;   GPXconfigOverride,r2
;   baudRateOverride,250000
;   overridePrinterModels,1
;   printerModelsOverride
;   startingGcode,M115 U3.0.7 ; use the latest firmware version,G28 W ; home all axes without mesh bed leveling,G80 ; run mesh bed leveling routine,G1 Y-3.0 F1000.0 ; prepare to prime,G92 E0 ; reset extrusion distance,G1 X60.0 E9.0  F1000.0 ; priming,G1 X100.0 E12.5  F1000.0 ; priming
;   layerChangeGcode,
;   retractionGcode,
;   toolChangeGcode,
;   endingGcode,M106 S0 ; turn off cooling fan,M104 S0 ; turn off extruder,M140 S0 ; turn off bed,G1 X0 Y200 ; part removal,M84 ; disable motors
;   exportFileFormat,gcode
;   celebration,0
;   celebrationSong,Random Song
;   postProcessing,
;   defaultSpeed,2400
;   outlineUnderspeed,0.8
;   solidInfillUnderspeed,0.8
;   supportUnderspeed,0.8
;   rapidXYspeed,4800
;   rapidZspeed,1002
;   minBridgingArea,50
;   bridgingExtraInflation,0
;   bridgingExtrusionMultiplier,1
;   bridgingSpeedMultiplier,1
;   useFixedBridgingAngle,0
;   fixedBridgingAngle,0
;   applyBridgingToPerimeters,0
;   filamentDiameters,1.75|1.75|1.75|1.75|1.75|1.75
;   filamentPricesPerKg,46|46|46|46|46|46
;   filamentDensities,1.25|1.25|1.25|1.25|1.25|1.25
;   useMinPrintHeight,1
;   minPrintHeight,0
;   useMaxPrintHeight,1
;   maxPrintHeight,235
;   useDiaphragm,0
;   diaphragmLayerInterval,20
;   robustSlicing,1
;   mergeAllIntoSolid,0
;   onlyRetractWhenCrossingOutline,1
;   retractBetweenLayers,1
;   useRetractionMinTravel,0
;   retractionMinTravel,3
;   retractWhileWiping,1
;   onlyWipeOutlines,1
;   avoidCrossingOutline,0
;   maxMovementDetourFactor,3
;   toolChangeRetractionDistance,12
;   toolChangeExtraRestartDistance,-0.5
;   toolChangeRetractionSpeed,600
;   externalThinWallType,0
;   internalThinWallType,2
;   thinWallAllowedOverlapPercentage,25
;   singleExtrusionMinLength,1
;   singleExtrusionMinPrintingWidthPercentage,50
;   singleExtrusionMaxPrintingWidthPercentage,200
;   singleExtrusionEndpointExtension,0.2
;   horizontalSizeCompensation,0
G90
M82
M106 S0
M140 S60
M190 S60
M104 S200 T0
M109 S200 T0
M115 U3.0.7 ; use the latest firmware version
G28 W ; home all axes without mesh bed leveling
G80 ; run mesh bed leveling routine
G1 Y-3.0 F1000.0 ; prepare to prime
G92 E0 ; reset extrusion distance
G1 X60.0 E9.0  F1000.0 ; priming
G1 X100.0 E12.5  F1000.0 ; priming
G92 E0
G1 E-1.5000 F1800
G1 Z0.420 F1002
; process Process1
; layer 1, Z = 0.420
T0
; tool H0.420 W0.480
; skirt
G1 X106.572 Y89.254 F4800
G1 E0.0000 F540
G92 E0
G1 X106.573 Y89.253 E0.0002 F1200
G1 X107.075 Y88.684 E0.0637
G1 X107.077 Y88.681 E0.0640
G1 X107.147 Y88.605 E0.0727
G1 X107.149 Y88.603 E0.0730
G1 X108.172 Y87.554 E0.1957
G1 X108.175 Y87.551 E0.1961
G1 X108.275 Y87.456 E0.2077
G1 X108.278 Y87.453 E0.2080
G1 X109.369 Y86.475 E0.3308
G1 X109.371 Y86.473 E0.3310
G1 X109.450 Y86.406 E0.3397
G1 X109.452 Y86.404 E0.3400
G1 X110.042 Y85.927 E0.4036
G1 X110.043 Y85.926 E0.4037
G1 X110.098 Y85.883 E0.4095
G1 X110.100 Y85.882 E0.4097
G1 X110.705 Y85.425 E0.4733
G1 X110.707 Y85.423 E0.4735
G1 X110.792 Y85.362 E0.4822
G1 X110.794 Y85.361 E0.4825
G1 X112.006 Y84.538 E0.6053
G1 X112.009 Y84.536 E0.6056
G1 X112.127 Y84.462 E0.6172
G1 X112.130 Y84.460 E0.6176
G1 X113.395 Y83.720 E0.7403
G1 X113.397 Y83.719 E0.7406
G1 X113.488 Y83.668 E0.7493
G1 X113.491 Y83.667 E0.7495
G1 X114.164 Y83.318 E0.8131
G1 X114.166 Y83.317 E0.8133
G1 X114.228 Y83.286 E0.8191
G1 X114.229 Y83.285 E0.8193
G1 X114.914 Y82.958 E0.8828
G1 X114.917 Y82.957 E0.8831
G1 X115.012 Y82.915 E0.8918
G1 X115.014 Y82.913 E0.8920
G1 X116.367 Y82.350 E1.0148
G1 X116.370 Y82.349 E1.0152
G1 X116.500 Y82.300 E1.0268
G1 X116.504 Y82.298 E1.0271
G1 X117.907 Y81.821 E1.1513
G1 X117.911 Y81.820 E1.1517
G1 X118.043 Y81.780 E1.1633
G1 X118.047 Y81.779 E1.1636
G1 X119.463 Y81.402 E1.2864
G1 X119.466 Y81.401 E1.2866
G1 X119.567 Y81.377 E1.2953
G1 X119.570 Y81.376 E1.2956
G1 X120.328 Y81.214 E1.3606
G1 X120.331 Y81.214 E1.3609
G1 X120.433 Y81.195 E1.3696
G1 X120.436 Y81.194 E1.3698
G1 X121.865 Y80.964 E1.4912
G1 X121.868 Y80.964 E1.4914
G1 X121.971 Y80.950 E1.5001
G1 X121.974 Y80.949 E1.5004
G1 X122.746 Y80.865 E1.5654
G1 X122.749 Y80.865 E1.5656
G1 X122.852 Y80.856 E1.5744
G1 X122.855 Y80.856 E1.5746
G1 X124.300 Y80.771 E1.6959
G1 X124.303 Y80.770 E1.6962
G1 X124.407 Y80.767 E1.7049
G1 X124.410 Y80.767 E1.7051
G1 X125.168 Y80.761 E1.7687
G1 X125.170 Y80.761 E1.7689
G1 X125.240 Y80.761 E1.7747
G1 X125.242 Y80.761 E1.7749
G1 X125.983 Y80.780 E1.8370
G1 X125.985 Y80.780 E1.8371
G1 X126.054 Y80.783 E1.8429
G1 X126.056 Y80.783 E1.8431
G1 X126.813 Y80.827 E1.9067
G1 X126.816 Y80.828 E1.9069
G1 X126.919 Y80.836 E1.9156
G1 X126.922 Y80.837 E1.9159
G1 X128.361 Y80.994 E2.0372
G1 X128.364 Y80.995 E2.0375
G1 X128.467 Y81.009 E2.0462
G1 X128.470 Y81.009 E2.0464
G1 X129.236 Y81.132 E2.1115
G1 X129.239 Y81.133 E2.1117
G1 X129.341 Y81.152 E2.1204
G1 X129.344 Y81.153 E2.1207
G1 X130.760 Y81.454 E2.2420
G1 X130.763 Y81.455 E2.2423
G1 X130.864 Y81.479 E2.2510
G1 X130.867 Y81.480 E2.2512
G1 X131.616 Y81.680 E2.3162
G1 X131.619 Y81.681 E2.3165
G1 X131.719 Y81.710 E2.3252
G1 X131.722 Y81.711 E2.3254
G1 X133.100 Y82.153 E2.4468
G1 X133.103 Y82.154 E2.4470
G1 X133.201 Y82.189 E2.4557
G1 X133.204 Y82.190 E2.4560
G1 X133.930 Y82.464 E2.5210
G1 X133.932 Y82.465 E2.5213
G1 X134.029 Y82.504 E2.5300
G1 X134.031 Y82.505 E2.5302
G1 X135.374 Y83.091 E2.6530
G1 X135.378 Y83.093 E2.6533
G1 X135.503 Y83.153 E2.6649
G1 X135.506 Y83.154 E2.6653
G1 X136.806 Y83.829 E2.7881
G1 X136.809 Y83.831 E2.7883
G1 X136.900 Y83.881 E2.7970
G1 X136.903 Y83.882 E2.7973
G1 X137.572 Y84.274 E2.8623
G1 X137.575 Y84.276 E2.8625
G1 X137.663 Y84.330 E2.8712
G1 X137.666 Y84.332 E2.8715
G1 X138.877 Y85.125 E2.9928
G1 X138.879 Y85.126 E2.9931
G1 X138.965 Y85.185 E3.0018
G1 X138.967 Y85.187 E3.0020
G1 X139.594 Y85.644 E3.0671
G1 X139.596 Y85.646 E3.0673
G1 X139.679 Y85.709 E3.0760
G1 X139.681 Y85.711 E3.0763
G1 X140.820 Y86.633 E3.1991
G1 X140.823 Y86.635 E3.1994
G1 X140.928 Y86.726 E3.2110
G1 X140.931 Y86.729 E3.2113
G1 X142.005 Y87.725 E3.3341
G1 X142.007 Y87.727 E3.3344
G1 X142.081 Y87.799 E3.3431
G1 X142.083 Y87.801 E3.3433
G1 X142.613 Y88.344 E3.4069
G1 X142.614 Y88.346 E3.4071
G1 X142.662 Y88.396 E3.4129
G1 X142.663 Y88.398 E3.4130
G1 X143.174 Y88.958 E3.4766
G1 X143.176 Y88.960 E3.4769
G1 X143.244 Y89.039 E3.4856
G1 X143.246 Y89.041 E3.4858
G1 X144.177 Y90.172 E3.6086
G1 X144.180 Y90.175 E3.6089
G1 X144.264 Y90.285 E3.6205
G1 X144.267 Y90.288 E3.6209
G1 X145.120 Y91.479 E3.7437
G1 X145.121 Y91.482 E3.7439
G1 X145.180 Y91.568 E3.7526
G1 X145.181 Y91.570 E3.7529
G1 X145.591 Y92.208 E3.8164
G1 X145.592 Y92.210 E3.8166
G1 X145.629 Y92.269 E3.8224
G1 X145.630 Y92.270 E3.8226
G1 X146.018 Y92.922 E3.8861
G1 X146.020 Y92.924 E3.8864
G1 X146.071 Y93.015 E3.8951
G1 X146.072 Y93.018 E3.8954
G1 X146.758 Y94.312 E4.0181
G1 X146.760 Y94.316 E4.0185
G1 X146.820 Y94.440 E4.0301
G1 X146.822 Y94.444 E4.0304
G1 X147.420 Y95.781 E4.1532
G1 X147.421 Y95.784 E4.1534
G1 X147.461 Y95.880 E4.1622
G1 X147.462 Y95.883 E4.1624
G1 X147.736 Y96.590 E4.2260
G1 X147.737 Y96.592 E4.2261
G1 X147.760 Y96.657 E4.2320
G1 X147.761 Y96.659 E4.2321
G1 X148.011 Y97.375 E4.2957
G1 X148.012 Y97.378 E4.2959
G1 X148.044 Y97.477 E4.3046
G1 X148.045 Y97.480 E4.3049
G1 X148.453 Y98.868 E4.4262
G1 X148.453 Y98.871 E4.4265
G1 X148.480 Y98.972 E4.4352
G1 X148.481 Y98.975 E4.4354
G1 X148.662 Y99.729 E4.5005
G1 X148.662 Y99.732 E4.5007
G1 X148.684 Y99.834 E4.5094
G1 X148.685 Y99.837 E4.5097
G1 X148.951 Y101.259 E4.6310
G1 X148.951 Y101.262 E4.6313
G1 X148.968 Y101.365 E4.6400
G1 X148.968 Y101.368 E4.6402
G1 X149.072 Y102.137 E4.7052
G1 X149.072 Y102.140 E4.7055
G1 X149.084 Y102.243 E4.7142
G1 X149.084 Y102.246 E4.7144
G1 X149.207 Y103.706 E4.8372
G1 X149.207 Y103.710 E4.8376
G1 X149.214 Y103.848 E4.8492
G1 X149.214 Y103.852 E4.8495
G1 X149.239 Y105.317 E4.9723
G1 X149.239 Y105.320 E4.9725
G1 X149.238 Y105.424 E4.9812
G1 X149.238 Y105.427 E4.9815
G1 X149.212 Y106.202 E5.0465
G1 X149.212 Y106.205 E5.0468
G1 X149.206 Y106.309 E5.0555
G1 X149.205 Y106.312 E5.0557
G1 X149.084 Y107.754 E5.1771
G1 X149.084 Y107.757 E5.1773
G1 X149.072 Y107.860 E5.1860
G1 X149.072 Y107.863 E5.1863
G1 X148.968 Y108.632 E5.2513
G1 X148.968 Y108.635 E5.2515
G1 X148.951 Y108.738 E5.2602
G1 X148.951 Y108.741 E5.2605
G1 X148.685 Y110.163 E5.3818
G1 X148.684 Y110.166 E5.3821
G1 X148.662 Y110.268 E5.3908
G1 X148.662 Y110.271 E5.3910
G1 X148.481 Y111.025 E5.4561
G1 X148.480 Y111.028 E5.4563
G1 X148.453 Y111.129 E5.4650
G1 X148.453 Y111.132 E5.4653
G1 X148.040 Y112.537 E5.5881
G1 X148.039 Y112.541 E5.5884
G1 X147.995 Y112.672 E5.6000
G1 X147.994 Y112.676 E5.6003
G1 X147.482 Y114.067 E5.7246
G1 X147.480 Y114.071 E5.7249
G1 X147.428 Y114.199 E5.7365
G1 X147.427 Y114.203 E5.7368
G1 X146.829 Y115.540 E5.8596
G1 X146.828 Y115.543 E5.8599
G1 X146.783 Y115.637 E5.8686
G1 X146.782 Y115.640 E5.8688
G1 X146.438 Y116.316 E5.9324
G1 X146.437 Y116.317 E5.9326
G1 X146.405 Y116.379 E5.9384
G1 X146.404 Y116.380 E5.9385
G1 X146.038 Y117.044 E6.0021
G1 X146.036 Y117.047 E6.0024
G1 X145.984 Y117.137 E6.0111
G1 X145.982 Y117.139 E6.0113
G1 X145.211 Y118.385 E6.1341
G1 X145.209 Y118.388 E6.1344
G1 X145.132 Y118.503 E6.1460
G1 X145.130 Y118.507 E6.1464
G1 X144.277 Y119.698 E6.2692
G1 X144.275 Y119.700 E6.2694
G1 X144.212 Y119.783 E6.2781
G1 X144.210 Y119.785 E6.2784
G1 X143.738 Y120.379 E6.3419
G1 X143.737 Y120.380 E6.3421
G1 X143.693 Y120.434 E6.3479
G1 X143.692 Y120.435 E6.3481
G1 X143.200 Y121.013 E6.4117
G1 X143.198 Y121.015 E6.4119
G1 X143.128 Y121.092 E6.4206
G1 X143.126 Y121.095 E6.4209
G1 X142.121 Y122.160 E6.5436
G1 X142.119 Y122.163 E6.5440
G1 X142.020 Y122.261 E6.5556
G1 X142.017 Y122.264 E6.5559
G1 X140.943 Y123.260 E6.6787
G1 X140.941 Y123.262 E6.6790
G1 X140.863 Y123.330 E6.6877
G1 X140.861 Y123.332 E6.6879
G1 X140.266 Y123.830 E6.7529
G1 X140.264 Y123.832 E6.7532
G1 X140.182 Y123.897 E6.7619
G1 X140.180 Y123.899 E6.7622
G1 X139.025 Y124.771 E6.8835
G1 X139.022 Y124.773 E6.8837
G1 X138.938 Y124.833 E6.8924
G1 X138.935 Y124.835 E6.8927
G1 X138.294 Y125.271 E6.9577
G1 X138.291 Y125.273 E6.9580
G1 X138.204 Y125.329 E6.9667
G1 X138.201 Y125.330 E6.9669
G1 X136.964 Y126.082 E7.0883
G1 X136.962 Y126.083 E7.0885
G1 X136.871 Y126.135 E7.0972
G1 X136.869 Y126.137 E7.0975
G1 X136.202 Y126.497 E7.1610
G1 X136.200 Y126.498 E7.1612
G1 X136.138 Y126.530 E7.1670
G1 X136.137 Y126.531 E7.1672
G1 X135.458 Y126.869 E7.2307
G1 X135.455 Y126.870 E7.2310
G1 X135.361 Y126.914 E7.2397
G1 X135.358 Y126.916 E7.2400
G1 X134.031 Y127.495 E7.3613
G1 X134.029 Y127.496 E7.3615
G1 X133.932 Y127.535 E7.3702
G1 X133.930 Y127.536 E7.3705
G1 X133.204 Y127.810 E7.4355
G1 X133.201 Y127.811 E7.4358
G1 X133.103 Y127.846 E7.4445
G1 X133.100 Y127.847 E7.4447
G1 X131.722 Y128.289 E7.5661
G1 X131.719 Y128.290 E7.5663
G1 X131.619 Y128.319 E7.5750
G1 X131.616 Y128.320 E7.5753
G1 X130.867 Y128.520 E7.6403
G1 X130.864 Y128.521 E7.6405
G1 X130.763 Y128.545 E7.6492
G1 X130.760 Y128.546 E7.6495
G1 X129.344 Y128.847 E7.7708
G1 X129.341 Y128.848 E7.7711
G1 X129.239 Y128.867 E7.7798
G1 X129.236 Y128.867 E7.7800
G1 X128.470 Y128.991 E7.8451
G1 X128.467 Y128.991 E7.8453
G1 X128.364 Y129.005 E7.8540
G1 X128.361 Y129.006 E7.8543
G1 X126.922 Y129.163 E7.9756
G1 X126.919 Y129.164 E7.9759
G1 X126.816 Y129.172 E7.9846
G1 X126.813 Y129.172 E7.9848
G1 X126.038 Y129.218 E8.0498
G1 X126.035 Y129.218 E8.0501
G1 X125.932 Y129.222 E8.0588
G1 X125.929 Y129.222 E8.0590
G1 X124.464 Y129.234 E8.1818
G1 X124.460 Y129.234 E8.1822
G1 X124.321 Y129.231 E8.1938
G1 X124.317 Y129.230 E8.1941
G1 X122.855 Y129.144 E8.3169
G1 X122.852 Y129.144 E8.3171
G1 X122.749 Y129.135 E8.3258
G1 X122.746 Y129.135 E8.3261
G1 X121.992 Y129.052 E8.3897
G1 X121.990 Y129.052 E8.3898
G1 X121.921 Y129.043 E8.3956
G1 X121.919 Y129.043 E8.3958
G1 X121.168 Y128.935 E8.4594
G1 X121.165 Y128.935 E8.4596
G1 X121.063 Y128.917 E8.4683
G1 X121.060 Y128.917 E8.4686
G1 X119.639 Y128.639 E8.5899
G1 X119.636 Y128.638 E8.5902
G1 X119.535 Y128.616 E8.5989
G1 X119.532 Y128.615 E8.5991
G1 X118.779 Y128.428 E8.6641
G1 X118.776 Y128.427 E8.6644
G1 X118.676 Y128.400 E8.6731
G1 X118.673 Y128.399 E8.6734
G1 X117.271 Y127.974 E8.7961
G1 X117.267 Y127.973 E8.7965
G1 X117.136 Y127.929 E8.8081
