; G-Code generated by Simplify3D(R) Version 4.0.0
; Feb 8, 2018 at 11:22:48 PM
; Settings Summary
;   processName,Process1
;   applyToModels,sealant-ring,sealant-ring(2)
;   profileName,Prusa Research Original Prusa i3 MK2 (modified)
;   profileVersion,2017-07-23 22:27:18
;   baseProfile,
;   printMaterial,PLA
;   printQuality,Fast
;   printExtruders,
;   extruderName,Primary Extruder
;   extruderToolheadNumber,0
;   extruderDiameter,0.4
;   extruderAutoWidth,1
;   extruderWidth,0.48
;   extrusionMultiplier,1
;   extruderUseRetract,1
;   extruderRetractionDistance,1.5
;   extruderExtraRestartDistance,0
;   extruderRetractionZLift,0
;   extruderRetractionSpeed,1800
;   extruderUseCoasting,1
;   extruderCoastingDistance,0.2
;   extruderUseWipe,1
;   extruderWipeDistance,2
;   primaryExtruder,0
;   layerHeight,0.35
;   topSolidLayers,3
;   bottomSolidLayers,3
;   perimeterOutlines,3
;   printPerimetersInsideOut,1
;   startPointOption,2
;   startPointOriginX,0
;   startPointOriginY,0
;   sequentialIslands,0
;   spiralVaseMode,0
;   firstLayerHeightPercentage,120
;   firstLayerWidthPercentage,100
;   firstLayerUnderspeed,0.5
;   useRaft,0
;   raftExtruder,0
;   raftTopLayers,3
;   raftBaseLayers,2
;   raftOffset,3
;   raftSeparationDistance,0.14
;   raftTopInfill,100
;   aboveRaftSpeedMultiplier,0.3
;   useSkirt,1
;   skirtExtruder,0
;   skirtLayers,1
;   skirtOutlines,1
;   skirtOffset,4
;   usePrimePillar,0
;   primePillarExtruder,999
;   primePillarWidth,12
;   primePillarLocation,7
;   primePillarSpeedMultiplier,1
;   useOozeShield,0
;   oozeShieldExtruder,999
;   oozeShieldOffset,2
;   oozeShieldOutlines,1
;   oozeShieldSidewallShape,1
;   oozeShieldSidewallAngle,30
;   oozeShieldSpeedMultiplier,1
;   infillExtruder,0
;   internalInfillPattern,Rectilinear
;   externalInfillPattern,Rectilinear
;   infillPercentage,10
;   outlineOverlapPercentage,20
;   infillExtrusionWidthPercentage,100
;   minInfillLength,5
;   infillLayerInterval,1
;   internalInfillAngles,45,-45
;   overlapInternalInfillAngles,0
;   externalInfillAngles,45,-45
;   generateSupport,0
;   supportExtruder,0
;   supportInfillPercentage,25
;   supportExtraInflation,0
;   supportBaseLayers,0
;   denseSupportExtruder,0
;   denseSupportLayers,0
;   denseSupportInfillPercentage,70
;   supportLayerInterval,1
;   supportHorizontalPartOffset,0.3
;   supportUpperSeparationLayers,1
;   supportLowerSeparationLayers,1
;   supportType,0
;   supportGridSpacing,4
;   maxOverhangAngle,45
;   supportAngles,0
;   temperatureName,Primary Extruder,Heated Bed
;   temperatureNumber,0,0
;   temperatureSetpointCount,1,1
;   temperatureSetpointLayers,1,1
;   temperatureSetpointTemperatures,200,60
;   temperatureStabilizeAtStartup,1,1
;   temperatureHeatedBed,0,1
;   temperatureRelayBetweenLayers,0,0
;   temperatureRelayBetweenLoops,0,0
;   fanLayers,1,2
;   fanSpeeds,0,100
;   blipFanToFullPower,0
;   adjustSpeedForCooling,1
;   minSpeedLayerTime,15
;   minCoolingSpeedSlowdown,20
;   increaseFanForCooling,0
;   minFanLayerTime,45
;   maxCoolingFanSpeed,100
;   increaseFanForBridging,0
;   bridgingFanSpeed,100
;   use5D,1
;   relativeEdistances,0
;   allowEaxisZeroing,1
;   independentExtruderAxes,0
;   includeM10123,0
;   stickySupport,1
;   applyToolheadOffsets,0
;   gcodeXoffset,0
;   gcodeYoffset,0
;   gcodeZoffset,0
;   overrideMachineDefinition,1
;   machineTypeOverride,0
;   strokeXoverride,250
;   strokeYoverride,210
;   strokeZoverride,200
;   originOffsetXoverride,0
;   originOffsetYoverride,0
;   originOffsetZoverride,0
;   homeXdirOverride,-1
;   homeYdirOverride,-1
;   homeZdirOverride,-1
;   flipXoverride,1
;   flipYoverride,-1
;   flipZoverride,1
;   toolheadOffsets,0,0|0,0|0,0|0,0|0,0|0,0
;   overrideFirmwareConfiguration,1
;   firmwareTypeOverride,RepRap (Marlin/Repetier/Sprinter)
;   GPXconfigOverride,r2
;   baudRateOverride,250000
;   overridePrinterModels,1
;   printerModelsOverride
;   startingGcode,M115 U3.0.7 ; use the latest firmware version,G28 W ; home all axes without mesh bed leveling,G80 ; run mesh bed leveling routine,G1 Y-3.0 F1000.0 ; prepare to prime,G92 E0 ; reset extrusion distance,G1 X60.0 E9.0  F1000.0 ; priming,G1 X100.0 E12.5  F1000.0 ; priming
;   layerChangeGcode,
;   retractionGcode,
;   toolChangeGcode,
;   endingGcode,M106 S0 ; turn off cooling fan,M104 S0 ; turn off extruder,M140 S0 ; turn off bed,G1 X0 Y200 ; part removal,M84 ; disable motors
;   exportFileFormat,gcode
;   celebration,0
;   celebrationSong,Random Song
;   postProcessing,
;   defaultSpeed,2400
;   outlineUnderspeed,0.8
;   solidInfillUnderspeed,0.8
;   supportUnderspeed,0.8
;   rapidXYspeed,4800
;   rapidZspeed,1002
;   minBridgingArea,50
;   bridgingExtraInflation,0
;   bridgingExtrusionMultiplier,1
;   bridgingSpeedMultiplier,1
;   useFixedBridgingAngle,0
;   fixedBridgingAngle,0
;   applyBridgingToPerimeters,0
;   filamentDiameters,1.75|1.75|1.75|1.75|1.75|1.75
;   filamentPricesPerKg,46|46|46|46|46|46
;   filamentDensities,1.25|1.25|1.25|1.25|1.25|1.25
;   useMinPrintHeight,1
;   minPrintHeight,0
;   useMaxPrintHeight,1
;   maxPrintHeight,235
;   useDiaphragm,0
;   diaphragmLayerInterval,20
;   robustSlicing,1
;   mergeAllIntoSolid,0
;   onlyRetractWhenCrossingOutline,1
;   retractBetweenLayers,1
;   useRetractionMinTravel,0
;   retractionMinTravel,3
;   retractWhileWiping,1
;   onlyWipeOutlines,1
;   avoidCrossingOutline,0
;   maxMovementDetourFactor,3
;   toolChangeRetractionDistance,12
;   toolChangeExtraRestartDistance,-0.5
;   toolChangeRetractionSpeed,600
;   externalThinWallType,0
;   internalThinWallType,2
;   thinWallAllowedOverlapPercentage,25
;   singleExtrusionMinLength,1
;   singleExtrusionMinPrintingWidthPercentage,50
;   singleExtrusionMaxPrintingWidthPercentage,200
;   singleExtrusionEndpointExtension,0.2
;   horizontalSizeCompensation,0
G90
M82
M106 S0
M140 S60
M190 S60
M104 S200 T0
M109 S200 T0
M115 U3.0.7 ; use the latest firmware version
G28 W ; home all axes without mesh bed leveling
G80 ; run mesh bed leveling routine
G1 Y-3.0 F1000.0 ; prepare to prime
G92 E0 ; reset extrusion distance
G1 X60.0 E9.0  F1000.0 ; priming
G1 X100.0 E12.5  F1000.0 ; priming
G92 E0
G1 E-1.5000 F1800
G1 Z0.420 F1002
; process Process1
; layer 1, Z = 0.420
T0
; tool H0.420 W0.480
; skirt
G1 X104.561 Y69.472 F4800
G1 E0.0000 F540
G92 E0
G1 X104.563 Y69.470 E0.0003 F1200
G1 X104.618 Y69.382 E0.0090
G1 X104.620 Y69.379 E0.0092
G1 X105.050 Y68.734 E0.0742
G1 X105.052 Y68.731 E0.0745
G1 X105.111 Y68.646 E0.0832
G1 X105.113 Y68.644 E0.0834
G1 X105.976 Y67.481 E0.2048
G1 X105.978 Y67.479 E0.2050
G1 X106.042 Y67.397 E0.2137
G1 X106.043 Y67.395 E0.2140
G1 X106.526 Y66.809 E0.2776
G1 X106.527 Y66.808 E0.2777
G1 X106.572 Y66.755 E0.2835
G1 X106.573 Y66.753 E0.2837
G1 X107.075 Y66.184 E0.3473
G1 X107.077 Y66.182 E0.3475
G1 X107.147 Y66.106 E0.3562
G1 X107.149 Y66.104 E0.3565
G1 X108.172 Y65.055 E0.4793
G1 X108.175 Y65.052 E0.4796
G1 X108.275 Y64.956 E0.4912
G1 X108.278 Y64.954 E0.4915
G1 X109.369 Y63.976 E0.6143
G1 X109.371 Y63.974 E0.6146
G1 X109.450 Y63.907 E0.6233
G1 X109.452 Y63.905 E0.6235
G1 X110.055 Y63.417 E0.6885
G1 X110.058 Y63.415 E0.6888
G1 X110.140 Y63.351 E0.6975
G1 X110.142 Y63.350 E0.6978
G1 X111.312 Y62.497 E0.8191
G1 X111.315 Y62.495 E0.8193
G1 X111.400 Y62.436 E0.8280
G1 X111.402 Y62.434 E0.8283
G1 X112.037 Y62.019 E0.8919
G1 X112.039 Y62.018 E0.8920
G1 X112.097 Y61.981 E0.8978
G1 X112.099 Y61.980 E0.8980
G1 X112.747 Y61.586 E0.9616
G1 X112.750 Y61.584 E0.9618
G1 X112.840 Y61.533 E0.9705
G1 X112.843 Y61.531 E0.9708
G1 X114.116 Y60.843 E1.0921
G1 X114.119 Y60.841 E1.0924
G1 X114.211 Y60.794 E1.1011
G1 X114.214 Y60.793 E1.1013
G1 X114.914 Y60.459 E1.1664
G1 X114.917 Y60.458 E1.1666
G1 X115.012 Y60.415 E1.1753
G1 X115.014 Y60.414 E1.1756
G1 X116.367 Y59.851 E1.2983
G1 X116.370 Y59.849 E1.2987
G1 X116.500 Y59.800 E1.3103
G1 X116.504 Y59.799 E1.3106
G1 X117.907 Y59.322 E1.4349
G1 X117.911 Y59.321 E1.4352
G1 X118.043 Y59.281 E1.4468
G1 X118.047 Y59.280 E1.4471
G1 X119.463 Y58.902 E1.5699
G1 X119.466 Y58.902 E1.5702
G1 X119.567 Y58.877 E1.5789
G1 X119.570 Y58.877 E1.5791
G1 X120.328 Y58.715 E1.6442
G1 X120.331 Y58.715 E1.6444
G1 X120.433 Y58.695 E1.6531
G1 X120.436 Y58.695 E1.6534
G1 X121.865 Y58.465 E1.7747
G1 X121.868 Y58.464 E1.7749
G1 X121.971 Y58.451 E1.7836
G1 X121.974 Y58.450 E1.7839
G1 X122.746 Y58.366 E1.8489
G1 X122.749 Y58.365 E1.8492
G1 X122.852 Y58.357 E1.8579
G1 X122.855 Y58.356 E1.8581
G1 X124.300 Y58.271 E1.9795
G1 X124.303 Y58.271 E1.9797
G1 X124.407 Y58.268 E1.9884
G1 X124.410 Y58.268 E1.9887
G1 X125.168 Y58.261 E2.0522
G1 X125.170 Y58.261 E2.0524
G1 X125.240 Y58.262 E2.0582
G1 X125.242 Y58.262 E2.0584
G1 X125.983 Y58.281 E2.1205
G1 X125.985 Y58.281 E2.1207
G1 X126.054 Y58.284 E2.1265
G1 X126.056 Y58.284 E2.1266
G1 X126.813 Y58.328 E2.1902
G1 X126.816 Y58.328 E2.1905
G1 X126.919 Y58.337 E2.1992
G1 X126.922 Y58.337 E2.1994
G1 X128.379 Y58.497 E2.3222
G1 X128.383 Y58.498 E2.3225
G1 X128.520 Y58.517 E2.3341
G1 X128.524 Y58.518 E2.3345
G1 X129.983 Y58.778 E2.4587
G1 X129.987 Y58.779 E2.4591
G1 X130.122 Y58.808 E2.4707
G1 X130.126 Y58.809 E2.4710
G1 X131.548 Y59.162 E2.5938
G1 X131.551 Y59.163 E2.5940
G1 X131.651 Y59.190 E2.6027
G1 X131.654 Y59.191 E2.6030
G1 X132.396 Y59.416 E2.6680
G1 X132.399 Y59.417 E2.6683
G1 X132.498 Y59.449 E2.6770
G1 X132.500 Y59.450 E2.6772
G1 X133.863 Y59.939 E2.7985
G1 X133.866 Y59.940 E2.7988
G1 X133.963 Y59.978 E2.8075
G1 X133.965 Y59.979 E2.8078
G1 X134.682 Y60.277 E2.8728
G1 X134.684 Y60.278 E2.8730
G1 X134.779 Y60.321 E2.8817
G1 X134.782 Y60.322 E2.8820
G1 X136.088 Y60.945 E3.0033
G1 X136.091 Y60.947 E3.0036
G1 X136.184 Y60.994 E3.0123
G1 X136.186 Y60.995 E3.0125
G1 X136.869 Y61.364 E3.0776
G1 X136.872 Y61.366 E3.0778
G1 X136.962 Y61.417 E3.0865
G1 X136.964 Y61.419 E3.0868
G1 X138.201 Y62.170 E3.2081
G1 X138.204 Y62.172 E3.2083
G1 X138.291 Y62.228 E3.2171
G1 X138.294 Y62.230 E3.2173
G1 X138.921 Y62.656 E3.2809
G1 X138.923 Y62.657 E3.2810
G1 X138.980 Y62.697 E3.2868
G1 X138.981 Y62.698 E3.2870
G1 X139.594 Y63.145 E3.3506
G1 X139.596 Y63.147 E3.3508
G1 X139.679 Y63.210 E3.3595
G1 X139.681 Y63.212 E3.3598
G1 X140.820 Y64.133 E3.4826
G1 X140.823 Y64.136 E3.4829
G1 X140.928 Y64.227 E3.4945
G1 X140.931 Y64.229 E3.4949
G1 X142.005 Y65.225 E3.6176
G1 X142.007 Y65.227 E3.6179
G1 X142.081 Y65.300 E3.6266
G1 X142.083 Y65.302 E3.6269
G1 X142.613 Y65.845 E3.6904
G1 X142.614 Y65.847 E3.6906
G1 X142.662 Y65.897 E3.6964
G1 X142.663 Y65.898 E3.6966
G1 X143.174 Y66.459 E3.7601
G1 X143.176 Y66.461 E3.7604
G1 X143.244 Y66.540 E3.7691
G1 X143.246 Y66.542 E3.7693
G1 X144.166 Y67.659 E3.8907
G1 X144.168 Y67.662 E3.8909
G1 X144.232 Y67.744 E3.8996
G1 X144.234 Y67.746 E3.8999
G1 X144.696 Y68.369 E3.9649
G1 X144.698 Y68.371 E3.9652
G1 X144.758 Y68.456 E3.9739
G1 X144.759 Y68.459 E3.9741
G1 X145.562 Y69.663 E4.0954
G1 X145.564 Y69.666 E4.0957
G1 X145.619 Y69.754 E4.1044
G1 X145.621 Y69.756 E4.1046
G1 X146.018 Y70.423 E4.1697
G1 X146.020 Y70.425 E4.1699
G1 X146.071 Y70.516 E4.1786
G1 X146.072 Y70.518 E4.1789
G1 X146.750 Y71.798 E4.3002
G1 X146.751 Y71.800 E4.3005
G1 X146.798 Y71.893 E4.3092
G1 X146.799 Y71.896 E4.3094
G1 X147.127 Y72.599 E4.3744
G1 X147.128 Y72.602 E4.3747
G1 X147.170 Y72.697 E4.3834
G1 X147.171 Y72.700 E4.3837
G1 X147.723 Y74.056 E4.5064
G1 X147.725 Y74.060 E4.5068
G1 X147.772 Y74.190 E4.5184
G1 X147.774 Y74.194 E4.5187
G1 X148.233 Y75.585 E4.6415
G1 X148.234 Y75.588 E4.6417
G1 X148.264 Y75.687 E4.6505
G1 X148.265 Y75.690 E4.6507
G1 X148.467 Y76.421 E4.7143
G1 X148.467 Y76.423 E4.7144
G1 X148.484 Y76.490 E4.7202
G1 X148.485 Y76.492 E4.7204
G1 X148.662 Y77.230 E4.7840
G1 X148.662 Y77.233 E4.7842
G1 X148.684 Y77.334 E4.7929
G1 X148.685 Y77.337 E4.7932
G1 X148.954 Y78.777 E4.9160
G1 X148.954 Y78.781 E4.9163
G1 X148.975 Y78.918 E4.9279
G1 X148.976 Y78.922 E4.9283
G1 X149.150 Y80.394 E5.0525
G1 X149.150 Y80.398 E5.0528
G1 X149.162 Y80.536 E5.0644
G1 X149.162 Y80.540 E5.0648
G1 X149.236 Y82.003 E5.1875
G1 X149.236 Y82.006 E5.1878
G1 X149.239 Y82.110 E5.1965
G1 X149.239 Y82.113 E5.1968
G1 X149.239 Y82.871 E5.2603
G1 X149.239 Y82.873 E5.2605
G1 X149.237 Y82.943 E5.2663
G1 X149.237 Y82.945 E5.2665
G1 X149.212 Y83.703 E5.3300
G1 X149.212 Y83.706 E5.3303
G1 X149.206 Y83.809 E5.3390
G1 X149.205 Y83.812 E5.3393
G1 X149.084 Y85.255 E5.4606
G1 X149.084 Y85.258 E5.4608
G1 X149.072 Y85.361 E5.4695
G1 X149.072 Y85.364 E5.4698
G1 X148.968 Y86.133 E5.5348
G1 X148.968 Y86.136 E5.5351
G1 X148.951 Y86.238 E5.5438
G1 X148.951 Y86.241 E5.5440
G1 X148.685 Y87.664 E5.6654
G1 X148.684 Y87.667 E5.6656
G1 X148.662 Y87.769 E5.6743
G1 X148.662 Y87.772 E5.6746
G1 X148.481 Y88.526 E5.7396
G1 X148.480 Y88.529 E5.7398
G1 X148.453 Y88.629 E5.7485
G1 X148.453 Y88.632 E5.7488
G1 X148.040 Y90.038 E5.8716
G1 X148.039 Y90.042 E5.8719
G1 X147.995 Y90.173 E5.8835
G1 X147.994 Y90.177 E5.8839
G1 X147.488 Y91.552 E6.0066
G1 X147.487 Y91.554 E6.0069
G1 X147.448 Y91.651 E6.0156
G1 X147.447 Y91.654 E6.0158
G1 X147.143 Y92.367 E6.0809
G1 X147.142 Y92.370 E6.0811
G1 X147.098 Y92.464 E6.0898
G1 X147.097 Y92.467 E6.0901
G1 X146.455 Y93.784 E6.2129
G1 X146.453 Y93.788 E6.2132
G1 X146.389 Y93.910 E6.2248
G1 X146.387 Y93.913 E6.2251
G1 X145.658 Y95.184 E6.3479
G1 X145.656 Y95.187 E6.3482
G1 X145.602 Y95.275 E6.3569
G1 X145.601 Y95.278 E6.3571
G1 X145.181 Y95.931 E6.4222
G1 X145.180 Y95.933 E6.4224
G1 X145.121 Y96.019 E6.4311
G1 X145.120 Y96.022 E6.4314
G1 X144.277 Y97.198 E6.5527
G1 X144.275 Y97.201 E6.5529
G1 X144.212 Y97.284 E6.5616
G1 X144.210 Y97.286 E6.5619
G1 X143.738 Y97.880 E6.6255
G1 X143.737 Y97.881 E6.6256
G1 X143.693 Y97.935 E6.6314
G1 X143.692 Y97.936 E6.6316
G1 X143.200 Y98.514 E6.6952
G1 X143.198 Y98.516 E6.6954
G1 X143.128 Y98.593 E6.7041
G1 X143.126 Y98.595 E6.7044
G1 X142.122 Y99.661 E6.8272
G1 X142.119 Y99.664 E6.8275
G1 X142.020 Y99.762 E6.8391
G1 X142.017 Y99.764 E6.8395
G1 X140.943 Y100.760 E6.9622
G1 X140.941 Y100.762 E6.9625
G1 X140.863 Y100.831 E6.9712
G1 X140.861 Y100.833 E6.9714
G1 X140.266 Y101.331 E7.0365
G1 X140.264 Y101.333 E7.0367
G1 X140.182 Y101.398 E7.0454
G1 X140.180 Y101.399 E7.0457
G1 X139.025 Y102.272 E7.1670
G1 X139.022 Y102.274 E7.1673
G1 X138.938 Y102.334 E7.1760
G1 X138.935 Y102.336 E7.1762
G1 X138.308 Y102.762 E7.2398
G1 X138.306 Y102.763 E7.2400
G1 X138.248 Y102.801 E7.2458
G1 X138.247 Y102.802 E7.2459
G1 X137.605 Y103.207 E7.3095
G1 X137.603 Y103.208 E7.3097
G1 X137.513 Y103.261 E7.3185
G1 X137.511 Y103.263 E7.3187
G1 X136.249 Y103.973 E7.4400
G1 X136.247 Y103.974 E7.4403
G1 X136.155 Y104.023 E7.4490
G1 X136.152 Y104.024 E7.4492
G1 X135.458 Y104.370 E7.5143
G1 X135.455 Y104.371 E7.5145
G1 X135.361 Y104.415 E7.5232
G1 X135.358 Y104.416 E7.5235
G1 X134.020 Y105.000 E7.6458
G1 X134.682 Y105.276 E7.7059
G1 X134.684 Y105.277 E7.7061
G1 X134.779 Y105.319 E7.7148
G1 X134.782 Y105.321 E7.7151
G1 X136.088 Y105.944 E7.8364
G1 X136.091 Y105.945 E7.8367
G1 X136.184 Y105.992 E7.8454
G1 X136.186 Y105.994 E7.8456
G1 X136.854 Y106.354 E7.9092
G1 X136.855 Y106.355 E7.9094
G1 X136.916 Y106.389 E7.9152
G1 X136.917 Y106.390 E7.9153
G1 X137.572 Y106.773 E7.9789
G1 X137.575 Y106.775 E7.9791
G1 X137.663 Y106.830 E7.9878
G1 X137.666 Y106.831 E7.9881
G1 X138.877 Y107.624 E8.1094
G1 X138.879 Y107.626 E8.1097
G1 X138.965 Y107.685 E8.1184
G1 X138.967 Y107.686 E8.1186
G1 X139.594 Y108.143 E8.1837
G1 X139.596 Y108.145 E8.1839
G1 X139.679 Y108.209 E8.1926
G1 X139.681 Y108.210 E8.1929
G1 X140.820 Y109.132 E8.3157
G1 X140.823 Y109.135 E8.3160
G1 X140.928 Y109.225 E8.3276
G1 X140.931 Y109.228 E8.3279
G1 X142.005 Y110.224 E8.4507
G1 X142.007 Y110.226 E8.4510
G1 X142.081 Y110.299 E8.4597
G1 X142.084 Y110.301 E8.4599
G1 X142.613 Y110.844 E8.5235
G1 X142.614 Y110.845 E8.5237
G1 X142.662 Y110.895 E8.5295
G1 X142.663 Y110.897 E8.5296
G1 X143.174 Y111.457 E8.5932
G1 X143.176 Y111.460 E8.5935
G1 X143.244 Y111.538 E8.6022
G1 X143.246 Y111.540 E8.6024
G1 X144.177 Y112.671 E8.7252
G1 X144.180 Y112.675 E8.7255
G1 X144.264 Y112.784 E8.7371
G1 X144.267 Y112.788 E8.7375
G1 X145.120 Y113.978 E8.8603
G1 X145.121 Y113.981 E8.8605
G1 X145.180 Y114.067 E8.8692
