; G-Code generated by Simplify3D(R) Version 4.0.0
; Nov 8, 2017 at 4:11:27 PM
; Settings Summary
;   processName,Process1
;   applyToModels,10x3mm-m8-nut
;   profileName,Prusa Research Original Prusa i3 MK2 (modified)
;   profileVersion,2017-07-23 22:27:18
;   baseProfile,
;   printMaterial,PLA
;   printQuality,High
;   printExtruders,
;   extruderName,Primary Extruder
;   extruderToolheadNumber,0
;   extruderDiameter,0.4
;   extruderAutoWidth,1
;   extruderWidth,0.48
;   extrusionMultiplier,1
;   extruderUseRetract,1
;   extruderRetractionDistance,1.5
;   extruderExtraRestartDistance,0
;   extruderRetractionZLift,0
;   extruderRetractionSpeed,1800
;   extruderUseCoasting,1
;   extruderCoastingDistance,0.2
;   extruderUseWipe,1
;   extruderWipeDistance,2
;   primaryExtruder,0
;   layerHeight,0.1
;   topSolidLayers,4
;   bottomSolidLayers,4
;   perimeterOutlines,4
;   printPerimetersInsideOut,1
;   startPointOption,2
;   startPointOriginX,0
;   startPointOriginY,0
;   sequentialIslands,0
;   spiralVaseMode,0
;   firstLayerHeightPercentage,100
;   firstLayerWidthPercentage,100
;   firstLayerUnderspeed,0.5
;   useRaft,0
;   raftExtruder,0
;   raftTopLayers,3
;   raftBaseLayers,2
;   raftOffset,3
;   raftSeparationDistance,0.14
;   raftTopInfill,100
;   aboveRaftSpeedMultiplier,0.3
;   useSkirt,1
;   skirtExtruder,0
;   skirtLayers,2
;   skirtOutlines,1
;   skirtOffset,4
;   usePrimePillar,0
;   primePillarExtruder,999
;   primePillarWidth,12
;   primePillarLocation,7
;   primePillarSpeedMultiplier,1
;   useOozeShield,0
;   oozeShieldExtruder,999
;   oozeShieldOffset,2
;   oozeShieldOutlines,1
;   oozeShieldSidewallShape,1
;   oozeShieldSidewallAngle,30
;   oozeShieldSpeedMultiplier,1
;   infillExtruder,0
;   internalInfillPattern,Rectilinear
;   externalInfillPattern,Rectilinear
;   infillPercentage,100
;   outlineOverlapPercentage,20
;   infillExtrusionWidthPercentage,100
;   minInfillLength,5
;   infillLayerInterval,1
;   internalInfillAngles,45,-45
;   overlapInternalInfillAngles,0
;   externalInfillAngles,45,-45
;   generateSupport,0
;   supportExtruder,0
;   supportInfillPercentage,40
;   supportExtraInflation,0
;   supportBaseLayers,0
;   denseSupportExtruder,0
;   denseSupportLayers,0
;   denseSupportInfillPercentage,70
;   supportLayerInterval,1
;   supportHorizontalPartOffset,0.3
;   supportUpperSeparationLayers,1
;   supportLowerSeparationLayers,1
;   supportType,0
;   supportGridSpacing,4
;   maxOverhangAngle,45
;   supportAngles,0
;   temperatureName,Primary Extruder,Heated Bed
;   temperatureNumber,0,0
;   temperatureSetpointCount,1,1
;   temperatureSetpointLayers,1,1
;   temperatureSetpointTemperatures,210,60
;   temperatureStabilizeAtStartup,1,1
;   temperatureHeatedBed,0,1
;   temperatureRelayBetweenLayers,0,0
;   temperatureRelayBetweenLoops,0,0
;   fanLayers,1,2
;   fanSpeeds,0,100
;   blipFanToFullPower,0
;   adjustSpeedForCooling,1
;   minSpeedLayerTime,15
;   minCoolingSpeedSlowdown,20
;   increaseFanForCooling,0
;   minFanLayerTime,45
;   maxCoolingFanSpeed,100
;   increaseFanForBridging,0
;   bridgingFanSpeed,100
;   use5D,1
;   relativeEdistances,0
;   allowEaxisZeroing,1
;   independentExtruderAxes,0
;   includeM10123,0
;   stickySupport,1
;   applyToolheadOffsets,0
;   gcodeXoffset,0
;   gcodeYoffset,0
;   gcodeZoffset,0
;   overrideMachineDefinition,1
;   machineTypeOverride,0
;   strokeXoverride,250
;   strokeYoverride,210
;   strokeZoverride,200
;   originOffsetXoverride,0
;   originOffsetYoverride,0
;   originOffsetZoverride,0
;   homeXdirOverride,-1
;   homeYdirOverride,-1
;   homeZdirOverride,-1
;   flipXoverride,1
;   flipYoverride,-1
;   flipZoverride,1
;   toolheadOffsets,0,0|0,0|0,0|0,0|0,0|0,0
;   overrideFirmwareConfiguration,1
;   firmwareTypeOverride,RepRap (Marlin/Repetier/Sprinter)
;   GPXconfigOverride,r2
;   baudRateOverride,250000
;   overridePrinterModels,1
;   printerModelsOverride
;   startingGcode,M115 U3.0.7 ; use the latest firmware version,G28 W ; home all axes without mesh bed leveling,G80 ; run mesh bed leveling routine,G1 Y-3.0 F1000.0 ; prepare to prime,G92 E0 ; reset extrusion distance,G1 X60.0 E9.0  F1000.0 ; priming,G1 X100.0 E12.5  F1000.0 ; priming
;   layerChangeGcode,
;   retractionGcode,
;   toolChangeGcode,
;   endingGcode,M106 S0 ; turn off cooling fan,M104 S0 ; turn off extruder,M140 S0 ; turn off bed,G1 X0 Y200 ; part removal,M84 ; disable motors
;   exportFileFormat,gcode
;   celebration,0
;   celebrationSong,Random Song
;   postProcessing,
;   defaultSpeed,2400
;   outlineUnderspeed,0.8
;   solidInfillUnderspeed,0.8
;   supportUnderspeed,0.8
;   rapidXYspeed,4800
;   rapidZspeed,1002
;   minBridgingArea,50
;   bridgingExtraInflation,0
;   bridgingExtrusionMultiplier,1
;   bridgingSpeedMultiplier,1
;   useFixedBridgingAngle,0
;   fixedBridgingAngle,0
;   applyBridgingToPerimeters,0
;   filamentDiameters,1.75|1.75|1.75|1.75|1.75|1.75
;   filamentPricesPerKg,46|46|46|46|46|46
;   filamentDensities,1.25|1.25|1.25|1.25|1.25|1.25
;   useMinPrintHeight,1
;   minPrintHeight,0
;   useMaxPrintHeight,1
;   maxPrintHeight,235
;   useDiaphragm,0
;   diaphragmLayerInterval,20
;   robustSlicing,1
;   mergeAllIntoSolid,0
;   onlyRetractWhenCrossingOutline,1
;   retractBetweenLayers,1
;   useRetractionMinTravel,0
;   retractionMinTravel,3
;   retractWhileWiping,1
;   onlyWipeOutlines,1
;   avoidCrossingOutline,0
;   maxMovementDetourFactor,3
;   toolChangeRetractionDistance,12
;   toolChangeExtraRestartDistance,-0.5
;   toolChangeRetractionSpeed,600
;   externalThinWallType,0
;   internalThinWallType,2
;   thinWallAllowedOverlapPercentage,25
;   singleExtrusionMinLength,1
;   singleExtrusionMinPrintingWidthPercentage,50
;   singleExtrusionMaxPrintingWidthPercentage,200
;   singleExtrusionEndpointExtension,0.2
;   horizontalSizeCompensation,0
G90
M82
M106 S0
M140 S60
M190 S60
M104 S210 T0
M109 S210 T0
M115 U3.0.7 ; use the latest firmware version
G28 W ; home all axes without mesh bed leveling
G80 ; run mesh bed leveling routine
G1 Y-3.0 F1000.0 ; prepare to prime
G92 E0 ; reset extrusion distance
G1 X60.0 E9.0  F1000.0 ; priming
G1 X100.0 E12.5  F1000.0 ; priming
G92 E0
G1 E-1.5000 F1800
G1 Z0.100 F1002
; process Process1
; layer 1, Z = 0.100
T0
; tool H0.100 W0.480
; skirt
G1 X117.810 Y99.195 F4800
G1 E0.0000 F540
G92 E0
G1 X118.402 Y98.528 E0.0178 F480
G1 X118.409 Y98.522 E0.0180
G1 X118.631 Y98.306 E0.0242
G1 X118.638 Y98.300 E0.0243
G1 X119.590 Y97.507 E0.0491
G1 X119.599 Y97.501 E0.0493
G1 X119.905 Y97.289 E0.0567
G1 X119.915 Y97.283 E0.0569
G1 X121.001 Y96.671 E0.0818
G1 X121.009 Y96.667 E0.0820
G1 X121.291 Y96.535 E0.0882
G1 X121.299 Y96.531 E0.0884
G1 X122.125 Y96.218 E0.1060
G1 X122.132 Y96.215 E0.1062
G1 X122.370 Y96.141 E0.1111
G1 X122.377 Y96.139 E0.1113
G1 X123.235 Y95.928 E0.1289
G1 X123.244 Y95.926 E0.1291
G1 X123.551 Y95.875 E0.1353
G1 X123.560 Y95.873 E0.1355
G1 X124.772 Y95.763 E0.1598
G1 X124.781 Y95.763 E0.1600
G1 X125.094 Y95.758 E0.1662
G1 X125.103 Y95.758 E0.1664
G1 X125.296 Y95.770 E0.1703
G1 X125.298 Y95.770 E0.1703
G1 X125.360 Y95.775 E0.1715
G1 X125.362 Y95.775 E0.1716
G1 X126.451 Y95.876 E0.1934
G1 X126.460 Y95.877 E0.1936
G1 X126.766 Y95.928 E0.1998
G1 X126.775 Y95.930 E0.1999
G1 X127.624 Y96.140 E0.2174
G1 X127.631 Y96.142 E0.2176
G1 X127.868 Y96.216 E0.2225
G1 X127.875 Y96.218 E0.2227
G1 X128.701 Y96.531 E0.2403
G1 X128.709 Y96.535 E0.2405
G1 X128.991 Y96.667 E0.2467
G1 X128.999 Y96.671 E0.2469
G1 X130.086 Y97.284 E0.2718
G1 X130.095 Y97.290 E0.2720
G1 X130.403 Y97.502 E0.2794
G1 X130.411 Y97.508 E0.2796
G1 X131.394 Y98.327 E0.3052
G1 X131.402 Y98.334 E0.3054
G1 X131.666 Y98.598 E0.3128
G1 X131.673 Y98.606 E0.3131
G1 X132.492 Y99.589 E0.3386
G1 X132.498 Y99.597 E0.3388
G1 X132.710 Y99.905 E0.3462
G1 X132.716 Y99.914 E0.3465
G1 X133.329 Y101.001 E0.3714
G1 X133.333 Y101.009 E0.3715
G1 X133.465 Y101.291 E0.3777
G1 X133.469 Y101.299 E0.3779
G1 X133.782 Y102.125 E0.3956
G1 X133.785 Y102.132 E0.3957
G1 X133.859 Y102.370 E0.4007
G1 X133.861 Y102.377 E0.4008
G1 X134.072 Y103.235 E0.4185
G1 X134.074 Y103.244 E0.4186
G1 X134.125 Y103.551 E0.4249
G1 X134.127 Y103.560 E0.4250
G1 X134.240 Y104.803 E0.4500
G1 X134.240 Y104.814 E0.4502
G1 X134.240 Y105.190 E0.4577
G1 X134.239 Y105.201 E0.4579
G1 X134.125 Y106.451 E0.4829
G1 X134.123 Y106.460 E0.4831
G1 X134.072 Y106.766 E0.4893
G1 X134.070 Y106.775 E0.4895
G1 X133.860 Y107.624 E0.5070
G1 X133.858 Y107.631 E0.5071
G1 X133.784 Y107.868 E0.5120
G1 X133.782 Y107.875 E0.5122
G1 X133.469 Y108.701 E0.5298
G1 X133.465 Y108.709 E0.5300
G1 X133.333 Y108.991 E0.5362
G1 X133.329 Y108.999 E0.5364
G1 X132.716 Y110.087 E0.5613
G1 X132.710 Y110.096 E0.5615
G1 X132.496 Y110.405 E0.5690
G1 X132.490 Y110.414 E0.5692
G1 X131.664 Y111.402 E0.5949
G1 X131.657 Y111.410 E0.5952
G1 X131.392 Y111.675 E0.6026
G1 X131.384 Y111.682 E0.6029
G1 X130.400 Y112.500 E0.6284
G1 X130.391 Y112.506 E0.6286
G1 X130.083 Y112.718 E0.6361
G1 X130.074 Y112.724 E0.6363
G1 X128.988 Y113.334 E0.6611
G1 X128.980 Y113.338 E0.6613
G1 X128.700 Y113.469 E0.6675
G1 X128.692 Y113.473 E0.6677
G1 X127.873 Y113.783 E0.6851
G1 X127.867 Y113.785 E0.6853
G1 X127.630 Y113.859 E0.6902
G1 X127.623 Y113.861 E0.6904
G1 X126.765 Y114.072 E0.7080
G1 X126.756 Y114.074 E0.7082
G1 X126.449 Y114.125 E0.7144
G1 X126.440 Y114.127 E0.7146
G1 X125.197 Y114.240 E0.7395
G1 X125.186 Y114.240 E0.7397
G1 X124.810 Y114.240 E0.7472
G1 X124.799 Y114.239 E0.7474
G1 X123.549 Y114.125 E0.7725
G1 X123.540 Y114.123 E0.7727
G1 X123.234 Y114.072 E0.7788
G1 X123.226 Y114.070 E0.7790
G1 X122.376 Y113.860 E0.7965
G1 X122.369 Y113.858 E0.7966
G1 X122.132 Y113.784 E0.8016
G1 X122.125 Y113.782 E0.8017
G1 X121.299 Y113.469 E0.8194
G1 X121.291 Y113.465 E0.8195
G1 X121.009 Y113.333 E0.8258
G1 X121.001 Y113.329 E0.8259
G1 X119.913 Y112.716 E0.8508
G1 X119.904 Y112.710 E0.8511
G1 X119.595 Y112.496 E0.8586
G1 X119.586 Y112.490 E0.8588
G1 X118.599 Y111.665 E0.8845
G1 X118.591 Y111.658 E0.8847
G1 X118.327 Y111.394 E0.8921
G1 X118.320 Y111.386 E0.8923
G1 X117.547 Y110.458 E0.9164
G1 X117.543 Y110.452 E0.9166
G1 X117.396 Y110.252 E0.9215
G1 X117.392 Y110.247 E0.9217
G1 X117.093 Y109.784 E0.9326
G1 X117.089 Y109.778 E0.9328
G1 X116.967 Y109.561 E0.9378
G1 X116.963 Y109.555 E0.9379
G1 X116.431 Y108.461 E0.9622
G1 X116.427 Y108.451 E0.9624
G1 X116.294 Y108.102 E0.9699
G1 X116.291 Y108.092 E0.9701
G1 X115.947 Y106.859 E0.9956
G1 X115.945 Y106.848 E0.9958
G1 X115.877 Y106.479 E1.0033
G1 X115.876 Y106.468 E1.0035
G1 X115.761 Y105.186 E1.0292
G1 X115.760 Y105.176 E1.0294
G1 X115.760 Y104.803 E1.0369
G1 X115.761 Y104.792 E1.0371
G1 X115.871 Y103.589 E1.0612
G1 X115.872 Y103.582 E1.0613
G1 X115.909 Y103.337 E1.0663
G1 X115.910 Y103.330 E1.0664
G1 X116.026 Y102.792 E1.0774
G1 X116.028 Y102.785 E1.0776
G1 X116.094 Y102.545 E1.0825
G1 X116.097 Y102.538 E1.0827
G1 X116.483 Y101.418 E1.1063
G1 X116.486 Y101.409 E1.1065
G1 X116.610 Y101.124 E1.1127
G1 X116.614 Y101.115 E1.1129
G1 X117.025 Y100.333 E1.1305
G1 X117.028 Y100.326 E1.1307
G1 X117.157 Y100.113 E1.1356
G1 X117.161 Y100.107 E1.1358
G1 X117.646 Y99.404 E1.1528
G1 X117.650 Y99.399 E1.1530
G1 X117.686 Y99.352 E1.1541
G1 X117.805 Y99.201 F480
G1 X117.810 Y99.195 F480
G92 E0
G1 E-1.5000 F1800
; outer perimeter
G1 X121.258 Y102.059 F4800
G1 E0.0000 F1800
G92 E0
G1 X121.642 Y101.627 E0.0115 F384
G1 X121.846 Y101.435 E0.0171
G1 X122.305 Y101.077 E0.0288
G1 X122.537 Y100.927 E0.0343
G1 X122.791 Y100.784 E0.0401
G1 X123.322 Y100.546 E0.0517
G1 X123.587 Y100.455 E0.0573
G1 X124.149 Y100.317 E0.0688
G1 X124.723 Y100.248 E0.0804
G1 X125.004 Y100.240 E0.0860
G1 X125.584 Y100.276 E0.0976
G1 X125.861 Y100.319 E0.1032
G1 X126.426 Y100.459 E0.1148
G1 X126.695 Y100.552 E0.1205
G1 X126.957 Y100.661 E0.1261
G1 X127.468 Y100.931 E0.1377
G1 X127.941 Y101.258 E0.1491
G1 X128.373 Y101.642 E0.1607
G1 X128.565 Y101.846 E0.1663
G1 X128.923 Y102.305 E0.1779
G1 X129.075 Y102.541 E0.1835
G1 X129.343 Y103.053 E0.1950
G1 X129.546 Y103.591 E0.2065
G1 X129.683 Y104.149 E0.2179
G1 X129.751 Y104.723 E0.2295
G1 X129.760 Y105.004 E0.2351
G1 X129.724 Y105.584 E0.2467
G1 X129.681 Y105.861 E0.2523
G1 X129.542 Y106.423 E0.2638
G1 X129.337 Y106.960 E0.2753
G1 X129.068 Y107.472 E0.2868
G1 X128.915 Y107.707 E0.2924
G1 X128.555 Y108.164 E0.3040
G1 X128.363 Y108.368 E0.3096
G1 X127.927 Y108.753 E0.3213
G1 X127.698 Y108.921 E0.3269
G1 X127.459 Y109.075 E0.3326
G1 X126.947 Y109.343 E0.3441
G1 X126.406 Y109.547 E0.3557
G1 X126.136 Y109.622 E0.3613
G1 X125.567 Y109.725 E0.3728
G1 X124.993 Y109.759 E0.3843
G1 X124.416 Y109.724 E0.3958
G1 X124.139 Y109.681 E0.4014
G1 X123.577 Y109.542 E0.4129
G1 X123.040 Y109.337 E0.4244
G1 X122.528 Y109.068 E0.4360
G1 X122.293 Y108.915 E0.4416
G1 X121.836 Y108.555 E0.4532
G1 X121.629 Y108.361 E0.4588
G1 X121.435 Y108.154 E0.4645
G1 X121.079 Y107.698 E0.4760
G1 X120.781 Y107.202 E0.4876
G1 X120.658 Y106.950 E0.4932
G1 X120.453 Y106.406 E0.5048
G1 X120.378 Y106.136 E0.5104
G1 X120.275 Y105.567 E0.5219
G1 X120.240 Y104.989 E0.5335
G1 X120.249 Y104.709 E0.5391
G1 X120.320 Y104.135 E0.5506
G1 X120.459 Y103.574 E0.5621
G1 X120.551 Y103.309 E0.5677
G1 X120.791 Y102.779 E0.5793
G1 X120.929 Y102.535 E0.5849
G1 X121.144 Y102.224 E0.5925
G1 X121.258 Y102.059 F384
G1 X121.642 Y101.627 F2400
G1 X121.846 Y101.435 F2400
G1 X122.305 Y101.077 F2400
G1 X122.537 Y100.927 F2400
G1 X122.784 Y100.788 F2400
G1 X122.982 Y101.596 F4800
G92 E0
G1 X122.758 Y101.719 E0.0051 F384
G1 X122.544 Y101.856 E0.0102
G1 X122.158 Y102.159 E0.0200
G1 X121.941 Y102.367 E0.0260
G1 X121.622 Y102.742 E0.0358
G1 X121.475 Y102.953 E0.0409
G1 X121.234 Y103.377 E0.0506
G1 X121.105 Y103.666 E0.0570
G1 X120.950 Y104.133 E0.0668
G1 X120.892 Y104.381 E0.0719
G1 X120.824 Y104.862 E0.0816
G1 X120.810 Y105.223 E0.0888
G1 X120.827 Y105.585 E0.0960
G1 X120.881 Y105.980 E0.1039
G1 X120.967 Y106.348 E0.1115
G1 X121.114 Y106.704 E0.1192
G1 X121.345 Y107.132 E0.1289
G1 X121.645 Y107.559 E0.1393
G1 X121.829 Y107.775 E0.1450
G1 X122.027 Y107.979 E0.1506
G1 X122.447 Y108.335 E0.1616
G1 X122.726 Y108.526 E0.1684
G1 X122.968 Y108.667 E0.1740
G1 X123.220 Y108.794 E0.1796
G1 X123.730 Y108.990 E0.1905
G1 X124.083 Y109.084 E0.1978
G1 X124.525 Y109.160 E0.2067
G1 X124.904 Y109.188 E0.2143
G1 X125.432 Y109.171 E0.2249
G1 X125.694 Y109.138 E0.2301
G1 X126.083 Y109.058 E0.2381
G1 X126.415 Y108.932 E0.2451
G1 X126.857 Y108.709 E0.2550
G1 X127.267 Y108.439 E0.2648
G1 X127.465 Y108.281 E0.2699
G1 X127.818 Y107.946 E0.2796
G1 X127.986 Y107.755 E0.2847
G1 X128.272 Y107.364 E0.2943
G1 X128.401 Y107.150 E0.2993
G1 X128.516 Y106.928 E0.3043
G1 X128.701 Y106.478 E0.3140
G1 X128.829 Y106.011 E0.3237
G1 X128.872 Y105.766 E0.3286
G1 X128.900 Y105.520 E0.3336
G1 X128.909 Y105.039 E0.3432
G1 X128.858 Y104.560 E0.3528
G1 X128.749 Y104.098 E0.3623
G1 X128.644 Y103.796 E0.3687
G1 X128.443 Y103.371 E0.3780
G1 X128.319 Y103.163 E0.3829
G1 X128.053 Y102.798 E0.3919
G1 X127.485 Y102.191 E0.4085
G1 X127.142 Y101.913 E0.4173
G1 X126.729 Y101.657 E0.4270
G1 X126.299 Y101.464 E0.4364
G1 X125.969 Y101.359 E0.4433
G1 X125.738 Y101.305 E0.4480
G1 X125.118 Y101.211 E0.4605
G1 X124.895 Y101.191 E0.4650
G1 X124.484 Y101.190 E0.4732
G1 X123.961 Y101.256 E0.4837
G1 X123.712 Y101.315 E0.4888
G1 X123.468 Y101.390 E0.4939
G1 X123.166 Y101.518 E0.5005
G1 X122.982 Y101.596 F384
G1 X122.758 Y101.719 F2400
G1 X122.544 Y101.856 F2400
G1 X122.158 Y102.159 F2400
G1 X121.941 Y102.367 F2400
G1 X121.622 Y102.742 F2400
G1 X121.504 Y102.912 F2400
; gap fill
G1 X122.665 Y101.307 F4800
G92 E0
G1 X122.677 Y101.320 E0.0004 F384
G1 X122.812 Y101.246 E0.0034
G1 X123.142 Y101.106 E0.0106
G1 X123.106 Y101.069 E0.0116
G1 X123.465 Y100.908 E0.0195
G1 X123.583 Y100.868 E0.0219
G1 X123.646 Y100.931 E0.0237
G1 X123.892 Y100.873 E0.0288
G1 X124.225 Y100.831 E0.0355
G1 X124.119 Y100.725 E0.0385
G1 X124.219 Y100.701 E0.0405
G1 X124.714 Y100.641 E0.0505
G1 X124.875 Y100.802 E0.0550
G1 X124.912 Y100.802 E0.0558
G1 X125.164 Y100.824 E0.0608
G1 X125.650 Y100.898 E0.0706
G1 X125.407 Y100.655 E0.0775
G1 X125.543 Y100.663 E0.0802
G1 X125.785 Y100.701 E0.0851
G1 X126.245 Y100.815 E0.0945
