; G-Code generated by Simplify3D(R) Version 3.1.1
; Aug 7, 2017 at 3:38:36 PM
; Settings Summary
;   processName,Process1
;   applyToModels,pen_holder
;   profileName,Prusa Research Original Prusa i3 MK2 (modified)
;   profileVersion,2017-07-23 22:27:18
;   baseProfile,
;   printMaterial,PLA
;   printQuality,Medium
;   printExtruders,
;   extruderName,Primary Extruder
;   extruderToolheadNumber,0
;   extruderDiameter,0.4
;   extruderAutoWidth,1
;   extruderWidth,0.48
;   extrusionMultiplier,1
;   extruderUseRetract,1
;   extruderRetractionDistance,1.5
;   extruderExtraRestartDistance,0
;   extruderRetractionZLift,0
;   extruderRetractionSpeed,1800
;   extruderUseCoasting,1
;   extruderCoastingDistance,0.2
;   extruderUseWipe,1
;   extruderWipeDistance,2
;   primaryExtruder,0
;   layerHeight,0.15
;   topSolidLayers,3
;   bottomSolidLayers,3
;   perimeterOutlines,3
;   printPerimetersInsideOut,1
;   startPointOption,2
;   startPointOriginX,0
;   startPointOriginY,0
;   startPointOriginZ,0
;   sequentialIslands,0
;   spiralVaseMode,0
;   firstLayerHeightPercentage,120
;   firstLayerWidthPercentage,100
;   firstLayerUnderspeed,0.5
;   useRaft,0
;   raftExtruder,0
;   raftLayers,3
;   raftOffset,3
;   raftSeparationDistance,0.14
;   raftInfill,85
;   disableRaftBaseLayers,0
;   useSkirt,1
;   skirtExtruder,0
;   skirtLayers,1
;   skirtOutlines,1
;   skirtOffset,4
;   usePrimePillar,0
;   primePillarExtruder,999
;   primePillarWidth,12
;   primePillarLocation,7
;   primePillarSpeedMultiplier,1
;   useOozeShield,0
;   oozeShieldExtruder,999
;   oozeShieldOffset,2
;   oozeShieldOutlines,1
;   oozeShieldSidewallShape,1
;   oozeShieldSidewallAngle,30
;   oozeShieldSpeedMultiplier,1
;   infillExtruder,0
;   internalInfillPattern,Rectilinear
;   externalInfillPattern,Rectilinear
;   infillPercentage,15
;   outlineOverlapPercentage,20
;   infillExtrusionWidthPercentage,100
;   minInfillLength,5
;   infillLayerInterval,1
;   infillAngles,0,120,-120
;   overlapInfillAngles,0
;   generateSupport,0
;   supportExtruder,0
;   supportInfillPercentage,30
;   supportExtraInflation,0
;   denseSupportLayers,0
;   denseSupportInfillPercentage,70
;   supportLayerInterval,1
;   supportHorizontalPartOffset,0.3
;   supportUpperSeparationLayers,1
;   supportLowerSeparationLayers,1
;   supportType,0
;   supportGridSpacing,4
;   maxOverhangAngle,45
;   supportAngles,0
;   temperatureName,Primary Extruder,Heated Bed
;   temperatureNumber,0,0
;   temperatureSetpointCount,1,1
;   temperatureSetpointLayers,1,1
;   temperatureSetpointTemperatures,200,60
;   temperatureStabilizeAtStartup,1,1
;   temperatureHeatedBed,0,1
;   temperatureRelayBetweenLayers,0,0
;   temperatureRelayBetweenLoops,0,0
;   fanLayers,1,2
;   fanSpeeds,0,100
;   blipFanToFullPower,0
;   adjustSpeedForCooling,1
;   minSpeedLayerTime,15
;   minCoolingSpeedSlowdown,20
;   increaseFanForCooling,0
;   minFanLayerTime,45
;   maxCoolingFanSpeed,100
;   increaseFanForBridging,0
;   bridgingFanSpeed,100
;   use5D,1
;   relativeEdistances,0
;   allowEaxisZeroing,1
;   independentExtruderAxes,0
;   includeM10123,0
;   stickySupport,1
;   applyToolheadOffsets,0
;   gcodeXoffset,0
;   gcodeYoffset,0
;   gcodeZoffset,0
;   overrideMachineDefinition,1
;   machineTypeOverride,0
;   strokeXoverride,250
;   strokeYoverride,210
;   strokeZoverride,200
;   originOffsetXoverride,0
;   originOffsetYoverride,0
;   originOffsetZoverride,0
;   homeXdirOverride,-1
;   homeYdirOverride,-1
;   homeZdirOverride,-1
;   flipXoverride,1
;   flipYoverride,-1
;   flipZoverride,1
;   toolheadOffsets,0,0|0,0|0,0|0,0|0,0|0,0
;   overrideFirmwareConfiguration,1
;   firmwareTypeOverride,RepRap (Marlin/Repetier/Sprinter)
;   GPXconfigOverride,r2
;   baudRateOverride,250000
;   overridePrinterModels,1
;   printerModelsOverride
;   startingGcode,M115 U3.0.7 ; use the latest firmware version,G28 W ; home all axes without mesh bed leveling,G80 ; run mesh bed leveling routine,G1 Y-3.0 F1000.0 ; prepare to prime,G92 E0 ; reset extrusion distance,G1 X60.0 E9.0  F1000.0 ; priming,G1 X100.0 E12.5  F1000.0 ; priming
;   layerChangeGcode,
;   retractionGcode,
;   toolChangeGcode,
;   endingGcode,M106 S0 ; turn off cooling fan,M104 S0 ; turn off extruder,M140 S0 ; turn off bed,G1 X0 Y200 ; part removal,M84 ; disable motors
;   exportFileFormat,gcode
;   celebration,0
;   celebrationSong,Random Song
;   postProcessing,
;   defaultSpeed,2400
;   outlineUnderspeed,0.8
;   solidInfillUnderspeed,0.8
;   supportUnderspeed,0.8
;   rapidXYspeed,4800
;   rapidZspeed,1000
;   minBridgingArea,50
;   bridgingExtraInflation,0
;   bridgingExtrusionMultiplier,1
;   bridgingSpeedMultiplier,1
;   filamentDiameter,1.75
;   filamentPricePerKg,46
;   filamentDensity,1.25
;   useMinPrintHeight,0
;   minPrintHeight,0
;   useMaxPrintHeight,1
;   maxPrintHeight,235
;   useDiaphragm,0
;   diaphragmLayerInterval,20
;   robustSlicing,1
;   mergeAllIntoSolid,0
;   onlyRetractWhenCrossingOutline,1
;   retractBetweenLayers,1
;   useRetractionMinTravel,0
;   retractionMinTravel,3
;   retractWhileWiping,1
;   onlyWipeOutlines,1
;   avoidCrossingOutline,0
;   maxMovementDetourFactor,3
;   toolChangeRetractionDistance,12
;   toolChangeExtraRestartDistance,-0.5
;   toolChangeRetractionSpeed,600
;   allowThinWallGapFill,1
;   thinWallAllowedOverlapPercentage,25
;   horizontalSizeCompensation,0
G90
M82
M106 S0
M140 S60
M190 S60
M104 S200 T0
M109 S200 T0
M115 U3.0.7 ; use the latest firmware version
G28 W ; home all axes without mesh bed leveling
G80 ; run mesh bed leveling routine
G1 Y-3.0 F1000.0 ; prepare to prime
G92 E0 ; reset extrusion distance
G1 X60.0 E9.0  F1000.0 ; priming
G1 X100.0 E12.5  F1000.0 ; priming
G92 E0
G1 E-1.5000 F1800
G1 Z0.180 F1000
; layer 1, Z = 0.18
T0
; tool H0.180 W0.480
; skirt
G1 X108.729 Y97.910 F4800
G1 E0.0000 F540
G92 E0
G1 X108.864 Y97.770 E0.0070 F749
G1 X108.868 Y97.766 E0.0072
G1 X109.573 Y97.104 E0.0419
G1 X109.577 Y97.100 E0.0421
G1 X109.725 Y96.974 E0.0491
G1 X109.729 Y96.971 E0.0493
G1 X110.163 Y96.635 E0.0690
G1 X110.166 Y96.632 E0.0691
G1 X110.270 Y96.556 E0.0738
G1 X110.273 Y96.554 E0.0739
G1 X110.727 Y96.246 E0.0936
G1 X110.731 Y96.243 E0.0938
G1 X110.897 Y96.141 E0.1008
G1 X110.902 Y96.139 E0.1010
G1 X111.749 Y95.673 E0.1357
G1 X111.754 Y95.670 E0.1359
G1 X111.928 Y95.585 E0.1429
G1 X111.933 Y95.583 E0.1431
G1 X112.466 Y95.352 E0.1640
G1 X112.471 Y95.350 E0.1642
G1 X112.653 Y95.281 E0.1711
G1 X112.658 Y95.279 E0.1713
G1 X113.608 Y94.971 E0.2072
G1 X113.616 Y94.969 E0.2075
G1 X113.867 Y94.904 E0.2168
G1 X113.874 Y94.903 E0.2171
G1 X114.887 Y94.709 E0.2541
G1 X114.894 Y94.708 E0.2544
G1 X115.151 Y94.676 E0.2637
G1 X115.159 Y94.675 E0.2639
G1 X116.123 Y94.614 E0.2987
G1 X116.127 Y94.614 E0.2988
G1 X116.257 Y94.610 E0.3034
G1 X116.260 Y94.610 E0.3036
G1 X139.519 Y94.610 E1.1391
G1 X139.531 Y94.611 E1.1395
G1 X139.917 Y94.647 E1.1534
G1 X139.929 Y94.649 E1.1538
G1 X140.782 Y94.812 E1.1851
G1 X140.809 Y94.820 E1.1861
G1 X141.698 Y95.221 E1.2211
G1 X141.722 Y95.236 E1.2221
G1 X142.661 Y95.964 E1.2648
G1 X142.679 Y95.981 E1.2657
G1 X143.227 Y96.622 E1.2960
G1 X143.241 Y96.642 E1.2968
G1 X143.661 Y97.405 E1.3281
G1 X143.669 Y97.423 E1.3288
G1 X143.889 Y98.033 E1.3521
G1 X143.894 Y98.051 E1.3528
G1 X144.063 Y98.937 E1.3852
G1 X144.065 Y98.959 E1.3860
G1 X144.065 Y99.738 E1.4140
G1 X144.063 Y99.760 E1.4148
G1 X143.979 Y100.200 E1.4309
G1 X144.063 Y100.637 E1.4468
G1 X144.065 Y100.659 E1.4476
G1 X144.065 Y101.438 E1.4756
G1 X144.063 Y101.460 E1.4764
G1 X143.882 Y102.409 E1.5111
G1 X143.876 Y102.431 E1.5119
G1 X143.590 Y103.156 E1.5399
G1 X143.579 Y103.176 E1.5407
G1 X143.062 Y103.992 E1.5755
G1 X143.048 Y104.010 E1.5763
G1 X142.515 Y104.578 E1.6042
G1 X142.498 Y104.593 E1.6051
G1 X141.716 Y105.161 E1.6398
G1 X141.696 Y105.173 E1.6406
G1 X140.991 Y105.505 E1.6686
G1 X140.970 Y105.512 E1.6694
G1 X140.160 Y105.720 E1.6994
G1 X140.145 Y105.723 E1.7000
G1 X139.631 Y105.788 E1.7186
G1 X139.616 Y105.789 E1.7191
G1 X126.674 Y105.790 E2.1840
G1 X126.650 Y106.163 E2.1975
G1 X126.650 Y106.170 E2.1977
G1 X126.617 Y106.427 E2.2070
G1 X126.616 Y106.434 E2.2073
G1 X126.423 Y107.448 E2.2443
G1 X126.422 Y107.455 E2.2446
G1 X126.357 Y107.706 E2.2539
G1 X126.355 Y107.713 E2.2542
G1 X126.037 Y108.694 E2.2912
G1 X126.034 Y108.701 E2.2915
G1 X125.939 Y108.942 E2.3008
G1 X125.936 Y108.949 E2.3011
G1 X125.497 Y109.882 E2.3381
G1 X125.494 Y109.889 E2.3384
G1 X125.369 Y110.116 E2.3477
G1 X125.365 Y110.122 E2.3480
G1 X124.813 Y110.993 E2.3850
G1 X124.809 Y110.999 E2.3853
G1 X124.657 Y111.209 E2.3946
G1 X124.652 Y111.215 E2.3948
G1 X123.995 Y112.010 E2.4319
G1 X123.990 Y112.015 E2.4322
G1 X123.813 Y112.204 E2.4415
G1 X123.807 Y112.210 E2.4417
G1 X123.054 Y112.918 E2.4789
G1 X123.048 Y112.923 E2.4792
G1 X122.848 Y113.088 E2.4885
G1 X122.842 Y113.093 E2.4888
G1 X122.008 Y113.699 E2.5258
G1 X122.001 Y113.703 E2.5261
G1 X121.783 Y113.842 E2.5354
G1 X121.776 Y113.846 E2.5356
G1 X120.873 Y114.343 E2.5727
G1 X120.866 Y114.346 E2.5730
G1 X120.632 Y114.456 E2.5823
G1 X120.625 Y114.459 E2.5825
G1 X119.696 Y114.827 E2.6184
G1 X119.691 Y114.829 E2.6186
G1 X119.507 Y114.892 E2.6256
G1 X119.502 Y114.894 E2.6258
G1 X118.975 Y115.046 E2.6455
G1 X118.972 Y115.047 E2.6456
G1 X118.846 Y115.080 E2.6503
G1 X118.843 Y115.081 E2.6504
G1 X118.308 Y115.200 E2.6701
G1 X118.302 Y115.201 E2.6703
G1 X118.111 Y115.235 E2.6773
G1 X118.105 Y115.235 E2.6775
G1 X117.114 Y115.361 E2.7134
G1 X117.107 Y115.361 E2.7136
G1 X116.848 Y115.378 E2.7229
G1 X116.841 Y115.378 E2.7232
G1 X115.842 Y115.378 E2.7591
G1 X115.836 Y115.378 E2.7593
G1 X115.642 Y115.369 E2.7663
G1 X115.636 Y115.368 E2.7665
G1 X115.090 Y115.317 E2.7862
G1 X115.087 Y115.316 E2.7863
G1 X114.959 Y115.300 E2.7909
G1 X114.955 Y115.299 E2.7911
G1 X114.414 Y115.214 E2.8108
G1 X114.408 Y115.213 E2.8110
G1 X114.218 Y115.173 E2.8180
G1 X114.212 Y115.172 E2.8182
G1 X113.245 Y114.924 E2.8540
G1 X113.237 Y114.921 E2.8543
G1 X112.991 Y114.841 E2.8636
G1 X112.984 Y114.839 E2.8639
G1 X112.055 Y114.471 E2.8998
G1 X112.050 Y114.469 E2.9000
G1 X111.873 Y114.389 E2.9069
G1 X111.868 Y114.387 E2.9071
G1 X111.351 Y114.123 E2.9280
G1 X111.346 Y114.120 E2.9282
G1 X111.177 Y114.024 E2.9352
G1 X111.172 Y114.021 E2.9354
G1 X110.356 Y113.504 E2.9701
G1 X110.352 Y113.500 E2.9703
G1 X110.193 Y113.389 E2.9773
G1 X110.188 Y113.385 E2.9775
G1 X109.730 Y113.030 E2.9983
G1 X109.725 Y113.026 E2.9985
G1 X109.578 Y112.900 E3.0055
G1 X109.573 Y112.896 E3.0057
G1 X108.847 Y112.214 E3.0415
G1 X108.842 Y112.209 E3.0418
G1 X108.665 Y112.020 E3.0510
G1 X108.660 Y112.015 E3.0513
G1 X108.023 Y111.246 E3.0872
G1 X108.019 Y111.241 E3.0874
G1 X107.903 Y111.086 E3.0944
G1 X107.899 Y111.081 E3.0946
G1 X107.573 Y110.601 E3.1154
G1 X107.570 Y110.597 E3.1156
G1 X107.468 Y110.431 E3.1226
G1 X107.466 Y110.426 E3.1228
G1 X107.000 Y109.579 E3.1575
G1 X106.997 Y109.574 E3.1577
G1 X106.912 Y109.400 E3.1647
G1 X106.909 Y109.395 E3.1649
G1 X106.678 Y108.862 E3.1858
G1 X106.676 Y108.857 E3.1860
G1 X106.608 Y108.675 E3.1929
G1 X106.606 Y108.670 E3.1931
G1 X106.307 Y107.751 E3.2279
G1 X106.305 Y107.745 E3.2281
G1 X106.254 Y107.558 E3.2350
G1 X106.252 Y107.553 E3.2352
G1 X106.126 Y106.986 E3.2561
G1 X106.125 Y106.981 E3.2563
G1 X106.091 Y106.789 E3.2633
G1 X106.090 Y106.784 E3.2635
G1 X105.965 Y105.793 E3.2994
G1 X105.964 Y105.785 E3.2996
G1 X105.948 Y105.527 E3.3089
G1 X105.947 Y105.519 E3.3092
G1 X105.947 Y104.488 E3.3462
G1 X105.947 Y104.481 E3.3465
G1 X105.963 Y104.222 E3.3558
G1 X105.964 Y104.215 E3.3561
G1 X106.093 Y103.191 E3.3931
G1 X106.094 Y103.184 E3.3934
G1 X106.143 Y102.930 E3.4027
G1 X106.144 Y102.922 E3.4030
G1 X106.392 Y101.955 E3.4388
G1 X106.394 Y101.949 E3.4391
G1 X106.451 Y101.764 E3.4460
G1 X106.453 Y101.758 E3.4462
G1 X106.649 Y101.212 E3.4671
G1 X106.651 Y101.207 E3.4673
G1 X106.725 Y101.027 E3.4743
G1 X106.728 Y101.022 E3.4745
G1 X107.139 Y100.147 E3.5092
G1 X107.141 Y100.142 E3.5094
G1 X107.232 Y99.971 E3.5164
G1 X107.235 Y99.966 E3.5166
G1 X107.530 Y99.466 E3.5374
G1 X107.533 Y99.461 E3.5376
G1 X107.640 Y99.299 E3.5446
G1 X107.643 Y99.294 E3.5448
G1 X108.211 Y98.512 E3.5795
G1 X108.214 Y98.507 E3.5797
G1 X108.336 Y98.356 E3.5867
G1 X108.339 Y98.352 E3.5869
G1 X108.596 Y98.060 E3.6009
G1 X108.725 Y97.914 F749
G1 X108.729 Y97.910 F749
G92 E0
G1 E-1.5000 F1800
; inner perimeter
; inner perimeter
; outer perimeter
G1 X112.017 Y100.954 F4800
G1 E0.0000 F1800
G92 E0
G1 X112.278 Y100.693 E0.0133 F599
G1 X112.558 Y100.446 E0.0267
G1 X112.851 Y100.219 E0.0400
G1 X113.158 Y100.010 E0.0533
G1 X113.478 Y99.821 E0.0667
G1 X113.809 Y99.653 E0.0800
G1 X114.149 Y99.505 E0.0934
G1 X114.499 Y99.379 E0.1067
G1 X114.855 Y99.276 E0.1200
G1 X115.218 Y99.195 E0.1334
G1 X115.584 Y99.137 E0.1467
G1 X115.954 Y99.102 E0.1600
G1 X116.329 Y99.090 E0.1735
G1 X139.302 Y99.090 E0.9987
G1 X139.419 Y99.112 E1.0030
G1 X139.510 Y99.170 E1.0069
G1 X139.532 Y99.195 E1.0081
G1 X139.561 Y99.248 E1.0103
G1 X139.581 Y99.350 E1.0140
G1 X139.561 Y99.455 E1.0178
G1 X139.545 Y99.485 E1.0190
G1 X139.504 Y99.535 E1.0214
G1 X139.438 Y99.580 E1.0243
G1 X139.326 Y99.609 E1.0284
G1 X118.903 Y99.610 E1.7620
G1 X119.799 Y100.219 E1.8009
G1 X120.091 Y100.446 E1.8142
G1 X120.476 Y100.790 E1.8328
G1 X139.302 Y100.790 E2.5090
G1 X139.419 Y100.812 E2.5133
G1 X139.510 Y100.870 E2.5171
G1 X139.532 Y100.895 E2.5183
G1 X139.561 Y100.948 E2.5205
G1 X139.581 Y101.050 E2.5242
G1 X139.563 Y101.144 E2.5277
G1 X139.511 Y101.225 E2.5311
G1 X139.434 Y101.281 E2.5346
G1 X139.326 Y101.309 E2.5386
G1 X120.982 Y101.310 E3.1975
G1 X121.504 Y102.153 E3.2331
G1 X121.671 Y102.482 E3.2464
G1 X121.819 Y102.822 E3.2597
G1 X121.945 Y103.172 E3.2731
G1 X122.049 Y103.528 E3.2864
G1 X122.130 Y103.891 E3.2997
G1 X122.188 Y104.257 E3.3131
G1 X122.223 Y104.627 E3.3264
G1 X122.235 Y104.998 E3.3398
G1 X122.223 Y105.369 E3.3531
G1 X122.188 Y105.739 E3.3664
G1 X122.131 Y106.105 E3.3798
G1 X122.050 Y106.468 E3.3931
G1 X121.946 Y106.824 E3.4064
G1 X121.821 Y107.174 E3.4198
G1 X121.673 Y107.514 E3.4331
G1 X121.505 Y107.845 E3.4464
G1 X121.316 Y108.165 E3.4598
G1 X121.107 Y108.472 E3.4731
G1 X120.880 Y108.766 E3.4865
G1 X120.635 Y109.044 E3.4998
G1 X120.372 Y109.307 E3.5131
G1 X120.092 Y109.554 E3.5265
G1 X119.799 Y109.781 E3.5399
G1 X119.492 Y109.990 E3.5532
G1 X119.172 Y110.179 E3.5665
G1 X118.841 Y110.347 E3.5799
G1 X118.501 Y110.495 E3.5932
G1 X118.151 Y110.621 E3.6065
G1 X117.795 Y110.724 E3.6199
G1 X117.432 Y110.805 E3.6332
G1 X117.066 Y110.863 E3.6466
G1 X116.696 Y110.898 E3.6599
G1 X116.325 Y110.910 E3.6732
G1 X115.954 Y110.898 E3.6866
G1 X115.584 Y110.863 E3.6999
G1 X115.218 Y110.805 E3.7132
G1 X114.855 Y110.724 E3.7266
G1 X114.499 Y110.621 E3.7399
G1 X114.149 Y110.495 E3.7532
G1 X113.809 Y110.347 E3.7666
G1 X113.478 Y110.179 E3.7799
G1 X113.158 Y109.990 E3.7933
G1 X112.851 Y109.781 E3.8066
G1 X112.558 Y109.554 E3.8199
G1 X112.280 Y109.308 E3.8333
G1 X112.018 Y109.047 E3.8465
G1 X111.773 Y108.769 E3.8599
G1 X111.545 Y108.475 E3.8732
G1 X111.336 Y108.168 E3.8865
G1 X111.147 Y107.849 E3.8999
G1 X110.979 Y107.518 E3.9132
G1 X110.831 Y107.178 E3.9265
G1 X110.705 Y106.828 E3.9399
G1 X110.601 Y106.472 E3.9532
G1 X110.520 Y106.109 E3.9666
G1 X110.462 Y105.743 E3.9799
G1 X110.427 Y105.373 E3.9932
G1 X110.415 Y105.002 E4.0066
G1 X110.427 Y104.631 E4.0199
G1 X110.462 Y104.261 E4.0332
G1 X110.519 Y103.895 E4.0466
G1 X110.600 Y103.532 E4.0599
G1 X110.704 Y103.176 E4.0732
G1 X110.829 Y102.826 E4.0866
G1 X110.977 Y102.486 E4.0999
G1 X111.145 Y102.155 E4.1132
G1 X111.334 Y101.835 E4.1266
G1 X111.543 Y101.528 E4.1399
G1 X111.770 Y101.235 E4.1533
G1 X111.885 Y101.104 E4.1595
G1 X112.017 Y100.954 F599
G1 X112.278 Y100.693 F2400
G1 X112.558 Y100.446 F2400
G1 X112.851 Y100.219 F2400
G1 X113.158 Y100.010 F2400
G1 X113.478 Y99.821 F2400
G1 X113.606 Y99.756 F2400
; inner perimeter
; inner perimeter
; outer perimeter
G1 X112.397 Y101.309 F4800
G92 E0
G1 X112.172 Y101.564 E0.0122 F599
G1 X111.964 Y101.832 E0.0244
G1 X111.774 Y102.112 E0.0366
G1 X111.602 Y102.403 E0.0487
G1 X111.448 Y102.705 E0.0609
G1 X111.313 Y103.016 E0.0730
G1 X111.199 Y103.334 E0.0852
