; G-Code generated by Simplify3D(R) Version 4.0.0
; Aug 7, 2017 at 6:25:53 PM
; Settings Summary
;   processName,Process1
;   applyToModels,pen_holder
;   profileName,Prusa Research Original Prusa i3 MK2 (modified)
;   profileVersion,2017-07-23 22:27:18
;   baseProfile,
;   printMaterial,PLA
;   printQuality,High
;   printExtruders,
;   extruderName,Primary Extruder
;   extruderToolheadNumber,0
;   extruderDiameter,0.4
;   extruderAutoWidth,1
;   extruderWidth,0.48
;   extrusionMultiplier,1
;   extruderUseRetract,1
;   extruderRetractionDistance,1.5
;   extruderExtraRestartDistance,0
;   extruderRetractionZLift,0
;   extruderRetractionSpeed,1800
;   extruderUseCoasting,1
;   extruderCoastingDistance,0.2
;   extruderUseWipe,1
;   extruderWipeDistance,2
;   primaryExtruder,0
;   layerHeight,0.1
;   topSolidLayers,4
;   bottomSolidLayers,4
;   perimeterOutlines,3
;   printPerimetersInsideOut,1
;   startPointOption,2
;   startPointOriginX,0
;   startPointOriginY,0
;   sequentialIslands,0
;   spiralVaseMode,0
;   firstLayerHeightPercentage,120
;   firstLayerWidthPercentage,100
;   firstLayerUnderspeed,0.5
;   useRaft,0
;   raftExtruder,0
;   raftTopLayers,3
;   raftBaseLayers,2
;   raftOffset,3
;   raftSeparationDistance,0.14
;   raftTopInfill,100
;   aboveRaftSpeedMultiplier,0.3
;   useSkirt,1
;   skirtExtruder,0
;   skirtLayers,2
;   skirtOutlines,1
;   skirtOffset,4
;   usePrimePillar,0
;   primePillarExtruder,999
;   primePillarWidth,12
;   primePillarLocation,7
;   primePillarSpeedMultiplier,1
;   useOozeShield,0
;   oozeShieldExtruder,999
;   oozeShieldOffset,2
;   oozeShieldOutlines,1
;   oozeShieldSidewallShape,1
;   oozeShieldSidewallAngle,30
;   oozeShieldSpeedMultiplier,1
;   infillExtruder,0
;   internalInfillPattern,Rectilinear
;   externalInfillPattern,Rectilinear
;   infillPercentage,20
;   outlineOverlapPercentage,20
;   infillExtrusionWidthPercentage,100
;   minInfillLength,5
;   infillLayerInterval,1
;   internalInfillAngles,45,-45
;   overlapInternalInfillAngles,0
;   externalInfillAngles,45,-45
;   generateSupport,0
;   supportExtruder,0
;   supportInfillPercentage,40
;   supportExtraInflation,0
;   supportBaseLayers,0
;   denseSupportExtruder,0
;   denseSupportLayers,0
;   denseSupportInfillPercentage,70
;   supportLayerInterval,1
;   supportHorizontalPartOffset,0.3
;   supportUpperSeparationLayers,1
;   supportLowerSeparationLayers,1
;   supportType,0
;   supportGridSpacing,4
;   maxOverhangAngle,45
;   supportAngles,0
;   temperatureName,Primary Extruder,Heated Bed
;   temperatureNumber,0,0
;   temperatureSetpointCount,1,1
;   temperatureSetpointLayers,1,1
;   temperatureSetpointTemperatures,200,60
;   temperatureStabilizeAtStartup,1,1
;   temperatureHeatedBed,0,1
;   temperatureRelayBetweenLayers,0,0
;   temperatureRelayBetweenLoops,0,0
;   fanLayers,1,2
;   fanSpeeds,0,100
;   blipFanToFullPower,0
;   adjustSpeedForCooling,1
;   minSpeedLayerTime,15
;   minCoolingSpeedSlowdown,20
;   increaseFanForCooling,0
;   minFanLayerTime,45
;   maxCoolingFanSpeed,100
;   increaseFanForBridging,0
;   bridgingFanSpeed,100
;   use5D,1
;   relativeEdistances,0
;   allowEaxisZeroing,1
;   independentExtruderAxes,0
;   includeM10123,0
;   stickySupport,1
;   applyToolheadOffsets,0
;   gcodeXoffset,0
;   gcodeYoffset,0
;   gcodeZoffset,0
;   overrideMachineDefinition,1
;   machineTypeOverride,0
;   strokeXoverride,250
;   strokeYoverride,210
;   strokeZoverride,200
;   originOffsetXoverride,0
;   originOffsetYoverride,0
;   originOffsetZoverride,0
;   homeXdirOverride,-1
;   homeYdirOverride,-1
;   homeZdirOverride,-1
;   flipXoverride,1
;   flipYoverride,-1
;   flipZoverride,1
;   toolheadOffsets,0,0|0,0|0,0|0,0|0,0|0,0
;   overrideFirmwareConfiguration,1
;   firmwareTypeOverride,RepRap (Marlin/Repetier/Sprinter)
;   GPXconfigOverride,r2
;   baudRateOverride,250000
;   overridePrinterModels,1
;   printerModelsOverride
;   startingGcode,M115 U3.0.7 ; use the latest firmware version,G28 W ; home all axes without mesh bed leveling,G80 ; run mesh bed leveling routine,G1 Y-3.0 F1000.0 ; prepare to prime,G92 E0 ; reset extrusion distance,G1 X60.0 E9.0  F1000.0 ; priming,G1 X100.0 E12.5  F1000.0 ; priming
;   layerChangeGcode,
;   retractionGcode,
;   toolChangeGcode,
;   endingGcode,M106 S0 ; turn off cooling fan,M104 S0 ; turn off extruder,M140 S0 ; turn off bed,G1 X0 Y200 ; part removal,M84 ; disable motors
;   exportFileFormat,gcode
;   celebration,0
;   celebrationSong,Random Song
;   postProcessing,
;   defaultSpeed,2400
;   outlineUnderspeed,0.8
;   solidInfillUnderspeed,0.8
;   supportUnderspeed,0.8
;   rapidXYspeed,4800
;   rapidZspeed,1000
;   minBridgingArea,50
;   bridgingExtraInflation,0
;   bridgingExtrusionMultiplier,1
;   bridgingSpeedMultiplier,1
;   useFixedBridgingAngle,0
;   fixedBridgingAngle,0
;   applyBridgingToPerimeters,0
;   filamentDiameters,1.75|1.75|1.75|1.75|1.75|1.75
;   filamentPricesPerKg,46|46|46|46|46|46
;   filamentDensities,1.25|1.25|1.25|1.25|1.25|1.25
;   useMinPrintHeight,0
;   minPrintHeight,0
;   useMaxPrintHeight,1
;   maxPrintHeight,235
;   useDiaphragm,0
;   diaphragmLayerInterval,20
;   robustSlicing,1
;   mergeAllIntoSolid,0
;   onlyRetractWhenCrossingOutline,1
;   retractBetweenLayers,1
;   useRetractionMinTravel,0
;   retractionMinTravel,3
;   retractWhileWiping,1
;   onlyWipeOutlines,1
;   avoidCrossingOutline,0
;   maxMovementDetourFactor,3
;   toolChangeRetractionDistance,12
;   toolChangeExtraRestartDistance,-0.5
;   toolChangeRetractionSpeed,600
;   externalThinWallType,0
;   internalThinWallType,2
;   thinWallAllowedOverlapPercentage,25
;   singleExtrusionMinLength,1
;   singleExtrusionMinPrintingWidthPercentage,50
;   singleExtrusionMaxPrintingWidthPercentage,200
;   singleExtrusionEndpointExtension,0.2
;   horizontalSizeCompensation,0
G90
M82
M106 S0
M140 S60
M190 S60
M104 S200 T0
M109 S200 T0
M115 U3.0.7 ; use the latest firmware version
G28 W ; home all axes without mesh bed leveling
G80 ; run mesh bed leveling routine
G1 Y-3.0 F1000.0 ; prepare to prime
G92 E0 ; reset extrusion distance
G1 X60.0 E9.0  F1000.0 ; priming
G1 X100.0 E12.5  F1000.0 ; priming
G92 E0
G1 E-1.5000 F1800
G1 Z0.120 F1000
; process Process1
; layer 1, Z = 0.120
T0
; tool H0.120 W0.480
; skirt
G1 X108.627 Y97.978 F4800
G1 E0.0000 F540
G92 E0
G1 X108.762 Y97.838 E0.0047 F1017
G1 X108.766 Y97.834 E0.0048
G1 X109.486 Y97.159 E0.0284
G1 X109.491 Y97.154 E0.0286
G1 X109.691 Y96.989 E0.0348
G1 X109.697 Y96.984 E0.0350
G1 X110.495 Y96.405 E0.0586
G1 X110.499 Y96.401 E0.0587
G1 X110.662 Y96.295 E0.0634
G1 X110.666 Y96.292 E0.0635
G1 X111.161 Y95.999 E0.0773
G1 X111.166 Y95.997 E0.0774
G1 X111.337 Y95.906 E0.0821
G1 X111.342 Y95.903 E0.0822
G1 X112.235 Y95.483 E0.1058
G1 X112.242 Y95.480 E0.1060
G1 X112.482 Y95.385 E0.1122
G1 X112.489 Y95.382 E0.1124
G1 X113.428 Y95.078 E0.1360
G1 X113.433 Y95.076 E0.1361
G1 X113.620 Y95.025 E0.1408
G1 X113.626 Y95.023 E0.1409
G1 X114.186 Y94.898 E0.1547
G1 X114.192 Y94.897 E0.1548
G1 X114.383 Y94.864 E0.1595
G1 X114.389 Y94.863 E0.1596
G1 X115.335 Y94.743 E0.1824
G1 X115.341 Y94.743 E0.1826
G1 X115.534 Y94.727 E0.1872
G1 X115.540 Y94.727 E0.1874
G1 X116.049 Y94.711 E0.1996
G1 X116.051 Y94.711 E0.1996
G1 X116.116 Y94.710 E0.2012
G1 X116.118 Y94.710 E0.2012
G1 X139.457 Y94.711 E0.7601
G1 X139.472 Y94.712 E0.7605
G1 X139.986 Y94.777 E0.7729
G1 X140.001 Y94.780 E0.7732
G1 X140.901 Y95.011 E0.7955
G1 X140.922 Y95.019 E0.7960
G1 X141.627 Y95.351 E0.8147
G1 X141.646 Y95.362 E0.8152
G1 X142.504 Y95.985 E0.8406
G1 X142.521 Y96.000 E0.8412
G1 X143.054 Y96.568 E0.8598
G1 X143.068 Y96.586 E0.8603
G1 X143.636 Y97.480 E0.8857
G1 X143.646 Y97.500 E0.8863
G1 X143.932 Y98.224 E0.9049
G1 X143.939 Y98.246 E0.9054
G1 X144.138 Y99.286 E0.9308
G1 X144.140 Y99.309 E0.9313
G1 X144.140 Y100.088 E0.9500
G1 X144.138 Y100.110 E0.9505
G1 X144.018 Y100.738 E0.9659
G1 X144.021 Y100.750 E0.9661
G1 X144.154 Y101.802 E0.9915
G1 X144.155 Y101.824 E0.9921
G1 X144.106 Y102.601 E1.0107
G1 X144.102 Y102.624 E1.0113
G1 X143.839 Y103.650 E1.0366
G1 X143.831 Y103.672 E1.0372
G1 X143.500 Y104.376 E1.0558
G1 X143.488 Y104.396 E1.0564
G1 X142.865 Y105.254 E1.0818
G1 X142.850 Y105.271 E1.0823
G1 X142.282 Y105.804 E1.1010
G1 X142.264 Y105.818 E1.1015
G1 X141.397 Y106.368 E1.1261
G1 X141.378 Y106.378 E1.1266
G1 X140.719 Y106.651 E1.1437
G1 X140.699 Y106.657 E1.1442
G1 X139.901 Y106.836 E1.1638
G1 X139.888 Y106.838 E1.1641
G1 X139.437 Y106.888 E1.1750
G1 X139.424 Y106.888 E1.1753
G1 X126.265 Y106.890 E1.4904
G1 X126.234 Y107.054 E1.4944
G1 X126.232 Y107.061 E1.4946
G1 X125.979 Y108.048 E1.5190
G1 X125.977 Y108.055 E1.5192
G1 X125.897 Y108.301 E1.5254
G1 X125.894 Y108.308 E1.5255
G1 X125.519 Y109.256 E1.5499
G1 X125.516 Y109.263 E1.5501
G1 X125.406 Y109.497 E1.5563
G1 X125.403 Y109.504 E1.5565
G1 X124.912 Y110.396 E1.5809
G1 X124.908 Y110.403 E1.5811
G1 X124.770 Y110.621 E1.5873
G1 X124.765 Y110.628 E1.5874
G1 X124.167 Y111.452 E1.6118
G1 X124.162 Y111.458 E1.6120
G1 X123.997 Y111.657 E1.6182
G1 X123.992 Y111.663 E1.6184
G1 X123.295 Y112.406 E1.6428
G1 X123.290 Y112.411 E1.6430
G1 X123.101 Y112.589 E1.6492
G1 X123.095 Y112.594 E1.6494
G1 X122.309 Y113.244 E1.6738
G1 X122.303 Y113.248 E1.6740
G1 X122.094 Y113.401 E1.6802
G1 X122.087 Y113.405 E1.6804
G1 X121.227 Y113.951 E1.7048
G1 X121.221 Y113.955 E1.7049
G1 X120.993 Y114.080 E1.7111
G1 X120.987 Y114.083 E1.7113
G1 X120.065 Y114.517 E1.7357
G1 X120.058 Y114.520 E1.7359
G1 X119.818 Y114.615 E1.7421
G1 X119.810 Y114.618 E1.7423
G1 X118.842 Y114.932 E1.7667
G1 X118.835 Y114.934 E1.7669
G1 X118.584 Y114.999 E1.7731
G1 X118.576 Y115.000 E1.7732
G1 X117.576 Y115.191 E1.7976
G1 X117.568 Y115.193 E1.7978
G1 X117.311 Y115.225 E1.8040
G1 X117.304 Y115.226 E1.8042
G1 X116.319 Y115.288 E1.8278
G1 X116.314 Y115.288 E1.8279
G1 X116.120 Y115.291 E1.8326
G1 X116.114 Y115.291 E1.8327
G1 X115.540 Y115.273 E1.8465
G1 X115.535 Y115.273 E1.8466
G1 X115.340 Y115.257 E1.8513
G1 X115.335 Y115.257 E1.8514
G1 X114.356 Y115.133 E1.8750
G1 X114.349 Y115.132 E1.8752
G1 X114.095 Y115.083 E1.8814
G1 X114.087 Y115.082 E1.8816
G1 X113.132 Y114.837 E1.9052
G1 X113.127 Y114.835 E1.9053
G1 X112.941 Y114.778 E1.9100
G1 X112.935 Y114.776 E1.9101
G1 X112.395 Y114.581 E1.9239
G1 X112.390 Y114.579 E1.9240
G1 X112.211 Y114.505 E1.9287
G1 X112.206 Y114.503 E1.9288
G1 X111.343 Y114.097 E1.9516
G1 X111.337 Y114.094 E1.9518
G1 X111.166 Y114.003 E1.9564
G1 X111.161 Y114.001 E1.9566
G1 X110.694 Y113.725 E1.9695
G1 X110.691 Y113.723 E1.9696
G1 X110.582 Y113.653 E1.9727
G1 X110.579 Y113.651 E1.9728
G1 X110.130 Y113.347 E1.9858
G1 X110.126 Y113.344 E1.9859
G1 X109.970 Y113.227 E1.9906
G1 X109.966 Y113.223 E1.9907
G1 X109.206 Y112.595 E2.0143
G1 X109.200 Y112.590 E2.0145
G1 X109.012 Y112.412 E2.0207
G1 X109.006 Y112.407 E2.0209
G1 X108.310 Y111.665 E2.0453
G1 X108.305 Y111.660 E2.0455
G1 X108.140 Y111.461 E2.0516
G1 X108.135 Y111.455 E2.0518
G1 X107.556 Y110.657 E2.0754
G1 X107.552 Y110.652 E2.0756
G1 X107.446 Y110.490 E2.0802
G1 X107.443 Y110.485 E2.0804
G1 X107.150 Y109.991 E2.0941
G1 X107.147 Y109.986 E2.0943
G1 X107.057 Y109.814 E2.0989
G1 X107.054 Y109.809 E2.0990
G1 X106.634 Y108.917 E2.1227
G1 X106.631 Y108.910 E2.1228
G1 X106.536 Y108.669 E2.1290
G1 X106.533 Y108.662 E2.1292
G1 X106.228 Y107.724 E2.1528
G1 X106.226 Y107.719 E2.1530
G1 X106.175 Y107.531 E2.1576
G1 X106.174 Y107.526 E2.1578
G1 X106.048 Y106.966 E2.1715
G1 X106.047 Y106.960 E2.1716
G1 X106.014 Y106.769 E2.1763
G1 X106.013 Y106.763 E2.1764
G1 X105.893 Y105.817 E2.1993
G1 X105.893 Y105.811 E2.1994
G1 X105.878 Y105.617 E2.2041
G1 X105.877 Y105.612 E2.2042
G1 X105.860 Y105.070 E2.2172
G1 X105.860 Y105.066 E2.2173
G1 X105.860 Y104.937 E2.2204
G1 X105.860 Y104.933 E2.2205
G1 X105.877 Y104.392 E2.2334
G1 X105.877 Y104.386 E2.2336
G1 X105.893 Y104.192 E2.2382
G1 X105.893 Y104.187 E2.2384
G1 X106.012 Y103.240 E2.2612
G1 X106.013 Y103.235 E2.2613
G1 X106.047 Y103.043 E2.2660
G1 X106.048 Y103.038 E2.2661
G1 X106.173 Y102.477 E2.2799
G1 X106.174 Y102.472 E2.2800
G1 X106.226 Y102.285 E2.2847
G1 X106.227 Y102.279 E2.2848
G1 X106.532 Y101.341 E2.3084
G1 X106.534 Y101.334 E2.3086
G1 X106.630 Y101.093 E2.3148
G1 X106.633 Y101.086 E2.3150
G1 X107.052 Y100.194 E2.3386
G1 X107.055 Y100.189 E2.3387
G1 X107.146 Y100.017 E2.3434
G1 X107.149 Y100.012 E2.3435
G1 X107.441 Y99.518 E2.3573
G1 X107.444 Y99.513 E2.3574
G1 X107.550 Y99.351 E2.3621
G1 X107.554 Y99.346 E2.3622
G1 X108.114 Y98.574 E2.3850
G1 X108.118 Y98.570 E2.3852
G1 X108.239 Y98.418 E2.3898
G1 X108.243 Y98.414 E2.3900
G1 X108.495 Y98.128 E2.3991
G1 X108.623 Y97.982 F1017
G1 X108.627 Y97.978 F1017
G92 E0
G1 E-1.5000 F1800
; inner perimeter
G1 X118.910 Y99.930 F4800
G1 E0.0000 F1800
G92 E0
G1 X118.986 Y99.670 E0.0065 F915
G1 X119.670 Y99.670 E0.0229
G1 X119.433 Y100.261 E0.0381
G1 X119.079 Y100.037 E0.0481
G1 X118.910 Y99.930 F915
; outer perimeter
G1 X119.971 Y100.210 F4800
G92 E0
G1 X119.850 Y100.511 E0.0078 F814
G1 X120.386 Y101.024 E0.0255
G1 X120.708 Y101.390 E0.0372
G1 X139.174 Y101.391 E0.4794
G1 X139.311 Y101.417 E0.4828
G1 X139.395 Y101.454 E0.4850
G1 X139.474 Y101.508 E0.4873
G1 X139.542 Y101.575 E0.4895
G1 X139.596 Y101.655 E0.4918
G1 X139.634 Y101.743 E0.4941
G1 X139.655 Y101.836 E0.4964
G1 X139.658 Y101.932 E0.4987
G1 X139.643 Y102.026 E0.5010
G1 X139.610 Y102.117 E0.5033
G1 X139.562 Y102.199 E0.5056
G1 X139.498 Y102.271 E0.5079
G1 X139.423 Y102.330 E0.5102
G1 X139.344 Y102.370 E0.5123
G1 X139.171 Y102.409 E0.5166
G1 X121.374 Y102.410 E0.9427
G1 X121.676 Y103.206 E0.9631
G1 X121.777 Y103.554 E0.9718
G1 X121.857 Y103.910 E0.9805
G1 X121.914 Y104.271 E0.9893
G1 X121.948 Y104.634 E0.9980
G1 X121.960 Y104.999 E1.0068
G1 X121.948 Y105.364 E1.0155
G1 X121.914 Y105.727 E1.0242
G1 X121.857 Y106.088 E1.0330
G1 X121.778 Y106.444 E1.0417
G1 X121.676 Y106.794 E1.0505
G1 X121.552 Y107.138 E1.0592
G1 X121.407 Y107.473 E1.0679
G1 X121.242 Y107.798 E1.0767
G1 X121.056 Y108.112 E1.0854
G1 X120.851 Y108.414 E1.0942
G1 X120.627 Y108.703 E1.1029
G1 X120.386 Y108.976 E1.1116
G1 X120.128 Y109.235 E1.1204
G1 X119.853 Y109.477 E1.1291
G1 X119.565 Y109.700 E1.1379
G1 X119.263 Y109.906 E1.1466
G1 X118.949 Y110.091 E1.1554
G1 X118.624 Y110.257 E1.1641
G1 X118.289 Y110.402 E1.1728
G1 X117.945 Y110.525 E1.1816
G1 X117.595 Y110.627 E1.1903
G1 X117.239 Y110.707 E1.1991
G1 X116.878 Y110.764 E1.2078
G1 X116.515 Y110.798 E1.2166
G1 X116.150 Y110.810 E1.2253
G1 X115.785 Y110.798 E1.2340
G1 X115.422 Y110.764 E1.2428
G1 X115.061 Y110.707 E1.2515
G1 X114.705 Y110.627 E1.2603
G1 X114.355 Y110.526 E1.2690
G1 X114.011 Y110.402 E1.2777
G1 X113.676 Y110.257 E1.2865
G1 X113.351 Y110.091 E1.2952
G1 X113.037 Y109.905 E1.3040
G1 X112.735 Y109.700 E1.3127
G1 X112.447 Y109.477 E1.3214
G1 X112.173 Y109.235 E1.3302
G1 X111.916 Y108.978 E1.3389
G1 X111.674 Y108.704 E1.3476
G1 X111.450 Y108.416 E1.3564
G1 X111.245 Y108.114 E1.3651
G1 X111.059 Y107.800 E1.3739
G1 X110.894 Y107.475 E1.3826
G1 X110.749 Y107.140 E1.3913
G1 X110.625 Y106.796 E1.4001
G1 X110.523 Y106.446 E1.4088
G1 X110.443 Y106.090 E1.4176
G1 X110.386 Y105.729 E1.4263
G1 X110.352 Y105.366 E1.4350
G1 X110.340 Y105.001 E1.4438
G1 X110.352 Y104.636 E1.4525
G1 X110.386 Y104.273 E1.4613
G1 X110.443 Y103.912 E1.4700
G1 X110.522 Y103.556 E1.4787
G1 X110.624 Y103.206 E1.4875
G1 X110.748 Y102.862 E1.4962
G1 X110.893 Y102.527 E1.5050
G1 X111.058 Y102.202 E1.5137
G1 X111.244 Y101.888 E1.5224
G1 X111.449 Y101.586 E1.5312
G1 X111.673 Y101.297 E1.5399
G1 X111.915 Y101.023 E1.5487
G1 X112.172 Y100.765 E1.5574
G1 X112.447 Y100.523 E1.5662
G1 X112.735 Y100.300 E1.5749
G1 X113.037 Y100.095 E1.5836
G1 X113.351 Y99.909 E1.5924
G1 X113.676 Y99.743 E1.6011
G1 X114.011 Y99.598 E1.6099
G1 X114.355 Y99.474 E1.6186
G1 X114.705 Y99.373 E1.6273
G1 X115.061 Y99.293 E1.6361
G1 X115.422 Y99.236 E1.6448
G1 X115.785 Y99.202 E1.6536
G1 X116.154 Y99.190 E1.6624
G1 X139.178 Y99.191 E2.2138
G1 X139.277 Y99.207 E2.2162
G1 X139.367 Y99.239 E2.2185
G1 X139.449 Y99.288 E2.2207
G1 X139.521 Y99.352 E2.2230
G1 X139.580 Y99.427 E2.2253
G1 X139.623 Y99.513 E2.2276
G1 X139.650 Y99.605 E2.2299
