; G-Code generated by Simplify3D(R) Version 4.0.0
; Dec 27, 2017 at 6:17:11 PM
; Settings Summary
;   processName,Process1
;   applyToModels,body-v1
;   profileName,Prusa Research Original Prusa i3 MK2 (modified)
;   profileVersion,2017-07-23 22:27:18
;   baseProfile,
;   printMaterial,PLA
;   printQuality,Fast
;   printExtruders,
;   extruderName,Primary Extruder
;   extruderToolheadNumber,0
;   extruderDiameter,0.4
;   extruderAutoWidth,1
;   extruderWidth,0.48
;   extrusionMultiplier,1
;   extruderUseRetract,1
;   extruderRetractionDistance,1.5
;   extruderExtraRestartDistance,0
;   extruderRetractionZLift,0
;   extruderRetractionSpeed,1800
;   extruderUseCoasting,1
;   extruderCoastingDistance,0.2
;   extruderUseWipe,1
;   extruderWipeDistance,2
;   primaryExtruder,0
;   layerHeight,0.35
;   topSolidLayers,2
;   bottomSolidLayers,2
;   perimeterOutlines,3
;   printPerimetersInsideOut,1
;   startPointOption,2
;   startPointOriginX,0
;   startPointOriginY,0
;   sequentialIslands,0
;   spiralVaseMode,0
;   firstLayerHeightPercentage,120
;   firstLayerWidthPercentage,100
;   firstLayerUnderspeed,0.5
;   useRaft,0
;   raftExtruder,0
;   raftTopLayers,3
;   raftBaseLayers,2
;   raftOffset,3
;   raftSeparationDistance,0.14
;   raftTopInfill,100
;   aboveRaftSpeedMultiplier,0.3
;   useSkirt,1
;   skirtExtruder,0
;   skirtLayers,1
;   skirtOutlines,1
;   skirtOffset,4
;   usePrimePillar,0
;   primePillarExtruder,999
;   primePillarWidth,12
;   primePillarLocation,7
;   primePillarSpeedMultiplier,1
;   useOozeShield,0
;   oozeShieldExtruder,999
;   oozeShieldOffset,2
;   oozeShieldOutlines,1
;   oozeShieldSidewallShape,1
;   oozeShieldSidewallAngle,30
;   oozeShieldSpeedMultiplier,1
;   infillExtruder,0
;   internalInfillPattern,Rectilinear
;   externalInfillPattern,Rectilinear
;   infillPercentage,10
;   outlineOverlapPercentage,20
;   infillExtrusionWidthPercentage,100
;   minInfillLength,5
;   infillLayerInterval,1
;   internalInfillAngles,45,-45
;   overlapInternalInfillAngles,0
;   externalInfillAngles,45,-45
;   generateSupport,1
;   supportExtruder,0
;   supportInfillPercentage,25
;   supportExtraInflation,0
;   supportBaseLayers,0
;   denseSupportExtruder,0
;   denseSupportLayers,0
;   denseSupportInfillPercentage,70
;   supportLayerInterval,1
;   supportHorizontalPartOffset,0.3
;   supportUpperSeparationLayers,1
;   supportLowerSeparationLayers,1
;   supportType,0
;   supportGridSpacing,4
;   maxOverhangAngle,45
;   supportAngles,0
;   temperatureName,Primary Extruder,Heated Bed
;   temperatureNumber,0,0
;   temperatureSetpointCount,1,1
;   temperatureSetpointLayers,1,1
;   temperatureSetpointTemperatures,210,60
;   temperatureStabilizeAtStartup,1,1
;   temperatureHeatedBed,0,1
;   temperatureRelayBetweenLayers,0,0
;   temperatureRelayBetweenLoops,0,0
;   fanLayers,1,2
;   fanSpeeds,0,100
;   blipFanToFullPower,0
;   adjustSpeedForCooling,1
;   minSpeedLayerTime,15
;   minCoolingSpeedSlowdown,20
;   increaseFanForCooling,0
;   minFanLayerTime,45
;   maxCoolingFanSpeed,100
;   increaseFanForBridging,0
;   bridgingFanSpeed,100
;   use5D,1
;   relativeEdistances,0
;   allowEaxisZeroing,1
;   independentExtruderAxes,0
;   includeM10123,0
;   stickySupport,1
;   applyToolheadOffsets,0
;   gcodeXoffset,0
;   gcodeYoffset,0
;   gcodeZoffset,0
;   overrideMachineDefinition,1
;   machineTypeOverride,0
;   strokeXoverride,250
;   strokeYoverride,210
;   strokeZoverride,200
;   originOffsetXoverride,0
;   originOffsetYoverride,0
;   originOffsetZoverride,0
;   homeXdirOverride,-1
;   homeYdirOverride,-1
;   homeZdirOverride,-1
;   flipXoverride,1
;   flipYoverride,-1
;   flipZoverride,1
;   toolheadOffsets,0,0|0,0|0,0|0,0|0,0|0,0
;   overrideFirmwareConfiguration,1
;   firmwareTypeOverride,RepRap (Marlin/Repetier/Sprinter)
;   GPXconfigOverride,r2
;   baudRateOverride,250000
;   overridePrinterModels,1
;   printerModelsOverride
;   startingGcode,M115 U3.0.7 ; use the latest firmware version,G28 W ; home all axes without mesh bed leveling,G80 ; run mesh bed leveling routine,G1 Y-3.0 F1000.0 ; prepare to prime,G92 E0 ; reset extrusion distance,G1 X60.0 E9.0  F1000.0 ; priming,G1 X100.0 E12.5  F1000.0 ; priming
;   layerChangeGcode,
;   retractionGcode,
;   toolChangeGcode,
;   endingGcode,M106 S0 ; turn off cooling fan,M104 S0 ; turn off extruder,M140 S0 ; turn off bed,G1 X0 Y200 ; part removal,M84 ; disable motors
;   exportFileFormat,gcode
;   celebration,0
;   celebrationSong,Random Song
;   postProcessing,
;   defaultSpeed,2400
;   outlineUnderspeed,0.8
;   solidInfillUnderspeed,0.8
;   supportUnderspeed,0.8
;   rapidXYspeed,4800
;   rapidZspeed,1002
;   minBridgingArea,50
;   bridgingExtraInflation,0
;   bridgingExtrusionMultiplier,1
;   bridgingSpeedMultiplier,1
;   useFixedBridgingAngle,0
;   fixedBridgingAngle,0
;   applyBridgingToPerimeters,0
;   filamentDiameters,1.75|1.75|1.75|1.75|1.75|1.75
;   filamentPricesPerKg,199|46|46|46|46|46
;   filamentDensities,1.25|1.25|1.25|1.25|1.25|1.25
;   useMinPrintHeight,0
;   minPrintHeight,0
;   useMaxPrintHeight,1
;   maxPrintHeight,235
;   useDiaphragm,0
;   diaphragmLayerInterval,20
;   robustSlicing,1
;   mergeAllIntoSolid,0
;   onlyRetractWhenCrossingOutline,1
;   retractBetweenLayers,1
;   useRetractionMinTravel,0
;   retractionMinTravel,3
;   retractWhileWiping,1
;   onlyWipeOutlines,1
;   avoidCrossingOutline,0
;   maxMovementDetourFactor,3
;   toolChangeRetractionDistance,12
;   toolChangeExtraRestartDistance,-0.5
;   toolChangeRetractionSpeed,600
;   externalThinWallType,0
;   internalThinWallType,2
;   thinWallAllowedOverlapPercentage,25
;   singleExtrusionMinLength,1
;   singleExtrusionMinPrintingWidthPercentage,50
;   singleExtrusionMaxPrintingWidthPercentage,200
;   singleExtrusionEndpointExtension,0.2
;   horizontalSizeCompensation,0
G90
M82
M106 S0
M140 S60
M190 S60
M104 S210 T0
M109 S210 T0
M115 U3.0.7 ; use the latest firmware version
G28 W ; home all axes without mesh bed leveling
G80 ; run mesh bed leveling routine
G1 Y-3.0 F1000.0 ; prepare to prime
G92 E0 ; reset extrusion distance
G1 X60.0 E9.0  F1000.0 ; priming
G1 X100.0 E12.5  F1000.0 ; priming
G92 E0
G1 E-1.5000 F1800
G1 Z0.420 F1002
; process Process1
; layer 1, Z = 0.420
T0
; tool H0.420 W0.480
; skirt
G1 X84.703 Y35.085 F4800
G1 E0.0000 F540
G92 E0
G1 X84.705 Y35.080 E0.0005 F1200
G1 X84.782 Y34.909 E0.0162
G1 X84.785 Y34.904 E0.0167
G1 X85.464 Y33.561 E0.1428
G1 X85.467 Y33.555 E0.1434
G1 X85.588 Y33.347 E0.1635
G1 X85.591 Y33.342 E0.1641
G1 X86.173 Y32.463 E0.2524
G1 X86.177 Y32.457 E0.2530
G1 X86.316 Y32.270 E0.2725
G1 X86.320 Y32.265 E0.2731
G1 X86.961 Y31.501 E0.3567
G1 X86.966 Y31.496 E0.3573
G1 X87.119 Y31.332 E0.3760
G1 X87.123 Y31.328 E0.3766
G1 X87.852 Y30.628 E0.4612
G1 X87.857 Y30.624 E0.4618
G1 X88.033 Y30.473 E0.4812
G1 X88.038 Y30.469 E0.4818
G1 X88.853 Y29.847 E0.5677
G1 X88.859 Y29.842 E0.5683
G1 X89.072 Y29.700 E0.5898
G1 X89.078 Y29.696 E0.5904
G1 X89.997 Y29.160 E0.6795
G1 X90.001 Y29.158 E0.6800
G1 X90.157 Y29.076 E0.6947
G1 X90.161 Y29.074 E0.6951
G1 X90.720 Y28.808 E0.7470
G1 X90.724 Y28.807 E0.7474
G1 X90.870 Y28.744 E0.7607
G1 X90.875 Y28.742 E0.7610
G1 X91.857 Y28.366 E0.8492
G1 X91.861 Y28.365 E0.8496
G1 X92.024 Y28.310 E0.8639
G1 X92.028 Y28.309 E0.8644
G1 X93.025 Y28.019 E0.9514
G1 X93.029 Y28.018 E0.9517
G1 X93.159 Y27.985 E0.9629
G1 X93.163 Y27.984 E0.9633
G1 X94.759 Y27.631 E1.1003
G1 X94.763 Y27.630 E1.1006
G1 X94.877 Y27.608 E1.1104
G1 X94.881 Y27.608 E1.1107
G1 X98.312 Y27.051 E1.4021
G1 X98.314 Y27.051 E1.4022
G1 X98.366 Y27.043 E1.4066
G1 X98.367 Y27.043 E1.4067
G1 X102.525 Y26.476 E1.7584
G1 X102.540 Y26.474 E1.7597
G1 X113.078 Y25.118 E2.6502
G1 X113.113 Y25.114 E2.6530
G1 X116.141 Y24.775 E2.9083
G1 X116.184 Y24.771 E2.9118
G1 X118.156 Y24.590 E3.0777
G1 X118.158 Y24.590 E3.0778
G1 X118.227 Y24.585 E3.0837
G1 X118.229 Y24.585 E3.0839
G1 X121.258 Y24.411 E3.3382
G1 X121.261 Y24.411 E3.3384
G1 X121.338 Y24.408 E3.3448
G1 X121.340 Y24.408 E3.3450
G1 X122.399 Y24.387 E3.4338
G1 X122.443 Y24.386 E3.4374
G1 X123.495 Y24.387 E3.5255
G1 X123.497 Y24.387 E3.5256
G1 X123.563 Y24.388 E3.5312
G1 X123.565 Y24.388 E3.5313
G1 X125.638 Y24.456 E3.7052
G1 X125.640 Y24.456 E3.7054
G1 X125.706 Y24.459 E3.7109
G1 X125.708 Y24.459 E3.7110
G1 X126.791 Y24.530 E3.8020
G1 X126.793 Y24.530 E3.8022
G1 X126.854 Y24.535 E3.8073
G1 X126.856 Y24.535 E3.8075
G1 X128.962 Y24.734 E3.9848
G1 X128.964 Y24.735 E3.9849
G1 X129.026 Y24.742 E3.9902
G1 X129.028 Y24.742 E3.9903
G1 X131.161 Y25.010 E4.1705
G1 X131.163 Y25.010 E4.1706
G1 X131.214 Y25.017 E4.1750
G1 X134.515 Y25.517 E4.4547
G1 X134.556 Y25.523 E4.4581
G1 X142.511 Y26.887 E5.1345
G1 X142.527 Y26.889 E5.1357
G1 X147.241 Y27.732 E5.5371
G1 X147.269 Y27.738 E5.5394
G1 X151.827 Y28.616 E5.9284
G1 X151.829 Y28.617 E5.9286
G1 X151.916 Y28.635 E5.9361
G1 X151.919 Y28.636 E5.9363
G1 X153.665 Y29.051 E6.0867
G1 X153.667 Y29.052 E6.0870
G1 X153.748 Y29.073 E6.0940
G1 X153.751 Y29.073 E6.0942
G1 X154.648 Y29.325 E6.1722
G1 X154.651 Y29.327 E6.1726
G1 X154.786 Y29.370 E6.1845
G1 X154.790 Y29.371 E6.1848
G1 X156.111 Y29.842 E6.3023
G1 X156.116 Y29.844 E6.3028
G1 X156.316 Y29.927 E6.3209
G1 X156.322 Y29.930 E6.3215
G1 X157.245 Y30.373 E6.4073
G1 X157.249 Y30.376 E6.4077
G1 X157.389 Y30.449 E6.4209
G1 X157.393 Y30.451 E6.4213
G1 X157.916 Y30.754 E6.4720
G1 X157.921 Y30.757 E6.4725
G1 X158.076 Y30.856 E6.4879
G1 X158.081 Y30.859 E6.4884
G1 X158.887 Y31.427 E6.5710
G1 X158.893 Y31.431 E6.5716
G1 X159.082 Y31.582 E6.5919
G1 X159.087 Y31.587 E6.5925
G1 X159.832 Y32.254 E6.6763
G1 X159.836 Y32.258 E6.6767
G1 X159.961 Y32.380 E6.6914
G1 X159.964 Y32.384 E6.6918
G1 X160.359 Y32.803 E6.7401
G1 X160.362 Y32.807 E6.7405
G1 X160.479 Y32.942 E6.7555
G1 X160.482 Y32.946 E6.7559
G1 X161.109 Y33.740 E6.8407
G1 X161.113 Y33.746 E6.8414
G1 X161.263 Y33.963 E6.8634
G1 X161.267 Y33.969 E6.8640
G1 X161.860 Y34.958 E6.9607
G1 X161.864 Y34.964 E6.9613
G1 X161.976 Y35.179 E6.9816
G1 X161.979 Y35.185 E6.9821
G1 X162.471 Y36.277 E7.0826
G1 X162.473 Y36.282 E7.0830
G1 X162.534 Y36.434 E7.0967
G1 X162.536 Y36.439 E7.0971
G1 X162.750 Y37.039 E7.1506
G1 X162.752 Y37.042 E7.1509
G1 X162.791 Y37.165 E7.1617
G1 X162.792 Y37.169 E7.1620
G1 X163.099 Y38.232 E7.2548
G1 X163.100 Y38.236 E7.2551
G1 X163.129 Y38.350 E7.2650
G1 X163.130 Y38.354 E7.2653
G1 X163.376 Y39.438 E7.3585
G1 X163.377 Y39.442 E7.3588
G1 X163.398 Y39.546 E7.3677
G1 X163.398 Y39.549 E7.3680
G1 X163.848 Y42.146 E7.5889
G1 X163.848 Y42.148 E7.5891
G1 X163.861 Y42.232 E7.5961
G1 X163.861 Y42.234 E7.5963
G1 X164.224 Y44.998 E7.8300
G1 X164.229 Y45.046 E7.8339
G1 X164.858 Y50.872 E8.3250
G1 X165.682 Y51.395 E8.4067
G1 X165.686 Y51.397 E8.4071
G1 X165.807 Y51.480 E8.4194
G1 X165.811 Y51.483 E8.4198
G1 X166.435 Y51.944 E8.4848
G1 X166.438 Y51.946 E8.4851
G1 X166.532 Y52.020 E8.4951
G1 X166.534 Y52.022 E8.4954
G1 X167.199 Y52.575 E8.5679
G1 X167.202 Y52.578 E8.5682
G1 X167.306 Y52.671 E8.5800
G1 X167.309 Y52.674 E8.5803
G1 X167.913 Y53.250 E8.6502
G1 X167.916 Y53.253 E8.6506
G1 X168.026 Y53.367 E8.6639
G1 X168.029 Y53.370 E8.6643
G1 X168.621 Y54.030 E8.7386
G1 X168.624 Y54.033 E8.7390
G1 X168.731 Y54.162 E8.7529
G1 X168.734 Y54.165 E8.7533
G1 X169.313 Y54.927 E8.8336
G1 X169.316 Y54.931 E8.8339
G1 X169.407 Y55.061 E8.8472
G1 X169.410 Y55.064 E8.8476
G1 X169.876 Y55.786 E8.9196
G1 X169.879 Y55.791 E8.9201
G1 X169.973 Y55.951 E8.9357
G1 X169.975 Y55.956 E8.9361
G1 X170.609 Y57.163 E9.0503
G1 X170.611 Y57.167 E9.0508
G1 X170.690 Y57.335 E9.0663
G1 X170.692 Y57.340 E9.0667
G1 X171.014 Y58.114 E9.1370
G1 X171.015 Y58.118 E9.1374
G1 X171.063 Y58.244 E9.1487
G1 X171.064 Y58.248 E9.1490
G1 X171.361 Y59.119 E9.2262
G1 X171.362 Y59.122 E9.2265
G1 X171.398 Y59.237 E9.2365
G1 X171.399 Y59.240 E9.2368
G1 X171.641 Y60.114 E9.3128
G1 X171.642 Y60.117 E9.3130
G1 X171.668 Y60.222 E9.3221
G1 X171.668 Y60.225 E9.3224
G1 X171.863 Y61.104 E9.3978
G1 X171.863 Y61.106 E9.3980
G1 X171.882 Y61.200 E9.4061
G1 X171.882 Y61.203 E9.4063
G1 X172.038 Y62.104 E9.4829
G1 X172.039 Y62.107 E9.4832
G1 X172.055 Y62.222 E9.4929
G1 X172.056 Y62.225 E9.4932
G1 X172.260 Y63.991 E9.6422
G1 X172.260 Y63.994 E9.6425
G1 X172.270 Y64.101 E9.6515
G1 X172.270 Y64.104 E9.6517
G1 X172.385 Y65.939 E9.8058
G1 X172.385 Y65.941 E9.8059
G1 X172.388 Y65.997 E9.8107
G1 X172.388 Y65.999 E9.8108
G1 X172.436 Y67.361 E9.9250
G1 X172.438 Y67.411 E9.9291
G1 X172.467 Y69.955 E10.1423
G1 X172.467 Y69.996 E10.1456
G1 X172.450 Y72.211 E10.3311
G1 X172.450 Y72.240 E10.3335
G1 X172.022 Y92.218 E12.0083
G1 X171.838 Y104.999 E13.0797
G1 X172.053 Y119.446 E14.2907
G1 X172.443 Y137.310 E15.7883
G1 X172.444 Y137.336 E15.7904
G1 X172.467 Y139.673 E15.9863
G1 X172.467 Y139.715 E15.9897
G1 X172.438 Y142.583 E16.2299
G1 X172.438 Y142.584 E16.2301
G1 X172.437 Y142.636 E16.2344
G1 X172.436 Y142.638 E16.2346
G1 X172.388 Y144.001 E16.3489
G1 X172.388 Y144.003 E16.3490
G1 X172.385 Y144.060 E16.3538
G1 X172.385 Y144.061 E16.3539
G1 X172.270 Y145.896 E16.5080
G1 X172.270 Y145.899 E16.5083
G1 X172.260 Y146.006 E16.5173
G1 X172.260 Y146.009 E16.5175
G1 X172.056 Y147.775 E16.6665
G1 X172.055 Y147.778 E16.6668
G1 X172.039 Y147.893 E16.6765
G1 X172.038 Y147.896 E16.6768
G1 X171.882 Y148.797 E16.7534
G1 X171.882 Y148.800 E16.7537
G1 X171.863 Y148.894 E16.7617
G1 X171.863 Y148.896 E16.7619
G1 X171.668 Y149.775 E16.8373
G1 X171.668 Y149.778 E16.8376
G1 X171.642 Y149.883 E16.8467
G1 X171.641 Y149.886 E16.8470
G1 X171.393 Y150.782 E16.9248
G1 X171.391 Y150.786 E16.9252
G1 X171.341 Y150.942 E16.9390
G1 X171.340 Y150.947 E16.9394
G1 X170.828 Y152.348 E17.0644
G1 X170.826 Y152.354 E17.0649
G1 X170.738 Y152.560 E17.0837
G1 X170.735 Y152.566 E17.0842
G1 X170.189 Y153.671 E17.1875
G1 X170.186 Y153.676 E17.1880
G1 X170.087 Y153.855 E17.2052
G1 X170.083 Y153.860 E17.2057
G1 X169.446 Y154.881 E17.3066
G1 X169.443 Y154.885 E17.3070
G1 X169.354 Y155.016 E17.3203
G1 X169.352 Y155.020 E17.3207
G1 X168.953 Y155.561 E17.3770
G1 X168.950 Y155.565 E17.3774
G1 X168.845 Y155.695 E17.3914
G1 X168.842 Y155.699 E17.3918
G1 X168.048 Y156.611 E17.4931
G1 X168.044 Y156.615 E17.4937
G1 X167.881 Y156.782 E17.5132
G1 X167.877 Y156.787 E17.5138
G1 X166.911 Y157.671 E17.6235
G1 X166.908 Y157.674 E17.6239
G1 X166.788 Y157.776 E17.6370
G1 X166.785 Y157.778 E17.6374
G1 X166.249 Y158.199 E17.6944
G1 X166.246 Y158.201 E17.6948
G1 X166.143 Y158.276 E17.7055
G1 X166.140 Y158.279 E17.7058
G1 X165.190 Y158.934 E17.8026
G1 X165.186 Y158.936 E17.8029
G1 X165.070 Y159.011 E17.8145
G1 X165.066 Y159.013 E17.8148
G1 X164.862 Y159.134 E17.8347
G1 X164.421 Y163.301 E18.1859
G1 X164.417 Y163.330 E18.1883
G1 X164.052 Y166.373 E18.4451
G1 X164.052 Y166.375 E18.4453
G1 X164.045 Y166.430 E18.4500
G1 X164.044 Y166.432 E18.4501
G1 X163.648 Y169.116 E18.6775
G1 X163.648 Y169.118 E18.6777
G1 X163.634 Y169.199 E18.6846
G1 X163.634 Y169.201 E18.6848
G1 X163.389 Y170.498 E18.7954
G1 X163.389 Y170.501 E18.7956
G1 X163.373 Y170.575 E18.8019
G1 X163.373 Y170.577 E18.8021
G1 X163.130 Y171.646 E18.8940
G1 X163.129 Y171.650 E18.8943
G1 X163.100 Y171.764 E18.9042
G1 X163.099 Y171.768 E18.9045
G1 X162.792 Y172.831 E18.9973
G1 X162.791 Y172.835 E18.9976
G1 X162.751 Y172.958 E19.0084
G1 X162.750 Y172.961 E19.0087
G1 X162.536 Y173.561 E19.0622
G1 X162.534 Y173.566 E19.0626
G1 X162.473 Y173.718 E19.0763
G1 X162.471 Y173.723 E19.0767
G1 X161.991 Y174.789 E19.1748
G1 X161.988 Y174.794 E19.1752
G1 X161.905 Y174.959 E19.1907
G1 X161.902 Y174.964 E19.1912
G1 X161.558 Y175.576 E19.2500
G1 X161.555 Y175.581 E19.2505
G1 X161.451 Y175.746 E19.2669
G1 X161.448 Y175.751 E19.2674
G1 X160.892 Y176.550 E19.3489
G1 X160.889 Y176.554 E19.3494
G1 X160.776 Y176.701 E19.3649
G1 X160.773 Y176.705 E19.3653
G1 X160.402 Y177.148 E19.4138
G1 X160.399 Y177.152 E19.4142
G1 X160.280 Y177.282 E19.4290
G1 X160.276 Y177.286 E19.4294
G1 X159.570 Y177.996 E19.5133
G1 X159.565 Y178.000 E19.5139
G1 X159.389 Y178.158 E19.5337
G1 X159.384 Y178.162 E19.5343
G1 X158.606 Y178.783 E19.6177
G1 X158.601 Y178.786 E19.6181
G1 X158.451 Y178.896 E19.6338
G1 X158.446 Y178.899 E19.6342
