; generated by Slic3r 1.35.5-prusa3d on 2017-06-24 at 22:38:19

; 

; external perimeters extrusion width = 0.50mm
; perimeters extrusion width = 0.72mm
; infill extrusion width = 0.72mm
; solid infill extrusion width = 0.72mm
; top infill extrusion width = 0.72mm
; first layer extrusion width = 0.60mm

M107
M104 S200 ; set temperature
G28 ; home all axes
G1 Z5 F5000 ; lift nozzle

; Filament gcode

M109 S200 ; set temperature and wait for it to be reached
G21 ; set units to millimeters
G90 ; use absolute coordinates
M82 ; use absolute distances for extrusion
G92 E0
G1 Z0.350 F7800.000
G1 E-2.00000 F2400.00000
G92 E0
G1 X65.849 Y64.683 F7800.000
G1 E2.00000 F2400.00000
G1 F1800
G1 X66.567 Y64.106 E2.08377
G1 X67.353 Y63.637 E2.16697
G1 X68.201 Y63.279 E2.25074
G1 X69.085 Y63.043 E2.33394
G1 X112.122 Y58.136 E6.27260
G1 X114.925 Y57.924 E6.52818
G1 X117.759 Y58.083 E6.78627
G1 X120.355 Y58.571 E7.02645
G1 X123.115 Y59.463 E7.29021
G1 X123.912 Y59.797 E7.36879
G1 X126.237 Y60.994 E7.60664
G1 X128.646 Y62.669 E7.87340
G1 X130.797 Y64.645 E8.13899
G1 X132.499 Y66.681 E8.38032
G1 X134.063 Y69.124 E8.64408
G1 X134.458 Y69.871 E8.72093
G1 X135.499 Y72.292 E8.96053
G1 X136.294 Y75.116 E9.22730
G1 X136.698 Y78.009 E9.49286
G1 X136.716 Y80.650 E9.73303
G1 X136.369 Y83.542 E9.99795
G1 X136.191 Y84.401 E10.07768
G1 X135.342 Y87.208 E10.34433
G1 X119.220 Y124.238 E14.01677
G1 X117.912 Y126.637 E14.26525
G1 X116.346 Y128.810 E14.50877
G1 X114.398 Y130.889 E14.76782
G1 X112.704 Y132.334 E14.97032
G1 X110.879 Y133.578 E15.17111
G1 X108.322 Y134.932 E15.43417
G1 X105.849 Y135.856 E15.67429
G1 X103.138 Y136.497 E15.92755
G1 X100.939 Y136.758 E16.12893
G1 X99.496 Y136.809 E16.26018
G1 X98.015 Y136.759 E16.39500
G1 X95.840 Y136.502 E16.59415
G1 X93.268 Y135.907 E16.83416
G1 X90.360 Y134.807 E17.11683
G1 X88.351 Y133.760 E17.32282
G1 X86.283 Y132.367 E17.54958
G1 X84.033 Y130.391 E17.82190
G1 X82.531 Y128.729 E18.02556
G1 X81.120 Y126.774 E18.24484
G1 X79.815 Y124.435 E18.48833
G1 X64.260 Y92.164 E21.74579
G1 X63.866 Y90.924 E21.86413
G1 X63.722 Y89.630 E21.98247
G1 X63.722 Y69.477 E23.81501
G1 X63.786 Y68.622 E23.89301
G1 X63.963 Y67.776 E23.97159
G1 X64.268 Y66.913 E24.05479
G1 X64.688 Y66.101 E24.13798
G1 X65.217 Y65.354 E24.22118
G1 X65.797 Y64.738 E24.29813
G1 E22.29813 F2400.00000
G92 E0
G1 X108.926 Y124.748 F7800.000
G1 E2.00000 F2400.00000
G1 F1800
G1 X107.707 Y125.798 E2.14622
G1 X106.374 Y126.696 E2.29244
G1 X104.943 Y127.430 E2.43867
G1 X103.436 Y127.990 E2.58489
G1 X101.873 Y128.368 E2.73111
G1 X100.252 Y128.561 E2.87949
G1 X99.472 Y128.584 E2.95049
G1 X98.691 Y128.561 E3.02148
G1 X97.071 Y128.368 E3.16987
G1 X95.508 Y127.990 E3.31609
G1 X94.000 Y127.430 E3.46231
G1 X92.570 Y126.696 E3.60853
G1 X91.236 Y125.798 E3.75475
G1 X90.018 Y124.748 E3.90097
G1 X88.932 Y123.561 E4.04720
G1 X88.016 Y122.285 E4.19006
G1 X87.218 Y120.845 E4.33980
G1 X86.614 Y119.356 E4.48584
G1 X86.190 Y117.805 E4.63206
G1 X85.953 Y116.215 E4.77828
G1 X85.905 Y114.607 E4.92450
G1 X86.048 Y113.006 E5.07072
G1 X86.379 Y111.432 E5.21694
G1 X86.894 Y109.909 E5.36317
G1 X87.586 Y108.457 E5.50939
G1 X88.444 Y107.097 E5.65561
G1 X89.458 Y105.848 E5.80183
G1 X90.611 Y104.728 E5.94805
G1 X91.890 Y103.753 E6.09427
G1 X93.274 Y102.935 E6.24050
G1 X94.746 Y102.287 E6.38672
G1 X96.284 Y101.817 E6.53294
G1 X97.864 Y101.533 E6.67898
G1 X99.509 Y101.439 E6.82872
G1 X101.077 Y101.532 E6.97158
G1 X102.660 Y101.817 E7.11780
G1 X104.198 Y102.287 E7.26402
G1 X105.669 Y102.935 E7.41025
G1 X107.054 Y103.753 E7.55647
G1 X108.303 Y104.706 E7.69933
G1 X109.487 Y105.850 E7.84907
G1 X110.499 Y107.097 E7.99511
G1 X111.358 Y108.457 E8.14133
G1 X112.049 Y109.909 E8.28755
G1 X112.564 Y111.432 E8.43377
G1 X112.895 Y113.006 E8.57999
G1 X113.038 Y114.605 E8.72603
G1 X112.985 Y116.251 E8.87577
G1 X112.753 Y117.805 E9.01863
G1 X112.329 Y119.356 E9.16486
G1 X111.725 Y120.847 E9.31108
G1 X110.948 Y122.255 E9.45730
G1 X110.011 Y123.561 E9.60352
G1 X108.976 Y124.693 E9.74292
G1 X109.387 Y125.170 F7800.000
G1 F1800
G1 X108.087 Y126.295 E9.89924
G1 X106.692 Y127.235 E10.05220
G1 X105.195 Y128.003 E10.20517
G1 X103.618 Y128.589 E10.35814
G1 X101.983 Y128.984 E10.51110
G1 X100.298 Y129.185 E10.66538
G1 X99.472 Y129.209 E10.74059
G1 X98.645 Y129.185 E10.81580
G1 X96.960 Y128.984 E10.97008
G1 X95.325 Y128.589 E11.12305
G1 X93.748 Y128.003 E11.27601
G1 X92.251 Y127.235 E11.42898
G1 X90.856 Y126.295 E11.58195
G1 X89.582 Y125.197 E11.73491
G1 X88.446 Y123.956 E11.88788
G1 X87.488 Y122.620 E12.03741
G1 X86.653 Y121.115 E12.19390
G1 X86.021 Y119.557 E12.34675
G1 X85.578 Y117.934 E12.49972
G1 X85.329 Y116.270 E12.65268
G1 X85.280 Y114.589 E12.80565
G1 X85.429 Y112.913 E12.95861
G1 X85.775 Y111.267 E13.11158
G1 X86.314 Y109.673 E13.26454
G1 X87.038 Y108.155 E13.41751
G1 X87.936 Y106.732 E13.57048
G1 X88.996 Y105.426 E13.72344
G1 X90.203 Y104.254 E13.87641
G1 X91.540 Y103.233 E14.02937
G1 X92.988 Y102.378 E14.18234
G1 X94.528 Y101.700 E14.33531
G1 X96.137 Y101.208 E14.48827
G1 X97.791 Y100.911 E14.64112
G1 X99.509 Y100.813 E14.79761
G1 X101.151 Y100.911 E14.94714
G1 X102.807 Y101.208 E15.10011
G1 X104.416 Y101.700 E15.25307
G1 X105.955 Y102.378 E15.40604
G1 X107.404 Y103.233 E15.55901
G1 X108.711 Y104.231 E15.70854
G1 X109.949 Y105.427 E15.86502
G1 X111.008 Y106.732 E16.01788
G1 X111.906 Y108.155 E16.17084
G1 X112.629 Y109.673 E16.32381
G1 X113.168 Y111.267 E16.47678
G1 X113.514 Y112.913 E16.62974
G1 X113.664 Y114.588 E16.78260
G1 X113.608 Y116.308 E16.93908
G1 X113.366 Y117.934 E17.08861
G1 X112.922 Y119.557 E17.24158
G1 X112.290 Y121.116 E17.39455
G1 X111.478 Y122.589 E17.54751
G1 X110.497 Y123.956 E17.70048
G1 X109.437 Y125.114 E17.84325
G1 X109.848 Y125.591 F7800.000
G1 F1800
G1 X108.467 Y126.793 E18.00966
G1 X107.010 Y127.774 E18.16937
G1 X105.448 Y128.576 E18.32908
G1 X103.801 Y129.188 E18.48879
G1 X102.094 Y129.600 E18.64850
G1 X100.345 Y129.809 E18.80868
G1 X99.472 Y129.834 E18.88810
G1 X98.599 Y129.809 E18.96752
G1 X96.849 Y129.600 E19.12770
G1 X95.142 Y129.188 E19.28741
G1 X93.496 Y128.576 E19.44712
G1 X91.933 Y127.774 E19.60683
G1 X90.476 Y126.793 E19.76654
G1 X89.146 Y125.646 E19.92625
G1 X87.960 Y124.350 E20.08596
G1 X86.959 Y122.954 E20.24217
G1 X86.088 Y121.385 E20.40540
G1 X85.428 Y119.757 E20.56507
G1 X84.965 Y118.063 E20.72478
G1 X84.706 Y116.326 E20.88449
G1 X84.654 Y114.570 E21.04420
G1 X84.810 Y112.821 E21.20391
G1 X85.172 Y111.102 E21.36362
G1 X85.734 Y109.438 E21.52333
G1 X86.489 Y107.852 E21.68304
G1 X87.427 Y106.367 E21.84275
G1 X88.534 Y105.003 E22.00246
G1 X89.794 Y103.780 E22.16217
G1 X91.190 Y102.714 E22.32188
G1 X92.702 Y101.821 E22.48159
G1 X94.310 Y101.113 E22.64130
G1 X95.990 Y100.600 E22.80101
G1 X97.718 Y100.289 E22.96068
G1 X99.510 Y100.187 E23.12390
G1 X101.225 Y100.289 E23.28011
G1 X102.954 Y100.600 E23.43982
G1 X104.634 Y101.113 E23.59953
G1 X106.241 Y101.821 E23.75924
G1 X107.753 Y102.714 E23.91895
G1 X109.119 Y103.757 E24.07516
G1 X110.410 Y105.004 E24.23838
G1 X111.516 Y106.367 E24.39805
G1 X112.454 Y107.852 E24.55776
G1 X113.209 Y109.438 E24.71747
G1 X113.772 Y111.102 E24.87718
G1 X114.134 Y112.821 E25.03689
G1 X114.290 Y114.570 E25.19656
G1 X114.232 Y116.364 E25.35979
G1 X113.978 Y118.063 E25.51600
G1 X113.515 Y119.757 E25.67571
G1 X112.855 Y121.385 E25.83542
G1 X112.007 Y122.923 E25.99513
G1 X110.983 Y124.350 E26.15484
G1 X109.898 Y125.536 E26.30098
G1 X109.366 Y125.457 F7800.000
G1 E24.30098 F2400.00000
G92 E0
G1 X111.868 Y109.528 F7800.000
G1 E2.00000 F2400.00000
G1 F1800
G1 X105.513 Y103.173 E2.82696
G1 X104.100 Y102.551 E2.96909
G1 X103.951 Y102.505 E2.98342
G1 X111.956 Y110.510 E4.02515
G1 X112.292 Y111.506 E4.12192
G1 X112.355 Y111.804 E4.14989
G1 X102.663 Y102.112 E5.41115
G1 X101.562 Y101.905 E5.51422
G1 X112.593 Y112.937 E6.94978
G1 X112.696 Y113.933 E7.04196
G1 X100.545 Y101.783 E8.62319
G1 X99.594 Y101.726 E8.71083
G1 X112.748 Y114.880 E10.42255
G1 X112.720 Y115.746 E10.50232
G1 X98.739 Y101.765 E12.32178
G1 X97.893 Y101.813 E12.39973
G1 X112.653 Y116.573 E14.32049
G1 X112.537 Y117.351 E14.39289
G1 X97.135 Y101.950 E16.39718
G1 X96.377 Y102.086 E16.46806
G1 X112.383 Y118.092 E18.55104
G1 X112.191 Y118.795 E18.61805
G1 X95.689 Y102.292 E20.76555
G1 X95.004 Y102.502 E20.83147
G1 X111.978 Y119.475 E23.04033
G1 X111.720 Y120.111 E23.10351
G1 X94.368 Y102.760 E25.36153
G1 X93.747 Y103.034 E25.42396
G1 X111.459 Y120.746 E27.72892
G1 X111.142 Y121.322 E27.78950
G1 X93.153 Y103.333 E30.13050
G1 X92.590 Y103.665 E30.19059
G1 X110.824 Y121.899 E32.56340
G1 X110.710 Y122.104 E32.58503
G1 X110.470 Y122.439 E32.62295
G1 X92.030 Y103.999 E35.02266
G1 X91.523 Y104.386 E35.08137
G1 X110.096 Y122.960 E37.49846
G1 X109.713 Y123.471 E37.55724
G1 X91.016 Y104.773 E39.99041
G1 X90.795 Y104.942 E40.01592
G1 X90.539 Y105.191 E40.04883
G1 X109.286 Y123.938 E42.48847
G1 X108.858 Y124.405 E42.54672
G1 X90.085 Y105.631 E44.98981
G1 X89.635 Y106.076 E45.04800
G1 X108.394 Y124.835 E47.48919
G1 X107.914 Y125.249 E47.54755
G1 X89.234 Y106.570 E49.97836
G1 X88.834 Y107.063 E50.03687
G1 X107.422 Y125.651 E52.45580
G1 X106.887 Y126.011 E52.51508
G1 X88.466 Y107.590 E54.91235
G1 X88.120 Y108.138 E54.97201
G1 X106.353 Y126.371 E57.34478
G1 X106.230 Y126.453 E57.35836
G1 X105.775 Y126.687 E57.40549
G1 X87.783 Y108.696 E59.74680
G1 X87.495 Y109.302 E59.80854
G1 X105.184 Y126.991 E62.11050
G1 X104.829 Y127.173 E62.14715
G1 X104.568 Y127.269 E62.17278
G1 X87.206 Y109.907 E64.43220
G1 X86.969 Y110.565 E64.49649
G1 X103.916 Y127.512 E66.70189
G1 X103.255 Y127.745 E66.76642
G1 X86.743 Y111.233 E68.91515
G1 X86.651 Y111.506 E68.94169
G1 X86.559 Y111.943 E68.98277
G1 X102.535 Y127.919 E71.06175
G1 X101.813 Y128.092 E71.13000
G1 X86.404 Y112.682 E73.13538
G1 X86.327 Y113.047 E73.16973
G1 X86.290 Y113.462 E73.20808
G1 X101.014 Y128.187 E75.12428
G1 X100.214 Y128.281 E75.19845
G1 X86.216 Y114.283 E77.02000
G1 X86.187 Y114.616 E77.05070
G1 X86.203 Y115.164 E77.10120
G1 X99.337 Y128.299 E78.81045
G1 X98.712 Y128.280 E78.86803
G1 X98.386 Y128.241 E78.89827
G1 X86.230 Y116.086 E80.48011
G1 X86.373 Y117.123 E80.57640
G1 X97.371 Y128.120 E82.00760
G1 X97.121 Y128.091 E82.03075
G1 X96.232 Y127.876 E82.11492
G1 X86.602 Y118.247 E83.36801
G1 X86.881 Y119.266 E83.46526
G1 X86.986 Y119.524 E83.49089
G1 X94.941 Y127.480 E84.52618
G1 X94.114 Y127.173 E84.60740
G1 X93.345 Y126.778 E84.68694
G1 X87.085 Y120.518 E85.50153
G1 E83.50153 F2400.00000
G92 E0
G1 X88.166 Y122.493 F7800.000
G1 E2.00000 F2400.00000
G1 F1800
G1 X91.954 Y126.282 E2.49302
G1 E0.49302 F2400.00000
G92 E0
G1 X110.786 Y107.552 F7800.000
G1 E2.00000 F2400.00000
G1 F1800
G1 X106.890 Y103.656 E2.50710
G1 E0.50710 F2400.00000
G92 E0
G1 X110.874 Y88.380 F7800.000
G1 E2.00000 F2400.00000
G1 F1800
G1 X110.395 Y88.549 E2.04612
G1 X109.793 Y88.652 E2.10173
G1 X109.181 Y88.652 E2.15733
G1 X108.578 Y88.549 E2.21294
G1 X108.002 Y88.345 E2.26855
G1 X107.464 Y88.045 E2.32457
G1 X106.981 Y87.650 E2.38125
G1 X106.588 Y87.204 E2.43536
G1 X106.267 Y86.683 E2.49096
G1 X106.039 Y86.115 E2.54657
G1 X105.910 Y85.518 E2.60218
G1 X105.884 Y84.902 E2.65820
G1 X105.967 Y84.284 E2.71488
G1 X106.185 Y83.573 E2.78249
G1 X105.778 Y83.430 E2.82171
G1 X105.244 Y83.131 E2.87732
G1 X104.768 Y82.747 E2.93293
G1 X104.364 Y82.288 E2.98853
G1 X104.044 Y81.767 E3.04414
G1 X103.816 Y81.200 E3.09975
G1 X103.686 Y80.598 E3.15578
G1 X103.663 Y79.975 E3.21245
G1 X103.739 Y79.384 E3.26656
G1 X103.918 Y78.800 E3.32216
G1 X104.193 Y78.254 E3.37777
G1 X104.557 Y77.762 E3.43338
G1 X104.998 Y77.339 E3.48899
G1 X105.505 Y76.996 E3.54459
G1 X105.705 Y76.906 E3.56458
G1 X105.500 Y76.572 E3.60018
G1 X105.272 Y76.005 E3.65579
G1 X105.143 Y75.407 E3.71139
G1 X105.117 Y74.796 E3.76700
G1 X105.179 Y74.308 E3.81172
G1 X105.361 Y73.631 E3.87551
G1 X105.649 Y73.059 E3.93375
G1 X106.013 Y72.567 E3.98935
G1 X106.454 Y72.144 E4.04496
G1 X106.961 Y71.802 E4.10057
G1 X107.522 Y71.548 E4.15660
G1 X108.126 Y71.394 E4.21327
G1 X108.719 Y71.344 E4.26738
G1 X109.329 Y71.396 E4.32298
G1 X109.608 Y71.468 E4.34924
G1 X109.649 Y71.146 E4.37877
G1 X109.828 Y70.561 E4.43438
G1 X110.104 Y70.015 E4.48999
G1 X110.467 Y69.524 E4.54560
G1 X110.909 Y69.101 E4.60120
G1 X111.416 Y68.758 E4.65681
G1 X111.977 Y68.504 E4.71284
G1 X112.581 Y68.351 E4.76951
G1 X113.174 Y68.300 E4.82362
G1 X113.783 Y68.352 E4.87923
G1 X114.375 Y68.506 E4.93483
G1 X114.932 Y68.758 E4.99044
G1 X115.443 Y69.103 E5.04647
G1 X115.890 Y69.537 E5.10314
G1 X116.092 Y69.810 E5.13403
G1 X116.278 Y69.633 E5.15737
G1 X116.784 Y69.290 E5.21298
G1 X117.346 Y69.036 E5.26900
G1 X117.950 Y68.883 E5.32567
G1 X118.543 Y68.832 E5.37978
G1 X119.152 Y68.884 E5.43539
G1 X119.744 Y69.038 E5.49100
G1 X120.301 Y69.290 E5.54661
G1 X120.808 Y69.633 E5.60222
G1 X121.249 Y70.056 E5.65782
G1 X121.613 Y70.547 E5.71343
G1 X121.888 Y71.093 E5.76904
G1 X122.067 Y71.678 E5.82464
G1 X122.145 Y72.285 E5.88025
G1 X122.128 Y72.675 E5.91577
G1 X122.923 Y72.743 E5.98826
G1 X123.515 Y72.897 E6.04387
G1 X124.072 Y73.149 E6.09948
G1 X124.579 Y73.491 E6.15508
G1 X125.023 Y73.917 E6.21111
G1 X125.391 Y74.421 E6.26778
G1 X125.659 Y74.952 E6.32189
G1 X125.838 Y75.537 E6.37750
G1 X125.916 Y76.143 E6.43311
G1 X125.890 Y76.754 E6.48871
G1 X125.761 Y77.352 E6.54432
G1 X125.523 Y77.943 E6.60227
G1 X125.144 Y78.518 E6.66494
G1 X124.904 Y78.791 E6.69794
G1 X125.428 Y79.294 E6.76402
G1 X125.792 Y79.785 E6.81963
G1 X126.067 Y80.332 E6.87524
G1 X126.247 Y80.916 E6.93084
G1 X126.324 Y81.523 E6.98645
G1 X126.298 Y82.134 E7.04206
G1 X126.169 Y82.732 E7.09767
G1 X125.941 Y83.299 E7.15327
G1 X125.629 Y83.807 E7.20751
G1 X125.220 Y84.276 E7.26409
G1 X124.741 Y84.663 E7.32008
G1 X124.207 Y84.961 E7.37569
G1 X123.630 Y85.165 E7.43130
G1 X123.096 Y85.257 E7.48061
G1 X123.180 Y85.911 E7.54058
G1 X123.150 Y86.533 E7.59725
G1 X123.024 Y87.115 E7.65136
G1 X122.796 Y87.683 E7.70697
G1 X122.476 Y88.203 E7.76258
G1 X122.072 Y88.662 E7.81818
G1 X121.596 Y89.047 E7.87379
G1 X121.062 Y89.345 E7.92940
G1 X120.485 Y89.549 E7.98501
G1 X119.883 Y89.652 E8.04061
G1 X119.271 Y89.652 E8.09622
G1 X118.668 Y89.549 E8.15183
G1 X118.088 Y89.344 E8.20775
G1 X117.555 Y89.043 E8.26346
G1 X117.249 Y89.540 E8.31654
G1 X116.845 Y89.999 E8.37215
G1 X116.369 Y90.383 E8.42776
G1 X115.835 Y90.681 E8.48337
G1 X115.258 Y90.885 E8.53897
G1 X114.656 Y90.988 E8.59458
G1 X114.044 Y90.988 E8.65019
G1 X113.441 Y90.885 E8.70580
G1 X112.865 Y90.681 E8.76140
G1 X112.331 Y90.383 E8.81701
G1 X111.855 Y89.999 E8.87262
G1 X111.451 Y89.540 E8.92823
G1 X111.130 Y89.019 E8.98384
G1 X110.901 Y88.449 E9.03965
G1 X111.380 Y87.401 F7800.000
G1 F1800
G1 X110.714 Y87.774 E9.10903
G1 X110.237 Y87.942 E9.15496
G1 X109.739 Y88.027 E9.20090
G1 X109.234 Y88.027 E9.24683
G1 X108.736 Y87.942 E9.29277
G1 X108.260 Y87.774 E9.33870
G1 X107.817 Y87.526 E9.38489
G1 X107.416 Y87.199 E9.43189
G1 X107.092 Y86.831 E9.47649
G1 X106.827 Y86.400 E9.52243
G1 X106.639 Y85.932 E9.56836
G1 X106.533 Y85.438 E9.61430
G1 X106.511 Y84.930 E9.66049
G1 X106.580 Y84.418 E9.70749
G1 X106.723 Y83.949 E9.75209
G1 X106.951 Y83.498 E9.79802
G1 X107.211 Y83.146 E9.83782
G1 X106.513 Y83.026 E9.90223
G1 X106.036 Y82.858 E9.94817
G1 X105.595 Y82.612 E9.99410
G1 X105.202 Y82.294 E10.04004
G1 X104.868 Y81.915 E10.08597
G1 X104.604 Y81.485 E10.13191
G1 X104.415 Y81.016 E10.17784
G1 X104.308 Y80.520 E10.22403
G1 X104.289 Y80.003 E10.27103
G1 X104.352 Y79.517 E10.31563
G1 X104.499 Y79.034 E10.36157
G1 X104.727 Y78.582 E10.40750
G1 X105.027 Y78.176 E10.45344
G1 X105.392 Y77.827 E10.49938
G1 X105.811 Y77.544 E10.54531
G1 X106.271 Y77.336 E10.59125
G1 X106.769 Y77.206 E10.63802
G1 X106.330 Y76.729 E10.69692
G1 X106.060 Y76.290 E10.74383
G1 X105.871 Y75.821 E10.78977
G1 X105.765 Y75.328 E10.83570
G1 X105.744 Y74.823 E10.88164
G1 X105.794 Y74.429 E10.91771
G1 X105.948 Y73.854 E10.97182
G1 X106.183 Y73.388 E11.01936
G1 X106.484 Y72.981 E11.06529
G1 X106.848 Y72.632 E11.11123
G1 X107.267 Y72.349 E11.15716
G1 X107.730 Y72.140 E11.20335
G1 X108.231 Y72.012 E11.25035
G1 X108.719 Y71.971 E11.29495
G1 X109.223 Y72.014 E11.34089
G1 X109.712 Y72.141 E11.38683
G1 X110.223 Y72.372 E11.43791
