; generated by Slic3r 1.35.5-prusa3d on 2017-06-25 at 16:56:04

; 

; external perimeters extrusion width = 0.50mm
; perimeters extrusion width = 0.72mm
; infill extrusion width = 0.72mm
; solid infill extrusion width = 0.72mm
; top infill extrusion width = 0.72mm
; first layer extrusion width = 0.60mm

M107
M190 S60 ; set bed temperature and wait for it to be reached
M104 S215 ; set temperature
G28 ; home all axes
G1 Z5 F5000 ; lift nozzle

; Filament gcode

M109 S215 ; set temperature and wait for it to be reached
G21 ; set units to millimeters
G90 ; use absolute coordinates
M82 ; use absolute distances for extrusion
G92 E0
G1 Z0.350 F7800.000
G1 E-2.00000 F2400.00000
G92 E0
G1 X65.812 Y65.026 F7800.000
G1 E2.00000 F2400.00000
G1 F1800
G1 X65.957 Y64.879 E2.01883
G1 X66.661 Y64.335 E2.09972
G1 X67.432 Y63.891 E2.18061
G1 X68.256 Y63.554 E2.26149
G1 X69.117 Y63.331 E2.34238
G1 X112.122 Y58.430 E6.27816
G1 X114.925 Y58.217 E6.53374
G1 X117.803 Y58.382 E6.79587
G1 X120.670 Y58.938 E7.06147
G1 X123.478 Y59.893 E7.33110
G1 X125.804 Y61.047 E7.56722
G1 X126.563 Y61.499 E7.64753
G1 X128.927 Y63.201 E7.91246
G1 X130.863 Y65.007 E8.15320
G1 X132.715 Y67.258 E8.41822
G1 X134.262 Y69.766 E8.68612
G1 X135.340 Y72.177 E8.92630
G1 X136.185 Y74.965 E9.19124
G1 X136.365 Y75.817 E9.27039
G1 X136.705 Y78.410 E9.50821
G1 X136.699 Y81.356 E9.77612
G1 X136.298 Y84.250 E10.04172
G1 X135.555 Y86.930 E10.29461
G1 X134.296 Y89.851 E10.58383
G1 X116.128 Y124.409 E14.13399
G1 X115.045 Y126.349 E14.33601
G1 X113.772 Y128.145 E14.53620
G1 X112.020 Y130.127 E14.77676
G1 X109.881 Y132.010 E15.03582
G1 X107.693 Y133.487 E15.27589
G1 X105.343 Y134.689 E15.51592
G1 X102.637 Y135.659 E15.77734
G1 X100.219 Y136.212 E16.00286
G1 X98.057 Y136.466 E16.20078
G1 X96.545 Y136.515 E16.33839
G1 X95.139 Y136.464 E16.46626
G1 X92.920 Y136.200 E16.66946
G1 X90.156 Y135.538 E16.92795
G1 X87.854 Y134.681 E17.15125
G1 X85.850 Y133.667 E17.35550
G1 X83.354 Y132.023 E17.62722
G1 X81.455 Y130.387 E17.85515
G1 X79.920 Y128.730 E18.06054
G1 X78.097 Y126.227 E18.34209
G1 X76.778 Y123.753 E18.59709
G1 X64.165 Y92.223 E21.68498
G1 X63.836 Y91.069 E21.79411
G1 X63.722 Y89.874 E21.90324
G1 X63.722 Y69.745 E23.73352
G1 X63.808 Y68.771 E23.82248
G1 X64.037 Y67.820 E23.91144
G1 X64.362 Y66.998 E23.99175
G1 X64.797 Y66.222 E24.07264
G1 X65.332 Y65.511 E24.15353
G1 X65.759 Y65.079 E24.20877
G1 E22.20877 F2400.00000
G92 E0
G1 X106.063 Y124.454 F7800.000
G1 E2.00000 F2400.00000
G1 F1800
G1 X104.845 Y125.504 E2.14622
G1 X103.511 Y126.402 E2.29244
G1 X102.080 Y127.137 E2.43867
G1 X100.573 Y127.697 E2.58489
G1 X99.010 Y128.074 E2.73111
G1 X97.389 Y128.267 E2.87949
G1 X96.609 Y128.290 E2.95049
G1 X95.828 Y128.267 E3.02148
G1 X94.208 Y128.074 E3.16987
G1 X92.645 Y127.697 E3.31609
G1 X91.138 Y127.137 E3.46231
G1 X89.707 Y126.402 E3.60853
G1 X88.373 Y125.504 E3.75475
G1 X87.155 Y124.454 E3.90097
G1 X86.070 Y123.268 E4.04720
G1 X85.154 Y121.991 E4.19006
G1 X84.355 Y120.551 E4.33980
G1 X83.751 Y119.063 E4.48584
G1 X83.328 Y117.511 E4.63206
G1 X83.090 Y115.921 E4.77828
G1 X83.042 Y114.314 E4.92450
G1 X83.185 Y112.712 E5.07072
G1 X83.516 Y111.138 E5.21694
G1 X84.031 Y109.615 E5.36317
G1 X84.723 Y108.163 E5.50939
G1 X85.581 Y106.803 E5.65561
G1 X86.595 Y105.555 E5.80183
G1 X87.749 Y104.435 E5.94805
G1 X89.027 Y103.459 E6.09427
G1 X90.411 Y102.641 E6.24050
G1 X91.883 Y101.993 E6.38672
G1 X93.421 Y101.523 E6.53294
G1 X95.002 Y101.239 E6.67898
G1 X96.646 Y101.146 E6.82872
G1 X98.214 Y101.239 E6.97158
G1 X99.797 Y101.523 E7.11780
G1 X101.335 Y101.993 E7.26402
G1 X102.806 Y102.641 E7.41025
G1 X104.191 Y103.459 E7.55647
G1 X105.440 Y104.412 E7.69933
G1 X106.624 Y105.556 E7.84907
G1 X107.636 Y106.803 E7.99511
G1 X108.495 Y108.163 E8.14133
G1 X109.186 Y109.615 E8.28755
G1 X109.701 Y111.138 E8.43377
G1 X110.033 Y112.712 E8.57999
G1 X110.175 Y114.312 E8.72603
G1 X110.122 Y115.958 E8.87577
G1 X109.890 Y117.512 E9.01863
G1 X109.466 Y119.063 E9.16486
G1 X108.862 Y120.553 E9.31108
G1 X108.086 Y121.961 E9.45730
G1 X107.148 Y123.268 E9.60352
G1 X106.113 Y124.399 E9.74292
G1 X106.524 Y124.876 F7800.000
G1 F1800
G1 X105.224 Y126.002 E9.89924
G1 X103.829 Y126.941 E10.05220
G1 X102.333 Y127.709 E10.20517
G1 X100.756 Y128.295 E10.35814
G1 X99.120 Y128.690 E10.51110
G1 X97.436 Y128.891 E10.66538
G1 X96.609 Y128.916 E10.74059
G1 X95.782 Y128.891 E10.81580
G1 X94.097 Y128.690 E10.97008
G1 X92.462 Y128.295 E11.12305
G1 X90.885 Y127.709 E11.27601
G1 X89.389 Y126.941 E11.42898
G1 X87.993 Y126.002 E11.58195
G1 X86.719 Y124.903 E11.73491
G1 X85.584 Y123.662 E11.88788
G1 X84.625 Y122.326 E12.03741
G1 X83.790 Y120.821 E12.19390
G1 X83.158 Y119.263 E12.34675
G1 X82.715 Y117.640 E12.49972
G1 X82.467 Y115.977 E12.65268
G1 X82.417 Y114.295 E12.80565
G1 X82.566 Y112.620 E12.95861
G1 X82.913 Y110.973 E13.11158
G1 X83.451 Y109.380 E13.26454
G1 X84.175 Y107.861 E13.41751
G1 X85.073 Y106.439 E13.57048
G1 X86.133 Y105.132 E13.72344
G1 X87.340 Y103.960 E13.87641
G1 X88.677 Y102.940 E14.02937
G1 X90.126 Y102.084 E14.18234
G1 X91.665 Y101.406 E14.33531
G1 X93.274 Y100.915 E14.48827
G1 X94.928 Y100.617 E14.64112
G1 X96.647 Y100.520 E14.79761
G1 X98.288 Y100.617 E14.94714
G1 X99.944 Y100.915 E15.10011
G1 X101.553 Y101.406 E15.25307
G1 X103.092 Y102.084 E15.40604
G1 X104.541 Y102.940 E15.55901
G1 X105.848 Y103.938 E15.70854
G1 X107.086 Y105.133 E15.86502
G1 X108.145 Y106.439 E16.01788
G1 X109.043 Y107.861 E16.17084
G1 X109.766 Y109.380 E16.32381
G1 X110.305 Y110.973 E16.47678
G1 X110.652 Y112.620 E16.62974
G1 X110.801 Y114.294 E16.78260
G1 X110.746 Y116.014 E16.93908
G1 X110.503 Y117.640 E17.08861
G1 X110.059 Y119.263 E17.24158
G1 X109.427 Y120.822 E17.39455
G1 X108.615 Y122.295 E17.54751
G1 X107.634 Y123.662 E17.70048
G1 X106.574 Y124.821 E17.84325
G1 X106.985 Y125.298 F7800.000
G1 F1800
G1 X105.604 Y126.499 E18.00966
G1 X104.148 Y127.480 E18.16937
G1 X102.585 Y128.282 E18.32908
G1 X100.938 Y128.894 E18.48879
G1 X99.231 Y129.306 E18.64850
G1 X97.482 Y129.515 E18.80868
G1 X96.609 Y129.541 E18.88810
G1 X95.736 Y129.515 E18.96752
G1 X93.987 Y129.306 E19.12770
G1 X92.279 Y128.894 E19.28741
G1 X90.633 Y128.282 E19.44712
G1 X89.070 Y127.480 E19.60683
G1 X87.613 Y126.499 E19.76654
G1 X86.283 Y125.352 E19.92625
G1 X85.097 Y124.057 E20.08596
G1 X84.096 Y122.661 E20.24217
G1 X83.225 Y121.091 E20.40540
G1 X82.565 Y119.464 E20.56507
G1 X82.102 Y117.769 E20.72478
G1 X81.843 Y116.032 E20.88449
G1 X81.791 Y114.277 E21.04420
G1 X81.947 Y112.527 E21.20391
G1 X82.309 Y110.808 E21.36362
G1 X82.871 Y109.144 E21.52333
G1 X83.627 Y107.559 E21.68304
G1 X84.564 Y106.074 E21.84275
G1 X85.671 Y104.710 E22.00246
G1 X86.931 Y103.486 E22.16217
G1 X88.327 Y102.420 E22.32188
G1 X89.840 Y101.527 E22.48159
G1 X91.447 Y100.819 E22.64130
G1 X93.127 Y100.306 E22.80101
G1 X94.855 Y99.996 E22.96068
G1 X96.647 Y99.894 E23.12390
G1 X98.362 Y99.996 E23.28011
G1 X100.091 Y100.306 E23.43982
G1 X101.771 Y100.819 E23.59953
G1 X103.378 Y101.527 E23.75924
G1 X104.890 Y102.420 E23.91895
G1 X106.256 Y103.463 E24.07516
G1 X107.547 Y104.710 E24.23838
G1 X108.654 Y106.074 E24.39805
G1 X109.591 Y107.559 E24.55776
G1 X110.347 Y109.144 E24.71747
G1 X110.909 Y110.808 E24.87718
G1 X111.271 Y112.527 E25.03689
G1 X111.427 Y114.276 E25.19656
G1 X111.369 Y116.070 E25.35979
G1 X111.115 Y117.769 E25.51600
G1 X110.652 Y119.464 E25.67571
G1 X109.992 Y121.091 E25.83542
G1 X109.144 Y122.629 E25.99513
G1 X108.120 Y124.057 E26.15484
G1 X107.036 Y125.242 E26.30098
G1 X106.503 Y125.163 F7800.000
G1 E24.30098 F2400.00000
G92 E0
G1 X109.005 Y109.234 F7800.000
G1 E2.00000 F2400.00000
G1 F1800
G1 X102.650 Y102.880 E2.82696
G1 X101.237 Y102.257 E2.96909
G1 X101.088 Y102.211 E2.98342
G1 X109.093 Y110.216 E4.02515
G1 X109.430 Y111.213 E4.12192
G1 X109.492 Y111.510 E4.14989
G1 X99.800 Y101.818 E5.41115
G1 X98.699 Y101.612 E5.51422
G1 X109.731 Y112.643 E6.94978
G1 X109.833 Y113.639 E7.04196
G1 X97.682 Y101.489 E8.62319
G1 X96.732 Y101.432 E8.71083
G1 X109.885 Y114.586 E10.42255
G1 X109.857 Y115.452 E10.50232
G1 X95.876 Y101.471 E12.32178
G1 X95.030 Y101.520 E12.39973
G1 X109.790 Y116.279 E14.32049
G1 X109.674 Y117.058 E14.39289
G1 X94.272 Y101.656 E16.39718
G1 X93.514 Y101.792 E16.46806
G1 X109.520 Y117.798 E18.55104
G1 X109.328 Y118.501 E18.61805
G1 X92.826 Y101.999 E20.76555
G1 X92.141 Y102.208 E20.83147
G1 X109.115 Y119.182 E23.04033
G1 X108.857 Y119.818 E23.10351
G1 X91.505 Y102.466 E25.36153
G1 X90.885 Y102.740 E25.42396
G1 X108.597 Y120.452 E27.72892
G1 X108.279 Y121.028 E27.78950
G1 X90.290 Y103.039 E30.13050
G1 X89.727 Y103.372 E30.19059
G1 X107.961 Y121.605 E32.56340
G1 X107.847 Y121.811 E32.58503
G1 X107.607 Y122.146 E32.62295
G1 X89.167 Y103.705 E35.02266
G1 X88.660 Y104.093 E35.08137
G1 X107.234 Y122.666 E37.49846
G1 X106.850 Y123.177 E37.55724
G1 X88.153 Y104.480 E39.99041
G1 X87.932 Y104.648 E40.01592
G1 X87.676 Y104.897 E40.04883
G1 X106.423 Y123.644 E42.48847
G1 X105.996 Y124.111 E42.54672
G1 X87.222 Y105.338 E44.98981
G1 X86.772 Y105.782 E45.04800
G1 X105.531 Y124.541 E47.48919
G1 X105.051 Y124.955 E47.54755
G1 X86.372 Y106.276 E49.97836
G1 X85.971 Y106.770 E50.03687
G1 X104.559 Y125.357 E52.45580
G1 X104.024 Y125.717 E52.51508
G1 X85.603 Y107.296 E54.91235
G1 X85.257 Y107.844 E54.97201
G1 X103.490 Y126.077 E57.34478
G1 X103.368 Y126.160 E57.35836
G1 X102.912 Y126.394 E57.40549
G1 X84.921 Y108.402 E59.74680
G1 X84.632 Y109.008 E59.80854
G1 X102.321 Y126.697 E62.11050
G1 X101.967 Y126.879 E62.14715
G1 X101.706 Y126.976 E62.17278
G1 X84.344 Y109.614 E64.43220
G1 X84.107 Y110.271 E64.49649
G1 X101.054 Y127.218 E66.70189
G1 X100.392 Y127.451 E66.76642
G1 X83.881 Y110.939 E68.91515
G1 X83.788 Y111.213 E68.94169
G1 X83.696 Y111.649 E68.98277
G1 X99.672 Y127.625 E71.06175
G1 X98.951 Y127.798 E71.13000
G1 X83.541 Y112.388 E73.13538
G1 X83.464 Y112.754 E73.16973
G1 X83.427 Y113.169 E73.20808
G1 X98.152 Y127.893 E75.12428
G1 X97.351 Y127.987 E75.19845
G1 X83.354 Y113.990 E77.02000
G1 X83.324 Y114.322 E77.05070
G1 X83.340 Y114.871 E77.10120
G1 X96.475 Y128.005 E78.81045
G1 X95.849 Y127.987 E78.86803
G1 X95.523 Y127.948 E78.89827
G1 X83.368 Y115.792 E80.48011
G1 X83.510 Y116.829 E80.57640
G1 X94.508 Y127.827 E82.00760
G1 X94.258 Y127.797 E82.03075
G1 X93.369 Y127.582 E82.11492
G1 X83.740 Y117.953 E83.36801
G1 X84.018 Y118.972 E83.46526
G1 X84.123 Y119.231 E83.49089
G1 X92.078 Y127.186 E84.52618
G1 X91.251 Y126.879 E84.60740
G1 X90.482 Y126.484 E84.68694
G1 X84.223 Y120.225 E85.50153
G1 E83.50153 F2400.00000
G92 E0
G1 X85.303 Y122.199 F7800.000
G1 E2.00000 F2400.00000
G1 F1800
G1 X89.092 Y125.988 E2.49302
G1 E0.49302 F2400.00000
G92 E0
G1 X107.924 Y107.259 F7800.000
G1 E2.00000 F2400.00000
G1 F1800
G1 X104.027 Y103.362 E2.50710
G1 E0.50710 F2400.00000
G92 E0
G1 X110.874 Y88.673 F7800.000
G1 E2.00000 F2400.00000
G1 F1800
G1 X110.395 Y88.842 E2.04612
G1 X109.793 Y88.946 E2.10173
G1 X109.181 Y88.946 E2.15733
G1 X108.578 Y88.842 E2.21294
G1 X108.002 Y88.639 E2.26855
G1 X107.464 Y88.338 E2.32457
G1 X106.981 Y87.944 E2.38125
G1 X106.588 Y87.497 E2.43536
G1 X106.267 Y86.976 E2.49096
G1 X106.039 Y86.409 E2.54657
G1 X105.910 Y85.811 E2.60218
G1 X105.884 Y85.196 E2.65820
G1 X105.967 Y84.578 E2.71488
G1 X106.185 Y83.867 E2.78249
G1 X105.778 Y83.723 E2.82171
G1 X105.244 Y83.425 E2.87732
G1 X104.768 Y83.041 E2.93293
G1 X104.364 Y82.582 E2.98853
G1 X104.044 Y82.061 E3.04414
G1 X103.816 Y81.494 E3.09975
G1 X103.686 Y80.891 E3.15578
G1 X103.663 Y80.268 E3.21245
G1 X103.739 Y79.678 E3.26656
G1 X103.918 Y79.093 E3.32216
G1 X104.193 Y78.547 E3.37777
G1 X104.557 Y78.056 E3.43338
G1 X104.998 Y77.632 E3.48899
G1 X105.505 Y77.290 E3.54459
G1 X105.705 Y77.199 E3.56458
G1 X105.500 Y76.866 E3.60018
G1 X105.272 Y76.299 E3.65579
G1 X105.143 Y75.701 E3.71139
G1 X105.117 Y75.090 E3.76700
G1 X105.179 Y74.602 E3.81172
G1 X105.361 Y73.924 E3.87551
G1 X105.649 Y73.352 E3.93375
G1 X106.013 Y72.861 E3.98935
G1 X106.454 Y72.438 E4.04496
G1 X106.961 Y72.095 E4.10057
G1 X107.522 Y71.841 E4.15660
G1 X108.126 Y71.688 E4.21327
G1 X108.719 Y71.637 E4.26738
G1 X109.329 Y71.689 E4.32298
G1 X109.608 Y71.762 E4.34924
G1 X109.649 Y71.440 E4.37877
G1 X109.828 Y70.855 E4.43438
G1 X110.104 Y70.309 E4.48999
G1 X110.467 Y69.817 E4.54560
G1 X110.909 Y69.394 E4.60120
G1 X111.416 Y69.052 E4.65681
G1 X111.977 Y68.798 E4.71284
G1 X112.581 Y68.644 E4.76951
G1 X113.174 Y68.594 E4.82362
G1 X113.783 Y68.646 E4.87923
G1 X114.375 Y68.800 E4.93483
G1 X114.932 Y69.052 E4.99044
G1 X115.443 Y69.397 E5.04647
G1 X115.890 Y69.831 E5.10314
G1 X116.092 Y70.104 E5.13403
G1 X116.278 Y69.926 E5.15737
G1 X116.784 Y69.584 E5.21298
G1 X117.346 Y69.330 E5.26900
G1 X117.950 Y69.176 E5.32567
G1 X118.543 Y69.126 E5.37978
G1 X119.152 Y69.178 E5.43539
G1 X119.744 Y69.332 E5.49100
G1 X120.301 Y69.584 E5.54661
G1 X120.808 Y69.926 E5.60222
G1 X121.249 Y70.349 E5.65782
G1 X121.613 Y70.841 E5.71343
G1 X121.888 Y71.387 E5.76904
G1 X122.067 Y71.972 E5.82464
G1 X122.145 Y72.578 E5.88025
G1 X122.128 Y72.969 E5.91577
G1 X122.923 Y73.036 E5.98826
G1 X123.515 Y73.190 E6.04387
G1 X124.072 Y73.442 E6.09948
G1 X124.579 Y73.785 E6.15508
G1 X125.023 Y74.211 E6.21111
G1 X125.391 Y74.714 E6.26778
G1 X125.659 Y75.246 E6.32189
G1 X125.838 Y75.830 E6.37750
G1 X125.916 Y76.437 E6.43311
G1 X125.890 Y77.048 E6.48871
G1 X125.761 Y77.646 E6.54432
G1 X125.523 Y78.237 E6.60227
G1 X125.144 Y78.812 E6.66494
G1 X124.904 Y79.085 E6.69794
G1 X125.428 Y79.587 E6.76402
G1 X125.792 Y80.079 E6.81963
G1 X126.067 Y80.625 E6.87524
G1 X126.247 Y81.210 E6.93084
G1 X126.324 Y81.817 E6.98645
G1 X126.298 Y82.428 E7.04206
G1 X126.169 Y83.025 E7.09767
G1 X125.941 Y83.593 E7.15327
G1 X125.629 Y84.101 E7.20751
G1 X125.220 Y84.570 E7.26409
G1 X124.741 Y84.957 E7.32008
G1 X124.207 Y85.255 E7.37569
G1 X123.630 Y85.459 E7.43130
G1 X123.096 Y85.550 E7.48061
G1 X123.180 Y86.205 E7.54058
G1 X123.150 Y86.827 E7.59725
G1 X123.024 Y87.409 E7.65136
G1 X122.796 Y87.976 E7.70697
G1 X122.476 Y88.497 E7.76258
G1 X122.072 Y88.956 E7.81818
G1 X121.596 Y89.340 E7.87379
G1 X121.062 Y89.639 E7.92940
G1 X120.485 Y89.842 E7.98501
G1 X119.883 Y89.946 E8.04061
G1 X119.271 Y89.946 E8.09622
G1 X118.668 Y89.842 E8.15183
G1 X118.088 Y89.637 E8.20775
G1 X117.555 Y89.336 E8.26346
G1 X117.249 Y89.833 E8.31654
G1 X116.845 Y90.292 E8.37215
G1 X116.369 Y90.677 E8.42776
G1 X115.835 Y90.975 E8.48337
G1 X115.258 Y91.179 E8.53897
G1 X114.656 Y91.282 E8.59458
G1 X114.044 Y91.282 E8.65019
G1 X113.441 Y91.179 E8.70580
G1 X112.865 Y90.975 E8.76140
G1 X112.331 Y90.677 E8.81701
G1 X111.855 Y90.292 E8.87262
G1 X111.451 Y89.833 E8.92823
G1 X111.130 Y89.313 E8.98384
G1 X110.901 Y88.743 E9.03965
G1 X111.380 Y87.695 F7800.000
G1 F1800
G1 X110.714 Y88.067 E9.10903
G1 X110.237 Y88.236 E9.15496
G1 X109.739 Y88.321 E9.20090
G1 X109.234 Y88.321 E9.24683
G1 X108.736 Y88.236 E9.29277
G1 X108.260 Y88.067 E9.33870
G1 X107.817 Y87.820 E9.38489
G1 X107.416 Y87.492 E9.43189
G1 X107.092 Y87.124 E9.47649
G1 X106.827 Y86.694 E9.52243
G1 X106.639 Y86.225 E9.56836
G1 X106.533 Y85.732 E9.61430
G1 X106.511 Y85.224 E9.66049
G1 X106.580 Y84.712 E9.70749
G1 X106.723 Y84.243 E9.75209
G1 X106.951 Y83.792 E9.79802
G1 X107.211 Y83.440 E9.83782
G1 X106.513 Y83.320 E9.90223
G1 X106.036 Y83.152 E9.94817
G1 X105.595 Y82.905 E9.99410
G1 X105.202 Y82.588 E10.04004
G1 X104.868 Y82.209 E10.08597
G1 X104.604 Y81.779 E10.13191
G1 X104.415 Y81.310 E10.17784
G1 X104.308 Y80.813 E10.22403
G1 X104.289 Y80.297 E10.27103
G1 X104.352 Y79.810 E10.31563
G1 X104.499 Y79.327 E10.36157
G1 X104.727 Y78.876 E10.40750
G1 X105.027 Y78.470 E10.45344
G1 X105.392 Y78.120 E10.49938
G1 X105.811 Y77.838 E10.54531
G1 X106.271 Y77.629 E10.59125
G1 X106.769 Y77.500 E10.63802
G1 X106.330 Y77.023 E10.69692
G1 X106.060 Y76.584 E10.74383
G1 X105.871 Y76.115 E10.78977
G1 X105.765 Y75.621 E10.83570
G1 X105.744 Y75.117 E10.88164
G1 X105.794 Y74.723 E10.91771
G1 X105.948 Y74.148 E10.97182
G1 X106.183 Y73.681 E11.01936
G1 X106.484 Y73.275 E11.06529
G1 X106.848 Y72.926 E11.11123
G1 X107.267 Y72.643 E11.15716
G1 X107.730 Y72.433 E11.20335
G1 X108.231 Y72.306 E11.25035
G1 X108.719 Y72.265 E11.29495
G1 X109.223 Y72.307 E11.34089
