; G-Code generated by Simplify3D(R) Version 3.1.1
; Jul 6, 2017 at 7:44:38 AM
; Settings Summary
;   processName,Process1
;   applyToModels,Wheel_Hub_60mm,Wheel_Hub_60mm(2),Wheel_Hub_60mm(3),Wheel_Hub_60mm(4)
;   profileName,Prusa Research Original Prusa i3 MK2 (modified)
;   profileVersion,2017-06-30 16:32:30
;   baseProfile,
;   printMaterial,PLA
;   printQuality,Medium
;   printExtruders,
;   extruderName,Primary Extruder
;   extruderToolheadNumber,0
;   extruderDiameter,0.4
;   extruderAutoWidth,1
;   extruderWidth,0.48
;   extrusionMultiplier,1
;   extruderUseRetract,1
;   extruderRetractionDistance,1.5
;   extruderExtraRestartDistance,0
;   extruderRetractionZLift,0
;   extruderRetractionSpeed,1800
;   extruderUseCoasting,1
;   extruderCoastingDistance,0.2
;   extruderUseWipe,1
;   extruderWipeDistance,2
;   primaryExtruder,0
;   layerHeight,0.2
;   topSolidLayers,3
;   bottomSolidLayers,3
;   perimeterOutlines,3
;   printPerimetersInsideOut,1
;   startPointOption,2
;   startPointOriginX,0
;   startPointOriginY,0
;   startPointOriginZ,0
;   sequentialIslands,0
;   spiralVaseMode,0
;   firstLayerHeightPercentage,150
;   firstLayerWidthPercentage,100
;   firstLayerUnderspeed,0.5
;   useRaft,0
;   raftExtruder,0
;   raftLayers,3
;   raftOffset,3
;   raftSeparationDistance,0.14
;   raftInfill,85
;   disableRaftBaseLayers,0
;   useSkirt,1
;   skirtExtruder,0
;   skirtLayers,1
;   skirtOutlines,1
;   skirtOffset,4
;   usePrimePillar,0
;   primePillarExtruder,999
;   primePillarWidth,12
;   primePillarLocation,7
;   primePillarSpeedMultiplier,1
;   useOozeShield,0
;   oozeShieldExtruder,999
;   oozeShieldOffset,2
;   oozeShieldOutlines,1
;   oozeShieldSidewallShape,1
;   oozeShieldSidewallAngle,30
;   oozeShieldSpeedMultiplier,1
;   infillExtruder,0
;   internalInfillPattern,Rectilinear
;   externalInfillPattern,Concentric
;   infillPercentage,100
;   outlineOverlapPercentage,20
;   infillExtrusionWidthPercentage,100
;   minInfillLength,5
;   infillLayerInterval,1
;   infillAngles,45,-45
;   overlapInfillAngles,0
;   generateSupport,1
;   supportExtruder,0
;   supportInfillPercentage,30
;   supportExtraInflation,0
;   denseSupportLayers,0
;   denseSupportInfillPercentage,70
;   supportLayerInterval,1
;   supportHorizontalPartOffset,0.3
;   supportUpperSeparationLayers,1
;   supportLowerSeparationLayers,1
;   supportType,0
;   supportGridSpacing,4
;   maxOverhangAngle,45
;   supportAngles,0
;   temperatureName,Primary Extruder,Heated Bed
;   temperatureNumber,0,0
;   temperatureSetpointCount,1,1
;   temperatureSetpointLayers,1,1
;   temperatureSetpointTemperatures,200,60
;   temperatureStabilizeAtStartup,1,1
;   temperatureHeatedBed,0,1
;   temperatureRelayBetweenLayers,0,0
;   temperatureRelayBetweenLoops,0,0
;   fanLayers,1,2
;   fanSpeeds,0,100
;   blipFanToFullPower,0
;   adjustSpeedForCooling,1
;   minSpeedLayerTime,15
;   minCoolingSpeedSlowdown,20
;   increaseFanForCooling,0
;   minFanLayerTime,45
;   maxCoolingFanSpeed,100
;   increaseFanForBridging,0
;   bridgingFanSpeed,100
;   use5D,1
;   relativeEdistances,0
;   allowEaxisZeroing,1
;   independentExtruderAxes,0
;   includeM10123,0
;   stickySupport,1
;   applyToolheadOffsets,0
;   gcodeXoffset,0
;   gcodeYoffset,0
;   gcodeZoffset,0
;   overrideMachineDefinition,1
;   machineTypeOverride,0
;   strokeXoverride,250
;   strokeYoverride,210
;   strokeZoverride,200
;   originOffsetXoverride,0
;   originOffsetYoverride,0
;   originOffsetZoverride,0
;   homeXdirOverride,-1
;   homeYdirOverride,-1
;   homeZdirOverride,-1
;   flipXoverride,1
;   flipYoverride,-1
;   flipZoverride,1
;   toolheadOffsets,0,0|0,0|0,0|0,0|0,0|0,0
;   overrideFirmwareConfiguration,1
;   firmwareTypeOverride,RepRap (Marlin/Repetier/Sprinter)
;   GPXconfigOverride,r2
;   baudRateOverride,250000
;   overridePrinterModels,1
;   printerModelsOverride
;   startingGcode,M115 U3.0.7 ; use the latest firmware version,G28 W ; home all axes without mesh bed leveling,G80 ; run mesh bed leveling routine,G1 Y-3.0 F1000.0 ; prepare to prime,G92 E0 ; reset extrusion distance,G1 X60.0 E9.0  F1000.0 ; priming,G1 X100.0 E12.5  F1000.0 ; priming
;   layerChangeGcode,
;   retractionGcode,
;   toolChangeGcode,
;   endingGcode,M106 S0 ; turn off cooling fan,M104 S0 ; turn off extruder,M140 S0 ; turn off bed,G1 X0 Y200 ; part removal,M84 ; disable motors
;   exportFileFormat,gcode
;   celebration,0
;   celebrationSong,Random Song
;   postProcessing,
;   defaultSpeed,2400
;   outlineUnderspeed,0.8
;   solidInfillUnderspeed,0.8
;   supportUnderspeed,0.8
;   rapidXYspeed,4800
;   rapidZspeed,1000
;   minBridgingArea,50
;   bridgingExtraInflation,0
;   bridgingExtrusionMultiplier,1
;   bridgingSpeedMultiplier,1
;   filamentDiameter,1.75
;   filamentPricePerKg,46
;   filamentDensity,1.25
;   useMinPrintHeight,0
;   minPrintHeight,0
;   useMaxPrintHeight,0
;   maxPrintHeight,0
;   useDiaphragm,0
;   diaphragmLayerInterval,20
;   robustSlicing,1
;   mergeAllIntoSolid,0
;   onlyRetractWhenCrossingOutline,1
;   retractBetweenLayers,1
;   useRetractionMinTravel,0
;   retractionMinTravel,3
;   retractWhileWiping,1
;   onlyWipeOutlines,1
;   avoidCrossingOutline,0
;   maxMovementDetourFactor,3
;   toolChangeRetractionDistance,12
;   toolChangeExtraRestartDistance,-0.5
;   toolChangeRetractionSpeed,600
;   allowThinWallGapFill,1
;   thinWallAllowedOverlapPercentage,25
;   horizontalSizeCompensation,0
G90
M82
M106 S0
M140 S60
M190 S60
M104 S200 T0
M109 S200 T0
M115 U3.0.7 ; use the latest firmware version
G28 W ; home all axes without mesh bed leveling
G80 ; run mesh bed leveling routine
G1 Y-3.0 F1000.0 ; prepare to prime
G92 E0 ; reset extrusion distance
G1 X60.0 E9.0  F1000.0 ; priming
G1 X100.0 E12.5  F1000.0 ; priming
G92 E0
G1 E-1.5000 F1800
G1 Z0.300 F1000
; layer 1, Z = 0.3
T0
; tool H0.300 W0.480
; skirt
G1 X91.759 Y73.747 F4800
G1 E0.0000 F540
G92 E0
G1 X91.762 Y73.744 E0.0002 F1200
G1 X91.844 Y73.650 E0.0077
G1 X91.846 Y73.647 E0.0079
G1 X92.570 Y72.868 E0.0716
G1 X92.572 Y72.865 E0.0718
G1 X92.659 Y72.777 E0.0792
G1 X92.661 Y72.775 E0.0794
G1 X93.429 Y72.041 E0.1430
G1 X93.432 Y72.038 E0.1432
G1 X93.523 Y71.956 E0.1506
G1 X93.526 Y71.953 E0.1508
G1 X94.336 Y71.266 E0.2144
G1 X94.339 Y71.264 E0.2146
G1 X94.435 Y71.187 E0.2220
G1 X94.438 Y71.185 E0.2222
G1 X95.288 Y70.548 E0.2858
G1 X95.291 Y70.546 E0.2860
G1 X95.392 Y70.475 E0.2934
G1 X95.395 Y70.473 E0.2936
G1 X96.281 Y69.888 E0.3572
G1 X96.284 Y69.886 E0.3574
G1 X96.389 Y69.821 E0.3648
G1 X96.392 Y69.819 E0.3650
G1 X97.312 Y69.288 E0.4286
G1 X97.315 Y69.286 E0.4288
G1 X97.424 Y69.228 E0.4362
G1 X97.427 Y69.226 E0.4364
G1 X98.377 Y68.751 E0.5000
G1 X98.380 Y68.750 E0.5002
G1 X98.492 Y68.698 E0.5076
G1 X98.495 Y68.696 E0.5078
G1 X99.472 Y68.279 E0.5714
G1 X99.475 Y68.277 E0.5716
G1 X99.590 Y68.232 E0.5790
G1 X99.593 Y68.231 E0.5792
G1 X100.593 Y67.873 E0.6428
G1 X100.597 Y67.872 E0.6430
G1 X100.714 Y67.834 E0.6504
G1 X100.717 Y67.833 E0.6506
G1 X101.737 Y67.535 E0.7142
G1 X101.740 Y67.534 E0.7144
G1 X101.860 Y67.503 E0.7218
G1 X101.863 Y67.502 E0.7220
G1 X102.899 Y67.266 E0.7856
G1 X102.902 Y67.265 E0.7858
G1 X103.023 Y67.241 E0.7932
G1 X103.027 Y67.240 E0.7934
G1 X104.074 Y67.066 E0.8570
G1 X104.078 Y67.066 E0.8572
G1 X104.200 Y67.049 E0.8646
G1 X104.204 Y67.049 E0.8648
G1 X105.260 Y66.938 E0.9284
G1 X105.264 Y66.937 E0.9286
G1 X105.387 Y66.928 E0.9360
G1 X105.390 Y66.928 E0.9362
G1 X106.451 Y66.880 E0.9998
G1 X106.455 Y66.880 E1.0000
G1 X106.578 Y66.878 E1.0074
G1 X106.582 Y66.878 E1.0076
G1 X107.644 Y66.894 E1.0712
G1 X107.647 Y66.894 E1.0714
G1 X107.771 Y66.900 E1.0788
G1 X107.774 Y66.900 E1.0790
G1 X108.833 Y66.980 E1.1426
G1 X108.837 Y66.980 E1.1428
G1 X108.959 Y66.993 E1.1502
G1 X108.963 Y66.993 E1.1504
G1 X110.016 Y67.136 E1.2140
G1 X110.019 Y67.136 E1.2142
G1 X110.141 Y67.156 E1.2216
G1 X110.144 Y67.157 E1.2218
G1 X111.187 Y67.362 E1.2854
G1 X111.190 Y67.363 E1.2856
G1 X111.310 Y67.391 E1.2930
G1 X111.314 Y67.391 E1.2932
G1 X112.342 Y67.659 E1.3568
G1 X112.345 Y67.660 E1.3570
G1 X112.463 Y67.694 E1.3644
G1 X112.467 Y67.695 E1.3646
G1 X113.477 Y68.023 E1.4282
G1 X113.480 Y68.025 E1.4284
G1 X113.596 Y68.066 E1.4358
G1 X113.600 Y68.067 E1.4360
G1 X114.589 Y68.456 E1.4996
G1 X114.592 Y68.457 E1.4998
G1 X114.705 Y68.505 E1.5072
G1 X114.709 Y68.507 E1.5074
G1 X115.672 Y68.953 E1.5710
G1 X115.676 Y68.955 E1.5712
G1 X115.786 Y69.010 E1.5786
G1 X115.789 Y69.012 E1.5788
G1 X116.724 Y69.515 E1.6424
G1 X116.728 Y69.517 E1.6426
G1 X116.834 Y69.578 E1.6500
G1 X116.837 Y69.580 E1.6502
G1 X117.741 Y70.139 E1.7138
G1 X117.744 Y70.141 E1.7140
G1 X117.847 Y70.208 E1.7214
G1 X117.850 Y70.210 E1.7216
G1 X118.718 Y70.822 E1.7852
G1 X118.721 Y70.824 E1.7854
G1 X118.820 Y70.898 E1.7928
G1 X118.823 Y70.900 E1.7930
G1 X119.653 Y71.562 E1.8566
G1 X119.656 Y71.565 E1.8568
G1 X119.750 Y71.644 E1.8642
G1 X119.753 Y71.647 E1.8644
G1 X120.542 Y72.357 E1.9280
G1 X120.545 Y72.360 E1.9282
G1 X120.634 Y72.445 E1.9356
G1 X120.636 Y72.448 E1.9358
G1 X121.382 Y73.204 E1.9994
G1 X121.384 Y73.207 E1.9996
G1 X121.468 Y73.297 E2.0070
G1 X121.471 Y73.300 E2.0072
G1 X122.169 Y74.100 E2.0708
G1 X122.172 Y74.103 E2.0710
G1 X122.250 Y74.198 E2.0784
G1 X122.252 Y74.201 E2.0786
G1 X122.902 Y75.041 E2.1422
G1 X122.904 Y75.044 E2.1424
G1 X122.976 Y75.143 E2.1498
G1 X122.979 Y75.146 E2.1500
G1 X123.577 Y76.024 E2.2136
G1 X123.579 Y76.027 E2.2138
G1 X123.645 Y76.131 E2.2212
G1 X123.647 Y76.134 E2.2214
G1 X124.192 Y77.046 E2.2850
G1 X124.194 Y77.049 E2.2852
G1 X124.254 Y77.156 E2.2926
G1 X124.255 Y77.160 E2.2928
G1 X124.745 Y78.102 E2.3564
G1 X124.746 Y78.106 E2.3566
G1 X124.800 Y78.217 E2.3640
G1 X124.801 Y78.220 E2.3642
G1 X125.000 Y78.665 E2.3934
G1 X125.008 Y78.646 E2.3947
G1 X125.010 Y78.643 E2.3949
G1 X125.471 Y77.686 E2.4585
G1 X125.472 Y77.683 E2.4587
G1 X125.529 Y77.573 E2.4661
G1 X125.531 Y77.570 E2.4663
G1 X126.048 Y76.642 E2.5299
G1 X126.050 Y76.639 E2.5301
G1 X126.113 Y76.533 E2.5375
G1 X126.115 Y76.530 E2.5377
G1 X126.687 Y75.635 E2.6013
G1 X126.689 Y75.632 E2.6015
G1 X126.758 Y75.530 E2.6089
G1 X126.760 Y75.527 E2.6091
G1 X127.374 Y74.682 E2.6716
G1 X127.376 Y74.680 E2.6718
G1 X127.450 Y74.584 E2.6791
G1 X127.452 Y74.581 E2.6793
G1 X128.137 Y73.747 E2.7439
G1 X128.139 Y73.744 E2.7441
G1 X128.222 Y73.650 E2.7516
G1 X128.224 Y73.647 E2.7518
G1 X128.947 Y72.868 E2.8155
G1 X128.950 Y72.865 E2.8157
G1 X129.036 Y72.777 E2.8231
G1 X129.039 Y72.775 E2.8233
G1 X129.807 Y72.041 E2.8869
G1 X129.809 Y72.038 E2.8871
G1 X129.901 Y71.956 E2.8945
G1 X129.903 Y71.953 E2.8947
G1 X130.714 Y71.266 E2.9583
G1 X130.716 Y71.264 E2.9585
G1 X130.813 Y71.187 E2.9659
G1 X130.816 Y71.185 E2.9661
G1 X131.666 Y70.548 E3.0297
G1 X131.668 Y70.546 E3.0299
G1 X131.769 Y70.475 E3.0373
G1 X131.772 Y70.473 E3.0375
G1 X132.659 Y69.888 E3.1011
G1 X132.662 Y69.886 E3.1013
G1 X132.767 Y69.821 E3.1087
G1 X132.770 Y69.819 E3.1089
G1 X133.690 Y69.288 E3.1725
G1 X133.693 Y69.286 E3.1727
G1 X133.801 Y69.228 E3.1801
G1 X133.804 Y69.226 E3.1803
G1 X134.754 Y68.751 E3.2439
G1 X134.758 Y68.750 E3.2441
G1 X134.870 Y68.698 E3.2515
G1 X134.873 Y68.696 E3.2517
G1 X135.850 Y68.279 E3.3153
G1 X135.853 Y68.277 E3.3155
G1 X135.968 Y68.232 E3.3229
G1 X135.971 Y68.231 E3.3231
G1 X136.971 Y67.873 E3.3867
G1 X136.974 Y67.872 E3.3869
G1 X137.091 Y67.834 E3.3943
G1 X137.095 Y67.833 E3.3945
G1 X138.114 Y67.535 E3.4581
G1 X138.118 Y67.534 E3.4583
G1 X138.237 Y67.503 E3.4657
G1 X138.241 Y67.502 E3.4659
G1 X139.276 Y67.266 E3.5295
G1 X139.280 Y67.265 E3.5297
G1 X139.401 Y67.241 E3.5371
G1 X139.404 Y67.240 E3.5373
G1 X140.452 Y67.066 E3.6009
G1 X140.456 Y67.066 E3.6011
G1 X140.578 Y67.049 E3.6085
G1 X140.581 Y67.049 E3.6087
G1 X141.638 Y66.938 E3.6723
G1 X141.641 Y66.937 E3.6725
G1 X141.764 Y66.928 E3.6799
G1 X141.768 Y66.928 E3.6801
G1 X142.829 Y66.880 E3.7437
G1 X142.833 Y66.880 E3.7439
G1 X142.956 Y66.878 E3.7513
G1 X142.959 Y66.878 E3.7515
G1 X144.021 Y66.894 E3.8151
G1 X144.025 Y66.894 E3.8153
G1 X144.148 Y66.900 E3.8227
G1 X144.152 Y66.900 E3.8229
G1 X145.211 Y66.980 E3.8865
G1 X145.215 Y66.980 E3.8867
G1 X145.337 Y66.993 E3.8941
G1 X145.341 Y66.993 E3.8943
G1 X146.393 Y67.136 E3.9579
G1 X146.397 Y67.136 E3.9581
G1 X146.518 Y67.156 E3.9655
G1 X146.522 Y67.157 E3.9657
G1 X147.564 Y67.362 E4.0293
G1 X147.568 Y67.363 E4.0295
G1 X147.688 Y67.391 E4.0369
G1 X147.691 Y67.391 E4.0371
G1 X148.719 Y67.659 E4.1007
G1 X148.723 Y67.660 E4.1009
G1 X148.841 Y67.694 E4.1083
G1 X148.844 Y67.695 E4.1085
G1 X149.855 Y68.023 E4.1721
G1 X149.858 Y68.025 E4.1723
G1 X149.974 Y68.066 E4.1797
G1 X149.977 Y68.067 E4.1799
G1 X150.966 Y68.456 E4.2435
G1 X150.970 Y68.457 E4.2437
G1 X151.083 Y68.505 E4.2511
G1 X151.086 Y68.507 E4.2513
G1 X152.050 Y68.953 E4.3149
G1 X152.053 Y68.955 E4.3151
G1 X152.163 Y69.010 E4.3225
G1 X152.167 Y69.012 E4.3227
G1 X153.102 Y69.515 E4.3863
G1 X153.105 Y69.517 E4.3865
G1 X153.212 Y69.578 E4.3939
G1 X153.215 Y69.580 E4.3941
G1 X154.118 Y70.139 E4.4577
G1 X154.122 Y70.141 E4.4579
G1 X154.224 Y70.208 E4.4653
G1 X154.227 Y70.210 E4.4655
G1 X155.096 Y70.822 E4.5291
G1 X155.099 Y70.824 E4.5293
G1 X155.197 Y70.898 E4.5367
G1 X155.200 Y70.900 E4.5369
G1 X156.031 Y71.562 E4.6005
G1 X156.034 Y71.565 E4.6007
G1 X156.127 Y71.644 E4.6081
G1 X156.130 Y71.647 E4.6083
G1 X156.920 Y72.357 E4.6719
G1 X156.922 Y72.360 E4.6721
G1 X157.011 Y72.445 E4.6795
G1 X157.014 Y72.448 E4.6797
G1 X157.759 Y73.204 E4.7433
G1 X157.762 Y73.207 E4.7435
G1 X157.846 Y73.297 E4.7509
G1 X157.848 Y73.300 E4.7511
G1 X158.547 Y74.100 E4.8147
G1 X158.549 Y74.103 E4.8149
G1 X158.628 Y74.198 E4.8223
G1 X158.630 Y74.201 E4.8225
G1 X159.279 Y75.041 E4.8861
G1 X159.282 Y75.044 E4.8863
G1 X159.354 Y75.143 E4.8937
G1 X159.356 Y75.146 E4.8939
G1 X159.954 Y76.024 E4.9575
G1 X159.956 Y76.027 E4.9577
G1 X160.023 Y76.131 E4.9651
G1 X160.025 Y76.134 E4.9653
G1 X160.569 Y77.046 E5.0289
G1 X160.571 Y77.049 E5.0291
G1 X160.631 Y77.156 E5.0365
G1 X160.633 Y77.160 E5.0367
G1 X161.122 Y78.102 E5.1003
G1 X161.124 Y78.106 E5.1005
G1 X161.177 Y78.217 E5.1079
G1 X161.179 Y78.220 E5.1081
G1 X161.611 Y79.190 E5.1717
G1 X161.612 Y79.194 E5.1719
G1 X161.659 Y79.308 E5.1793
G1 X161.660 Y79.311 E5.1795
G1 X162.034 Y80.305 E5.2431
G1 X162.035 Y80.309 E5.2433
G1 X162.075 Y80.426 E5.2507
G1 X162.076 Y80.429 E5.2509
G1 X162.389 Y81.444 E5.3145
G1 X162.390 Y81.447 E5.3147
G1 X162.423 Y81.566 E5.3221
G1 X162.424 Y81.570 E5.3223
G1 X162.675 Y82.602 E5.3859
G1 X162.676 Y82.605 E5.3861
G1 X162.702 Y82.726 E5.3935
G1 X162.703 Y82.729 E5.3937
G1 X162.892 Y83.774 E5.4573
G1 X162.893 Y83.778 E5.4575
G1 X162.911 Y83.900 E5.4649
G1 X162.912 Y83.903 E5.4651
G1 X163.038 Y84.958 E5.5287
G1 X163.039 Y84.961 E5.5289
G1 X163.050 Y85.084 E5.5363
G1 X163.050 Y85.087 E5.5365
G1 X163.114 Y86.148 E5.6001
G1 X163.114 Y86.151 E5.6003
G1 X163.118 Y86.275 E5.6077
G1 X163.118 Y86.278 E5.6079
G1 X163.118 Y87.341 E5.6715
G1 X163.118 Y87.344 E5.6717
G1 X163.114 Y87.468 E5.6791
G1 X163.114 Y87.471 E5.6793
G1 X163.050 Y88.531 E5.7429
G1 X163.050 Y88.535 E5.7431
G1 X163.039 Y88.658 E5.7505
G1 X163.038 Y88.661 E5.7507
G1 X162.912 Y89.716 E5.8143
G1 X162.911 Y89.719 E5.8145
G1 X162.893 Y89.841 E5.8219
G1 X162.892 Y89.845 E5.8221
G1 X162.703 Y90.890 E5.8857
G1 X162.702 Y90.893 E5.8859
G1 X162.676 Y91.014 E5.8933
G1 X162.675 Y91.017 E5.8935
G1 X162.424 Y92.049 E5.9571
G1 X162.423 Y92.053 E5.9573
G1 X162.390 Y92.171 E5.9647
G1 X162.389 Y92.175 E5.9649
G1 X162.076 Y93.190 E6.0285
G1 X162.075 Y93.193 E6.0287
G1 X162.035 Y93.310 E6.0361
G1 X162.034 Y93.313 E6.0363
G1 X161.660 Y94.308 E6.0999
G1 X161.659 Y94.311 E6.1001
G1 X161.612 Y94.425 E6.1075
G1 X161.611 Y94.429 E6.1077
G1 X161.179 Y95.399 E6.1713
G1 X161.177 Y95.402 E6.1715
G1 X161.124 Y95.513 E6.1789
G1 X161.122 Y95.517 E6.1791
G1 X160.633 Y96.459 E6.2427
G1 X160.631 Y96.462 E6.2429
G1 X160.571 Y96.570 E6.2503
G1 X160.569 Y96.573 E6.2505
G1 X160.025 Y97.485 E6.3141
G1 X160.023 Y97.488 E6.3143
G1 X159.956 Y97.592 E6.3217
G1 X159.954 Y97.595 E6.3219
G1 X159.356 Y98.473 E6.3855
G1 X159.354 Y98.475 E6.3857
G1 X159.282 Y98.575 E6.3931
G1 X159.279 Y98.578 E6.3933
G1 X158.630 Y99.418 E6.4569
