; G-Code generated by Simplify3D(R) Version 3.1.1
; Jul 6, 2017 at 7:43:42 AM
; Settings Summary
;   processName,Process1
;   applyToModels,Wheel_Hub_55mm,Wheel_Hub_55mm(2),Wheel_Hub_55mm(3),Wheel_Hub_55mm(4)
;   profileName,Prusa Research Original Prusa i3 MK2 (modified)
;   profileVersion,2017-06-30 16:32:30
;   baseProfile,
;   printMaterial,PLA
;   printQuality,Medium
;   printExtruders,
;   extruderName,Primary Extruder
;   extruderToolheadNumber,0
;   extruderDiameter,0.4
;   extruderAutoWidth,1
;   extruderWidth,0.48
;   extrusionMultiplier,1
;   extruderUseRetract,1
;   extruderRetractionDistance,1.5
;   extruderExtraRestartDistance,0
;   extruderRetractionZLift,0
;   extruderRetractionSpeed,1800
;   extruderUseCoasting,1
;   extruderCoastingDistance,0.2
;   extruderUseWipe,1
;   extruderWipeDistance,2
;   primaryExtruder,0
;   layerHeight,0.2
;   topSolidLayers,3
;   bottomSolidLayers,3
;   perimeterOutlines,3
;   printPerimetersInsideOut,1
;   startPointOption,2
;   startPointOriginX,0
;   startPointOriginY,0
;   startPointOriginZ,0
;   sequentialIslands,0
;   spiralVaseMode,0
;   firstLayerHeightPercentage,150
;   firstLayerWidthPercentage,100
;   firstLayerUnderspeed,0.5
;   useRaft,0
;   raftExtruder,0
;   raftLayers,3
;   raftOffset,3
;   raftSeparationDistance,0.14
;   raftInfill,85
;   disableRaftBaseLayers,0
;   useSkirt,1
;   skirtExtruder,0
;   skirtLayers,1
;   skirtOutlines,1
;   skirtOffset,4
;   usePrimePillar,0
;   primePillarExtruder,999
;   primePillarWidth,12
;   primePillarLocation,7
;   primePillarSpeedMultiplier,1
;   useOozeShield,0
;   oozeShieldExtruder,999
;   oozeShieldOffset,2
;   oozeShieldOutlines,1
;   oozeShieldSidewallShape,1
;   oozeShieldSidewallAngle,30
;   oozeShieldSpeedMultiplier,1
;   infillExtruder,0
;   internalInfillPattern,Rectilinear
;   externalInfillPattern,Concentric
;   infillPercentage,100
;   outlineOverlapPercentage,20
;   infillExtrusionWidthPercentage,100
;   minInfillLength,5
;   infillLayerInterval,1
;   infillAngles,45,-45
;   overlapInfillAngles,0
;   generateSupport,1
;   supportExtruder,0
;   supportInfillPercentage,30
;   supportExtraInflation,0
;   denseSupportLayers,0
;   denseSupportInfillPercentage,70
;   supportLayerInterval,1
;   supportHorizontalPartOffset,0.3
;   supportUpperSeparationLayers,1
;   supportLowerSeparationLayers,1
;   supportType,0
;   supportGridSpacing,4
;   maxOverhangAngle,45
;   supportAngles,0
;   temperatureName,Primary Extruder,Heated Bed
;   temperatureNumber,0,0
;   temperatureSetpointCount,1,1
;   temperatureSetpointLayers,1,1
;   temperatureSetpointTemperatures,200,60
;   temperatureStabilizeAtStartup,1,1
;   temperatureHeatedBed,0,1
;   temperatureRelayBetweenLayers,0,0
;   temperatureRelayBetweenLoops,0,0
;   fanLayers,1,2
;   fanSpeeds,0,100
;   blipFanToFullPower,0
;   adjustSpeedForCooling,1
;   minSpeedLayerTime,15
;   minCoolingSpeedSlowdown,20
;   increaseFanForCooling,0
;   minFanLayerTime,45
;   maxCoolingFanSpeed,100
;   increaseFanForBridging,0
;   bridgingFanSpeed,100
;   use5D,1
;   relativeEdistances,0
;   allowEaxisZeroing,1
;   independentExtruderAxes,0
;   includeM10123,0
;   stickySupport,1
;   applyToolheadOffsets,0
;   gcodeXoffset,0
;   gcodeYoffset,0
;   gcodeZoffset,0
;   overrideMachineDefinition,1
;   machineTypeOverride,0
;   strokeXoverride,250
;   strokeYoverride,210
;   strokeZoverride,200
;   originOffsetXoverride,0
;   originOffsetYoverride,0
;   originOffsetZoverride,0
;   homeXdirOverride,-1
;   homeYdirOverride,-1
;   homeZdirOverride,-1
;   flipXoverride,1
;   flipYoverride,-1
;   flipZoverride,1
;   toolheadOffsets,0,0|0,0|0,0|0,0|0,0|0,0
;   overrideFirmwareConfiguration,1
;   firmwareTypeOverride,RepRap (Marlin/Repetier/Sprinter)
;   GPXconfigOverride,r2
;   baudRateOverride,250000
;   overridePrinterModels,1
;   printerModelsOverride
;   startingGcode,M115 U3.0.7 ; use the latest firmware version,G28 W ; home all axes without mesh bed leveling,G80 ; run mesh bed leveling routine,G1 Y-3.0 F1000.0 ; prepare to prime,G92 E0 ; reset extrusion distance,G1 X60.0 E9.0  F1000.0 ; priming,G1 X100.0 E12.5  F1000.0 ; priming
;   layerChangeGcode,
;   retractionGcode,
;   toolChangeGcode,
;   endingGcode,M106 S0 ; turn off cooling fan,M104 S0 ; turn off extruder,M140 S0 ; turn off bed,G1 X0 Y200 ; part removal,M84 ; disable motors
;   exportFileFormat,gcode
;   celebration,0
;   celebrationSong,Random Song
;   postProcessing,
;   defaultSpeed,2400
;   outlineUnderspeed,0.8
;   solidInfillUnderspeed,0.8
;   supportUnderspeed,0.8
;   rapidXYspeed,4800
;   rapidZspeed,1000
;   minBridgingArea,50
;   bridgingExtraInflation,0
;   bridgingExtrusionMultiplier,1
;   bridgingSpeedMultiplier,1
;   filamentDiameter,1.75
;   filamentPricePerKg,46
;   filamentDensity,1.25
;   useMinPrintHeight,0
;   minPrintHeight,0
;   useMaxPrintHeight,0
;   maxPrintHeight,0
;   useDiaphragm,0
;   diaphragmLayerInterval,20
;   robustSlicing,1
;   mergeAllIntoSolid,0
;   onlyRetractWhenCrossingOutline,1
;   retractBetweenLayers,1
;   useRetractionMinTravel,0
;   retractionMinTravel,3
;   retractWhileWiping,1
;   onlyWipeOutlines,1
;   avoidCrossingOutline,0
;   maxMovementDetourFactor,3
;   toolChangeRetractionDistance,12
;   toolChangeExtraRestartDistance,-0.5
;   toolChangeRetractionSpeed,600
;   allowThinWallGapFill,1
;   thinWallAllowedOverlapPercentage,25
;   horizontalSizeCompensation,0
G90
M82
M106 S0
M140 S60
M190 S60
M104 S200 T0
M109 S200 T0
M115 U3.0.7 ; use the latest firmware version
G28 W ; home all axes without mesh bed leveling
G80 ; run mesh bed leveling routine
G1 Y-3.0 F1000.0 ; prepare to prime
G92 E0 ; reset extrusion distance
G1 X60.0 E9.0  F1000.0 ; priming
G1 X100.0 E12.5  F1000.0 ; priming
G92 E0
G1 E-1.5000 F1800
G1 Z0.300 F1000
; layer 1, Z = 0.3
T0
; tool H0.300 W0.480
; skirt
G1 X93.426 Y76.675 F4800
G1 E0.0000 F540
G92 E0
G1 X93.428 Y76.672 E0.0002 F1200
G1 X94.042 Y75.926 E0.0580
G1 X94.044 Y75.924 E0.0582
G1 X94.123 Y75.833 E0.0655
G1 X94.126 Y75.830 E0.0657
G1 X94.806 Y75.096 E0.1256
G1 X94.808 Y75.093 E0.1258
G1 X94.896 Y75.003 E0.1333
G1 X94.899 Y75.001 E0.1336
G1 X95.611 Y74.320 E0.1925
G1 X95.614 Y74.317 E0.1928
G1 X95.705 Y74.235 E0.2001
G1 X95.708 Y74.233 E0.2004
G1 X96.459 Y73.596 E0.2593
G1 X96.461 Y73.594 E0.2595
G1 X96.558 Y73.517 E0.2669
G1 X96.561 Y73.515 E0.2671
G1 X97.348 Y72.925 E0.3260
G1 X97.351 Y72.923 E0.3262
G1 X97.452 Y72.852 E0.3336
G1 X97.455 Y72.850 E0.3338
G1 X98.276 Y72.308 E0.3927
G1 X98.279 Y72.306 E0.3929
G1 X98.384 Y72.241 E0.4003
G1 X98.387 Y72.239 E0.4005
G1 X99.239 Y71.747 E0.4594
G1 X99.242 Y71.745 E0.4596
G1 X99.350 Y71.687 E0.4670
G1 X99.354 Y71.685 E0.4672
G1 X100.234 Y71.245 E0.5261
G1 X100.237 Y71.244 E0.5263
G1 X100.349 Y71.192 E0.5337
G1 X100.352 Y71.190 E0.5339
G1 X101.257 Y70.804 E0.5928
G1 X101.260 Y70.802 E0.5931
G1 X101.375 Y70.757 E0.6004
G1 X101.378 Y70.756 E0.6006
G1 X102.304 Y70.424 E0.6596
G1 X102.308 Y70.423 E0.6598
G1 X102.425 Y70.385 E0.6672
G1 X102.429 Y70.384 E0.6674
G1 X103.373 Y70.108 E0.7263
G1 X103.377 Y70.107 E0.7265
G1 X103.496 Y70.076 E0.7339
G1 X103.499 Y70.075 E0.7341
G1 X104.459 Y69.856 E0.7930
G1 X104.462 Y69.855 E0.7932
G1 X104.583 Y69.832 E0.8006
G1 X104.586 Y69.831 E0.8008
G1 X105.557 Y69.670 E0.8597
G1 X105.561 Y69.669 E0.8599
G1 X105.683 Y69.653 E0.8673
G1 X105.686 Y69.652 E0.8675
G1 X106.665 Y69.549 E0.9264
G1 X106.668 Y69.549 E0.9266
G1 X106.791 Y69.540 E0.9340
G1 X106.795 Y69.540 E0.9342
G1 X107.778 Y69.495 E0.9931
G1 X107.782 Y69.495 E0.9934
G1 X107.905 Y69.494 E1.0007
G1 X107.909 Y69.494 E1.0010
G1 X108.892 Y69.508 E1.0599
G1 X108.896 Y69.508 E1.0601
G1 X109.019 Y69.514 E1.0674
G1 X109.023 Y69.514 E1.0677
G1 X110.004 Y69.588 E1.1266
G1 X110.007 Y69.588 E1.1268
G1 X110.130 Y69.601 E1.1342
G1 X110.133 Y69.601 E1.1344
G1 X111.108 Y69.733 E1.1933
G1 X111.112 Y69.734 E1.1935
G1 X111.234 Y69.754 E1.2009
G1 X111.237 Y69.755 E1.2011
G1 X112.203 Y69.945 E1.2600
G1 X112.206 Y69.946 E1.2602
G1 X112.326 Y69.973 E1.2676
G1 X112.330 Y69.974 E1.2678
G1 X113.282 Y70.221 E1.3267
G1 X113.286 Y70.222 E1.3269
G1 X113.404 Y70.257 E1.3343
G1 X113.407 Y70.258 E1.3345
G1 X114.343 Y70.562 E1.3934
G1 X114.346 Y70.563 E1.3936
G1 X114.462 Y70.605 E1.4010
G1 X114.466 Y70.606 E1.4012
G1 X115.382 Y70.966 E1.4602
G1 X115.385 Y70.967 E1.4604
G1 X115.498 Y71.015 E1.4677
G1 X115.502 Y71.017 E1.4680
G1 X116.394 Y71.430 E1.5269
G1 X116.398 Y71.432 E1.5271
G1 X116.508 Y71.487 E1.5345
G1 X116.511 Y71.489 E1.5347
G1 X117.378 Y71.955 E1.5936
G1 X117.381 Y71.957 E1.5938
G1 X117.487 Y72.018 E1.6012
G1 X117.491 Y72.020 E1.6014
G1 X118.328 Y72.537 E1.6603
G1 X118.331 Y72.539 E1.6605
G1 X118.433 Y72.607 E1.6679
G1 X118.436 Y72.609 E1.6681
G1 X119.241 Y73.176 E1.7270
G1 X119.244 Y73.178 E1.7272
G1 X119.343 Y73.252 E1.7346
G1 X119.345 Y73.254 E1.7348
G1 X120.115 Y73.867 E1.7937
G1 X120.117 Y73.870 E1.7940
G1 X120.212 Y73.949 E1.8013
G1 X120.214 Y73.952 E1.8015
G1 X120.945 Y74.610 E1.8604
G1 X120.948 Y74.613 E1.8607
G1 X121.037 Y74.698 E1.8680
G1 X121.040 Y74.700 E1.8683
G1 X121.730 Y75.401 E1.9272
G1 X121.733 Y75.404 E1.9274
G1 X121.817 Y75.494 E1.9348
G1 X121.819 Y75.497 E1.9350
G1 X122.466 Y76.238 E1.9939
G1 X122.469 Y76.241 E1.9941
G1 X122.547 Y76.336 E2.0015
G1 X122.549 Y76.339 E2.0017
G1 X123.151 Y77.117 E2.0606
G1 X123.153 Y77.120 E2.0608
G1 X123.226 Y77.220 E2.0682
G1 X123.228 Y77.223 E2.0684
G1 X123.782 Y78.036 E2.1273
G1 X123.784 Y78.039 E2.1275
G1 X123.850 Y78.142 E2.1349
G1 X123.852 Y78.146 E2.1351
G1 X124.357 Y78.990 E2.1940
G1 X124.359 Y78.993 E2.1942
G1 X124.419 Y79.101 E2.2016
G1 X124.420 Y79.104 E2.2018
G1 X124.874 Y79.977 E2.2607
G1 X124.875 Y79.980 E2.2610
G1 X124.929 Y80.092 E2.2683
G1 X124.930 Y80.095 E2.2686
G1 X125.004 Y80.260 E2.2794
G1 X125.324 Y79.596 E2.3235
G1 X125.325 Y79.593 E2.3237
G1 X125.382 Y79.483 E2.3311
G1 X125.384 Y79.480 E2.3313
G1 X125.863 Y78.620 E2.3902
G1 X125.865 Y78.617 E2.3904
G1 X125.928 Y78.511 E2.3978
G1 X125.930 Y78.508 E2.3980
G1 X126.460 Y77.679 E2.4570
G1 X126.462 Y77.676 E2.4572
G1 X126.531 Y77.575 E2.4645
G1 X126.533 Y77.572 E2.4647
G1 X127.111 Y76.776 E2.5237
G1 X127.113 Y76.773 E2.5239
G1 X127.189 Y76.675 E2.5313
G1 X127.191 Y76.672 E2.5315
G1 X127.805 Y75.926 E2.5893
G1 X127.807 Y75.923 E2.5895
G1 X127.886 Y75.833 E2.5967
G1 X127.889 Y75.830 E2.5969
G1 X128.568 Y75.096 E2.6569
G1 X128.571 Y75.093 E2.6571
G1 X128.659 Y75.003 E2.6646
G1 X128.662 Y75.001 E2.6648
G1 X129.374 Y74.320 E2.7238
G1 X129.377 Y74.317 E2.7240
G1 X129.468 Y74.235 E2.7314
G1 X129.471 Y74.233 E2.7316
G1 X130.221 Y73.596 E2.7905
G1 X130.224 Y73.594 E2.7907
G1 X130.321 Y73.517 E2.7981
G1 X130.323 Y73.515 E2.7983
G1 X131.111 Y72.925 E2.8572
G1 X131.114 Y72.923 E2.8575
G1 X131.214 Y72.852 E2.8648
G1 X131.217 Y72.850 E2.8651
G1 X132.038 Y72.308 E2.9240
G1 X132.042 Y72.306 E2.9242
G1 X132.146 Y72.241 E2.9316
G1 X132.149 Y72.239 E2.9318
G1 X133.002 Y71.747 E2.9907
G1 X133.005 Y71.745 E2.9909
G1 X133.113 Y71.687 E2.9983
G1 X133.116 Y71.685 E2.9985
G1 X133.996 Y71.245 E3.0574
G1 X134.000 Y71.244 E3.0576
G1 X134.112 Y71.192 E3.0650
G1 X134.115 Y71.190 E3.0652
G1 X135.020 Y70.804 E3.1241
G1 X135.023 Y70.802 E3.1243
G1 X135.138 Y70.757 E3.1317
G1 X135.141 Y70.756 E3.1319
G1 X136.067 Y70.424 E3.1908
G1 X136.071 Y70.423 E3.1910
G1 X136.188 Y70.385 E3.1984
G1 X136.191 Y70.384 E3.1986
G1 X137.136 Y70.108 E3.2575
G1 X137.139 Y70.107 E3.2578
G1 X137.259 Y70.076 E3.2651
G1 X137.262 Y70.075 E3.2654
G1 X138.221 Y69.856 E3.3243
G1 X138.225 Y69.855 E3.3245
G1 X138.346 Y69.832 E3.3318
G1 X138.349 Y69.831 E3.3321
G1 X139.320 Y69.670 E3.3910
G1 X139.323 Y69.669 E3.3912
G1 X139.445 Y69.653 E3.3986
G1 X139.449 Y69.652 E3.3988
G1 X140.428 Y69.549 E3.4577
G1 X140.431 Y69.549 E3.4579
G1 X140.554 Y69.540 E3.4653
G1 X140.558 Y69.540 E3.4655
G1 X141.541 Y69.495 E3.5244
G1 X141.544 Y69.495 E3.5246
G1 X141.668 Y69.494 E3.5320
G1 X141.671 Y69.494 E3.5322
G1 X142.655 Y69.508 E3.5911
G1 X142.659 Y69.508 E3.5913
G1 X142.782 Y69.514 E3.5987
G1 X142.785 Y69.514 E3.5989
G1 X143.766 Y69.588 E3.6578
G1 X143.770 Y69.588 E3.6580
G1 X143.893 Y69.601 E3.6654
G1 X143.896 Y69.601 E3.6656
G1 X144.871 Y69.733 E3.7245
G1 X144.875 Y69.734 E3.7248
G1 X144.996 Y69.754 E3.7321
G1 X145.000 Y69.755 E3.7324
G1 X145.965 Y69.945 E3.7913
G1 X145.969 Y69.946 E3.7915
G1 X146.089 Y69.973 E3.7989
G1 X146.093 Y69.974 E3.7991
G1 X147.045 Y70.221 E3.8580
G1 X147.048 Y70.222 E3.8582
G1 X147.167 Y70.257 E3.8656
G1 X147.170 Y70.258 E3.8658
G1 X148.106 Y70.562 E3.9247
G1 X148.109 Y70.563 E3.9249
G1 X148.225 Y70.605 E3.9323
G1 X148.229 Y70.606 E3.9325
G1 X149.145 Y70.966 E3.9914
G1 X149.148 Y70.967 E3.9916
G1 X149.261 Y71.015 E3.9990
G1 X149.264 Y71.017 E3.9992
G1 X150.157 Y71.430 E4.0581
G1 X150.160 Y71.432 E4.0583
G1 X150.271 Y71.487 E4.0657
G1 X150.274 Y71.489 E4.0659
G1 X151.140 Y71.955 E4.1248
G1 X151.143 Y71.957 E4.1251
G1 X151.250 Y72.018 E4.1324
G1 X151.253 Y72.020 E4.1327
G1 X152.090 Y72.537 E4.1916
G1 X152.093 Y72.539 E4.1918
G1 X152.196 Y72.607 E4.1992
G1 X152.199 Y72.609 E4.1994
G1 X153.004 Y73.176 E4.2583
G1 X153.007 Y73.178 E4.2585
G1 X153.105 Y73.252 E4.2659
G1 X153.108 Y73.254 E4.2661
G1 X153.877 Y73.867 E4.3250
G1 X153.880 Y73.870 E4.3252
G1 X153.974 Y73.949 E4.3326
G1 X153.977 Y73.952 E4.3328
G1 X154.708 Y74.610 E4.3917
G1 X154.711 Y74.613 E4.3919
G1 X154.800 Y74.698 E4.3993
G1 X154.802 Y74.700 E4.3995
G1 X155.493 Y75.401 E4.4584
G1 X155.495 Y75.404 E4.4586
G1 X155.579 Y75.494 E4.4660
G1 X155.582 Y75.497 E4.4663
G1 X156.229 Y76.238 E4.5252
G1 X156.231 Y76.241 E4.5254
G1 X156.310 Y76.336 E4.5327
G1 X156.312 Y76.339 E4.5329
G1 X156.914 Y77.117 E4.5919
G1 X156.916 Y77.120 E4.5921
G1 X156.988 Y77.220 E4.5995
G1 X156.991 Y77.223 E4.5997
G1 X157.545 Y78.036 E4.6586
G1 X157.547 Y78.039 E4.6588
G1 X157.613 Y78.142 E4.6662
G1 X157.615 Y78.146 E4.6664
G1 X158.120 Y78.990 E4.7253
G1 X158.121 Y78.993 E4.7255
G1 X158.181 Y79.101 E4.7329
G1 X158.183 Y79.104 E4.7331
G1 X158.636 Y79.977 E4.7920
G1 X158.638 Y79.980 E4.7922
G1 X158.692 Y80.092 E4.7996
G1 X158.693 Y80.095 E4.7998
G1 X159.093 Y80.994 E4.8587
G1 X159.095 Y80.997 E4.8589
G1 X159.141 Y81.111 E4.8663
G1 X159.143 Y81.114 E4.8665
G1 X159.488 Y82.035 E4.9254
G1 X159.490 Y82.039 E4.9257
G1 X159.530 Y82.156 E4.9330
G1 X159.531 Y82.159 E4.9333
G1 X159.821 Y83.099 E4.9922
G1 X159.822 Y83.103 E4.9924
G1 X159.854 Y83.221 E4.9997
G1 X159.855 Y83.225 E5.0000
G1 X160.089 Y84.181 E5.0589
G1 X160.089 Y84.184 E5.0591
G1 X160.115 Y84.305 E5.0665
G1 X160.116 Y84.308 E5.0667
G1 X160.291 Y85.277 E5.1256
G1 X160.292 Y85.280 E5.1258
G1 X160.310 Y85.402 E5.1332
G1 X160.311 Y85.406 E5.1334
G1 X160.428 Y86.383 E5.1923
G1 X160.429 Y86.386 E5.1925
G1 X160.440 Y86.509 E5.1999
G1 X160.440 Y86.513 E5.2001
G1 X160.499 Y87.495 E5.2590
G1 X160.499 Y87.498 E5.2592
G1 X160.503 Y87.621 E5.2666
G1 X160.503 Y87.625 E5.2668
G1 X160.503 Y88.609 E5.3257
G1 X160.503 Y88.613 E5.3260
G1 X160.499 Y88.736 E5.3333
G1 X160.499 Y88.739 E5.3336
G1 X160.440 Y89.721 E5.3925
G1 X160.440 Y89.725 E5.3927
G1 X160.429 Y89.848 E5.4000
G1 X160.428 Y89.851 E5.4003
G1 X160.311 Y90.828 E5.4592
G1 X160.310 Y90.832 E5.4594
G1 X160.292 Y90.954 E5.4668
G1 X160.291 Y90.957 E5.4670
G1 X160.116 Y91.926 E5.5259
G1 X160.115 Y91.929 E5.5261
G1 X160.089 Y92.050 E5.5335
G1 X160.089 Y92.053 E5.5337
G1 X159.855 Y93.009 E5.5926
G1 X159.854 Y93.013 E5.5928
G1 X159.822 Y93.131 E5.6002
G1 X159.821 Y93.135 E5.6004
G1 X159.531 Y94.075 E5.6593
G1 X159.530 Y94.078 E5.6595
G1 X159.490 Y94.195 E5.6669
G1 X159.488 Y94.198 E5.6671
G1 X159.143 Y95.120 E5.7261
G1 X159.141 Y95.123 E5.7263
G1 X159.095 Y95.237 E5.7336
G1 X159.093 Y95.240 E5.7338
G1 X158.693 Y96.139 E5.7927
G1 X158.692 Y96.142 E5.7930
G1 X158.638 Y96.253 E5.8004
G1 X158.636 Y96.257 E5.8006
G1 X158.183 Y97.130 E5.8595
G1 X158.181 Y97.133 E5.8597
G1 X158.122 Y97.241 E5.8671
G1 X158.120 Y97.244 E5.8673
G1 X157.615 Y98.088 E5.9262
G1 X157.613 Y98.091 E5.9264
G1 X157.547 Y98.195 E5.9338
G1 X157.545 Y98.198 E5.9340
G1 X156.991 Y99.012 E5.9929
G1 X156.988 Y99.014 E5.9931
G1 X156.916 Y99.114 E6.0005
G1 X156.914 Y99.117 E6.0007
