; G-Code generated by Simplify3D(R) Version 3.1.1
; Jul 6, 2017 at 7:39:59 AM
; Settings Summary
;   processName,Process1
;   applyToModels,Wheel_Tyre_30mm
;   profileName,Prusa Research Original Prusa i3 MK2 (modified)
;   profileVersion,2017-06-30 16:32:30
;   baseProfile,
;   printMaterial,PLA
;   printQuality,Medium
;   printExtruders,
;   extruderName,Primary Extruder
;   extruderToolheadNumber,0
;   extruderDiameter,0.4
;   extruderAutoWidth,1
;   extruderWidth,0.48
;   extrusionMultiplier,1
;   extruderUseRetract,1
;   extruderRetractionDistance,1.5
;   extruderExtraRestartDistance,0
;   extruderRetractionZLift,0
;   extruderRetractionSpeed,1800
;   extruderUseCoasting,1
;   extruderCoastingDistance,0.2
;   extruderUseWipe,1
;   extruderWipeDistance,2
;   primaryExtruder,0
;   layerHeight,0.2
;   topSolidLayers,3
;   bottomSolidLayers,3
;   perimeterOutlines,3
;   printPerimetersInsideOut,1
;   startPointOption,2
;   startPointOriginX,0
;   startPointOriginY,0
;   startPointOriginZ,0
;   sequentialIslands,0
;   spiralVaseMode,0
;   firstLayerHeightPercentage,150
;   firstLayerWidthPercentage,100
;   firstLayerUnderspeed,0.5
;   useRaft,0
;   raftExtruder,0
;   raftLayers,3
;   raftOffset,3
;   raftSeparationDistance,0.14
;   raftInfill,85
;   disableRaftBaseLayers,0
;   useSkirt,1
;   skirtExtruder,0
;   skirtLayers,1
;   skirtOutlines,1
;   skirtOffset,4
;   usePrimePillar,0
;   primePillarExtruder,999
;   primePillarWidth,12
;   primePillarLocation,7
;   primePillarSpeedMultiplier,1
;   useOozeShield,0
;   oozeShieldExtruder,999
;   oozeShieldOffset,2
;   oozeShieldOutlines,1
;   oozeShieldSidewallShape,1
;   oozeShieldSidewallAngle,30
;   oozeShieldSpeedMultiplier,1
;   infillExtruder,0
;   internalInfillPattern,Rectilinear
;   externalInfillPattern,Concentric
;   infillPercentage,100
;   outlineOverlapPercentage,20
;   infillExtrusionWidthPercentage,100
;   minInfillLength,5
;   infillLayerInterval,1
;   infillAngles,45,-45
;   overlapInfillAngles,0
;   generateSupport,0
;   supportExtruder,0
;   supportInfillPercentage,30
;   supportExtraInflation,0
;   denseSupportLayers,0
;   denseSupportInfillPercentage,70
;   supportLayerInterval,1
;   supportHorizontalPartOffset,0.3
;   supportUpperSeparationLayers,1
;   supportLowerSeparationLayers,1
;   supportType,0
;   supportGridSpacing,4
;   maxOverhangAngle,45
;   supportAngles,0
;   temperatureName,Primary Extruder,Heated Bed
;   temperatureNumber,0,0
;   temperatureSetpointCount,1,1
;   temperatureSetpointLayers,1,1
;   temperatureSetpointTemperatures,200,60
;   temperatureStabilizeAtStartup,1,1
;   temperatureHeatedBed,0,1
;   temperatureRelayBetweenLayers,0,0
;   temperatureRelayBetweenLoops,0,0
;   fanLayers,1,2
;   fanSpeeds,0,100
;   blipFanToFullPower,0
;   adjustSpeedForCooling,1
;   minSpeedLayerTime,15
;   minCoolingSpeedSlowdown,20
;   increaseFanForCooling,0
;   minFanLayerTime,45
;   maxCoolingFanSpeed,100
;   increaseFanForBridging,0
;   bridgingFanSpeed,100
;   use5D,1
;   relativeEdistances,0
;   allowEaxisZeroing,1
;   independentExtruderAxes,0
;   includeM10123,0
;   stickySupport,1
;   applyToolheadOffsets,0
;   gcodeXoffset,0
;   gcodeYoffset,0
;   gcodeZoffset,0
;   overrideMachineDefinition,1
;   machineTypeOverride,0
;   strokeXoverride,250
;   strokeYoverride,210
;   strokeZoverride,200
;   originOffsetXoverride,0
;   originOffsetYoverride,0
;   originOffsetZoverride,0
;   homeXdirOverride,-1
;   homeYdirOverride,-1
;   homeZdirOverride,-1
;   flipXoverride,1
;   flipYoverride,-1
;   flipZoverride,1
;   toolheadOffsets,0,0|0,0|0,0|0,0|0,0|0,0
;   overrideFirmwareConfiguration,1
;   firmwareTypeOverride,RepRap (Marlin/Repetier/Sprinter)
;   GPXconfigOverride,r2
;   baudRateOverride,250000
;   overridePrinterModels,1
;   printerModelsOverride
;   startingGcode,M115 U3.0.7 ; use the latest firmware version,G28 W ; home all axes without mesh bed leveling,G80 ; run mesh bed leveling routine,G1 Y-3.0 F1000.0 ; prepare to prime,G92 E0 ; reset extrusion distance,G1 X60.0 E9.0  F1000.0 ; priming,G1 X100.0 E12.5  F1000.0 ; priming
;   layerChangeGcode,
;   retractionGcode,
;   toolChangeGcode,
;   endingGcode,M106 S0 ; turn off cooling fan,M104 S0 ; turn off extruder,M140 S0 ; turn off bed,G1 X0 Y200 ; part removal,M84 ; disable motors
;   exportFileFormat,gcode
;   celebration,0
;   celebrationSong,Random Song
;   postProcessing,
;   defaultSpeed,2400
;   outlineUnderspeed,0.8
;   solidInfillUnderspeed,0.8
;   supportUnderspeed,0.8
;   rapidXYspeed,4800
;   rapidZspeed,1000
;   minBridgingArea,50
;   bridgingExtraInflation,0
;   bridgingExtrusionMultiplier,1
;   bridgingSpeedMultiplier,1
;   filamentDiameter,1.75
;   filamentPricePerKg,46
;   filamentDensity,1.25
;   useMinPrintHeight,0
;   minPrintHeight,0
;   useMaxPrintHeight,0
;   maxPrintHeight,0
;   useDiaphragm,0
;   diaphragmLayerInterval,20
;   robustSlicing,1
;   mergeAllIntoSolid,0
;   onlyRetractWhenCrossingOutline,1
;   retractBetweenLayers,1
;   useRetractionMinTravel,0
;   retractionMinTravel,3
;   retractWhileWiping,1
;   onlyWipeOutlines,1
;   avoidCrossingOutline,0
;   maxMovementDetourFactor,3
;   toolChangeRetractionDistance,12
;   toolChangeExtraRestartDistance,-0.5
;   toolChangeRetractionSpeed,600
;   allowThinWallGapFill,1
;   thinWallAllowedOverlapPercentage,25
;   horizontalSizeCompensation,0
G90
M82
M106 S0
M140 S60
M190 S60
M104 S200 T0
M109 S200 T0
M115 U3.0.7 ; use the latest firmware version
G28 W ; home all axes without mesh bed leveling
G80 ; run mesh bed leveling routine
G1 Y-3.0 F1000.0 ; prepare to prime
G92 E0 ; reset extrusion distance
G1 X60.0 E9.0  F1000.0 ; priming
G1 X100.0 E12.5  F1000.0 ; priming
G92 E0
G1 E-1.5000 F1800
G1 Z0.300 F1000
; layer 1, Z = 0.3
T0
; tool H0.300 W0.480
; skirt
G1 X111.181 Y93.894 F4800
G1 E0.0000 F540
G92 E0
G1 X111.782 Y93.184 E0.0557 F1200
G1 X111.785 Y93.181 E0.0559
G1 X111.867 Y93.089 E0.0633
G1 X111.870 Y93.087 E0.0635
G1 X112.513 Y92.414 E0.1192
G1 X112.515 Y92.412 E0.1195
G1 X112.603 Y92.325 E0.1268
G1 X112.606 Y92.323 E0.1270
G1 X113.288 Y91.690 E0.1827
G1 X113.290 Y91.687 E0.1830
G1 X113.383 Y91.606 E0.1903
G1 X113.386 Y91.604 E0.1906
G1 X114.105 Y91.013 E0.2463
G1 X114.108 Y91.011 E0.2465
G1 X114.205 Y90.935 E0.2539
G1 X114.208 Y90.933 E0.2541
G1 X114.961 Y90.386 E0.3098
G1 X114.964 Y90.384 E0.3100
G1 X115.066 Y90.315 E0.3174
G1 X115.069 Y90.313 E0.3176
G1 X115.853 Y89.812 E0.3733
G1 X115.856 Y89.810 E0.3735
G1 X115.962 Y89.747 E0.3809
G1 X115.965 Y89.745 E0.3811
G1 X116.778 Y89.292 E0.4368
G1 X116.781 Y89.290 E0.4370
G1 X116.890 Y89.233 E0.4444
G1 X116.893 Y89.232 E0.4446
G1 X117.732 Y88.828 E0.5003
G1 X117.735 Y88.826 E0.5005
G1 X117.848 Y88.776 E0.5079
G1 X117.851 Y88.775 E0.5082
G1 X118.712 Y88.422 E0.5639
G1 X118.715 Y88.421 E0.5641
G1 X118.831 Y88.377 E0.5714
G1 X118.834 Y88.376 E0.5717
G1 X119.714 Y88.075 E0.6274
G1 X119.718 Y88.074 E0.6276
G1 X119.836 Y88.038 E0.6350
G1 X119.839 Y88.037 E0.6352
G1 X120.736 Y87.789 E0.6909
G1 X120.740 Y87.788 E0.6911
G1 X120.860 Y87.759 E0.6985
G1 X120.863 Y87.758 E0.6987
G1 X121.773 Y87.565 E0.7544
G1 X121.777 Y87.564 E0.7546
G1 X121.898 Y87.542 E0.7620
G1 X121.901 Y87.542 E0.7622
G1 X122.821 Y87.403 E0.8179
G1 X122.825 Y87.402 E0.8181
G1 X122.948 Y87.388 E0.8255
G1 X122.951 Y87.387 E0.8257
G1 X123.878 Y87.304 E0.8815
G1 X123.882 Y87.304 E0.8817
G1 X124.004 Y87.296 E0.8890
G1 X124.008 Y87.296 E0.8892
G1 X124.938 Y87.268 E0.9450
G1 X124.942 Y87.268 E0.9452
G1 X125.065 Y87.268 E0.9526
G1 X125.069 Y87.268 E0.9528
G1 X125.999 Y87.296 E1.0085
G1 X126.002 Y87.296 E1.0087
G1 X126.125 Y87.304 E1.0161
G1 X126.129 Y87.304 E1.0163
G1 X127.055 Y87.387 E1.0720
G1 X127.059 Y87.388 E1.0722
G1 X127.182 Y87.402 E1.0796
G1 X127.185 Y87.403 E1.0798
G1 X128.105 Y87.542 E1.1355
G1 X128.109 Y87.542 E1.1357
G1 X128.230 Y87.564 E1.1431
G1 X128.233 Y87.565 E1.1433
G1 X129.144 Y87.758 E1.1990
G1 X129.147 Y87.759 E1.1992
G1 X129.267 Y87.788 E1.2066
G1 X129.271 Y87.789 E1.2069
G1 X130.168 Y88.037 E1.2626
G1 X130.171 Y88.038 E1.2628
G1 X130.289 Y88.074 E1.2702
G1 X130.292 Y88.075 E1.2704
G1 X131.173 Y88.376 E1.3261
G1 X131.176 Y88.377 E1.3263
G1 X131.292 Y88.421 E1.3337
G1 X131.295 Y88.422 E1.3339
G1 X132.156 Y88.775 E1.3896
G1 X132.159 Y88.776 E1.3898
G1 X132.272 Y88.826 E1.3972
G1 X132.275 Y88.828 E1.3974
G1 X133.113 Y89.232 E1.4531
G1 X133.117 Y89.233 E1.4533
G1 X133.226 Y89.290 E1.4607
G1 X133.229 Y89.292 E1.4609
G1 X134.042 Y89.745 E1.5166
G1 X134.045 Y89.747 E1.5168
G1 X134.151 Y89.810 E1.5242
G1 X134.154 Y89.812 E1.5244
G1 X134.938 Y90.313 E1.5801
G1 X134.941 Y90.315 E1.5804
G1 X135.043 Y90.384 E1.5877
G1 X135.046 Y90.386 E1.5880
G1 X135.799 Y90.933 E1.6437
G1 X135.802 Y90.935 E1.6439
G1 X135.899 Y91.011 E1.6513
G1 X135.902 Y91.013 E1.6515
G1 X136.621 Y91.604 E1.7072
G1 X136.623 Y91.606 E1.7074
G1 X136.716 Y91.687 E1.7148
G1 X136.719 Y91.690 E1.7150
G1 X137.401 Y92.323 E1.7707
G1 X137.404 Y92.325 E1.7709
G1 X137.491 Y92.412 E1.7783
G1 X137.494 Y92.414 E1.7785
G1 X138.137 Y93.087 E1.8342
G1 X138.139 Y93.089 E1.8344
G1 X138.222 Y93.181 E1.8418
G1 X138.224 Y93.184 E1.8420
G1 X138.826 Y93.894 E1.8977
G1 X138.828 Y93.896 E1.8980
G1 X138.905 Y93.993 E1.9053
G1 X138.907 Y93.995 E1.9055
G1 X139.465 Y94.740 E1.9612
G1 X139.467 Y94.743 E1.9615
G1 X139.539 Y94.844 E1.9689
G1 X139.541 Y94.847 E1.9691
G1 X140.053 Y95.623 E2.0248
G1 X140.055 Y95.626 E2.0250
G1 X140.120 Y95.731 E2.0324
G1 X140.122 Y95.734 E2.0326
G1 X140.587 Y96.540 E2.0883
G1 X140.589 Y96.543 E2.0885
G1 X140.647 Y96.652 E2.0959
G1 X140.649 Y96.655 E2.0961
G1 X141.065 Y97.487 E2.1518
G1 X141.067 Y97.491 E2.1520
G1 X141.118 Y97.602 E2.1594
G1 X141.120 Y97.605 E2.1596
G1 X141.485 Y98.461 E2.2153
G1 X141.487 Y98.464 E2.2155
G1 X141.532 Y98.579 E2.2229
G1 X141.533 Y98.583 E2.2231
G1 X141.847 Y99.459 E2.2788
G1 X141.848 Y99.462 E2.2791
G1 X141.886 Y99.579 E2.2864
G1 X141.887 Y99.583 E2.2867
G1 X142.148 Y100.476 E2.3424
G1 X142.149 Y100.479 E2.3426
G1 X142.180 Y100.599 E2.3500
G1 X142.181 Y100.602 E2.3502
G1 X142.388 Y101.509 E2.4059
G1 X142.389 Y101.513 E2.4061
G1 X142.413 Y101.634 E2.4135
G1 X142.413 Y101.637 E2.4137
G1 X142.566 Y102.555 E2.4694
G1 X142.566 Y102.559 E2.4696
G1 X142.583 Y102.681 E2.4770
G1 X142.583 Y102.684 E2.4772
G1 X142.681 Y103.610 E2.5329
G1 X142.681 Y103.613 E2.5331
G1 X142.690 Y103.736 E2.5405
G1 X142.690 Y103.740 E2.5407
G1 X142.732 Y104.670 E2.5964
G1 X142.732 Y104.673 E2.5966
G1 X142.734 Y104.796 E2.6040
G1 X142.734 Y104.800 E2.6042
G1 X142.720 Y105.730 E2.6600
G1 X142.720 Y105.734 E2.6602
G1 X142.714 Y105.857 E2.6676
G1 X142.714 Y105.861 E2.6678
G1 X142.645 Y106.789 E2.7235
G1 X142.644 Y106.792 E2.7237
G1 X142.632 Y106.915 E2.7311
G1 X142.631 Y106.918 E2.7313
G1 X142.506 Y107.840 E2.7870
G1 X142.506 Y107.844 E2.7872
G1 X142.485 Y107.966 E2.7946
G1 X142.485 Y107.969 E2.7948
G1 X142.305 Y108.882 E2.8505
G1 X142.304 Y108.886 E2.8507
G1 X142.277 Y109.006 E2.8581
G1 X142.276 Y109.009 E2.8583
G1 X142.042 Y109.910 E2.9140
G1 X142.041 Y109.913 E2.9142
G1 X142.006 Y110.032 E2.9216
G1 X142.005 Y110.035 E2.9218
G1 X141.718 Y110.920 E2.9776
G1 X141.716 Y110.924 E2.9778
G1 X141.675 Y111.039 E2.9851
G1 X141.674 Y111.043 E2.9853
G1 X141.334 Y111.909 E3.0411
G1 X141.332 Y111.912 E3.0413
G1 X141.284 Y112.026 E3.0487
G1 X141.282 Y112.029 E3.0489
G1 X140.891 Y112.873 E3.1046
G1 X140.890 Y112.877 E3.1048
G1 X140.835 Y112.987 E3.1122
G1 X140.833 Y112.990 E3.1124
G1 X140.392 Y113.809 E3.1681
G1 X140.390 Y113.812 E3.1683
G1 X140.329 Y113.919 E3.1757
G1 X140.327 Y113.922 E3.1759
G1 X139.838 Y114.714 E3.2316
G1 X139.836 Y114.717 E3.2318
G1 X139.768 Y114.820 E3.2392
G1 X139.766 Y114.823 E3.2394
G1 X139.230 Y115.584 E3.2951
G1 X139.228 Y115.587 E3.2953
G1 X139.154 Y115.685 E3.3027
G1 X139.152 Y115.688 E3.3030
G1 X138.572 Y116.416 E3.3587
G1 X138.569 Y116.418 E3.3589
G1 X138.490 Y116.512 E3.3662
G1 X138.487 Y116.515 E3.3665
G1 X137.865 Y117.207 E3.4222
G1 X137.862 Y117.209 E3.4224
G1 X137.777 Y117.298 E3.4298
G1 X137.775 Y117.301 E3.4300
G1 X137.112 Y117.954 E3.4857
G1 X137.109 Y117.956 E3.4859
G1 X137.019 Y118.040 E3.4933
G1 X137.016 Y118.043 E3.4935
G1 X136.315 Y118.655 E3.5492
G1 X136.313 Y118.657 E3.5494
G1 X136.217 Y118.736 E3.5568
G1 X136.215 Y118.738 E3.5570
G1 X135.479 Y119.307 E3.6127
G1 X135.476 Y119.309 E3.6129
G1 X135.376 Y119.382 E3.6203
G1 X135.373 Y119.384 E3.6205
G1 X134.604 Y119.908 E3.6762
G1 X134.601 Y119.910 E3.6765
G1 X134.497 Y119.976 E3.6838
G1 X134.494 Y119.978 E3.6840
G1 X133.695 Y120.455 E3.7398
G1 X133.692 Y120.457 E3.7400
G1 X133.585 Y120.517 E3.7474
G1 X133.582 Y120.519 E3.7476
G1 X132.756 Y120.947 E3.8033
G1 X132.752 Y120.949 E3.8035
G1 X132.641 Y121.003 E3.8109
G1 X132.638 Y121.004 E3.8111
G1 X131.788 Y121.383 E3.8668
G1 X131.785 Y121.384 E3.8670
G1 X131.671 Y121.431 E3.8744
G1 X131.667 Y121.432 E3.8746
G1 X130.796 Y121.759 E3.9303
G1 X130.793 Y121.760 E3.9305
G1 X130.676 Y121.800 E3.9379
G1 X130.673 Y121.801 E3.9381
G1 X129.784 Y122.075 E3.9938
G1 X129.780 Y122.076 E3.9940
G1 X129.661 Y122.109 E4.0014
G1 X129.658 Y122.110 E4.0016
G1 X128.754 Y122.331 E4.0574
G1 X128.750 Y122.331 E4.0576
G1 X128.630 Y122.357 E4.0649
G1 X128.626 Y122.358 E4.0652
G1 X127.711 Y122.524 E4.1209
G1 X127.707 Y122.525 E4.1211
G1 X127.585 Y122.543 E4.1285
G1 X127.582 Y122.543 E4.1287
G1 X126.658 Y122.654 E4.1844
G1 X126.654 Y122.655 E4.1846
G1 X126.531 Y122.666 E4.1920
G1 X126.528 Y122.666 E4.1922
G1 X125.599 Y122.722 E4.2479
G1 X125.595 Y122.722 E4.2481
G1 X125.472 Y122.726 E4.2555
G1 X125.469 Y122.726 E4.2557
G1 X124.538 Y122.726 E4.3114
G1 X124.534 Y122.726 E4.3116
G1 X124.411 Y122.722 E4.3190
G1 X124.408 Y122.722 E4.3192
G1 X123.479 Y122.666 E4.3749
G1 X123.475 Y122.666 E4.3752
G1 X123.353 Y122.655 E4.3825
G1 X123.349 Y122.654 E4.3827
G1 X122.425 Y122.543 E4.4385
G1 X122.422 Y122.543 E4.4387
G1 X122.300 Y122.525 E4.4460
G1 X122.296 Y122.524 E4.4463
G1 X121.381 Y122.358 E4.5020
G1 X121.377 Y122.357 E4.5022
G1 X121.256 Y122.331 E4.5096
G1 X121.253 Y122.331 E4.5098
G1 X120.349 Y122.110 E4.5655
G1 X120.345 Y122.109 E4.5657
G1 X120.226 Y122.076 E4.5731
G1 X120.223 Y122.075 E4.5733
G1 X119.334 Y121.801 E4.6290
G1 X119.330 Y121.800 E4.6292
G1 X119.214 Y121.760 E4.6366
G1 X119.211 Y121.759 E4.6368
G1 X118.339 Y121.432 E4.6925
G1 X118.336 Y121.431 E4.6927
G1 X118.222 Y121.384 E4.7001
G1 X118.219 Y121.383 E4.7003
G1 X117.369 Y121.004 E4.7560
G1 X117.365 Y121.003 E4.7563
G1 X117.254 Y120.949 E4.7636
G1 X117.251 Y120.947 E4.7639
G1 X116.425 Y120.519 E4.8196
G1 X116.422 Y120.517 E4.8198
G1 X116.314 Y120.457 E4.8272
G1 X116.311 Y120.455 E4.8274
G1 X115.512 Y119.978 E4.8831
G1 X115.509 Y119.976 E4.8833
G1 X115.405 Y119.910 E4.8907
G1 X115.402 Y119.908 E4.8909
G1 X114.634 Y119.384 E4.9466
G1 X114.631 Y119.382 E4.9468
G1 X114.531 Y119.309 E4.9542
G1 X114.528 Y119.307 E4.9544
G1 X113.792 Y118.738 E5.0101
G1 X113.789 Y118.736 E5.0103
G1 X113.694 Y118.657 E5.0177
G1 X113.691 Y118.655 E5.0179
G1 X112.990 Y118.043 E5.0736
G1 X112.988 Y118.040 E5.0739
G1 X112.897 Y117.956 E5.0812
G1 X112.895 Y117.954 E5.0814
G1 X112.232 Y117.301 E5.1372
G1 X112.229 Y117.298 E5.1374
G1 X112.144 Y117.209 E5.1448
G1 X112.142 Y117.207 E5.1450
G1 X111.519 Y116.515 E5.2007
G1 X111.517 Y116.512 E5.2009
G1 X111.437 Y116.418 E5.2083
G1 X111.435 Y116.416 E5.2085
G1 X110.855 Y115.688 E5.2642
G1 X110.852 Y115.685 E5.2644
G1 X110.778 Y115.586 E5.2718
G1 X110.776 Y115.583 E5.2720
G1 X110.238 Y114.818 E5.3281
G1 X110.236 Y114.815 E5.3283
G1 X110.168 Y114.712 E5.3356
G1 X110.166 Y114.709 E5.3359
G1 X109.680 Y113.922 E5.3913
G1 X109.678 Y113.919 E5.3915
G1 X109.616 Y113.812 E5.3988
G1 X109.615 Y113.809 E5.3990
G1 X109.174 Y112.990 E5.4547
G1 X109.172 Y112.987 E5.4550
G1 X109.117 Y112.877 E5.4623
G1 X109.115 Y112.873 E5.4625
G1 X108.724 Y112.029 E5.5183
G1 X108.723 Y112.026 E5.5185
G1 X108.674 Y111.912 E5.5259
G1 X108.673 Y111.909 E5.5261
G1 X108.333 Y111.043 E5.5818
G1 X108.332 Y111.039 E5.5820
G1 X108.290 Y110.924 E5.5894
G1 X108.289 Y110.920 E5.5896
G1 X108.001 Y110.035 E5.6453
G1 X108.000 Y110.032 E5.6455
G1 X107.966 Y109.913 E5.6529
G1 X107.965 Y109.910 E5.6531
