; G-Code generated by Simplify3D(R) Version 3.1.1
; Jul 5, 2017 at 10:17:19 PM
; Settings Summary
;   processName,Process1
;   applyToModels,Wheel_Tyre_55mm,Wheel_Tyre_55mm(2)
;   profileName,Prusa Research Original Prusa i3 MK2 (modified)
;   profileVersion,2017-06-30 16:32:30
;   baseProfile,
;   printMaterial,PLA
;   printQuality,Medium
;   printExtruders,
;   extruderName,Primary Extruder
;   extruderToolheadNumber,0
;   extruderDiameter,0.4
;   extruderAutoWidth,1
;   extruderWidth,0.48
;   extrusionMultiplier,1
;   extruderUseRetract,1
;   extruderRetractionDistance,1.5
;   extruderExtraRestartDistance,0
;   extruderRetractionZLift,0
;   extruderRetractionSpeed,1800
;   extruderUseCoasting,1
;   extruderCoastingDistance,0.2
;   extruderUseWipe,1
;   extruderWipeDistance,2
;   primaryExtruder,0
;   layerHeight,0.2
;   topSolidLayers,3
;   bottomSolidLayers,3
;   perimeterOutlines,3
;   printPerimetersInsideOut,1
;   startPointOption,2
;   startPointOriginX,0
;   startPointOriginY,0
;   startPointOriginZ,0
;   sequentialIslands,0
;   spiralVaseMode,0
;   firstLayerHeightPercentage,150
;   firstLayerWidthPercentage,100
;   firstLayerUnderspeed,0.5
;   useRaft,0
;   raftExtruder,0
;   raftLayers,3
;   raftOffset,3
;   raftSeparationDistance,0.14
;   raftInfill,85
;   disableRaftBaseLayers,0
;   useSkirt,1
;   skirtExtruder,0
;   skirtLayers,1
;   skirtOutlines,1
;   skirtOffset,4
;   usePrimePillar,0
;   primePillarExtruder,999
;   primePillarWidth,12
;   primePillarLocation,7
;   primePillarSpeedMultiplier,1
;   useOozeShield,0
;   oozeShieldExtruder,999
;   oozeShieldOffset,2
;   oozeShieldOutlines,1
;   oozeShieldSidewallShape,1
;   oozeShieldSidewallAngle,30
;   oozeShieldSpeedMultiplier,1
;   infillExtruder,0
;   internalInfillPattern,Rectilinear
;   externalInfillPattern,Concentric
;   infillPercentage,100
;   outlineOverlapPercentage,20
;   infillExtrusionWidthPercentage,100
;   minInfillLength,5
;   infillLayerInterval,1
;   infillAngles,45,-45
;   overlapInfillAngles,0
;   generateSupport,0
;   supportExtruder,0
;   supportInfillPercentage,30
;   supportExtraInflation,0
;   denseSupportLayers,0
;   denseSupportInfillPercentage,70
;   supportLayerInterval,1
;   supportHorizontalPartOffset,0.3
;   supportUpperSeparationLayers,1
;   supportLowerSeparationLayers,1
;   supportType,0
;   supportGridSpacing,4
;   maxOverhangAngle,45
;   supportAngles,0
;   temperatureName,Primary Extruder,Heated Bed
;   temperatureNumber,0,0
;   temperatureSetpointCount,1,1
;   temperatureSetpointLayers,1,1
;   temperatureSetpointTemperatures,200,60
;   temperatureStabilizeAtStartup,1,1
;   temperatureHeatedBed,0,1
;   temperatureRelayBetweenLayers,0,0
;   temperatureRelayBetweenLoops,0,0
;   fanLayers,1,2
;   fanSpeeds,0,100
;   blipFanToFullPower,0
;   adjustSpeedForCooling,1
;   minSpeedLayerTime,15
;   minCoolingSpeedSlowdown,20
;   increaseFanForCooling,0
;   minFanLayerTime,45
;   maxCoolingFanSpeed,100
;   increaseFanForBridging,0
;   bridgingFanSpeed,100
;   use5D,1
;   relativeEdistances,0
;   allowEaxisZeroing,1
;   independentExtruderAxes,0
;   includeM10123,0
;   stickySupport,1
;   applyToolheadOffsets,0
;   gcodeXoffset,0
;   gcodeYoffset,0
;   gcodeZoffset,0
;   overrideMachineDefinition,1
;   machineTypeOverride,0
;   strokeXoverride,250
;   strokeYoverride,210
;   strokeZoverride,200
;   originOffsetXoverride,0
;   originOffsetYoverride,0
;   originOffsetZoverride,0
;   homeXdirOverride,-1
;   homeYdirOverride,-1
;   homeZdirOverride,-1
;   flipXoverride,1
;   flipYoverride,-1
;   flipZoverride,1
;   toolheadOffsets,0,0|0,0|0,0|0,0|0,0|0,0
;   overrideFirmwareConfiguration,1
;   firmwareTypeOverride,RepRap (Marlin/Repetier/Sprinter)
;   GPXconfigOverride,r2
;   baudRateOverride,250000
;   overridePrinterModels,1
;   printerModelsOverride
;   startingGcode,M115 U3.0.7 ; use the latest firmware version,G28 W ; home all axes without mesh bed leveling,G80 ; run mesh bed leveling routine,G1 Y-3.0 F1000.0 ; prepare to prime,G92 E0 ; reset extrusion distance,G1 X60.0 E9.0  F1000.0 ; priming,G1 X100.0 E12.5  F1000.0 ; priming
;   layerChangeGcode,
;   retractionGcode,
;   toolChangeGcode,
;   endingGcode,M106 S0 ; turn off cooling fan,M104 S0 ; turn off extruder,M140 S0 ; turn off bed,G1 X0 Y200 ; part removal,M84 ; disable motors
;   exportFileFormat,gcode
;   celebration,0
;   celebrationSong,Random Song
;   postProcessing,
;   defaultSpeed,2400
;   outlineUnderspeed,0.8
;   solidInfillUnderspeed,0.8
;   supportUnderspeed,0.8
;   rapidXYspeed,4800
;   rapidZspeed,1000
;   minBridgingArea,50
;   bridgingExtraInflation,0
;   bridgingExtrusionMultiplier,1
;   bridgingSpeedMultiplier,1
;   filamentDiameter,1.75
;   filamentPricePerKg,46
;   filamentDensity,1.25
;   useMinPrintHeight,0
;   minPrintHeight,0
;   useMaxPrintHeight,0
;   maxPrintHeight,0
;   useDiaphragm,0
;   diaphragmLayerInterval,20
;   robustSlicing,1
;   mergeAllIntoSolid,0
;   onlyRetractWhenCrossingOutline,1
;   retractBetweenLayers,1
;   useRetractionMinTravel,0
;   retractionMinTravel,3
;   retractWhileWiping,1
;   onlyWipeOutlines,1
;   avoidCrossingOutline,0
;   maxMovementDetourFactor,3
;   toolChangeRetractionDistance,12
;   toolChangeExtraRestartDistance,-0.5
;   toolChangeRetractionSpeed,600
;   allowThinWallGapFill,1
;   thinWallAllowedOverlapPercentage,25
;   horizontalSizeCompensation,0
G90
M82
M106 S0
M140 S60
M190 S60
M104 S200 T0
M109 S200 T0
M115 U3.0.7 ; use the latest firmware version
G28 W ; home all axes without mesh bed leveling
G80 ; run mesh bed leveling routine
G1 Y-3.0 F1000.0 ; prepare to prime
G92 E0 ; reset extrusion distance
G1 X60.0 E9.0  F1000.0 ; priming
G1 X100.0 E12.5  F1000.0 ; priming
G92 E0
G1 E-1.5000 F1800
G1 Z0.300 F1000
; layer 1, Z = 0.3
T0
; tool H0.300 W0.480
; skirt
G1 X102.713 Y87.053 F4800
G1 E0.0000 F540
G92 E0
G1 X102.715 Y87.050 E0.0002 F1200
G1 X103.741 Y85.846 E0.0949
G1 X103.743 Y85.843 E0.0951
G1 X103.826 Y85.752 E0.1025
G1 X103.829 Y85.749 E0.1027
G1 X104.925 Y84.608 E0.1974
G1 X104.927 Y84.606 E0.1977
G1 X105.015 Y84.519 E0.2050
G1 X105.018 Y84.517 E0.2053
G1 X106.180 Y83.444 E0.3000
G1 X106.183 Y83.442 E0.3002
G1 X106.276 Y83.361 E0.3076
G1 X106.279 Y83.358 E0.3078
G1 X107.503 Y82.357 E0.4025
G1 X107.506 Y82.354 E0.4027
G1 X107.604 Y82.279 E0.4101
G1 X107.607 Y82.277 E0.4103
G1 X108.889 Y81.351 E0.5050
G1 X108.892 Y81.349 E0.5052
G1 X108.994 Y81.279 E0.5126
G1 X108.997 Y81.277 E0.5128
G1 X110.332 Y80.429 E0.6075
G1 X110.335 Y80.427 E0.6077
G1 X110.441 Y80.364 E0.6151
G1 X110.444 Y80.362 E0.6153
G1 X111.828 Y79.596 E0.7100
G1 X111.831 Y79.594 E0.7102
G1 X111.940 Y79.537 E0.7176
G1 X111.944 Y79.536 E0.7178
G1 X113.371 Y78.853 E0.8126
G1 X113.374 Y78.851 E0.8128
G1 X113.487 Y78.802 E0.8201
G1 X113.490 Y78.800 E0.8204
G1 X114.955 Y78.204 E0.9151
G1 X114.959 Y78.203 E0.9153
G1 X115.074 Y78.160 E0.9227
G1 X115.077 Y78.158 E0.9229
G1 X116.576 Y77.651 E1.0176
G1 X116.579 Y77.650 E1.0178
G1 X116.697 Y77.614 E1.0252
G1 X116.701 Y77.613 E1.0254
G1 X118.227 Y77.196 E1.1201
G1 X118.230 Y77.195 E1.1203
G1 X118.350 Y77.166 E1.1277
G1 X118.353 Y77.165 E1.1279
G1 X119.902 Y76.840 E1.2226
G1 X119.905 Y76.839 E1.2228
G1 X120.026 Y76.818 E1.2302
G1 X120.030 Y76.817 E1.2304
G1 X121.595 Y76.585 E1.3251
G1 X121.598 Y76.585 E1.3254
G1 X121.721 Y76.570 E1.3327
G1 X121.724 Y76.570 E1.3330
G1 X123.300 Y76.432 E1.4277
G1 X123.304 Y76.432 E1.4279
G1 X123.427 Y76.425 E1.4353
G1 X123.431 Y76.425 E1.4355
G1 X125.012 Y76.381 E1.5302
G1 X125.015 Y76.381 E1.5304
G1 X125.139 Y76.382 E1.5378
G1 X125.142 Y76.382 E1.5380
G1 X126.723 Y76.433 E1.6327
G1 X126.727 Y76.433 E1.6329
G1 X126.850 Y76.441 E1.6403
G1 X126.854 Y76.441 E1.6405
G1 X128.429 Y76.587 E1.7352
G1 X128.432 Y76.587 E1.7354
G1 X128.555 Y76.602 E1.7428
G1 X128.558 Y76.603 E1.7430
G1 X130.122 Y76.843 E1.8377
G1 X130.126 Y76.843 E1.8379
G1 X130.247 Y76.865 E1.8453
G1 X130.250 Y76.866 E1.8455
G1 X131.797 Y77.199 E1.9402
G1 X131.800 Y77.200 E1.9405
G1 X131.920 Y77.229 E1.9478
G1 X131.923 Y77.230 E1.9481
G1 X133.447 Y77.655 E2.0428
G1 X133.451 Y77.656 E2.0430
G1 X133.569 Y77.693 E2.0504
G1 X133.572 Y77.694 E2.0506
G1 X135.068 Y78.209 E2.1453
G1 X135.071 Y78.210 E2.1455
G1 X135.186 Y78.254 E2.1529
G1 X135.190 Y78.255 E2.1531
G1 X136.652 Y78.858 E2.2478
G1 X136.655 Y78.860 E2.2480
G1 X136.768 Y78.910 E2.2554
G1 X136.771 Y78.912 E2.2556
G1 X138.195 Y79.602 E2.3503
G1 X138.198 Y79.603 E2.3505
G1 X138.307 Y79.660 E2.3579
G1 X138.310 Y79.662 E2.3581
G1 X139.690 Y80.436 E2.4528
G1 X139.693 Y80.438 E2.4531
G1 X139.799 Y80.501 E2.4604
G1 X139.802 Y80.503 E2.4606
G1 X141.133 Y81.358 E2.5554
G1 X141.136 Y81.360 E2.5556
G1 X141.237 Y81.430 E2.5630
G1 X141.240 Y81.432 E2.5632
G1 X142.518 Y82.365 E2.6579
G1 X142.521 Y82.367 E2.6581
G1 X142.618 Y82.443 E2.6655
G1 X142.621 Y82.445 E2.6657
G1 X143.840 Y83.453 E2.7604
G1 X143.843 Y83.455 E2.7606
G1 X143.936 Y83.537 E2.7680
G1 X143.938 Y83.539 E2.7682
G1 X145.095 Y84.618 E2.8629
G1 X145.098 Y84.620 E2.8631
G1 X145.185 Y84.707 E2.8705
G1 X145.188 Y84.710 E2.8707
G1 X146.278 Y85.856 E2.9654
G1 X146.281 Y85.858 E2.9656
G1 X146.363 Y85.950 E2.9730
G1 X146.365 Y85.953 E2.9732
G1 X147.385 Y87.162 E3.0679
G1 X147.387 Y87.165 E3.0682
G1 X147.464 Y87.262 E3.0755
G1 X147.466 Y87.264 E3.0758
G1 X148.412 Y88.533 E3.1705
G1 X148.414 Y88.536 E3.1707
G1 X148.485 Y88.636 E3.1781
G1 X148.487 Y88.639 E3.1783
G1 X149.355 Y89.962 E3.2730
G1 X149.357 Y89.965 E3.2732
G1 X149.421 Y90.070 E3.2806
G1 X149.423 Y90.073 E3.2808
G1 X150.211 Y91.445 E3.3755
G1 X150.212 Y91.448 E3.3757
G1 X150.271 Y91.557 E3.3831
G1 X150.272 Y91.560 E3.3833
G1 X150.976 Y92.977 E3.4780
G1 X150.978 Y92.980 E3.4782
G1 X151.029 Y93.092 E3.4856
G1 X151.031 Y93.095 E3.4858
G1 X151.649 Y94.551 E3.5805
G1 X151.650 Y94.555 E3.5808
G1 X151.695 Y94.670 E3.5881
G1 X151.696 Y94.673 E3.5883
G1 X152.226 Y96.164 E3.6831
G1 X152.227 Y96.167 E3.6833
G1 X152.265 Y96.284 E3.6907
G1 X152.266 Y96.288 E3.6909
G1 X152.706 Y97.807 E3.7856
G1 X152.707 Y97.811 E3.7858
G1 X152.738 Y97.930 E3.7932
G1 X152.738 Y97.934 E3.7934
G1 X153.087 Y99.477 E3.8881
G1 X153.087 Y99.480 E3.8883
G1 X153.111 Y99.601 E3.8957
G1 X153.111 Y99.605 E3.8959
G1 X153.367 Y101.166 E3.9906
G1 X153.367 Y101.170 E3.9908
G1 X153.383 Y101.292 E3.9982
G1 X153.384 Y101.295 E3.9984
G1 X153.545 Y102.869 E4.0931
G1 X153.546 Y102.873 E4.0933
G1 X153.554 Y102.995 E4.1007
G1 X153.555 Y102.999 E4.1009
G1 X153.622 Y104.580 E4.1956
G1 X153.622 Y104.583 E4.1959
G1 X153.623 Y104.707 E4.2032
G1 X153.623 Y104.710 E4.2035
G1 X153.596 Y106.292 E4.2982
G1 X153.596 Y106.295 E4.2984
G1 X153.590 Y106.419 E4.3058
G1 X153.589 Y106.422 E4.3060
G1 X153.467 Y107.999 E4.4007
G1 X153.467 Y108.003 E4.4009
G1 X153.454 Y108.125 E4.4083
G1 X153.453 Y108.129 E4.4085
G1 X153.237 Y109.696 E4.5032
G1 X153.236 Y109.700 E4.5034
G1 X153.216 Y109.821 E4.5108
G1 X153.215 Y109.825 E4.5110
G1 X152.906 Y111.376 E4.6057
G1 X152.905 Y111.380 E4.6059
G1 X152.877 Y111.500 E4.6133
G1 X152.876 Y111.503 E4.6135
G1 X152.474 Y113.033 E4.7082
G1 X152.474 Y113.037 E4.7085
G1 X152.439 Y113.155 E4.7158
G1 X152.438 Y113.158 E4.7160
G1 X151.945 Y114.662 E4.8108
G1 X151.944 Y114.665 E4.8110
G1 X151.902 Y114.781 E4.8183
G1 X151.901 Y114.784 E4.8186
G1 X151.319 Y116.255 E4.9133
G1 X151.318 Y116.259 E4.9135
G1 X151.269 Y116.372 E4.9209
G1 X151.267 Y116.375 E4.9211
G1 X150.599 Y117.809 E5.0158
G1 X150.597 Y117.812 E5.0160
G1 X150.542 Y117.922 E5.0234
G1 X150.540 Y117.926 E5.0236
G1 X149.787 Y119.317 E5.1183
G1 X149.785 Y119.320 E5.1185
G1 X149.723 Y119.426 E5.1259
G1 X149.722 Y119.430 E5.1261
G1 X148.887 Y120.773 E5.2208
G1 X148.885 Y120.776 E5.2210
G1 X148.816 Y120.879 E5.2284
G1 X148.814 Y120.882 E5.2286
G1 X147.901 Y122.173 E5.3233
G1 X147.898 Y122.176 E5.3236
G1 X147.824 Y122.274 E5.3309
G1 X147.822 Y122.277 E5.3312
G1 X146.833 Y123.512 E5.4259
G1 X146.830 Y123.514 E5.4261
G1 X146.750 Y123.608 E5.4335
G1 X146.748 Y123.611 E5.4337
G1 X145.687 Y124.784 E5.5284
G1 X145.684 Y124.786 E5.5286
G1 X145.599 Y124.875 E5.5360
G1 X145.596 Y124.878 E5.5362
G1 X144.466 Y125.985 E5.6309
G1 X144.464 Y125.988 E5.6311
G1 X144.373 Y126.071 E5.6385
G1 X144.371 Y126.074 E5.6387
G1 X143.177 Y127.112 E5.7334
G1 X143.174 Y127.114 E5.7336
G1 X143.078 Y127.192 E5.7410
G1 X143.076 Y127.194 E5.7412
G1 X141.822 Y128.159 E5.8359
G1 X141.819 Y128.161 E5.8361
G1 X141.719 Y128.233 E5.8435
G1 X141.716 Y128.235 E5.8437
G1 X140.407 Y129.123 E5.9385
G1 X140.404 Y129.125 E5.9387
G1 X140.300 Y129.191 E5.9460
G1 X140.297 Y129.193 E5.9463
G1 X138.937 Y130.001 E6.0410
G1 X138.934 Y130.003 E6.0412
G1 X138.826 Y130.062 E6.0486
G1 X138.823 Y130.064 E6.0488
G1 X137.417 Y130.789 E6.1435
G1 X137.413 Y130.791 E6.1437
G1 X137.302 Y130.844 E6.1511
G1 X137.299 Y130.846 E6.1513
G1 X135.852 Y131.485 E6.2460
G1 X135.849 Y131.487 E6.2462
G1 X135.735 Y131.533 E6.2536
G1 X135.731 Y131.535 E6.2538
G1 X134.249 Y132.087 E6.3485
G1 X134.245 Y132.088 E6.3487
G1 X134.129 Y132.127 E6.3561
G1 X134.125 Y132.129 E6.3563
G1 X132.612 Y132.591 E6.4510
G1 X132.609 Y132.592 E6.4513
G1 X132.490 Y132.625 E6.4586
G1 X132.487 Y132.625 E6.4589
G1 X130.949 Y132.997 E6.5536
G1 X130.945 Y132.997 E6.5538
G1 X130.825 Y133.023 E6.5612
G1 X130.821 Y133.023 E6.5614
G1 X129.264 Y133.302 E6.6561
G1 X129.260 Y133.302 E6.6563
G1 X129.138 Y133.321 E6.6637
G1 X129.135 Y133.321 E6.6639
G1 X127.564 Y133.506 E6.7586
G1 X127.560 Y133.506 E6.7588
G1 X127.437 Y133.517 E6.7662
G1 X127.434 Y133.517 E6.7664
G1 X125.855 Y133.608 E6.8611
G1 X125.851 Y133.608 E6.8613
G1 X125.728 Y133.611 E6.8687
G1 X125.724 Y133.612 E6.8689
G1 X124.142 Y133.608 E6.9636
G1 X124.139 Y133.607 E6.9638
G1 X124.015 Y133.604 E6.9712
G1 X124.012 Y133.603 E6.9714
G1 X122.433 Y133.505 E7.0661
G1 X122.429 Y133.504 E7.0664
G1 X122.307 Y133.493 E7.0737
G1 X122.303 Y133.493 E7.0740
G1 X120.733 Y133.300 E7.1687
G1 X120.729 Y133.299 E7.1689
G1 X120.607 Y133.281 E7.1763
G1 X120.604 Y133.280 E7.1765
G1 X119.048 Y132.994 E7.2712
G1 X119.045 Y132.993 E7.2714
G1 X118.924 Y132.967 E7.2788
G1 X118.921 Y132.966 E7.2790
G1 X117.385 Y132.587 E7.3737
G1 X117.381 Y132.586 E7.3739
G1 X117.262 Y132.553 E7.3813
G1 X117.259 Y132.552 E7.3815
G1 X115.749 Y132.082 E7.4762
G1 X115.745 Y132.081 E7.4764
G1 X115.629 Y132.041 E7.4838
G1 X115.625 Y132.040 E7.4840
G1 X114.146 Y131.480 E7.5787
G1 X114.142 Y131.479 E7.5789
G1 X114.028 Y131.432 E7.5863
G1 X114.025 Y131.430 E7.5865
G1 X112.581 Y130.783 E7.6813
G1 X112.578 Y130.782 E7.6815
G1 X112.467 Y130.728 E7.6888
G1 X112.464 Y130.727 E7.6891
G1 X111.062 Y129.994 E7.7838
G1 X111.059 Y129.993 E7.7840
G1 X110.951 Y129.932 E7.7914
G1 X110.948 Y129.930 E7.7916
G1 X109.592 Y129.116 E7.8863
G1 X109.589 Y129.114 E7.8865
G1 X109.485 Y129.047 E7.8939
G1 X109.482 Y129.045 E7.8941
G1 X108.177 Y128.151 E7.9888
G1 X108.175 Y128.149 E7.9890
G1 X108.075 Y128.076 E7.9964
G1 X108.072 Y128.074 E7.9966
G1 X106.823 Y127.103 E8.0913
G1 X106.820 Y127.101 E8.0915
G1 X106.725 Y127.022 E8.0989
G1 X106.723 Y127.020 E8.0991
G1 X105.534 Y125.976 E8.1938
G1 X105.531 Y125.974 E8.1941
G1 X105.441 Y125.890 E8.2014
G1 X105.438 Y125.887 E8.2017
G1 X104.314 Y124.774 E8.2964
G1 X104.312 Y124.771 E8.2966
G1 X104.227 Y124.682 E8.3040
G1 X104.224 Y124.680 E8.3042
G1 X103.169 Y123.501 E8.3989
G1 X103.167 Y123.499 E8.3991
G1 X103.087 Y123.404 E8.4065
G1 X103.085 Y123.402 E8.4067
G1 X102.101 Y122.162 E8.5014
G1 X102.099 Y122.159 E8.5016
G1 X102.025 Y122.060 E8.5090
G1 X102.023 Y122.057 E8.5092
G1 X101.111 Y120.753 E8.6045
G1 X101.109 Y120.750 E8.6047
G1 X101.041 Y120.647 E8.6121
G1 X101.039 Y120.644 E8.6123
G1 X100.216 Y119.304 E8.7065
G1 X100.214 Y119.301 E8.7067
G1 X100.153 Y119.195 E8.7140
G1 X100.151 Y119.192 E8.7143
G1 X99.405 Y117.797 E8.8089
G1 X99.404 Y117.794 E8.8092
G1 X99.349 Y117.683 E8.8165
G1 X99.347 Y117.680 E8.8168
G1 X98.686 Y116.243 E8.9115
G1 X98.684 Y116.240 E8.9117
G1 X98.636 Y116.126 E8.9191
G1 X98.635 Y116.123 E8.9193
G1 X98.061 Y114.649 E9.0140
G1 X98.059 Y114.646 E9.0142
G1 X98.018 Y114.529 E9.0216
G1 X98.017 Y114.526 E9.0218
G1 X97.532 Y113.020 E9.1165
G1 X97.531 Y113.017 E9.1167
G1 X97.497 Y112.898 E9.1241
