; G-Code generated by Simplify3D(R) Version 3.1.1
; Jul 5, 2017 at 10:28:21 PM
; Settings Summary
;   processName,Process1
;   applyToModels,Wheel_Hub_25mm
;   profileName,Prusa Research Original Prusa i3 MK2 (modified)
;   profileVersion,2017-06-30 16:32:30
;   baseProfile,
;   printMaterial,PLA
;   printQuality,Medium
;   printExtruders,
;   extruderName,Primary Extruder
;   extruderToolheadNumber,0
;   extruderDiameter,0.4
;   extruderAutoWidth,1
;   extruderWidth,0.48
;   extrusionMultiplier,1
;   extruderUseRetract,1
;   extruderRetractionDistance,1.5
;   extruderExtraRestartDistance,0
;   extruderRetractionZLift,0
;   extruderRetractionSpeed,1800
;   extruderUseCoasting,1
;   extruderCoastingDistance,0.2
;   extruderUseWipe,1
;   extruderWipeDistance,2
;   primaryExtruder,0
;   layerHeight,0.2
;   topSolidLayers,2
;   bottomSolidLayers,2
;   perimeterOutlines,2
;   printPerimetersInsideOut,1
;   startPointOption,2
;   startPointOriginX,0
;   startPointOriginY,0
;   startPointOriginZ,0
;   sequentialIslands,0
;   spiralVaseMode,0
;   firstLayerHeightPercentage,150
;   firstLayerWidthPercentage,100
;   firstLayerUnderspeed,0.5
;   useRaft,0
;   raftExtruder,0
;   raftLayers,3
;   raftOffset,3
;   raftSeparationDistance,0.14
;   raftInfill,85
;   disableRaftBaseLayers,0
;   useSkirt,1
;   skirtExtruder,0
;   skirtLayers,1
;   skirtOutlines,1
;   skirtOffset,4
;   usePrimePillar,0
;   primePillarExtruder,999
;   primePillarWidth,12
;   primePillarLocation,7
;   primePillarSpeedMultiplier,1
;   useOozeShield,0
;   oozeShieldExtruder,999
;   oozeShieldOffset,2
;   oozeShieldOutlines,1
;   oozeShieldSidewallShape,1
;   oozeShieldSidewallAngle,30
;   oozeShieldSpeedMultiplier,1
;   infillExtruder,0
;   internalInfillPattern,Rectilinear
;   externalInfillPattern,Concentric
;   infillPercentage,15
;   outlineOverlapPercentage,20
;   infillExtrusionWidthPercentage,100
;   minInfillLength,5
;   infillLayerInterval,1
;   infillAngles,45,-45
;   overlapInfillAngles,0
;   generateSupport,1
;   supportExtruder,0
;   supportInfillPercentage,30
;   supportExtraInflation,0
;   denseSupportLayers,0
;   denseSupportInfillPercentage,70
;   supportLayerInterval,1
;   supportHorizontalPartOffset,0.3
;   supportUpperSeparationLayers,1
;   supportLowerSeparationLayers,1
;   supportType,0
;   supportGridSpacing,4
;   maxOverhangAngle,45
;   supportAngles,0
;   temperatureName,Primary Extruder,Heated Bed
;   temperatureNumber,0,0
;   temperatureSetpointCount,1,1
;   temperatureSetpointLayers,1,1
;   temperatureSetpointTemperatures,200,60
;   temperatureStabilizeAtStartup,1,1
;   temperatureHeatedBed,0,1
;   temperatureRelayBetweenLayers,0,0
;   temperatureRelayBetweenLoops,0,0
;   fanLayers,1,2
;   fanSpeeds,0,100
;   blipFanToFullPower,0
;   adjustSpeedForCooling,1
;   minSpeedLayerTime,15
;   minCoolingSpeedSlowdown,20
;   increaseFanForCooling,0
;   minFanLayerTime,45
;   maxCoolingFanSpeed,100
;   increaseFanForBridging,0
;   bridgingFanSpeed,100
;   use5D,1
;   relativeEdistances,0
;   allowEaxisZeroing,1
;   independentExtruderAxes,0
;   includeM10123,0
;   stickySupport,1
;   applyToolheadOffsets,0
;   gcodeXoffset,0
;   gcodeYoffset,0
;   gcodeZoffset,0
;   overrideMachineDefinition,1
;   machineTypeOverride,0
;   strokeXoverride,250
;   strokeYoverride,210
;   strokeZoverride,200
;   originOffsetXoverride,0
;   originOffsetYoverride,0
;   originOffsetZoverride,0
;   homeXdirOverride,-1
;   homeYdirOverride,-1
;   homeZdirOverride,-1
;   flipXoverride,1
;   flipYoverride,-1
;   flipZoverride,1
;   toolheadOffsets,0,0|0,0|0,0|0,0|0,0|0,0
;   overrideFirmwareConfiguration,1
;   firmwareTypeOverride,RepRap (Marlin/Repetier/Sprinter)
;   GPXconfigOverride,r2
;   baudRateOverride,250000
;   overridePrinterModels,1
;   printerModelsOverride
;   startingGcode,M115 U3.0.7 ; use the latest firmware version,G28 W ; home all axes without mesh bed leveling,G80 ; run mesh bed leveling routine,G1 Y-3.0 F1000.0 ; prepare to prime,G92 E0 ; reset extrusion distance,G1 X60.0 E9.0  F1000.0 ; priming,G1 X100.0 E12.5  F1000.0 ; priming
;   layerChangeGcode,
;   retractionGcode,
;   toolChangeGcode,
;   endingGcode,M106 S0 ; turn off cooling fan,M104 S0 ; turn off extruder,M140 S0 ; turn off bed,G1 X0 Y200 ; part removal,M84 ; disable motors
;   exportFileFormat,gcode
;   celebration,0
;   celebrationSong,Random Song
;   postProcessing,
;   defaultSpeed,2400
;   outlineUnderspeed,0.8
;   solidInfillUnderspeed,0.8
;   supportUnderspeed,0.8
;   rapidXYspeed,4800
;   rapidZspeed,1000
;   minBridgingArea,50
;   bridgingExtraInflation,0
;   bridgingExtrusionMultiplier,1
;   bridgingSpeedMultiplier,1
;   filamentDiameter,1.75
;   filamentPricePerKg,46
;   filamentDensity,1.25
;   useMinPrintHeight,0
;   minPrintHeight,0
;   useMaxPrintHeight,0
;   maxPrintHeight,0
;   useDiaphragm,0
;   diaphragmLayerInterval,20
;   robustSlicing,1
;   mergeAllIntoSolid,0
;   onlyRetractWhenCrossingOutline,1
;   retractBetweenLayers,1
;   useRetractionMinTravel,0
;   retractionMinTravel,3
;   retractWhileWiping,1
;   onlyWipeOutlines,1
;   avoidCrossingOutline,0
;   maxMovementDetourFactor,3
;   toolChangeRetractionDistance,12
;   toolChangeExtraRestartDistance,-0.5
;   toolChangeRetractionSpeed,600
;   allowThinWallGapFill,1
;   thinWallAllowedOverlapPercentage,25
;   horizontalSizeCompensation,0
G90
M82
M106 S0
M140 S60
M190 S60
M104 S200 T0
M109 S200 T0
M115 U3.0.7 ; use the latest firmware version
G28 W ; home all axes without mesh bed leveling
G80 ; run mesh bed leveling routine
G1 Y-3.0 F1000.0 ; prepare to prime
G92 E0 ; reset extrusion distance
G1 X60.0 E9.0  F1000.0 ; priming
G1 X100.0 E12.5  F1000.0 ; priming
G92 E0
G1 E-1.5000 F1800
G1 Z0.300 F1000
; layer 1, Z = 0.3
T0
; tool H0.300 W0.480
; skirt
G1 X116.634 Y98.332 F4800
G1 E0.0000 F540
G92 E0
G1 X116.637 Y98.328 E0.0003 F706
G1 X117.288 Y97.584 E0.0595
G1 X117.292 Y97.579 E0.0599
G1 X117.466 Y97.403 E0.0747
G1 X117.471 Y97.398 E0.0751
G1 X118.228 Y96.716 E0.1361
G1 X118.234 Y96.711 E0.1366
G1 X118.426 Y96.558 E0.1513
G1 X118.432 Y96.553 E0.1518
G1 X119.266 Y95.967 E0.2128
G1 X119.272 Y95.963 E0.2132
G1 X119.482 Y95.833 E0.2280
G1 X119.488 Y95.829 E0.2284
G1 X120.358 Y95.361 E0.2876
G1 X120.363 Y95.358 E0.2879
G1 X120.530 Y95.278 E0.2990
G1 X120.534 Y95.276 E0.2993
G1 X121.060 Y95.051 E0.3335
G1 X121.065 Y95.049 E0.3338
G1 X121.238 Y94.984 E0.3449
G1 X121.243 Y94.983 E0.3452
G1 X122.154 Y94.687 E0.4026
G1 X122.159 Y94.685 E0.4029
G1 X122.337 Y94.636 E0.4140
G1 X122.343 Y94.635 E0.4143
G1 X122.870 Y94.514 E0.4467
G1 X122.873 Y94.514 E0.4469
G1 X122.994 Y94.490 E0.4542
G1 X122.998 Y94.489 E0.4545
G1 X123.531 Y94.401 E0.4868
G1 X123.536 Y94.400 E0.4871
G1 X123.720 Y94.378 E0.4982
G1 X123.725 Y94.377 E0.4985
G1 X124.680 Y94.306 E0.5559
G1 X124.686 Y94.305 E0.5562
G1 X124.870 Y94.300 E0.5673
G1 X124.876 Y94.300 E0.5676
G1 X125.447 Y94.308 E0.6018
G1 X125.453 Y94.309 E0.6021
G1 X125.637 Y94.320 E0.6132
G1 X125.643 Y94.320 E0.6135
G1 X126.626 Y94.423 E0.6727
G1 X126.633 Y94.424 E0.6731
G1 X126.876 Y94.465 E0.6879
G1 X126.883 Y94.466 E0.6883
G1 X127.847 Y94.686 E0.7475
G1 X127.852 Y94.687 E0.7478
G1 X128.030 Y94.737 E0.7589
G1 X128.035 Y94.738 E0.7592
G1 X128.579 Y94.915 E0.7934
G1 X128.584 Y94.917 E0.7937
G1 X128.757 Y94.981 E0.8048
G1 X128.762 Y94.984 E0.8051
G1 X129.671 Y95.372 E0.8643
G1 X129.677 Y95.375 E0.8647
G1 X129.898 Y95.485 E0.8795
G1 X129.904 Y95.489 E0.8799
G1 X130.760 Y95.983 E0.9391
G1 X130.765 Y95.986 E0.9394
G1 X130.921 Y96.085 E0.9505
G1 X130.925 Y96.088 E0.9508
G1 X131.393 Y96.417 E0.9850
G1 X131.397 Y96.420 E0.9854
G1 X131.543 Y96.534 E0.9964
G1 X131.547 Y96.537 E0.9968
G1 X132.278 Y97.156 E1.0541
G1 X132.282 Y97.160 E1.0544
G1 X132.417 Y97.286 E1.0655
G1 X132.421 Y97.289 E1.0658
G1 X132.822 Y97.696 E1.1000
G1 X132.826 Y97.700 E1.1003
G1 X132.950 Y97.838 E1.1114
G1 X132.953 Y97.842 E1.1117
G1 X133.561 Y98.581 E1.1691
G1 X133.565 Y98.586 E1.1694
G1 X133.676 Y98.734 E1.1805
G1 X133.679 Y98.738 E1.1808
G1 X133.983 Y99.185 E1.2131
G1 X133.985 Y99.188 E1.2134
G1 X134.052 Y99.292 E1.2207
G1 X134.054 Y99.295 E1.2210
G1 X134.331 Y99.759 E1.2533
G1 X134.334 Y99.763 E1.2536
G1 X134.421 Y99.926 E1.2647
G1 X134.424 Y99.931 E1.2650
G1 X134.839 Y100.794 E1.3224
G1 X134.841 Y100.799 E1.3227
G1 X134.914 Y100.969 E1.3338
G1 X134.916 Y100.974 E1.3341
G1 X135.117 Y101.509 E1.3683
G1 X135.119 Y101.514 E1.3686
G1 X135.176 Y101.690 E1.3797
G1 X135.177 Y101.695 E1.3800
G1 X135.440 Y102.648 E1.4392
G1 X135.442 Y102.655 E1.4396
G1 X135.493 Y102.896 E1.4544
G1 X135.495 Y102.903 E1.4548
G1 X135.646 Y103.911 E1.5158
G1 X135.647 Y103.918 E1.5163
G1 X135.669 Y104.164 E1.5310
G1 X135.670 Y104.171 E1.5315
G1 X135.699 Y105.159 E1.5906
G1 X135.699 Y105.164 E1.5910
G1 X135.697 Y105.349 E1.6020
G1 X135.696 Y105.354 E1.6024
G1 X135.662 Y105.925 E1.6366
G1 X135.662 Y105.930 E1.6369
G1 X135.643 Y106.114 E1.6480
G1 X135.642 Y106.120 E1.6483
G1 X135.495 Y107.097 E1.7075
G1 X135.493 Y107.104 E1.7079
G1 X135.442 Y107.345 E1.7227
G1 X135.440 Y107.352 E1.7231
G1 X135.177 Y108.305 E1.7823
G1 X135.176 Y108.310 E1.7826
G1 X135.119 Y108.486 E1.7937
G1 X135.117 Y108.491 E1.7940
G1 X134.916 Y109.026 E1.8282
G1 X134.914 Y109.031 E1.8285
G1 X134.841 Y109.201 E1.8396
G1 X134.839 Y109.206 E1.8399
G1 X134.410 Y110.097 E1.8991
G1 X134.407 Y110.103 E1.8995
G1 X134.287 Y110.319 E1.9143
G1 X134.283 Y110.325 E1.9147
G1 X133.751 Y111.158 E1.9739
G1 X133.748 Y111.162 E1.9742
G1 X133.642 Y111.313 E1.9853
G1 X133.638 Y111.318 E1.9856
G1 X133.289 Y111.770 E2.0198
G1 X133.285 Y111.774 E2.0201
G1 X133.166 Y111.915 E2.0312
G1 X133.162 Y111.919 E2.0315
G1 X132.490 Y112.644 E2.0907
G1 X132.485 Y112.649 E2.0911
G1 X132.307 Y112.819 E2.1059
G1 X132.301 Y112.824 E2.1063
G1 X131.547 Y113.463 E2.1655
G1 X131.543 Y113.466 E2.1658
G1 X131.397 Y113.580 E2.1769
G1 X131.393 Y113.583 E2.1772
G1 X130.925 Y113.912 E2.2114
G1 X130.921 Y113.915 E2.2118
G1 X130.765 Y114.014 E2.2228
G1 X130.760 Y114.017 E2.2231
G1 X129.904 Y114.511 E2.2823
G1 X129.898 Y114.515 E2.2828
G1 X129.677 Y114.625 E2.2975
G1 X129.671 Y114.628 E2.2979
G1 X128.762 Y115.016 E2.3571
G1 X128.757 Y115.018 E2.3574
G1 X128.584 Y115.083 E2.3685
G1 X128.579 Y115.085 E2.3688
G1 X128.035 Y115.262 E2.4031
G1 X128.030 Y115.263 E2.4034
G1 X127.852 Y115.313 E2.4144
G1 X127.847 Y115.314 E2.4148
G1 X126.883 Y115.534 E2.4739
G1 X126.876 Y115.535 E2.4744
G1 X126.633 Y115.576 E2.4891
G1 X126.626 Y115.577 E2.4896
G1 X125.643 Y115.680 E2.5487
G1 X125.637 Y115.680 E2.5491
G1 X125.453 Y115.691 E2.5601
G1 X125.447 Y115.692 E2.5605
G1 X124.876 Y115.700 E2.5947
G1 X124.870 Y115.700 E2.5950
G1 X124.686 Y115.695 E2.6061
G1 X124.680 Y115.694 E2.6064
G1 X123.725 Y115.623 E2.6637
G1 X123.720 Y115.622 E2.6640
G1 X123.536 Y115.600 E2.6751
G1 X123.531 Y115.599 E2.6754
G1 X122.998 Y115.511 E2.7078
G1 X122.994 Y115.510 E2.7080
G1 X122.873 Y115.486 E2.7154
G1 X122.870 Y115.486 E2.7156
G1 X122.343 Y115.365 E2.7480
G1 X122.337 Y115.364 E2.7483
G1 X122.159 Y115.315 E2.7594
G1 X122.154 Y115.313 E2.7597
G1 X121.214 Y115.008 E2.8189
G1 X121.207 Y115.005 E2.8193
G1 X120.978 Y114.915 E2.8341
G1 X120.971 Y114.912 E2.8345
G1 X120.046 Y114.484 E2.8955
G1 X120.040 Y114.481 E2.8959
G1 X119.823 Y114.364 E2.9107
G1 X119.816 Y114.360 E2.9111
G1 X118.949 Y113.825 E2.9722
G1 X118.943 Y113.821 E2.9726
G1 X118.742 Y113.679 E2.9874
G1 X118.736 Y113.674 E2.9878
G1 X117.963 Y113.058 E3.0470
G1 X117.959 Y113.055 E3.0473
G1 X117.820 Y112.933 E3.0584
G1 X117.816 Y112.929 E3.0587
G1 X117.403 Y112.534 E3.0929
G1 X117.399 Y112.531 E3.0932
G1 X117.271 Y112.397 E3.1043
G1 X117.267 Y112.393 E3.1046
G1 X116.617 Y111.649 E3.1638
G1 X116.612 Y111.643 E3.1642
G1 X116.462 Y111.448 E3.1790
G1 X116.457 Y111.442 E3.1794
G1 X115.901 Y110.625 E3.2386
G1 X115.898 Y110.621 E3.2389
G1 X115.800 Y110.464 E3.2500
G1 X115.798 Y110.459 E3.2503
G1 X115.519 Y109.960 E3.2845
G1 X115.517 Y109.955 E3.2848
G1 X115.434 Y109.790 E3.2959
G1 X115.432 Y109.785 E3.2962
G1 X115.030 Y108.882 E3.3554
G1 X115.027 Y108.875 E3.3558
G1 X114.940 Y108.644 E3.3706
G1 X114.938 Y108.637 E3.3710
G1 X114.647 Y107.693 E3.4302
G1 X114.645 Y107.688 E3.4305
G1 X114.599 Y107.509 E3.4416
G1 X114.597 Y107.504 E3.4419
G1 X114.485 Y106.972 E3.4744
G1 X114.484 Y106.969 E3.4747
G1 X114.461 Y106.842 E3.4824
G1 X114.460 Y106.838 E3.4826
G1 X114.378 Y106.284 E3.5161
G1 X114.378 Y106.279 E3.5165
G1 X114.359 Y106.095 E3.5275
G1 X114.358 Y106.089 E3.5279
G1 X114.302 Y105.104 E3.5869
G1 X114.302 Y105.097 E3.5873
G1 X114.302 Y104.855 E3.6019
G1 X114.302 Y104.848 E3.6023
G1 X114.363 Y103.850 E3.6621
G1 X114.363 Y103.843 E3.6626
G1 X114.393 Y103.599 E3.6772
G1 X114.394 Y103.592 E3.6777
G1 X114.576 Y102.590 E3.7386
G1 X114.577 Y102.583 E3.7391
G1 X114.636 Y102.343 E3.7538
G1 X114.638 Y102.337 E3.7543
G1 X114.929 Y101.392 E3.8134
G1 X114.931 Y101.387 E3.8138
G1 X114.993 Y101.213 E3.8248
G1 X114.995 Y101.208 E3.8252
G1 X115.200 Y100.708 E3.8575
G1 X115.201 Y100.704 E3.8577
G1 X115.252 Y100.592 E3.8651
G1 X115.253 Y100.588 E3.8653
G1 X115.488 Y100.101 E3.8977
G1 X115.490 Y100.096 E3.8980
G1 X115.578 Y99.934 E3.9091
G1 X115.580 Y99.929 E3.9094
G1 X116.072 Y99.107 E3.9668
G1 X116.074 Y99.102 E3.9671
G1 X116.176 Y98.948 E3.9781
G1 X116.179 Y98.944 E3.9785
G1 X116.510 Y98.489 E4.0121
G1 X116.515 Y98.481 F706
G1 X116.518 Y98.477 F706
G1 X116.634 Y98.332 F706
G92 E0
G1 E-1.5000 F1800
; inner perimeter
; outer perimeter
G1 X120.081 Y101.195 F4800
G1 E0.0000 F1800
G92 E0
G1 X120.307 Y100.921 E0.0213 F565
G1 X120.571 Y100.635 E0.0446
G1 X120.840 Y100.378 E0.0668
G1 X121.123 Y100.137 E0.0891
G1 X121.421 Y99.914 E0.1114
G1 X121.732 Y99.709 E0.1337
G1 X122.054 Y99.523 E0.1560
G1 X122.387 Y99.356 E0.1782
G1 X122.729 Y99.210 E0.2005
G1 X123.079 Y99.085 E0.2228
G1 X123.437 Y98.980 E0.2451
G1 X123.799 Y98.897 E0.2673
G1 X124.166 Y98.836 E0.2896
G1 X124.537 Y98.797 E0.3119
G1 X124.908 Y98.781 E0.3342
G1 X125.280 Y98.786 E0.3565
G1 X125.652 Y98.814 E0.3788
G1 X126.020 Y98.864 E0.4010
G1 X126.386 Y98.936 E0.4233
G1 X126.746 Y99.030 E0.4456
G1 X127.100 Y99.145 E0.4679
G1 X127.446 Y99.281 E0.4901
G1 X127.784 Y99.437 E0.5124
G1 X128.111 Y99.613 E0.5347
G1 X128.428 Y99.809 E0.5570
G1 X128.732 Y100.023 E0.5793
G1 X129.023 Y100.255 E0.6015
G1 X129.300 Y100.504 E0.6238
G1 X129.561 Y100.769 E0.6461
G1 X129.806 Y101.050 E0.6684
G1 X130.033 Y101.344 E0.6907
G1 X130.243 Y101.652 E0.7130
G1 X130.434 Y101.971 E0.7352
G1 X130.605 Y102.301 E0.7575
G1 X130.757 Y102.641 E0.7798
G1 X130.887 Y102.990 E0.8021
G1 X130.997 Y103.345 E0.8243
G1 X131.085 Y103.707 E0.8466
G1 X131.152 Y104.073 E0.8689
G1 X131.196 Y104.442 E0.8912
G1 X131.219 Y104.814 E0.9135
G1 X131.219 Y105.186 E0.9357
G1 X131.196 Y105.558 E0.9580
G1 X131.152 Y105.927 E0.9803
G1 X131.085 Y106.293 E1.0026
G1 X130.997 Y106.655 E1.0249
G1 X130.887 Y107.010 E1.0471
G1 X130.757 Y107.359 E1.0694
G1 X130.605 Y107.699 E1.0917
G1 X130.434 Y108.029 E1.1140
G1 X130.243 Y108.348 E1.1362
G1 X130.033 Y108.656 E1.1585
G1 X129.806 Y108.950 E1.1808
G1 X129.561 Y109.231 E1.2031
G1 X129.300 Y109.496 E1.2254
G1 X129.023 Y109.745 E1.2477
G1 X128.732 Y109.977 E1.2699
G1 X128.428 Y110.191 E1.2922
G1 X128.111 Y110.387 E1.3145
G1 X127.784 Y110.563 E1.3368
G1 X127.446 Y110.719 E1.3591
G1 X127.100 Y110.855 E1.3813
G1 X126.746 Y110.970 E1.4036
G1 X126.386 Y111.064 E1.4259
G1 X126.020 Y111.136 E1.4482
G1 X125.652 Y111.186 E1.4704
G1 X125.280 Y111.214 E1.4927
G1 X124.908 Y111.219 E1.5150
G1 X124.537 Y111.202 E1.5373
G1 X124.166 Y111.164 E1.5596
G1 X123.799 Y111.103 E1.5819
G1 X123.437 Y111.020 E1.6041
G1 X123.079 Y110.915 E1.6264
G1 X122.729 Y110.790 E1.6487
G1 X122.387 Y110.644 E1.6710
G1 X122.054 Y110.477 E1.6932
G1 X121.732 Y110.291 E1.7155
G1 X121.421 Y110.086 E1.7378
G1 X121.123 Y109.863 E1.7601
G1 X120.840 Y109.622 E1.7824
G1 X120.570 Y109.365 E1.8046
G1 X120.317 Y109.092 E1.8269
G1 X120.081 Y108.805 E1.8492
G1 X119.862 Y108.504 E1.8715
G1 X119.662 Y108.190 E1.8938
G1 X119.481 Y107.865 E1.9160
G1 X119.319 Y107.530 E1.9383
G1 X119.178 Y107.186 E1.9606
G1 X119.058 Y106.833 E1.9829
G1 X118.959 Y106.475 E2.0052
