; G-Code generated by Simplify3D(R) Version 3.1.1
; Jul 6, 2017 at 7:42:30 AM
; Settings Summary
;   processName,Process1
;   applyToModels,Wheel_Hub_30mm,Wheel_Hub_30mm(2)
;   profileName,Prusa Research Original Prusa i3 MK2 (modified)
;   profileVersion,2017-06-30 16:32:30
;   baseProfile,
;   printMaterial,PLA
;   printQuality,Medium
;   printExtruders,
;   extruderName,Primary Extruder
;   extruderToolheadNumber,0
;   extruderDiameter,0.4
;   extruderAutoWidth,1
;   extruderWidth,0.48
;   extrusionMultiplier,1
;   extruderUseRetract,1
;   extruderRetractionDistance,1.5
;   extruderExtraRestartDistance,0
;   extruderRetractionZLift,0
;   extruderRetractionSpeed,1800
;   extruderUseCoasting,1
;   extruderCoastingDistance,0.2
;   extruderUseWipe,1
;   extruderWipeDistance,2
;   primaryExtruder,0
;   layerHeight,0.2
;   topSolidLayers,3
;   bottomSolidLayers,3
;   perimeterOutlines,3
;   printPerimetersInsideOut,1
;   startPointOption,2
;   startPointOriginX,0
;   startPointOriginY,0
;   startPointOriginZ,0
;   sequentialIslands,0
;   spiralVaseMode,0
;   firstLayerHeightPercentage,150
;   firstLayerWidthPercentage,100
;   firstLayerUnderspeed,0.5
;   useRaft,0
;   raftExtruder,0
;   raftLayers,3
;   raftOffset,3
;   raftSeparationDistance,0.14
;   raftInfill,85
;   disableRaftBaseLayers,0
;   useSkirt,1
;   skirtExtruder,0
;   skirtLayers,1
;   skirtOutlines,1
;   skirtOffset,4
;   usePrimePillar,0
;   primePillarExtruder,999
;   primePillarWidth,12
;   primePillarLocation,7
;   primePillarSpeedMultiplier,1
;   useOozeShield,0
;   oozeShieldExtruder,999
;   oozeShieldOffset,2
;   oozeShieldOutlines,1
;   oozeShieldSidewallShape,1
;   oozeShieldSidewallAngle,30
;   oozeShieldSpeedMultiplier,1
;   infillExtruder,0
;   internalInfillPattern,Rectilinear
;   externalInfillPattern,Concentric
;   infillPercentage,100
;   outlineOverlapPercentage,20
;   infillExtrusionWidthPercentage,100
;   minInfillLength,5
;   infillLayerInterval,1
;   infillAngles,45,-45
;   overlapInfillAngles,0
;   generateSupport,1
;   supportExtruder,0
;   supportInfillPercentage,30
;   supportExtraInflation,0
;   denseSupportLayers,0
;   denseSupportInfillPercentage,70
;   supportLayerInterval,1
;   supportHorizontalPartOffset,0.3
;   supportUpperSeparationLayers,1
;   supportLowerSeparationLayers,1
;   supportType,0
;   supportGridSpacing,4
;   maxOverhangAngle,45
;   supportAngles,0
;   temperatureName,Primary Extruder,Heated Bed
;   temperatureNumber,0,0
;   temperatureSetpointCount,1,1
;   temperatureSetpointLayers,1,1
;   temperatureSetpointTemperatures,200,60
;   temperatureStabilizeAtStartup,1,1
;   temperatureHeatedBed,0,1
;   temperatureRelayBetweenLayers,0,0
;   temperatureRelayBetweenLoops,0,0
;   fanLayers,1,2
;   fanSpeeds,0,100
;   blipFanToFullPower,0
;   adjustSpeedForCooling,1
;   minSpeedLayerTime,15
;   minCoolingSpeedSlowdown,20
;   increaseFanForCooling,0
;   minFanLayerTime,45
;   maxCoolingFanSpeed,100
;   increaseFanForBridging,0
;   bridgingFanSpeed,100
;   use5D,1
;   relativeEdistances,0
;   allowEaxisZeroing,1
;   independentExtruderAxes,0
;   includeM10123,0
;   stickySupport,1
;   applyToolheadOffsets,0
;   gcodeXoffset,0
;   gcodeYoffset,0
;   gcodeZoffset,0
;   overrideMachineDefinition,1
;   machineTypeOverride,0
;   strokeXoverride,250
;   strokeYoverride,210
;   strokeZoverride,200
;   originOffsetXoverride,0
;   originOffsetYoverride,0
;   originOffsetZoverride,0
;   homeXdirOverride,-1
;   homeYdirOverride,-1
;   homeZdirOverride,-1
;   flipXoverride,1
;   flipYoverride,-1
;   flipZoverride,1
;   toolheadOffsets,0,0|0,0|0,0|0,0|0,0|0,0
;   overrideFirmwareConfiguration,1
;   firmwareTypeOverride,RepRap (Marlin/Repetier/Sprinter)
;   GPXconfigOverride,r2
;   baudRateOverride,250000
;   overridePrinterModels,1
;   printerModelsOverride
;   startingGcode,M115 U3.0.7 ; use the latest firmware version,G28 W ; home all axes without mesh bed leveling,G80 ; run mesh bed leveling routine,G1 Y-3.0 F1000.0 ; prepare to prime,G92 E0 ; reset extrusion distance,G1 X60.0 E9.0  F1000.0 ; priming,G1 X100.0 E12.5  F1000.0 ; priming
;   layerChangeGcode,
;   retractionGcode,
;   toolChangeGcode,
;   endingGcode,M106 S0 ; turn off cooling fan,M104 S0 ; turn off extruder,M140 S0 ; turn off bed,G1 X0 Y200 ; part removal,M84 ; disable motors
;   exportFileFormat,gcode
;   celebration,0
;   celebrationSong,Random Song
;   postProcessing,
;   defaultSpeed,2400
;   outlineUnderspeed,0.8
;   solidInfillUnderspeed,0.8
;   supportUnderspeed,0.8
;   rapidXYspeed,4800
;   rapidZspeed,1000
;   minBridgingArea,50
;   bridgingExtraInflation,0
;   bridgingExtrusionMultiplier,1
;   bridgingSpeedMultiplier,1
;   filamentDiameter,1.75
;   filamentPricePerKg,46
;   filamentDensity,1.25
;   useMinPrintHeight,0
;   minPrintHeight,0
;   useMaxPrintHeight,0
;   maxPrintHeight,0
;   useDiaphragm,0
;   diaphragmLayerInterval,20
;   robustSlicing,1
;   mergeAllIntoSolid,0
;   onlyRetractWhenCrossingOutline,1
;   retractBetweenLayers,1
;   useRetractionMinTravel,0
;   retractionMinTravel,3
;   retractWhileWiping,1
;   onlyWipeOutlines,1
;   avoidCrossingOutline,0
;   maxMovementDetourFactor,3
;   toolChangeRetractionDistance,12
;   toolChangeExtraRestartDistance,-0.5
;   toolChangeRetractionSpeed,600
;   allowThinWallGapFill,1
;   thinWallAllowedOverlapPercentage,25
;   horizontalSizeCompensation,0
G90
M82
M106 S0
M140 S60
M190 S60
M104 S200 T0
M109 S200 T0
M115 U3.0.7 ; use the latest firmware version
G28 W ; home all axes without mesh bed leveling
G80 ; run mesh bed leveling routine
G1 Y-3.0 F1000.0 ; prepare to prime
G92 E0 ; reset extrusion distance
G1 X60.0 E9.0  F1000.0 ; priming
G1 X100.0 E12.5  F1000.0 ; priming
G92 E0
G1 E-1.5000 F1800
G1 Z0.300 F1000
; layer 1, Z = 0.3
T0
; tool H0.300 W0.480
; skirt
G1 X115.419 Y87.288 F4800
G1 E0.0000 F540
G92 E0
G1 X115.422 Y87.284 E0.0003 F1200
G1 X115.538 Y87.139 E0.0114
G1 X115.541 Y87.135 E0.0117
G1 X116.300 Y86.266 E0.0808
G1 X116.305 Y86.261 E0.0812
G1 X116.478 Y86.085 E0.0960
G1 X116.484 Y86.080 E0.0964
G1 X117.341 Y85.308 E0.1655
G1 X117.345 Y85.304 E0.1659
G1 X117.488 Y85.187 E0.1769
G1 X117.493 Y85.183 E0.1773
G1 X117.991 Y84.809 E0.2146
G1 X117.994 Y84.807 E0.2148
G1 X118.095 Y84.736 E0.2222
G1 X118.098 Y84.734 E0.2224
G1 X118.618 Y84.391 E0.2597
G1 X118.623 Y84.388 E0.2601
G1 X118.782 Y84.293 E0.2711
G1 X118.787 Y84.290 E0.2715
G1 X119.803 Y83.743 E0.3406
G1 X119.809 Y83.740 E0.3410
G1 X120.033 Y83.636 E0.3557
G1 X120.040 Y83.634 E0.3562
G1 X121.143 Y83.201 E0.4271
G1 X121.150 Y83.198 E0.4276
G1 X121.384 Y83.122 E0.4423
G1 X121.391 Y83.120 E0.4427
G1 X122.538 Y82.822 E0.5137
G1 X122.545 Y82.820 E0.5141
G1 X122.787 Y82.773 E0.5289
G1 X122.794 Y82.771 E0.5293
G1 X123.938 Y82.616 E0.5984
G1 X123.943 Y82.616 E0.5987
G1 X124.127 Y82.599 E0.6098
G1 X124.133 Y82.599 E0.6101
G1 X124.756 Y82.571 E0.6475
G1 X124.759 Y82.571 E0.6477
G1 X124.883 Y82.569 E0.6551
G1 X124.886 Y82.569 E0.6553
G1 X125.479 Y82.578 E0.6908
G1 X125.482 Y82.578 E0.6910
G1 X125.606 Y82.583 E0.6984
G1 X125.609 Y82.584 E0.6986
G1 X126.231 Y82.630 E0.7359
G1 X126.236 Y82.631 E0.7362
G1 X126.420 Y82.653 E0.7473
G1 X126.425 Y82.654 E0.7476
G1 X127.564 Y82.843 E0.8167
G1 X127.571 Y82.844 E0.8172
G1 X127.811 Y82.899 E0.8319
G1 X127.818 Y82.901 E0.8324
G1 X128.956 Y83.233 E0.9033
G1 X128.963 Y83.235 E0.9037
G1 X129.195 Y83.319 E0.9185
G1 X129.202 Y83.321 E0.9189
G1 X130.291 Y83.787 E0.9899
G1 X130.298 Y83.790 E0.9903
G1 X130.518 Y83.900 E1.0051
G1 X130.525 Y83.904 E1.0055
G1 X131.524 Y84.481 E1.0746
G1 X131.529 Y84.484 E1.0749
G1 X131.685 Y84.583 E1.0860
G1 X131.689 Y84.586 E1.0863
G1 X132.224 Y84.963 E1.1255
G1 X132.229 Y84.966 E1.1258
G1 X132.375 Y85.079 E1.1369
G1 X132.379 Y85.083 E1.1372
G1 X133.236 Y85.809 E1.2045
G1 X133.240 Y85.813 E1.2048
G1 X133.376 Y85.938 E1.2159
G1 X133.380 Y85.942 E1.2162
G1 X133.839 Y86.408 E1.2554
G1 X133.842 Y86.412 E1.2557
G1 X133.966 Y86.550 E1.2668
G1 X133.970 Y86.554 E1.2671
G1 X134.683 Y87.421 E1.3343
G1 X134.687 Y87.426 E1.3347
G1 X134.798 Y87.574 E1.3457
G1 X134.801 Y87.578 E1.3461
G1 X135.169 Y88.119 E1.3852
G1 X135.172 Y88.123 E1.3856
G1 X135.269 Y88.280 E1.3966
G1 X135.272 Y88.285 E1.3969
G1 X135.819 Y89.266 E1.4642
G1 X135.822 Y89.271 E1.4645
G1 X135.904 Y89.436 E1.4756
G1 X135.907 Y89.441 E1.4759
G1 X136.173 Y90.039 E1.5151
G1 X136.175 Y90.044 E1.5154
G1 X136.243 Y90.216 E1.5265
G1 X136.244 Y90.221 E1.5268
G1 X136.617 Y91.314 E1.5959
G1 X136.620 Y91.321 E1.5963
G1 X136.685 Y91.558 E1.6111
G1 X136.687 Y91.565 E1.6115
G1 X136.933 Y92.724 E1.6825
G1 X136.935 Y92.731 E1.6829
G1 X136.971 Y92.975 E1.6977
G1 X136.972 Y92.982 E1.6981
G1 X137.076 Y94.132 E1.7672
G1 X137.076 Y94.137 E1.7675
G1 X137.084 Y94.322 E1.7786
G1 X137.084 Y94.328 E1.7789
G1 X137.084 Y94.982 E1.8181
G1 X137.084 Y94.987 E1.8184
G1 X137.076 Y95.172 E1.8295
G1 X137.076 Y95.177 E1.8298
G1 X136.975 Y96.296 E1.8971
G1 X136.974 Y96.302 E1.8974
G1 X136.949 Y96.485 E1.9085
G1 X136.949 Y96.490 E1.9088
G1 X136.832 Y97.134 E1.9480
G1 X136.831 Y97.139 E1.9483
G1 X136.790 Y97.320 E1.9594
G1 X136.788 Y97.325 E1.9597
G1 X136.489 Y98.408 E2.0269
G1 X136.488 Y98.413 E2.0273
G1 X136.431 Y98.589 E2.0383
G1 X136.429 Y98.594 E2.0387
G1 X136.199 Y99.207 E2.0778
G1 X136.197 Y99.212 E2.0782
G1 X136.124 Y99.382 E2.0892
G1 X136.122 Y99.387 E2.0896
G1 X135.621 Y100.427 E2.1587
G1 X135.618 Y100.433 E2.1591
G1 X135.498 Y100.648 E2.1738
G1 X135.494 Y100.654 E2.1743
G1 X134.873 Y101.627 E2.2434
G1 X134.870 Y101.632 E2.2437
G1 X134.763 Y101.783 E2.2548
G1 X134.760 Y101.787 E2.2551
G1 X134.360 Y102.305 E2.2943
G1 X134.356 Y102.309 E2.2946
G1 X134.237 Y102.450 E2.3057
G1 X134.233 Y102.454 E2.3060
G1 X133.469 Y103.278 E2.3732
G1 X133.465 Y103.281 E2.3736
G1 X133.334 Y103.411 E2.3846
G1 X133.330 Y103.415 E2.3850
G1 X132.843 Y103.853 E2.4241
G1 X132.839 Y103.856 E2.4245
G1 X132.697 Y103.974 E2.4355
G1 X132.692 Y103.977 E2.4359
G1 X131.769 Y104.669 E2.5050
G1 X131.763 Y104.674 E2.5054
G1 X131.557 Y104.809 E2.5201
G1 X131.551 Y104.813 E2.5206
G1 X131.227 Y105.000 E2.5429
G1 X131.524 Y105.171 E2.5635
G1 X131.529 Y105.174 E2.5638
G1 X131.685 Y105.274 E2.5749
G1 X131.689 Y105.277 E2.5752
G1 X132.224 Y105.653 E2.6144
G1 X132.229 Y105.657 E2.6147
G1 X132.375 Y105.770 E2.6257
G1 X132.379 Y105.773 E2.6261
G1 X133.236 Y106.499 E2.6933
G1 X133.240 Y106.503 E2.6937
G1 X133.376 Y106.629 E2.7047
G1 X133.380 Y106.633 E2.7051
G1 X133.839 Y107.099 E2.7442
G1 X133.843 Y107.103 E2.7446
G1 X133.966 Y107.240 E2.7556
G1 X133.970 Y107.244 E2.7559
G1 X134.683 Y108.112 E2.8232
G1 X134.687 Y108.116 E2.8235
G1 X134.798 Y108.264 E2.8346
G1 X134.801 Y108.269 E2.8349
G1 X135.169 Y108.809 E2.8741
G1 X135.172 Y108.814 E2.8744
G1 X135.269 Y108.971 E2.8855
G1 X135.272 Y108.976 E2.8858
G1 X135.819 Y109.957 E2.9531
G1 X135.822 Y109.962 E2.9534
G1 X135.904 Y110.127 E2.9645
G1 X135.907 Y110.132 E2.9648
G1 X136.173 Y110.730 E3.0040
G1 X136.175 Y110.735 E3.0043
G1 X136.243 Y110.907 E3.0154
G1 X136.244 Y110.912 E3.0157
G1 X136.617 Y112.004 E3.0848
G1 X136.620 Y112.011 E3.0852
G1 X136.685 Y112.249 E3.1000
G1 X136.687 Y112.256 E3.1004
G1 X136.933 Y113.415 E3.1713
G1 X136.935 Y113.422 E3.1718
G1 X136.971 Y113.666 E3.1865
G1 X136.972 Y113.673 E3.1870
G1 X137.076 Y114.823 E3.2561
G1 X137.076 Y114.828 E3.2564
G1 X137.084 Y115.013 E3.2675
G1 X137.084 Y115.018 E3.2678
G1 X137.084 Y115.672 E3.3070
G1 X137.084 Y115.678 E3.3073
G1 X137.076 Y115.863 E3.3184
G1 X137.076 Y115.868 E3.3187
G1 X136.975 Y116.987 E3.3859
G1 X136.974 Y116.992 E3.3863
G1 X136.949 Y117.176 E3.3973
G1 X136.949 Y117.181 E3.3977
G1 X136.832 Y117.825 E3.4368
G1 X136.831 Y117.830 E3.4372
G1 X136.790 Y118.010 E3.4482
G1 X136.788 Y118.015 E3.4485
G1 X136.489 Y119.098 E3.5158
G1 X136.488 Y119.103 E3.5161
G1 X136.431 Y119.279 E3.5272
G1 X136.429 Y119.284 E3.5275
G1 X136.199 Y119.897 E3.5667
G1 X136.197 Y119.902 E3.5670
G1 X136.124 Y120.072 E3.5781
G1 X136.122 Y120.077 E3.5784
G1 X135.621 Y121.117 E3.6475
G1 X135.618 Y121.123 E3.6480
G1 X135.498 Y121.339 E3.6627
G1 X135.494 Y121.345 E3.6631
G1 X134.873 Y122.318 E3.7322
G1 X134.870 Y122.322 E3.7326
G1 X134.763 Y122.473 E3.7436
G1 X134.760 Y122.478 E3.7440
G1 X134.360 Y122.995 E3.7831
G1 X134.356 Y123.000 E3.7835
G1 X134.237 Y123.141 E3.7945
G1 X134.233 Y123.145 E3.7949
G1 X133.469 Y123.968 E3.8621
G1 X133.465 Y123.972 E3.8624
G1 X133.334 Y124.102 E3.8735
G1 X133.330 Y124.105 E3.8738
G1 X132.843 Y124.543 E3.9130
G1 X132.839 Y124.547 E3.9133
G1 X132.697 Y124.664 E3.9244
G1 X132.692 Y124.668 E3.9247
G1 X131.769 Y125.360 E3.9938
G1 X131.763 Y125.364 E3.9943
G1 X131.557 Y125.500 E4.0090
G1 X131.551 Y125.504 E4.0094
G1 X130.525 Y126.096 E4.0804
G1 X130.518 Y126.100 E4.0808
G1 X130.298 Y126.210 E4.0956
G1 X130.291 Y126.213 E4.0960
G1 X129.230 Y126.667 E4.1651
G1 X129.225 Y126.669 E4.1654
G1 X129.052 Y126.734 E4.1765
G1 X129.047 Y126.735 E4.1768
G1 X128.424 Y126.938 E4.2160
G1 X128.419 Y126.939 E4.2163
G1 X128.241 Y126.988 E4.2274
G1 X128.236 Y126.990 E4.2277
G1 X127.110 Y127.247 E4.2968
G1 X127.103 Y127.248 E4.2973
G1 X126.860 Y127.288 E4.3120
G1 X126.853 Y127.289 E4.3125
G1 X125.705 Y127.410 E4.3816
G1 X125.700 Y127.410 E4.3819
G1 X125.515 Y127.421 E4.3930
G1 X125.510 Y127.422 E4.3933
G1 X124.855 Y127.431 E4.4325
G1 X124.850 Y127.431 E4.4328
G1 X124.665 Y127.426 E4.4438
G1 X124.660 Y127.426 E4.4442
G1 X123.539 Y127.342 E4.5114
G1 X123.534 Y127.341 E4.5117
G1 X123.350 Y127.319 E4.5228
G1 X123.345 Y127.318 E4.5231
G1 X122.700 Y127.211 E4.5623
G1 X122.694 Y127.210 E4.5626
G1 X122.513 Y127.172 E4.5737
G1 X122.508 Y127.170 E4.5740
G1 X121.391 Y126.880 E4.6431
G1 X121.384 Y126.878 E4.6436
G1 X121.150 Y126.802 E4.6583
G1 X121.143 Y126.799 E4.6588
G1 X120.068 Y126.378 E4.7279
G1 X120.063 Y126.376 E4.7282
G1 X119.895 Y126.300 E4.7393
G1 X119.890 Y126.298 E4.7396
G1 X119.304 Y126.005 E4.7788
G1 X119.300 Y126.003 E4.7791
G1 X119.138 Y125.913 E4.7902
G1 X119.133 Y125.910 E4.7905
G1 X118.152 Y125.303 E4.8596
G1 X118.146 Y125.299 E4.8600
G1 X117.944 Y125.157 E4.8748
G1 X117.938 Y125.153 E4.8752
G1 X117.036 Y124.433 E4.9443
G1 X117.032 Y124.430 E4.9446
G1 X116.892 Y124.308 E4.9557
G1 X116.888 Y124.305 E4.9560
G1 X116.415 Y123.852 E4.9952
G1 X116.412 Y123.849 E4.9955
G1 X116.284 Y123.715 E5.0066
G1 X116.280 Y123.711 E5.0069
G1 X115.521 Y122.842 E5.0760
G1 X115.516 Y122.836 E5.0764
G1 X115.365 Y122.641 E5.0912
G1 X115.361 Y122.635 E5.0916
G1 X114.694 Y121.656 E5.1626
G1 X114.690 Y121.650 E5.1630
G1 X114.563 Y121.438 E5.1778
G1 X114.560 Y121.432 E5.1782
G1 X114.028 Y120.408 E5.2473
G1 X114.026 Y120.403 E5.2476
G1 X113.948 Y120.235 E5.2587
G1 X113.946 Y120.230 E5.2590
G1 X113.709 Y119.653 E5.2964
G1 X113.708 Y119.650 E5.2966
G1 X113.665 Y119.534 E5.3040
G1 X113.663 Y119.531 E5.3042
G1 X113.462 Y118.941 E5.3415
G1 X113.460 Y118.936 E5.3418
G1 X113.408 Y118.758 E5.3529
G1 X113.407 Y118.753 E5.3532
G1 X113.140 Y117.660 E5.4206
G1 X113.139 Y117.654 E5.4209
G1 X113.103 Y117.468 E5.4323
G1 X113.102 Y117.463 E5.4326
G1 X113.003 Y116.797 E5.4729
G1 X113.002 Y116.792 E5.4732
G1 X112.983 Y116.607 E5.4843
G1 X112.983 Y116.602 E5.4846
G1 X112.916 Y115.451 E5.5536
G1 X112.916 Y115.444 E5.5541
G1 X112.916 Y115.201 E5.5686
G1 X112.916 Y115.194 E5.5691
G1 X112.987 Y114.030 E5.6389
G1 X112.987 Y114.023 E5.6393
G1 X113.017 Y113.779 E5.6540
G1 X113.018 Y113.772 E5.6544
G1 X113.224 Y112.637 E5.7235
G1 X113.225 Y112.632 E5.7238
G1 X113.266 Y112.451 E5.7349
G1 X113.267 Y112.446 E5.7352
G1 X113.442 Y111.815 E5.7744
G1 X113.443 Y111.810 E5.7747
G1 X113.500 Y111.634 E5.7858
G1 X113.502 Y111.629 E5.7861
G1 X113.897 Y110.578 E5.8533
G1 X113.899 Y110.573 E5.8537
G1 X113.971 Y110.403 E5.8647
G1 X113.974 Y110.398 E5.8651
G1 X114.258 Y109.808 E5.9042
G1 X114.260 Y109.803 E5.9046
G1 X114.348 Y109.640 E5.9156
G1 X114.350 Y109.636 E5.9160
G1 X114.927 Y108.671 E5.9832
G1 X114.929 Y108.667 E5.9835
G1 X115.031 Y108.512 E5.9946
G1 X115.034 Y108.508 E5.9949
G1 X115.419 Y107.979 E6.0341
G1 X115.422 Y107.974 E6.0344
G1 X115.538 Y107.830 E6.0455
G1 X115.541 Y107.826 E6.0458
G1 X116.300 Y106.956 E6.1149
G1 X116.305 Y106.951 E6.1154
