; G-Code generated by Simplify3D(R) Version 3.1.1
; Jul 5, 2017 at 10:25:52 PM
; Settings Summary
;   processName,Process1
;   applyToModels,Wheel_Tyre_25mm_complete
;   profileName,Prusa Research Original Prusa i3 MK2 (modified)
;   profileVersion,2017-06-30 16:32:30
;   baseProfile,
;   printMaterial,PLA
;   printQuality,Medium
;   printExtruders,
;   extruderName,Primary Extruder
;   extruderToolheadNumber,0
;   extruderDiameter,0.4
;   extruderAutoWidth,1
;   extruderWidth,0.48
;   extrusionMultiplier,1
;   extruderUseRetract,1
;   extruderRetractionDistance,1.5
;   extruderExtraRestartDistance,0
;   extruderRetractionZLift,0
;   extruderRetractionSpeed,1800
;   extruderUseCoasting,1
;   extruderCoastingDistance,0.2
;   extruderUseWipe,1
;   extruderWipeDistance,2
;   primaryExtruder,0
;   layerHeight,0.2
;   topSolidLayers,3
;   bottomSolidLayers,3
;   perimeterOutlines,3
;   printPerimetersInsideOut,1
;   startPointOption,2
;   startPointOriginX,0
;   startPointOriginY,0
;   startPointOriginZ,0
;   sequentialIslands,0
;   spiralVaseMode,0
;   firstLayerHeightPercentage,150
;   firstLayerWidthPercentage,100
;   firstLayerUnderspeed,0.5
;   useRaft,0
;   raftExtruder,0
;   raftLayers,3
;   raftOffset,3
;   raftSeparationDistance,0.14
;   raftInfill,85
;   disableRaftBaseLayers,0
;   useSkirt,1
;   skirtExtruder,0
;   skirtLayers,1
;   skirtOutlines,1
;   skirtOffset,4
;   usePrimePillar,0
;   primePillarExtruder,999
;   primePillarWidth,12
;   primePillarLocation,7
;   primePillarSpeedMultiplier,1
;   useOozeShield,0
;   oozeShieldExtruder,999
;   oozeShieldOffset,2
;   oozeShieldOutlines,1
;   oozeShieldSidewallShape,1
;   oozeShieldSidewallAngle,30
;   oozeShieldSpeedMultiplier,1
;   infillExtruder,0
;   internalInfillPattern,Rectilinear
;   externalInfillPattern,Concentric
;   infillPercentage,100
;   outlineOverlapPercentage,20
;   infillExtrusionWidthPercentage,100
;   minInfillLength,5
;   infillLayerInterval,1
;   infillAngles,45,-45
;   overlapInfillAngles,0
;   generateSupport,0
;   supportExtruder,0
;   supportInfillPercentage,30
;   supportExtraInflation,0
;   denseSupportLayers,0
;   denseSupportInfillPercentage,70
;   supportLayerInterval,1
;   supportHorizontalPartOffset,0.3
;   supportUpperSeparationLayers,1
;   supportLowerSeparationLayers,1
;   supportType,0
;   supportGridSpacing,4
;   maxOverhangAngle,45
;   supportAngles,0
;   temperatureName,Primary Extruder,Heated Bed
;   temperatureNumber,0,0
;   temperatureSetpointCount,1,1
;   temperatureSetpointLayers,1,1
;   temperatureSetpointTemperatures,200,60
;   temperatureStabilizeAtStartup,1,1
;   temperatureHeatedBed,0,1
;   temperatureRelayBetweenLayers,0,0
;   temperatureRelayBetweenLoops,0,0
;   fanLayers,1,2
;   fanSpeeds,0,100
;   blipFanToFullPower,0
;   adjustSpeedForCooling,1
;   minSpeedLayerTime,15
;   minCoolingSpeedSlowdown,20
;   increaseFanForCooling,0
;   minFanLayerTime,45
;   maxCoolingFanSpeed,100
;   increaseFanForBridging,0
;   bridgingFanSpeed,100
;   use5D,1
;   relativeEdistances,0
;   allowEaxisZeroing,1
;   independentExtruderAxes,0
;   includeM10123,0
;   stickySupport,1
;   applyToolheadOffsets,0
;   gcodeXoffset,0
;   gcodeYoffset,0
;   gcodeZoffset,0
;   overrideMachineDefinition,1
;   machineTypeOverride,0
;   strokeXoverride,250
;   strokeYoverride,210
;   strokeZoverride,200
;   originOffsetXoverride,0
;   originOffsetYoverride,0
;   originOffsetZoverride,0
;   homeXdirOverride,-1
;   homeYdirOverride,-1
;   homeZdirOverride,-1
;   flipXoverride,1
;   flipYoverride,-1
;   flipZoverride,1
;   toolheadOffsets,0,0|0,0|0,0|0,0|0,0|0,0
;   overrideFirmwareConfiguration,1
;   firmwareTypeOverride,RepRap (Marlin/Repetier/Sprinter)
;   GPXconfigOverride,r2
;   baudRateOverride,250000
;   overridePrinterModels,1
;   printerModelsOverride
;   startingGcode,M115 U3.0.7 ; use the latest firmware version,G28 W ; home all axes without mesh bed leveling,G80 ; run mesh bed leveling routine,G1 Y-3.0 F1000.0 ; prepare to prime,G92 E0 ; reset extrusion distance,G1 X60.0 E9.0  F1000.0 ; priming,G1 X100.0 E12.5  F1000.0 ; priming
;   layerChangeGcode,
;   retractionGcode,
;   toolChangeGcode,
;   endingGcode,M106 S0 ; turn off cooling fan,M104 S0 ; turn off extruder,M140 S0 ; turn off bed,G1 X0 Y200 ; part removal,M84 ; disable motors
;   exportFileFormat,gcode
;   celebration,0
;   celebrationSong,Random Song
;   postProcessing,
;   defaultSpeed,2400
;   outlineUnderspeed,0.8
;   solidInfillUnderspeed,0.8
;   supportUnderspeed,0.8
;   rapidXYspeed,4800
;   rapidZspeed,1000
;   minBridgingArea,50
;   bridgingExtraInflation,0
;   bridgingExtrusionMultiplier,1
;   bridgingSpeedMultiplier,1
;   filamentDiameter,1.75
;   filamentPricePerKg,46
;   filamentDensity,1.25
;   useMinPrintHeight,0
;   minPrintHeight,0
;   useMaxPrintHeight,0
;   maxPrintHeight,0
;   useDiaphragm,0
;   diaphragmLayerInterval,20
;   robustSlicing,1
;   mergeAllIntoSolid,0
;   onlyRetractWhenCrossingOutline,1
;   retractBetweenLayers,1
;   useRetractionMinTravel,0
;   retractionMinTravel,3
;   retractWhileWiping,1
;   onlyWipeOutlines,1
;   avoidCrossingOutline,0
;   maxMovementDetourFactor,3
;   toolChangeRetractionDistance,12
;   toolChangeExtraRestartDistance,-0.5
;   toolChangeRetractionSpeed,600
;   allowThinWallGapFill,1
;   thinWallAllowedOverlapPercentage,25
;   horizontalSizeCompensation,0
G90
M82
M106 S0
M140 S60
M190 S60
M104 S200 T0
M109 S200 T0
M115 U3.0.7 ; use the latest firmware version
G28 W ; home all axes without mesh bed leveling
G80 ; run mesh bed leveling routine
G1 Y-3.0 F1000.0 ; prepare to prime
G92 E0 ; reset extrusion distance
G1 X60.0 E9.0  F1000.0 ; priming
G1 X100.0 E12.5  F1000.0 ; priming
G92 E0
G1 E-1.5000 F1800
G1 Z0.300 F1000
; layer 1, Z = 0.3
T0
; tool H0.300 W0.480
; skirt
G1 X112.994 Y95.334 F4800
G1 E0.0000 F540
G92 E0
G1 X113.507 Y94.729 E0.0474 F1200
G1 X113.509 Y94.726 E0.0477
G1 X113.592 Y94.635 E0.0550
G1 X113.594 Y94.632 E0.0552
G1 X114.142 Y94.060 E0.1027
G1 X114.144 Y94.057 E0.1029
G1 X114.232 Y93.971 E0.1103
G1 X114.235 Y93.968 E0.1105
G1 X114.815 Y93.429 E0.1579
G1 X114.818 Y93.427 E0.1581
G1 X114.911 Y93.346 E0.1655
G1 X114.914 Y93.343 E0.1657
G1 X115.526 Y92.840 E0.2132
G1 X115.528 Y92.838 E0.2134
G1 X115.626 Y92.762 E0.2208
G1 X115.629 Y92.760 E0.2210
G1 X116.270 Y92.295 E0.2684
G1 X116.273 Y92.293 E0.2686
G1 X116.375 Y92.223 E0.2760
G1 X116.378 Y92.221 E0.2762
G1 X117.045 Y91.795 E0.3237
G1 X117.048 Y91.793 E0.3239
G1 X117.154 Y91.729 E0.3313
G1 X117.157 Y91.728 E0.3315
G1 X117.849 Y91.342 E0.3789
G1 X117.852 Y91.340 E0.3791
G1 X117.962 Y91.283 E0.3865
G1 X117.965 Y91.282 E0.3867
G1 X118.679 Y90.938 E0.4341
G1 X118.682 Y90.936 E0.4344
G1 X118.795 Y90.886 E0.4417
G1 X118.798 Y90.885 E0.4420
G1 X119.531 Y90.584 E0.4894
G1 X119.535 Y90.583 E0.4896
G1 X119.650 Y90.540 E0.4970
G1 X119.653 Y90.539 E0.4972
G1 X120.403 Y90.282 E0.5446
G1 X120.407 Y90.281 E0.5448
G1 X120.524 Y90.245 E0.5522
G1 X120.528 Y90.244 E0.5524
G1 X121.292 Y90.033 E0.5999
G1 X121.295 Y90.032 E0.6001
G1 X121.415 Y90.003 E0.6075
G1 X121.418 Y90.002 E0.6077
G1 X122.193 Y89.838 E0.6551
G1 X122.197 Y89.837 E0.6553
G1 X122.318 Y89.815 E0.6627
G1 X122.322 Y89.814 E0.6629
G1 X123.105 Y89.696 E0.7104
G1 X123.109 Y89.696 E0.7106
G1 X123.231 Y89.681 E0.7180
G1 X123.235 Y89.681 E0.7182
G1 X124.024 Y89.610 E0.7656
G1 X124.027 Y89.609 E0.7658
G1 X124.150 Y89.602 E0.7732
G1 X124.154 Y89.602 E0.7734
G1 X124.946 Y89.578 E0.8209
G1 X124.950 Y89.578 E0.8211
G1 X125.073 Y89.578 E0.8285
G1 X125.076 Y89.578 E0.8287
G1 X125.868 Y89.602 E0.8761
G1 X125.872 Y89.602 E0.8763
G1 X125.995 Y89.609 E0.8837
G1 X125.999 Y89.610 E0.8839
G1 X126.788 Y89.681 E0.9313
G1 X126.791 Y89.681 E0.9316
G1 X126.914 Y89.696 E0.9389
G1 X126.917 Y89.696 E0.9392
G1 X127.701 Y89.814 E0.9866
G1 X127.704 Y89.815 E0.9868
G1 X127.826 Y89.837 E0.9942
G1 X127.829 Y89.838 E0.9944
G1 X128.604 Y90.002 E1.0418
G1 X128.608 Y90.003 E1.0420
G1 X128.727 Y90.032 E1.0494
G1 X128.731 Y90.033 E1.0496
G1 X129.494 Y90.244 E1.0971
G1 X129.498 Y90.245 E1.0973
G1 X129.616 Y90.281 E1.1047
G1 X129.619 Y90.282 E1.1049
G1 X130.369 Y90.539 E1.1523
G1 X130.372 Y90.540 E1.1525
G1 X130.488 Y90.583 E1.1599
G1 X130.491 Y90.584 E1.1601
G1 X131.224 Y90.885 E1.2076
G1 X131.228 Y90.886 E1.2078
G1 X131.340 Y90.936 E1.2152
G1 X131.343 Y90.938 E1.2154
G1 X132.057 Y91.282 E1.2628
G1 X132.060 Y91.283 E1.2630
G1 X132.170 Y91.340 E1.2704
G1 X132.173 Y91.342 E1.2706
G1 X132.865 Y91.728 E1.3181
G1 X132.868 Y91.729 E1.3183
G1 X132.974 Y91.793 E1.3257
G1 X132.977 Y91.795 E1.3259
G1 X133.645 Y92.221 E1.3733
G1 X133.648 Y92.223 E1.3735
G1 X133.750 Y92.293 E1.3809
G1 X133.753 Y92.295 E1.3811
G1 X134.394 Y92.760 E1.4285
G1 X134.396 Y92.762 E1.4288
G1 X134.494 Y92.838 E1.4361
G1 X134.497 Y92.840 E1.4364
G1 X135.109 Y93.343 E1.4838
G1 X135.111 Y93.346 E1.4840
G1 X135.204 Y93.427 E1.4914
G1 X135.207 Y93.429 E1.4916
G1 X135.788 Y93.968 E1.5390
G1 X135.790 Y93.971 E1.5393
G1 X135.878 Y94.057 E1.5466
G1 X135.881 Y94.060 E1.5468
G1 X136.428 Y94.632 E1.5943
G1 X136.431 Y94.635 E1.5945
G1 X136.513 Y94.726 E1.6019
G1 X136.516 Y94.729 E1.6021
G1 X137.028 Y95.334 E1.6495
G1 X137.030 Y95.336 E1.6497
G1 X137.107 Y95.433 E1.6571
G1 X137.109 Y95.436 E1.6573
G1 X137.584 Y96.070 E1.7048
G1 X137.587 Y96.072 E1.7050
G1 X137.657 Y96.173 E1.7124
G1 X137.660 Y96.176 E1.7126
G1 X138.096 Y96.837 E1.7600
G1 X138.098 Y96.840 E1.7602
G1 X138.163 Y96.945 E1.7676
G1 X138.165 Y96.948 E1.7678
G1 X138.561 Y97.635 E1.8153
G1 X138.562 Y97.638 E1.8155
G1 X138.621 Y97.746 E1.8229
G1 X138.623 Y97.749 E1.8231
G1 X138.977 Y98.458 E1.8705
G1 X138.979 Y98.461 E1.8707
G1 X139.030 Y98.573 E1.8781
G1 X139.032 Y98.576 E1.8783
G1 X139.343 Y99.305 E1.9257
G1 X139.345 Y99.308 E1.9260
G1 X139.390 Y99.423 E1.9333
G1 X139.391 Y99.426 E1.9336
G1 X139.658 Y100.172 E1.9810
G1 X139.659 Y100.176 E1.9812
G1 X139.697 Y100.293 E1.9886
G1 X139.698 Y100.296 E1.9888
G1 X139.921 Y101.057 E2.0362
G1 X139.922 Y101.060 E2.0365
G1 X139.953 Y101.180 E2.0438
G1 X139.953 Y101.183 E2.0440
G1 X140.130 Y101.956 E2.0915
G1 X140.131 Y101.959 E2.0917
G1 X140.154 Y102.080 E2.0991
G1 X140.155 Y102.084 E2.0993
G1 X140.285 Y102.865 E2.1467
G1 X140.285 Y102.869 E2.1469
G1 X140.302 Y102.991 E2.1543
G1 X140.302 Y102.994 E2.1545
G1 X140.385 Y103.782 E2.2020
G1 X140.385 Y103.786 E2.2022
G1 X140.395 Y103.909 E2.2096
G1 X140.395 Y103.913 E2.2098
G1 X140.430 Y104.704 E2.2572
G1 X140.431 Y104.708 E2.2574
G1 X140.432 Y104.831 E2.2648
G1 X140.432 Y104.835 E2.2650
G1 X140.421 Y105.627 E2.3125
G1 X140.420 Y105.630 E2.3127
G1 X140.415 Y105.754 E2.3201
G1 X140.415 Y105.757 E2.3203
G1 X140.355 Y106.547 E2.3677
G1 X140.355 Y106.551 E2.3679
G1 X140.342 Y106.673 E2.3753
G1 X140.342 Y106.677 E2.3755
G1 X140.235 Y107.462 E2.4229
G1 X140.235 Y107.466 E2.4232
G1 X140.215 Y107.587 E2.4305
G1 X140.214 Y107.591 E2.4308
G1 X140.061 Y108.368 E2.4782
G1 X140.060 Y108.372 E2.4784
G1 X140.033 Y108.492 E2.4858
G1 X140.032 Y108.495 E2.4860
G1 X139.833 Y109.262 E2.5334
G1 X139.832 Y109.266 E2.5336
G1 X139.797 Y109.384 E2.5410
G1 X139.796 Y109.387 E2.5412
G1 X139.542 Y110.170 E2.5905
G1 X139.540 Y110.175 E2.5908
G1 X139.475 Y110.348 E2.6019
G1 X139.473 Y110.353 E2.6022
G1 X138.875 Y111.753 E2.6934
G1 X138.872 Y111.758 E2.6937
G1 X138.792 Y111.925 E2.7048
G1 X138.790 Y111.930 E2.7051
G1 X138.400 Y112.654 E2.7544
G1 X138.398 Y112.658 E2.7546
G1 X138.336 Y112.764 E2.7620
G1 X138.334 Y112.767 E2.7622
G1 X137.918 Y113.441 E2.8096
G1 X137.916 Y113.444 E2.8098
G1 X137.848 Y113.547 E2.8172
G1 X137.846 Y113.550 E2.8174
G1 X137.390 Y114.198 E2.8649
G1 X137.388 Y114.201 E2.8651
G1 X137.314 Y114.300 E2.8725
G1 X137.312 Y114.303 E2.8727
G1 X136.818 Y114.922 E2.9201
G1 X136.815 Y114.925 E2.9203
G1 X136.736 Y115.019 E2.9277
G1 X136.733 Y115.022 E2.9279
G1 X136.203 Y115.610 E2.9754
G1 X136.201 Y115.613 E2.9756
G1 X136.115 Y115.702 E2.9830
G1 X136.113 Y115.705 E2.9832
G1 X135.549 Y116.261 E3.0306
G1 X135.546 Y116.263 E3.0308
G1 X135.456 Y116.347 E3.0382
G1 X135.453 Y116.349 E3.0384
G1 X134.856 Y116.871 E3.0858
G1 X134.854 Y116.873 E3.0861
G1 X134.758 Y116.951 E3.0934
G1 X134.755 Y116.954 E3.0937
G1 X134.129 Y117.438 E3.1411
G1 X134.126 Y117.440 E3.1413
G1 X134.026 Y117.513 E3.1487
G1 X134.023 Y117.515 E3.1489
G1 X133.369 Y117.961 E3.1963
G1 X133.366 Y117.963 E3.1966
G1 X133.262 Y118.030 E3.2039
G1 X133.259 Y118.031 E3.2041
G1 X132.578 Y118.438 E3.2516
G1 X132.575 Y118.440 E3.2518
G1 X132.468 Y118.500 E3.2592
G1 X132.464 Y118.501 E3.2594
G1 X131.761 Y118.866 E3.3068
G1 X131.758 Y118.868 E3.3070
G1 X131.647 Y118.921 E3.3144
G1 X131.644 Y118.923 E3.3146
G1 X130.920 Y119.245 E3.3621
G1 X130.917 Y119.247 E3.3623
G1 X130.803 Y119.293 E3.3697
G1 X130.799 Y119.295 E3.3699
G1 X130.057 Y119.573 E3.4173
G1 X130.054 Y119.574 E3.4175
G1 X129.937 Y119.614 E3.4249
G1 X129.934 Y119.615 E3.4251
G1 X129.177 Y119.849 E3.4726
G1 X129.173 Y119.850 E3.4728
G1 X129.055 Y119.883 E3.4802
G1 X129.051 Y119.883 E3.4804
G1 X128.281 Y120.071 E3.5278
G1 X128.278 Y120.072 E3.5280
G1 X128.157 Y120.098 E3.5354
G1 X128.154 Y120.098 E3.5356
G1 X127.374 Y120.240 E3.5830
G1 X127.371 Y120.241 E3.5833
G1 X127.249 Y120.259 E3.5906
G1 X127.245 Y120.259 E3.5909
G1 X126.459 Y120.354 E3.6383
G1 X126.455 Y120.354 E3.6385
G1 X126.332 Y120.365 E3.6459
G1 X126.329 Y120.366 E3.6461
G1 X125.538 Y120.413 E3.6935
G1 X125.534 Y120.413 E3.6938
G1 X125.411 Y120.417 E3.7011
G1 X125.407 Y120.417 E3.7013
G1 X124.615 Y120.417 E3.7488
G1 X124.611 Y120.417 E3.7490
G1 X124.488 Y120.413 E3.7564
G1 X124.485 Y120.413 E3.7566
G1 X123.694 Y120.366 E3.8040
G1 X123.690 Y120.365 E3.8042
G1 X123.567 Y120.354 E3.8116
G1 X123.564 Y120.354 E3.8118
G1 X122.777 Y120.259 E3.8593
G1 X122.774 Y120.259 E3.8595
G1 X122.652 Y120.241 E3.8669
G1 X122.648 Y120.240 E3.8671
G1 X121.869 Y120.098 E3.9145
G1 X121.865 Y120.098 E3.9147
G1 X121.744 Y120.072 E3.9221
G1 X121.741 Y120.071 E3.9223
G1 X120.971 Y119.883 E3.9698
G1 X120.968 Y119.883 E3.9700
G1 X120.849 Y119.850 E3.9774
G1 X120.846 Y119.849 E3.9776
G1 X120.088 Y119.615 E4.0250
G1 X120.085 Y119.614 E4.0252
G1 X119.968 Y119.574 E4.0326
G1 X119.965 Y119.573 E4.0328
G1 X119.223 Y119.295 E4.0803
G1 X119.220 Y119.293 E4.0805
G1 X119.106 Y119.247 E4.0878
G1 X119.102 Y119.245 E4.0881
G1 X118.379 Y118.923 E4.1355
G1 X118.375 Y118.921 E4.1357
G1 X118.264 Y118.868 E4.1431
G1 X118.261 Y118.866 E4.1433
G1 X117.558 Y118.501 E4.1907
G1 X117.555 Y118.500 E4.1910
G1 X117.447 Y118.440 E4.1983
G1 X117.444 Y118.438 E4.1986
G1 X116.764 Y118.031 E4.2460
G1 X116.761 Y118.030 E4.2462
G1 X116.657 Y117.963 E4.2536
G1 X116.654 Y117.961 E4.2538
G1 X115.999 Y117.515 E4.3012
G1 X115.996 Y117.513 E4.3014
G1 X115.896 Y117.440 E4.3088
G1 X115.894 Y117.438 E4.3090
G1 X115.267 Y116.954 E4.3565
G1 X115.264 Y116.951 E4.3567
G1 X115.169 Y116.873 E4.3641
G1 X115.166 Y116.871 E4.3643
G1 X114.569 Y116.349 E4.4117
G1 X114.567 Y116.347 E4.4119
G1 X114.476 Y116.263 E4.4193
G1 X114.474 Y116.261 E4.4195
G1 X113.909 Y115.705 E4.4670
G1 X113.907 Y115.702 E4.4672
G1 X113.822 Y115.613 E4.4746
G1 X113.819 Y115.610 E4.4748
G1 X113.289 Y115.022 E4.5222
G1 X113.287 Y115.019 E4.5224
G1 X113.207 Y114.925 E4.5298
G1 X113.205 Y114.922 E4.5300
G1 X112.711 Y114.302 E4.5775
G1 X112.708 Y114.300 E4.5777
G1 X112.634 Y114.201 E4.5851
G1 X112.632 Y114.198 E4.5853
G1 X112.156 Y113.521 E4.6348
G1 X112.153 Y113.517 E4.6351
G1 X112.054 Y113.361 E4.6462
G1 X112.051 Y113.356 E4.6465
G1 X111.292 Y112.041 E4.7374
G1 X111.289 Y112.037 E4.7378
G1 X111.204 Y111.873 E4.7488
G1 X111.202 Y111.868 E4.7491
G1 X110.856 Y111.121 E4.7984
G1 X110.854 Y111.118 E4.7986
G1 X110.806 Y111.005 E4.8060
G1 X110.805 Y111.001 E4.8062
G1 X110.515 Y110.264 E4.8536
G1 X110.514 Y110.260 E4.8539
G1 X110.472 Y110.144 E4.8612
G1 X110.471 Y110.141 E4.8615
G1 X110.226 Y109.387 E4.9089
G1 X110.225 Y109.384 E4.9091
G1 X110.191 Y109.266 E4.9165
G1 X110.190 Y109.262 E4.9167
G1 X109.990 Y108.495 E4.9641
G1 X109.990 Y108.492 E4.9643
G1 X109.962 Y108.372 E4.9717
G1 X109.961 Y108.368 E4.9719
G1 X109.808 Y107.591 E5.0194
G1 X109.808 Y107.587 E5.0196
G1 X109.787 Y107.466 E5.0270
