; generated by Slic3r Prusa Edition 1.40.0+ on 2018-12-28 at 12:04:58

; 

; external perimeters extrusion width = 0.60mm
; perimeters extrusion width = 0.43mm
; infill extrusion width = 0.45mm
; solid infill extrusion width = 0.70mm
; top infill extrusion width = 0.43mm
; support material extrusion width = 0.35mm
; first layer extrusion width = 0.42mm

M107
M115 U3.1.0 ; tell printer latest fw version
M201 X9000 Y9000 Z500 E10000 ; sets maximum accelerations, mm/sec^2
M203 X500 Y500 Z12 E120 ; sets maximum feedrates, mm/sec
M204 S1500 T1500 ; sets acceleration (S) and retract acceleration (T)
M205 X10 Y10 Z0.2 E2.5 ; sets the jerk limits, mm/sec
M205 S0 T0 ; sets the minimum extruding and travel feed rate, mm/sec
M83  ; extruder relative mode
M104 S215 ; set extruder temp
M140 S60 ; set bed temp
M190 S60 ; wait for bed temp
M109 S215 ; wait for extruder temp
G28 W ; home all without mesh bed level
G80 ; mesh bed leveling
G1 Y-3.0 F1000.0 ; go outside print area
G92 E0.0
G1 X60.0 E9.0  F1000.0 ; intro line
G1 X100.0 E12.5  F1000.0 ; intro line
G92 E0.0
M900 K30; Filament gcode
G21 ; set units to millimeters
G90 ; use absolute coordinates
M83 ; use relative distances for extrusion
;BEFORE_LAYER_CHANGE
G92 E0.0
;0.2


G1 E-0.80000 F2100.00000
G1 Z0.600 F10800.000
;AFTER_LAYER_CHANGE
;0.2
G1 X40.314 Y135.395
G1 Z0.200
G1 E0.80000 F2100.00000
M204 S1000
G1 F1800
G1 X39.942 Y134.745 E0.02349
G1 X39.818 Y134.164 E0.01862
G1 X39.745 Y132.103 E0.06468
G1 X39.812 Y107.939 E0.75764
G1 X39.886 Y107.434 E0.01601
G1 X40.073 Y106.963 E0.01589
G1 X40.366 Y106.545 E0.01601
G1 X40.747 Y106.206 E0.01601
G1 X41.235 Y105.950 E0.01726
G1 X127.253 Y73.918 E2.87799
G1 X127.995 Y73.787 E0.02360
G1 X208.004 Y73.787 E2.50863
G1 X208.817 Y73.945 E0.02597
G1 X209.515 Y74.396 E0.02608
G1 X209.995 Y75.076 E0.02608
G1 X210.187 Y75.882 E0.02597
G1 X210.254 Y100.139 E0.76056
G1 X210.115 Y102.538 E0.07536
G1 X209.807 Y103.210 E0.02315
G1 X209.291 Y103.743 E0.02326
G1 X208.764 Y104.026 E0.01878
G1 X122.747 Y136.057 E2.87793
G1 X122.005 Y136.189 E0.02360
G1 X42.416 Y136.213 E2.49548
G1 X41.541 Y136.140 E0.02752
G1 X40.883 Y135.882 E0.02213
G1 X40.360 Y135.434 E0.02161
G1 F8640
G1 X39.942 Y134.745 E-0.18609
G1 X39.818 Y134.164 E-0.13713
G1 X39.751 Y132.274 E-0.43678
G1 E-0.04000 F2100.00000
G1 Z0.800 F10800.000
G1 X42.587 Y133.413
G1 Z0.200
G1 E0.80000 F2100.00000
G1 F1800
G1 X42.587 Y108.587 E0.77840
G1 X121.413 Y108.587 E2.47153
G1 X121.413 Y133.413 E0.77840
G1 X42.647 Y133.413 E2.46965
G1 X42.210 Y133.790 F10800.000
G1 F1800
G1 X42.210 Y132.312 E0.04633
G1 X42.191 Y132.241 E0.00230
G1 X42.210 Y132.236 E0.00062
G1 X42.210 Y108.210 E0.75333
G1 X121.790 Y108.210 E2.49518
G1 X121.790 Y133.790 E0.80204
G1 X42.270 Y133.790 E2.49329
G1 X42.373 Y133.425 F10800.000
G1 F8640
G1 X42.210 Y132.312 E-0.34149
G1 X42.191 Y132.241 E-0.01696
G1 X42.210 Y132.236 E-0.00454
G1 X42.210 Y130.517 E-0.39700
G1 E-0.04000 F2100.00000
G1 Z0.800 F10800.000
G1 X42.700 Y132.535
G1 Z0.200
G1 E0.80000 F2100.00000
G1 F1800
G1 X43.295 Y133.130 E0.02649
G1 X43.831 Y133.130 E0.01684
G1 X42.870 Y132.169 E0.04274
G1 X42.870 Y131.634 E0.01684
G1 X44.366 Y133.130 E0.06655
G1 X44.901 Y133.130 E0.01684
G1 X42.870 Y131.099 E0.09036
G1 X42.870 Y130.564 E0.01684
G1 X45.436 Y133.130 E0.11417
G1 X45.971 Y133.130 E0.01684
G1 X42.870 Y130.029 E0.13798
G1 X42.870 Y129.494 E0.01684
G1 X46.506 Y133.130 E0.16179
G1 X47.041 Y133.130 E0.01684
G1 X42.870 Y128.959 E0.18560
G1 X42.870 Y128.424 E0.01684
G1 X47.576 Y133.130 E0.20941
G1 X48.111 Y133.130 E0.01684
G1 X42.870 Y127.889 E0.23321
G1 X42.870 Y127.354 E0.01684
G1 X48.646 Y133.130 E0.25702
G1 X49.182 Y133.130 E0.01684
G1 X42.870 Y126.818 E0.28083
G1 X42.870 Y126.283 E0.01684
G1 X49.717 Y133.130 E0.30464
G1 X50.252 Y133.130 E0.01684
G1 X42.870 Y125.748 E0.32845
G1 X42.870 Y125.213 E0.01684
G1 X50.787 Y133.130 E0.35226
G1 X51.322 Y133.130 E0.01684
G1 X42.870 Y124.678 E0.37607
G1 X42.870 Y124.143 E0.01684
G1 X51.857 Y133.130 E0.39988
G1 X52.392 Y133.130 E0.01684
G1 X42.870 Y123.608 E0.42368
G1 X42.870 Y123.073 E0.01684
G1 X52.927 Y133.130 E0.44749
G1 X53.462 Y133.130 E0.01684
G1 X42.870 Y122.538 E0.47130
G1 X42.870 Y122.003 E0.01684
G1 X53.997 Y133.130 E0.49511
G1 X54.533 Y133.130 E0.01684
G1 X42.870 Y121.467 E0.51892
G1 X42.870 Y120.932 E0.01684
G1 X55.068 Y133.130 E0.54273
G1 X55.603 Y133.130 E0.01684
G1 X42.870 Y120.397 E0.56654
G1 X42.870 Y119.862 E0.01684
G1 X56.138 Y133.130 E0.59035
G1 X56.673 Y133.130 E0.01684
G1 X42.870 Y119.327 E0.61415
G1 X42.870 Y118.792 E0.01684
G1 X57.208 Y133.130 E0.63796
G1 X57.743 Y133.130 E0.01684
G1 X42.870 Y118.257 E0.66177
G1 X42.870 Y117.722 E0.01684
G1 X58.278 Y133.130 E0.68558
G1 X58.813 Y133.130 E0.01684
G1 X42.870 Y117.187 E0.70939
G1 X42.870 Y116.652 E0.01684
G1 X59.348 Y133.130 E0.73320
G1 X59.884 Y133.130 E0.01684
G1 X42.870 Y116.116 E0.75701
G1 X42.870 Y115.581 E0.01684
G1 X60.419 Y133.130 E0.78082
G1 X60.954 Y133.130 E0.01684
G1 X42.870 Y115.046 E0.80462
G1 X42.870 Y114.511 E0.01684
G1 X61.489 Y133.130 E0.82843
G1 X62.024 Y133.130 E0.01684
G1 X42.870 Y113.976 E0.85224
G1 X42.870 Y113.441 E0.01684
G1 X62.559 Y133.130 E0.87605
G1 X63.094 Y133.130 E0.01684
G1 X42.870 Y112.906 E0.89986
G1 X42.870 Y112.371 E0.01684
G1 X63.629 Y133.130 E0.92367
G1 X64.164 Y133.130 E0.01684
G1 X42.870 Y111.836 E0.94748
G1 X42.870 Y111.300 E0.01684
G1 X64.700 Y133.130 E0.97129
G1 X65.235 Y133.130 E0.01684
G1 X42.870 Y110.765 E0.99509
G1 X42.870 Y110.230 E0.01684
G1 X65.770 Y133.130 E1.01890
G1 X66.305 Y133.130 E0.01684
G1 X42.870 Y109.695 E1.04271
G1 X42.870 Y109.160 E0.01684
G1 X66.840 Y133.130 E1.06652
G1 X67.375 Y133.130 E0.01684
G1 X43.115 Y108.870 E1.07943
G1 X43.650 Y108.870 E0.01684
G1 X67.910 Y133.130 E1.07943
G1 X68.445 Y133.130 E0.01684
G1 X44.185 Y108.870 E1.07943
G1 X44.720 Y108.870 E0.01684
G1 X68.980 Y133.130 E1.07943
G1 X69.515 Y133.130 E0.01684
G1 X45.255 Y108.870 E1.07943
G1 X45.790 Y108.870 E0.01684
G1 X70.051 Y133.130 E1.07943
G1 X70.586 Y133.130 E0.01684
G1 X46.325 Y108.870 E1.07943
G1 X46.860 Y108.870 E0.01684
G1 X71.121 Y133.130 E1.07943
G1 X71.656 Y133.130 E0.01684
G1 X47.396 Y108.870 E1.07943
G1 X47.931 Y108.870 E0.01684
G1 X72.191 Y133.130 E1.07943
G1 X72.726 Y133.130 E0.01684
G1 X48.466 Y108.870 E1.07943
G1 X49.001 Y108.870 E0.01684
G1 X73.261 Y133.130 E1.07943
G1 X73.796 Y133.130 E0.01684
G1 X49.536 Y108.870 E1.07943
G1 X50.071 Y108.870 E0.01684
G1 X74.331 Y133.130 E1.07943
G1 X74.866 Y133.130 E0.01684
G1 X50.606 Y108.870 E1.07943
G1 X51.141 Y108.870 E0.01684
G1 X75.402 Y133.130 E1.07943
G1 X75.937 Y133.130 E0.01684
G1 X51.676 Y108.870 E1.07943
G1 X52.211 Y108.870 E0.01684
G1 X76.472 Y133.130 E1.07943
G1 X77.007 Y133.130 E0.01684
G1 X52.747 Y108.870 E1.07943
G1 X53.282 Y108.870 E0.01684
G1 X77.542 Y133.130 E1.07943
G1 X78.077 Y133.130 E0.01684
G1 X53.817 Y108.870 E1.07943
G1 X54.352 Y108.870 E0.01684
G1 X78.612 Y133.130 E1.07943
G1 X79.147 Y133.130 E0.01684
G1 X54.887 Y108.870 E1.07943
G1 X55.422 Y108.870 E0.01684
G1 X79.682 Y133.130 E1.07943
G1 X80.217 Y133.130 E0.01684
G1 X55.957 Y108.870 E1.07943
G1 X56.492 Y108.870 E0.01684
G1 X80.753 Y133.130 E1.07943
G1 X81.288 Y133.130 E0.01684
G1 X57.027 Y108.870 E1.07943
G1 X57.562 Y108.870 E0.01684
G1 X81.823 Y133.130 E1.07943
G1 X82.358 Y133.130 E0.01684
G1 X58.098 Y108.870 E1.07943
G1 X58.633 Y108.870 E0.01684
G1 X82.893 Y133.130 E1.07943
G1 X83.428 Y133.130 E0.01684
G1 X59.168 Y108.870 E1.07943
G1 X59.703 Y108.870 E0.01684
G1 X83.963 Y133.130 E1.07943
G1 X84.498 Y133.130 E0.01684
G1 X60.238 Y108.870 E1.07943
G1 X60.773 Y108.870 E0.01684
G1 X85.033 Y133.130 E1.07943
G1 X85.568 Y133.130 E0.01684
G1 X61.308 Y108.870 E1.07943
G1 X61.843 Y108.870 E0.01684
G1 X86.104 Y133.130 E1.07943
G1 X86.639 Y133.130 E0.01684
G1 X62.378 Y108.870 E1.07943
G1 X62.914 Y108.870 E0.01684
G1 X87.174 Y133.130 E1.07943
G1 X87.709 Y133.130 E0.01684
G1 X63.449 Y108.870 E1.07943
G1 X63.984 Y108.870 E0.01684
G1 X88.244 Y133.130 E1.07943
G1 X88.779 Y133.130 E0.01684
G1 X64.519 Y108.870 E1.07943
G1 X65.054 Y108.870 E0.01684
G1 X89.314 Y133.130 E1.07943
G1 X89.849 Y133.130 E0.01684
G1 X65.589 Y108.870 E1.07943
G1 X66.124 Y108.870 E0.01684
G1 X90.384 Y133.130 E1.07943
G1 X90.919 Y133.130 E0.01684
G1 X66.659 Y108.870 E1.07943
G1 X67.194 Y108.870 E0.01684
G1 X91.455 Y133.130 E1.07943
G1 X91.990 Y133.130 E0.01684
G1 X67.729 Y108.870 E1.07943
G1 X68.265 Y108.870 E0.01684
G1 X92.525 Y133.130 E1.07943
G1 X93.060 Y133.130 E0.01684
G1 X68.800 Y108.870 E1.07943
G1 X69.335 Y108.870 E0.01684
G1 X93.595 Y133.130 E1.07943
G1 X94.130 Y133.130 E0.01684
G1 X69.870 Y108.870 E1.07943
G1 X70.405 Y108.870 E0.01684
G1 X94.665 Y133.130 E1.07943
G1 X95.200 Y133.130 E0.01684
G1 X70.940 Y108.870 E1.07943
G1 X71.475 Y108.870 E0.01684
G1 X95.735 Y133.130 E1.07943
G1 X96.271 Y133.130 E0.01684
G1 X72.010 Y108.870 E1.07943
G1 X72.545 Y108.870 E0.01684
G1 X96.806 Y133.130 E1.07943
G1 X97.341 Y133.130 E0.01684
G1 X73.080 Y108.870 E1.07943
G1 X73.616 Y108.870 E0.01684
G1 X97.876 Y133.130 E1.07943
G1 X98.411 Y133.130 E0.01684
G1 X74.151 Y108.870 E1.07943
G1 X74.686 Y108.870 E0.01684
G1 X98.946 Y133.130 E1.07943
G1 X99.481 Y133.130 E0.01684
G1 X75.221 Y108.870 E1.07943
G1 X75.756 Y108.870 E0.01684
G1 X100.016 Y133.130 E1.07943
G1 X100.551 Y133.130 E0.01684
G1 X76.291 Y108.870 E1.07943
G1 X76.826 Y108.870 E0.01684
G1 X101.086 Y133.130 E1.07943
G1 X101.622 Y133.130 E0.01684
G1 X77.361 Y108.870 E1.07943
G1 X77.896 Y108.870 E0.01684
G1 X102.157 Y133.130 E1.07943
G1 X102.692 Y133.130 E0.01684
G1 X78.431 Y108.870 E1.07943
G1 X78.967 Y108.870 E0.01684
G1 X103.227 Y133.130 E1.07943
G1 X103.762 Y133.130 E0.01684
G1 X79.502 Y108.870 E1.07943
G1 X80.037 Y108.870 E0.01684
G1 X104.297 Y133.130 E1.07943
G1 X104.832 Y133.130 E0.01684
G1 X80.572 Y108.870 E1.07943
G1 X81.107 Y108.870 E0.01684
G1 X105.367 Y133.130 E1.07943
G1 X105.902 Y133.130 E0.01684
G1 X81.642 Y108.870 E1.07943
G1 X82.177 Y108.870 E0.01684
G1 X106.437 Y133.130 E1.07943
G1 X106.973 Y133.130 E0.01684
G1 X82.712 Y108.870 E1.07943
G1 X83.247 Y108.870 E0.01684
G1 X107.508 Y133.130 E1.07943
G1 X108.043 Y133.130 E0.01684
G1 X83.782 Y108.870 E1.07943
G1 X84.318 Y108.870 E0.01684
G1 X108.578 Y133.130 E1.07943
G1 X109.113 Y133.130 E0.01684
G1 X84.853 Y108.870 E1.07943
G1 X85.388 Y108.870 E0.01684
G1 X109.648 Y133.130 E1.07943
G1 X110.183 Y133.130 E0.01684
G1 X85.923 Y108.870 E1.07943
G1 X86.458 Y108.870 E0.01684
G1 X110.718 Y133.130 E1.07943
G1 X111.253 Y133.130 E0.01684
G1 X86.993 Y108.870 E1.07943
G1 X87.528 Y108.870 E0.01684
G1 X111.788 Y133.130 E1.07943
G1 X112.324 Y133.130 E0.01684
G1 X88.063 Y108.870 E1.07943
G1 X88.598 Y108.870 E0.01684
G1 X112.859 Y133.130 E1.07943
G1 X113.394 Y133.130 E0.01684
G1 X89.133 Y108.870 E1.07943
G1 X89.669 Y108.870 E0.01684
G1 X113.929 Y133.130 E1.07943
G1 X114.464 Y133.130 E0.01684
G1 X90.204 Y108.870 E1.07943
G1 X90.739 Y108.870 E0.01684
G1 X114.999 Y133.130 E1.07943
G1 X115.534 Y133.130 E0.01684
G1 X91.274 Y108.870 E1.07943
G1 X91.809 Y108.870 E0.01684
G1 X116.069 Y133.130 E1.07943
G1 X116.604 Y133.130 E0.01684
G1 X92.344 Y108.870 E1.07943
G1 X92.879 Y108.870 E0.01684
G1 X117.139 Y133.130 E1.07943
G1 X117.675 Y133.130 E0.01684
G1 X93.414 Y108.870 E1.07943
G1 X93.949 Y108.870 E0.01684
G1 X118.210 Y133.130 E1.07943
G1 X118.745 Y133.130 E0.01684
G1 X94.485 Y108.870 E1.07943
G1 X95.020 Y108.870 E0.01684
G1 X119.280 Y133.130 E1.07943
G1 X119.815 Y133.130 E0.01684
G1 X95.555 Y108.870 E1.07943
G1 X96.090 Y108.870 E0.01684
G1 X120.350 Y133.130 E1.07943
G1 X120.885 Y133.130 E0.01684
G1 X96.625 Y108.870 E1.07943
G1 X97.160 Y108.870 E0.01684
G1 X121.130 Y132.840 E1.06652
G1 X121.130 Y132.305 E0.01684
G1 X97.695 Y108.870 E1.04271
G1 X98.230 Y108.870 E0.01684
G1 X121.130 Y131.770 E1.01891
G1 X121.130 Y131.235 E0.01684
G1 X98.765 Y108.870 E0.99510
G1 X99.300 Y108.870 E0.01684
G1 X121.130 Y130.700 E0.97129
G1 X121.130 Y130.164 E0.01684
G1 X99.836 Y108.870 E0.94748
G1 X100.371 Y108.870 E0.01684
G1 X121.130 Y129.629 E0.92367
G1 X121.130 Y129.094 E0.01684
G1 X100.906 Y108.870 E0.89986
G1 X101.441 Y108.870 E0.01684
G1 X121.130 Y128.559 E0.87605
G1 X121.130 Y128.024 E0.01684
G1 X101.976 Y108.870 E0.85224
G1 X102.511 Y108.870 E0.01684
G1 X121.130 Y127.489 E0.82844
G1 X121.130 Y126.954 E0.01684
G1 X103.046 Y108.870 E0.80463
G1 X103.581 Y108.870 E0.01684
G1 X121.130 Y126.419 E0.78082
G1 X121.130 Y125.884 E0.01684
G1 X104.116 Y108.870 E0.75701
G1 X104.651 Y108.870 E0.01684
G1 X121.130 Y125.349 E0.73320
G1 X121.130 Y124.813 E0.01684
G1 X105.187 Y108.870 E0.70939
G1 X105.722 Y108.870 E0.01684
G1 X121.130 Y124.278 E0.68558
G1 X121.130 Y123.743 E0.01684
G1 X106.257 Y108.870 E0.66177
G1 X106.792 Y108.870 E0.01684
G1 X121.130 Y123.208 E0.63797
G1 X121.130 Y122.673 E0.01684
G1 X107.327 Y108.870 E0.61416
G1 X107.862 Y108.870 E0.01684
G1 X121.130 Y122.138 E0.59035
G1 X121.130 Y121.603 E0.01684
G1 X108.397 Y108.870 E0.56654
G1 X108.932 Y108.870 E0.01684
G1 X121.130 Y121.068 E0.54273
G1 X121.130 Y120.533 E0.01684
G1 X109.467 Y108.870 E0.51892
G1 X110.002 Y108.870 E0.01684
G1 X121.130 Y119.998 E0.49511
G1 X121.130 Y119.462 E0.01684
G1 X110.538 Y108.870 E0.47130
G1 X111.073 Y108.870 E0.01684
G1 X121.130 Y118.927 E0.44750
G1 X121.130 Y118.392 E0.01684
G1 X111.608 Y108.870 E0.42369
G1 X112.143 Y108.870 E0.01684
G1 X121.130 Y117.857 E0.39988
G1 X121.130 Y117.322 E0.01684
G1 X112.678 Y108.870 E0.37607
G1 X113.213 Y108.870 E0.01684
G1 X121.130 Y116.787 E0.35226
G1 X121.130 Y116.252 E0.01684
G1 X113.748 Y108.870 E0.32845
G1 X114.283 Y108.870 E0.01684
G1 X121.130 Y115.717 E0.30464
G1 X121.130 Y115.182 E0.01684
G1 X114.818 Y108.870 E0.28083
G1 X115.353 Y108.870 E0.01684
G1 X121.130 Y114.647 E0.25703
G1 X121.130 Y114.111 E0.01684
G1 X115.889 Y108.870 E0.23322
G1 X116.424 Y108.870 E0.01684
G1 X121.130 Y113.576 E0.20941
G1 X121.130 Y113.041 E0.01684
G1 X116.959 Y108.870 E0.18560
G1 X117.494 Y108.870 E0.01684
G1 X121.130 Y112.506 E0.16179
G1 X121.130 Y111.971 E0.01684
G1 X118.029 Y108.870 E0.13798
G1 X118.564 Y108.870 E0.01684
G1 X121.130 Y111.436 E0.11417
G1 X121.130 Y110.901 E0.01684
G1 X119.099 Y108.870 E0.09036
G1 X119.634 Y108.870 E0.01684
G1 X121.130 Y110.366 E0.06656
G1 X121.130 Y109.831 E0.01684
G1 X120.169 Y108.870 E0.04275
G1 X120.704 Y108.870 E0.01684
G1 X121.300 Y109.465 E0.02649
G1 F8640
G1 X120.704 Y108.870 E-0.19440
G1 X120.169 Y108.870 E-0.12356
G1 X121.130 Y109.831 E-0.31373
G1 X121.130 Y110.366 E-0.12356
G1 X121.116 Y110.351 E-0.00476
G1 E-0.04000 F2100.00000
G1 Z0.800 F10800.000
G1 X128.587 Y101.388
G1 Z0.200
G1 E0.80000 F2100.00000
G1 F1800
G1 X128.587 Y76.562 E0.77840
G1 X207.413 Y76.562 E2.47153
G1 X207.413 Y101.388 E0.77840
G1 X128.647 Y101.388 E2.46965
G1 X128.210 Y101.765 F10800.000
G1 F1800
G1 X128.210 Y76.185 E0.80204
G1 X207.790 Y76.185 E2.49518
G1 X207.790 Y100.212 E0.75333
G1 X207.809 Y100.217 E0.00062
G1 X207.790 Y100.288 E0.00230
G1 X207.790 Y101.765 E0.04633
G1 X128.270 Y101.765 E2.49329
G1 X128.408 Y101.418 F10800.000
G1 F8640
G1 X128.262 Y98.474 E-0.76000
G1 E-0.04000 F2100.00000
G1 Z0.800 F10800.000
G1 X128.700 Y100.510
G1 Z0.200
G1 E0.80000 F2100.00000
G1 F1800
G1 X129.295 Y101.106 E0.02649
G1 X129.831 Y101.106 E0.01684
G1 X128.870 Y100.145 E0.04274
G1 X128.870 Y99.610 E0.01684
G1 X130.366 Y101.106 E0.06655
G1 X130.901 Y101.106 E0.01684
G1 X128.870 Y99.075 E0.09036
G1 X128.870 Y98.540 E0.01684
G1 X131.436 Y101.106 E0.11417
G1 X131.971 Y101.106 E0.01684
G1 X128.870 Y98.004 E0.13798
G1 X128.870 Y97.469 E0.01684
G1 X132.506 Y101.106 E0.16179
G1 X133.041 Y101.106 E0.01684
G1 X128.870 Y96.934 E0.18560
G1 X128.870 Y96.399 E0.01684
G1 X133.576 Y101.106 E0.20941
G1 X134.111 Y101.106 E0.01684
G1 X128.870 Y95.864 E0.23321
G1 X128.870 Y95.329 E0.01684
G1 X134.646 Y101.106 E0.25702
G1 X135.182 Y101.106 E0.01684
G1 X128.870 Y94.794 E0.28083
G1 X128.870 Y94.259 E0.01684
G1 X135.717 Y101.106 E0.30464
G1 X136.252 Y101.106 E0.01684
G1 X128.870 Y93.724 E0.32845
G1 X128.870 Y93.189 E0.01684
G1 X136.787 Y101.106 E0.35226
G1 X137.322 Y101.106 E0.01684
G1 X128.870 Y92.653 E0.37607
G1 X128.870 Y92.118 E0.01684
G1 X137.857 Y101.106 E0.39988
