; generated by Slic3r Prusa Edition 1.40.0+ on 2018-12-27 at 20:27:41

; 

; external perimeters extrusion width = 0.60mm
; perimeters extrusion width = 0.43mm
; infill extrusion width = 0.45mm
; solid infill extrusion width = 0.70mm
; top infill extrusion width = 0.43mm
; support material extrusion width = 0.35mm
; first layer extrusion width = 0.42mm

M107
M115 U3.1.0 ; tell printer latest fw version
M201 X9000 Y9000 Z500 E10000 ; sets maximum accelerations, mm/sec^2
M203 X500 Y500 Z12 E120 ; sets maximum feedrates, mm/sec
M204 S1500 T1500 ; sets acceleration (S) and retract acceleration (T)
M205 X10 Y10 Z0.2 E2.5 ; sets the jerk limits, mm/sec
M205 S0 T0 ; sets the minimum extruding and travel feed rate, mm/sec
M83  ; extruder relative mode
M104 S215 ; set extruder temp
M140 S60 ; set bed temp
M190 S60 ; wait for bed temp
M109 S215 ; wait for extruder temp
G28 W ; home all without mesh bed level
G80 ; mesh bed leveling
G1 Y-3.0 F1000.0 ; go outside print area
G92 E0.0
G1 X60.0 E9.0  F1000.0 ; intro line
G1 X100.0 E12.5  F1000.0 ; intro line
G92 E0.0
M900 K30; Filament gcode
G21 ; set units to millimeters
G90 ; use absolute coordinates
M83 ; use relative distances for extrusion
;BEFORE_LAYER_CHANGE
G92 E0.0
;0.2


G1 E-0.80000 F2100.00000
G1 Z0.600 F10800.000
;AFTER_LAYER_CHANGE
;0.2
G1 X37.402 Y54.107
G1 Z0.200
G1 E0.80000 F2100.00000
M204 S1000
G1 F1800
G1 X37.931 Y53.887 E0.01794
G1 X38.498 Y53.811 E0.01794
G1 X211.504 Y53.811 E5.42448
G1 X212.334 Y53.976 E0.02653
G1 X213.042 Y54.447 E0.02664
G1 X213.516 Y55.147 E0.02653
G1 X213.688 Y55.976 E0.02653
G1 X213.688 Y154.022 E3.07417
G1 X213.610 Y154.581 E0.01771
G1 X213.391 Y155.102 E0.01771
G1 X213.046 Y155.549 E0.01771
G1 X212.598 Y155.893 E0.01771
G1 X212.069 Y156.113 E0.01794
G1 X211.502 Y156.189 E0.01794
G1 X38.489 Y156.189 E5.42471
G1 X37.929 Y156.113 E0.01771
G1 X37.404 Y155.894 E0.01783
G1 X36.953 Y155.548 E0.01783
G1 X36.607 Y155.098 E0.01783
G1 X36.387 Y154.569 E0.01794
G1 X36.311 Y154.006 E0.01783
G1 X36.312 Y55.982 E3.07348
G1 X36.389 Y55.422 E0.01771
G1 X36.607 Y54.901 E0.01771
G1 X36.952 Y54.453 E0.01771
G1 X37.355 Y54.143 E0.01594
G1 F8640
G1 X37.931 Y53.887 E-0.14554
G1 X38.498 Y53.811 E-0.13211
G1 X40.587 Y53.811 E-0.48234
G1 E-0.04000 F2100.00000
G1 Z0.800 F10800.000
G1 X39.087 Y108.587
G1 Z0.200
G1 E0.80000 F2100.00000
G1 F1800
G1 X210.913 Y108.587 E5.38748
G1 X210.913 Y117.413 E0.27673
G1 X47.913 Y117.413 E5.11075
G1 X47.913 Y144.587 E0.85203
G1 X210.913 Y144.587 E5.11075
G1 X210.913 Y153.413 E0.27673
G1 X39.087 Y153.413 E5.38748
G1 X39.087 Y108.647 E1.40360
G1 F8640
G1 X42.379 Y108.646 E-0.76000
G1 E-0.04000 F2100.00000
G1 Z0.800 F10800.000
G1 X48.290 Y117.790
G1 Z0.200
G1 E0.80000 F2100.00000
G1 F1800
G1 X48.290 Y144.210 E0.82838
G1 X211.290 Y144.210 E5.11075
G1 X211.290 Y153.790 E0.30037
G1 X38.710 Y153.790 E5.41112
G1 X38.710 Y108.210 E1.42913
G1 X211.290 Y108.210 E5.41112
G1 X211.290 Y117.790 E0.30037
G1 X48.350 Y117.790 E5.10887
G1 X47.890 Y117.798 F10800.000
G1 F8640
G1 X48.343 Y121.081 E-0.76000
G1 E-0.04000 F2100.00000
G1 Z0.800 F10800.000
G1 X39.200 Y152.536
G1 Z0.200
G1 E0.80000 F2100.00000
G1 F1800
G1 X39.794 Y153.130 E0.02636
G1 X40.328 Y153.130 E0.01677
G1 X39.370 Y152.172 E0.04254
G1 X39.370 Y151.638 E0.01677
G1 X40.862 Y153.130 E0.06625
G1 X41.396 Y153.130 E0.01677
G1 X39.370 Y151.104 E0.08996
G1 X39.370 Y150.570 E0.01677
G1 X41.930 Y153.130 E0.11367
G1 X42.464 Y153.130 E0.01677
G1 X39.370 Y150.036 E0.13739
G1 X39.370 Y149.502 E0.01677
G1 X42.998 Y153.130 E0.16110
G1 X43.532 Y153.130 E0.01677
G1 X39.370 Y148.968 E0.18481
G1 X39.370 Y148.434 E0.01677
G1 X44.066 Y153.130 E0.20852
G1 X44.600 Y153.130 E0.01677
G1 X39.370 Y147.900 E0.23223
G1 X39.370 Y147.366 E0.01677
G1 X45.134 Y153.130 E0.25594
G1 X45.668 Y153.130 E0.01677
G1 X39.370 Y146.832 E0.27966
G1 X39.370 Y146.298 E0.01677
G1 X46.202 Y153.130 E0.30337
G1 X46.736 Y153.130 E0.01677
G1 X39.370 Y145.764 E0.32708
G1 X39.370 Y145.230 E0.01677
G1 X47.270 Y153.130 E0.35079
G1 X47.804 Y153.130 E0.01677
G1 X39.370 Y144.696 E0.37450
G1 X39.370 Y144.162 E0.01677
G1 X48.338 Y153.130 E0.39822
G1 X48.872 Y153.130 E0.01677
G1 X39.370 Y143.628 E0.42193
G1 X39.370 Y143.094 E0.01677
G1 X49.406 Y153.130 E0.44564
G1 X49.940 Y153.130 E0.01677
G1 X39.370 Y142.560 E0.46935
G1 X39.370 Y142.026 E0.01677
G1 X50.474 Y153.130 E0.49306
G1 X51.008 Y153.130 E0.01677
G1 X39.370 Y141.492 E0.51677
G1 X39.370 Y140.958 E0.01677
G1 X51.542 Y153.130 E0.54049
G1 X52.076 Y153.130 E0.01677
G1 X39.370 Y140.424 E0.56420
G1 X39.370 Y139.890 E0.01677
G1 X52.610 Y153.130 E0.58791
G1 X53.144 Y153.130 E0.01677
G1 X39.370 Y139.356 E0.61162
G1 X39.370 Y138.822 E0.01677
G1 X53.678 Y153.130 E0.63533
G1 X54.212 Y153.130 E0.01677
G1 X39.370 Y138.288 E0.65905
G1 X39.370 Y137.754 E0.01677
G1 X54.746 Y153.130 E0.68276
G1 X55.280 Y153.130 E0.01677
G1 X39.370 Y137.220 E0.70647
G1 X39.370 Y136.686 E0.01677
G1 X55.984 Y153.300 E0.73772
G1 F8640
G1 X53.656 Y150.972 E-0.76000
G1 E-0.04000 F2100.00000
G1 Z0.800 F10800.000
G1 X210.800 Y145.242
G1 Z0.200
G1 E0.80000 F2100.00000
G1 F1800
G1 X210.427 Y144.870 E0.01654
G1 X209.893 Y144.870 E0.01677
G1 X210.630 Y145.607 E0.03272
G1 X210.630 Y146.141 E0.01677
G1 X209.359 Y144.870 E0.05643
G1 X208.825 Y144.870 E0.01677
G1 X210.630 Y146.675 E0.08014
G1 X210.630 Y147.209 E0.01677
G1 X208.291 Y144.870 E0.10385
G1 X207.757 Y144.870 E0.01677
G1 X210.630 Y147.743 E0.12756
G1 X210.630 Y148.277 E0.01677
G1 X207.223 Y144.870 E0.15127
G1 X206.689 Y144.870 E0.01677
G1 X210.630 Y148.811 E0.17499
G1 X210.630 Y149.345 E0.01677
G1 X206.155 Y144.870 E0.19870
G1 X205.621 Y144.870 E0.01677
G1 X210.630 Y149.879 E0.22241
G1 X210.630 Y150.413 E0.01677
G1 X205.087 Y144.870 E0.24612
G1 X204.553 Y144.870 E0.01677
G1 X210.630 Y150.947 E0.26983
G1 X210.630 Y151.481 E0.01677
G1 X204.019 Y144.870 E0.29355
G1 X203.485 Y144.870 E0.01677
G1 X210.630 Y152.015 E0.31726
G1 X210.630 Y152.549 E0.01677
G1 X202.951 Y144.870 E0.34097
G1 X202.417 Y144.870 E0.01677
G1 X210.630 Y153.083 E0.36468
G1 X210.630 Y153.130 E0.00149
G1 X210.143 Y153.130 E0.01528
G1 X201.883 Y144.870 E0.36678
G1 X201.349 Y144.870 E0.01677
G1 X209.609 Y153.130 E0.36678
G1 X209.075 Y153.130 E0.01677
G1 X200.815 Y144.870 E0.36678
G1 X200.281 Y144.870 E0.01677
G1 X208.541 Y153.130 E0.36678
G1 X208.007 Y153.130 E0.01677
G1 X199.747 Y144.870 E0.36678
G1 X199.213 Y144.870 E0.01677
G1 X207.473 Y153.130 E0.36678
G1 X206.939 Y153.130 E0.01677
G1 X198.679 Y144.870 E0.36678
G1 X198.145 Y144.870 E0.01677
G1 X206.405 Y153.130 E0.36678
G1 X205.871 Y153.130 E0.01677
G1 X197.611 Y144.870 E0.36678
G1 X197.077 Y144.870 E0.01677
G1 X205.337 Y153.130 E0.36678
G1 X204.803 Y153.130 E0.01677
G1 X196.543 Y144.870 E0.36678
G1 X196.009 Y144.870 E0.01677
G1 X204.269 Y153.130 E0.36678
G1 X203.735 Y153.130 E0.01677
G1 X195.475 Y144.870 E0.36678
G1 X194.941 Y144.870 E0.01677
G1 X203.201 Y153.130 E0.36678
G1 X202.667 Y153.130 E0.01677
G1 X194.407 Y144.870 E0.36678
G1 X193.873 Y144.870 E0.01677
G1 X202.133 Y153.130 E0.36678
G1 X201.599 Y153.130 E0.01677
G1 X193.339 Y144.870 E0.36678
G1 X192.805 Y144.870 E0.01677
G1 X201.065 Y153.130 E0.36678
G1 X200.531 Y153.130 E0.01677
G1 X192.271 Y144.870 E0.36678
G1 X191.737 Y144.870 E0.01677
G1 X199.997 Y153.130 E0.36678
G1 X199.463 Y153.130 E0.01677
G1 X191.203 Y144.870 E0.36678
G1 X190.669 Y144.870 E0.01677
G1 X198.929 Y153.130 E0.36678
G1 X198.395 Y153.130 E0.01677
G1 X190.135 Y144.870 E0.36678
G1 X189.601 Y144.870 E0.01677
G1 X197.861 Y153.130 E0.36678
G1 X197.327 Y153.130 E0.01677
G1 X189.067 Y144.870 E0.36678
G1 X188.533 Y144.870 E0.01677
G1 X196.793 Y153.130 E0.36678
G1 X196.259 Y153.130 E0.01677
G1 X187.999 Y144.870 E0.36678
G1 X187.465 Y144.870 E0.01677
G1 X195.725 Y153.130 E0.36678
G1 X195.191 Y153.130 E0.01677
G1 X186.931 Y144.870 E0.36678
G1 X186.397 Y144.870 E0.01677
G1 X194.657 Y153.130 E0.36678
G1 X194.123 Y153.130 E0.01677
G1 X185.863 Y144.870 E0.36678
G1 X185.329 Y144.870 E0.01677
G1 X193.589 Y153.130 E0.36678
G1 X193.055 Y153.130 E0.01677
G1 X184.795 Y144.870 E0.36678
G1 X184.261 Y144.870 E0.01677
G1 X192.521 Y153.130 E0.36678
G1 X191.987 Y153.130 E0.01677
G1 X183.727 Y144.870 E0.36678
G1 X183.193 Y144.870 E0.01677
G1 X191.453 Y153.130 E0.36678
G1 X190.919 Y153.130 E0.01677
G1 X182.659 Y144.870 E0.36678
G1 X182.125 Y144.870 E0.01677
G1 X190.385 Y153.130 E0.36678
G1 X189.851 Y153.130 E0.01677
G1 X181.591 Y144.870 E0.36678
G1 X181.057 Y144.870 E0.01677
G1 X189.317 Y153.130 E0.36678
G1 X188.783 Y153.130 E0.01677
G1 X180.523 Y144.870 E0.36678
G1 X179.989 Y144.870 E0.01677
G1 X188.249 Y153.130 E0.36678
G1 X187.715 Y153.130 E0.01677
G1 X179.455 Y144.870 E0.36678
G1 X178.921 Y144.870 E0.01677
G1 X187.181 Y153.130 E0.36678
G1 X186.647 Y153.130 E0.01677
G1 X178.387 Y144.870 E0.36678
G1 X177.853 Y144.870 E0.01677
G1 X186.113 Y153.130 E0.36678
G1 X185.579 Y153.130 E0.01677
G1 X177.319 Y144.870 E0.36678
G1 X176.785 Y144.870 E0.01677
G1 X185.045 Y153.130 E0.36678
G1 X184.511 Y153.130 E0.01677
G1 X176.251 Y144.870 E0.36678
G1 X175.717 Y144.870 E0.01677
G1 X183.977 Y153.130 E0.36678
G1 X183.443 Y153.130 E0.01677
G1 X175.183 Y144.870 E0.36678
G1 X174.649 Y144.870 E0.01677
G1 X182.909 Y153.130 E0.36678
G1 X182.375 Y153.130 E0.01677
G1 X174.115 Y144.870 E0.36678
G1 X173.581 Y144.870 E0.01677
G1 X181.841 Y153.130 E0.36678
G1 X181.307 Y153.130 E0.01677
G1 X173.047 Y144.870 E0.36678
G1 X172.513 Y144.870 E0.01677
G1 X180.773 Y153.130 E0.36678
G1 X180.239 Y153.130 E0.01677
G1 X171.979 Y144.870 E0.36678
G1 X171.445 Y144.870 E0.01677
G1 X179.705 Y153.130 E0.36678
G1 X179.171 Y153.130 E0.01677
G1 X170.911 Y144.870 E0.36678
G1 X170.377 Y144.870 E0.01677
G1 X178.637 Y153.130 E0.36678
G1 X178.103 Y153.130 E0.01677
G1 X169.843 Y144.870 E0.36678
G1 X169.308 Y144.870 E0.01677
G1 X177.569 Y153.130 E0.36678
G1 X177.035 Y153.130 E0.01677
G1 X168.774 Y144.870 E0.36678
G1 X168.240 Y144.870 E0.01677
G1 X176.501 Y153.130 E0.36678
G1 X175.967 Y153.130 E0.01677
G1 X167.706 Y144.870 E0.36678
G1 X167.172 Y144.870 E0.01677
G1 X175.433 Y153.130 E0.36678
G1 X174.899 Y153.130 E0.01677
G1 X166.638 Y144.870 E0.36678
G1 X166.104 Y144.870 E0.01677
G1 X174.365 Y153.130 E0.36678
G1 X173.831 Y153.130 E0.01677
G1 X165.570 Y144.870 E0.36678
G1 X165.036 Y144.870 E0.01677
G1 X173.297 Y153.130 E0.36678
G1 X172.763 Y153.130 E0.01677
G1 X164.502 Y144.870 E0.36678
G1 X163.968 Y144.870 E0.01677
G1 X172.229 Y153.130 E0.36678
G1 X171.695 Y153.130 E0.01677
G1 X163.434 Y144.870 E0.36678
G1 X162.900 Y144.870 E0.01677
G1 X171.161 Y153.130 E0.36678
G1 X170.627 Y153.130 E0.01677
G1 X162.366 Y144.870 E0.36678
G1 X161.832 Y144.870 E0.01677
G1 X170.093 Y153.130 E0.36678
G1 X169.559 Y153.130 E0.01677
G1 X161.298 Y144.870 E0.36678
G1 X160.764 Y144.870 E0.01677
G1 X169.025 Y153.130 E0.36678
G1 X168.491 Y153.130 E0.01677
G1 X160.230 Y144.870 E0.36678
G1 X159.696 Y144.870 E0.01677
G1 X167.957 Y153.130 E0.36678
G1 X167.423 Y153.130 E0.01677
G1 X159.162 Y144.870 E0.36678
G1 X158.628 Y144.870 E0.01677
G1 X166.889 Y153.130 E0.36678
G1 X166.355 Y153.130 E0.01677
G1 X158.094 Y144.870 E0.36678
G1 X157.560 Y144.870 E0.01677
G1 X165.821 Y153.130 E0.36678
G1 X165.287 Y153.130 E0.01677
G1 X157.026 Y144.870 E0.36678
G1 X156.492 Y144.870 E0.01677
G1 X164.752 Y153.130 E0.36678
G1 X164.218 Y153.130 E0.01677
G1 X155.958 Y144.870 E0.36678
G1 X155.424 Y144.870 E0.01677
G1 X163.684 Y153.130 E0.36678
G1 X163.150 Y153.130 E0.01677
G1 X154.890 Y144.870 E0.36678
G1 X154.356 Y144.870 E0.01677
G1 X162.616 Y153.130 E0.36678
G1 X162.082 Y153.130 E0.01677
G1 X153.822 Y144.870 E0.36678
G1 X153.288 Y144.870 E0.01677
G1 X161.548 Y153.130 E0.36678
G1 X161.014 Y153.130 E0.01677
G1 X152.754 Y144.870 E0.36678
G1 X152.220 Y144.870 E0.01677
G1 X160.480 Y153.130 E0.36678
G1 X159.946 Y153.130 E0.01677
G1 X151.686 Y144.870 E0.36678
G1 X151.152 Y144.870 E0.01677
G1 X159.412 Y153.130 E0.36678
G1 X158.878 Y153.130 E0.01677
G1 X150.618 Y144.870 E0.36678
G1 X150.084 Y144.870 E0.01677
G1 X158.344 Y153.130 E0.36678
G1 X157.810 Y153.130 E0.01677
G1 X149.550 Y144.870 E0.36678
G1 X149.016 Y144.870 E0.01677
G1 X157.276 Y153.130 E0.36678
G1 X156.742 Y153.130 E0.01677
G1 X148.482 Y144.870 E0.36678
G1 X147.948 Y144.870 E0.01677
G1 X156.208 Y153.130 E0.36678
G1 X155.674 Y153.130 E0.01677
G1 X147.414 Y144.870 E0.36678
G1 X146.880 Y144.870 E0.01677
G1 X155.140 Y153.130 E0.36678
G1 X154.606 Y153.130 E0.01677
G1 X146.346 Y144.870 E0.36678
G1 X145.812 Y144.870 E0.01677
G1 X154.072 Y153.130 E0.36678
G1 X153.538 Y153.130 E0.01677
G1 X145.278 Y144.870 E0.36678
G1 X144.744 Y144.870 E0.01677
G1 X153.004 Y153.130 E0.36678
G1 X152.470 Y153.130 E0.01677
G1 X144.210 Y144.870 E0.36678
G1 X143.676 Y144.870 E0.01677
G1 X151.936 Y153.130 E0.36678
G1 X151.402 Y153.130 E0.01677
G1 X143.142 Y144.870 E0.36678
G1 X142.608 Y144.870 E0.01677
G1 X150.868 Y153.130 E0.36678
G1 X150.334 Y153.130 E0.01677
G1 X142.074 Y144.870 E0.36678
G1 X141.540 Y144.870 E0.01677
G1 X149.800 Y153.130 E0.36678
G1 X149.266 Y153.130 E0.01677
G1 X141.006 Y144.870 E0.36678
G1 X140.472 Y144.870 E0.01677
G1 X148.732 Y153.130 E0.36678
G1 X148.198 Y153.130 E0.01677
G1 X139.938 Y144.870 E0.36678
G1 X139.404 Y144.870 E0.01677
G1 X147.664 Y153.130 E0.36678
G1 X147.130 Y153.130 E0.01677
G1 X138.870 Y144.870 E0.36678
G1 X138.336 Y144.870 E0.01677
G1 X146.596 Y153.130 E0.36678
G1 X146.062 Y153.130 E0.01677
G1 X137.802 Y144.870 E0.36678
G1 X137.268 Y144.870 E0.01677
G1 X145.528 Y153.130 E0.36678
G1 X144.994 Y153.130 E0.01677
G1 X136.734 Y144.870 E0.36678
G1 X136.200 Y144.870 E0.01677
G1 X144.460 Y153.130 E0.36678
G1 X143.926 Y153.130 E0.01677
G1 X135.666 Y144.870 E0.36678
G1 X135.132 Y144.870 E0.01677
G1 X143.392 Y153.130 E0.36678
G1 X142.858 Y153.130 E0.01677
G1 X134.598 Y144.870 E0.36678
G1 X134.064 Y144.870 E0.01677
G1 X142.324 Y153.130 E0.36678
G1 X141.790 Y153.130 E0.01677
G1 X133.530 Y144.870 E0.36678
G1 X132.996 Y144.870 E0.01677
G1 X141.256 Y153.130 E0.36678
G1 X140.722 Y153.130 E0.01677
G1 X132.462 Y144.870 E0.36678
G1 X131.928 Y144.870 E0.01677
G1 X140.188 Y153.130 E0.36678
G1 X139.654 Y153.130 E0.01677
G1 X131.394 Y144.870 E0.36678
G1 X130.860 Y144.870 E0.01677
G1 X139.120 Y153.130 E0.36678
G1 X138.586 Y153.130 E0.01677
G1 X130.326 Y144.870 E0.36678
G1 X129.792 Y144.870 E0.01677
G1 X138.052 Y153.130 E0.36678
G1 X137.518 Y153.130 E0.01677
G1 X129.258 Y144.870 E0.36678
G1 X128.724 Y144.870 E0.01677
G1 X136.984 Y153.130 E0.36678
G1 X136.450 Y153.130 E0.01677
G1 X128.190 Y144.870 E0.36678
G1 X127.656 Y144.870 E0.01677
G1 X135.916 Y153.130 E0.36678
G1 X135.382 Y153.130 E0.01677
G1 X127.122 Y144.870 E0.36678
G1 X126.588 Y144.870 E0.01677
G1 X134.848 Y153.130 E0.36678
G1 X134.314 Y153.130 E0.01677
G1 X126.054 Y144.870 E0.36678
G1 X125.520 Y144.870 E0.01677
G1 X133.780 Y153.130 E0.36678
G1 X133.246 Y153.130 E0.01677
G1 X124.986 Y144.870 E0.36678
G1 X124.452 Y144.870 E0.01677
G1 X132.712 Y153.130 E0.36678
G1 X132.178 Y153.130 E0.01677
G1 X123.918 Y144.870 E0.36678
G1 X123.384 Y144.870 E0.01677
G1 X131.644 Y153.130 E0.36678
G1 X131.110 Y153.130 E0.01677
G1 X122.850 Y144.870 E0.36678
G1 X122.316 Y144.870 E0.01677
G1 X130.576 Y153.130 E0.36678
G1 X130.042 Y153.130 E0.01677
G1 X121.781 Y144.870 E0.36678
G1 X121.247 Y144.870 E0.01677
G1 X129.508 Y153.130 E0.36678
G1 X128.974 Y153.130 E0.01677
G1 X120.713 Y144.870 E0.36678
G1 X120.179 Y144.870 E0.01677
G1 X128.440 Y153.130 E0.36678
G1 X127.906 Y153.130 E0.01677
G1 X119.645 Y144.870 E0.36678
G1 X119.111 Y144.870 E0.01677
G1 X127.372 Y153.130 E0.36678
G1 X126.838 Y153.130 E0.01677
G1 X118.577 Y144.870 E0.36678
G1 X118.043 Y144.870 E0.01677
G1 X126.304 Y153.130 E0.36678
G1 X125.770 Y153.130 E0.01677
G1 X117.509 Y144.870 E0.36678
G1 X116.975 Y144.870 E0.01677
G1 X125.236 Y153.130 E0.36678
G1 X124.702 Y153.130 E0.01677
G1 X116.441 Y144.870 E0.36678
G1 X115.907 Y144.870 E0.01677
G1 X124.168 Y153.130 E0.36678
G1 X123.634 Y153.130 E0.01677
G1 X115.373 Y144.870 E0.36678
G1 X114.839 Y144.870 E0.01677
G1 X123.100 Y153.130 E0.36678
G1 X122.566 Y153.130 E0.01677
G1 X114.305 Y144.870 E0.36678
G1 X113.771 Y144.870 E0.01677
G1 X122.032 Y153.130 E0.36678
