; G-Code generated by Simplify3D(R) Version 4.0.0
; Jan 1, 2018 at 3:03:05 PM
; Settings Summary
;   processName,Process1
;   applyToModels,peugeot-pepper-mill-base,peugeot-pepper-mill-base(2)
;   profileName,Prusa Research Original Prusa i3 MK2 (modified)
;   profileVersion,2017-07-23 22:27:18
;   baseProfile,
;   printMaterial,PLA
;   printQuality,Fast
;   printExtruders,
;   extruderName,Primary Extruder
;   extruderToolheadNumber,0
;   extruderDiameter,0.4
;   extruderAutoWidth,1
;   extruderWidth,0.48
;   extrusionMultiplier,1
;   extruderUseRetract,1
;   extruderRetractionDistance,1.5
;   extruderExtraRestartDistance,0
;   extruderRetractionZLift,0
;   extruderRetractionSpeed,1800
;   extruderUseCoasting,1
;   extruderCoastingDistance,0.2
;   extruderUseWipe,1
;   extruderWipeDistance,2
;   primaryExtruder,0
;   layerHeight,0.35
;   topSolidLayers,2
;   bottomSolidLayers,2
;   perimeterOutlines,2
;   printPerimetersInsideOut,1
;   startPointOption,2
;   startPointOriginX,0
;   startPointOriginY,0
;   sequentialIslands,0
;   spiralVaseMode,0
;   firstLayerHeightPercentage,100
;   firstLayerWidthPercentage,110
;   firstLayerUnderspeed,0.5
;   useRaft,0
;   raftExtruder,0
;   raftTopLayers,3
;   raftBaseLayers,2
;   raftOffset,3
;   raftSeparationDistance,0.14
;   raftTopInfill,100
;   aboveRaftSpeedMultiplier,0.3
;   useSkirt,1
;   skirtExtruder,0
;   skirtLayers,1
;   skirtOutlines,1
;   skirtOffset,4
;   usePrimePillar,0
;   primePillarExtruder,999
;   primePillarWidth,12
;   primePillarLocation,7
;   primePillarSpeedMultiplier,1
;   useOozeShield,0
;   oozeShieldExtruder,999
;   oozeShieldOffset,2
;   oozeShieldOutlines,1
;   oozeShieldSidewallShape,1
;   oozeShieldSidewallAngle,30
;   oozeShieldSpeedMultiplier,1
;   infillExtruder,0
;   internalInfillPattern,Fast Honeycomb
;   externalInfillPattern,Rectilinear
;   infillPercentage,15
;   outlineOverlapPercentage,20
;   infillExtrusionWidthPercentage,100
;   minInfillLength,5
;   infillLayerInterval,1
;   internalInfillAngles,0
;   overlapInternalInfillAngles,0
;   externalInfillAngles,45,-45
;   generateSupport,0
;   supportExtruder,0
;   supportInfillPercentage,25
;   supportExtraInflation,0
;   supportBaseLayers,0
;   denseSupportExtruder,0
;   denseSupportLayers,0
;   denseSupportInfillPercentage,70
;   supportLayerInterval,1
;   supportHorizontalPartOffset,0.3
;   supportUpperSeparationLayers,1
;   supportLowerSeparationLayers,1
;   supportType,0
;   supportGridSpacing,4
;   maxOverhangAngle,45
;   supportAngles,0
;   temperatureName,Primary Extruder,Heated Bed
;   temperatureNumber,0,0
;   temperatureSetpointCount,1,1
;   temperatureSetpointLayers,1,1
;   temperatureSetpointTemperatures,210,60
;   temperatureStabilizeAtStartup,1,1
;   temperatureHeatedBed,0,1
;   temperatureRelayBetweenLayers,0,0
;   temperatureRelayBetweenLoops,0,0
;   fanLayers,1,2
;   fanSpeeds,0,100
;   blipFanToFullPower,0
;   adjustSpeedForCooling,1
;   minSpeedLayerTime,15
;   minCoolingSpeedSlowdown,20
;   increaseFanForCooling,0
;   minFanLayerTime,45
;   maxCoolingFanSpeed,100
;   increaseFanForBridging,0
;   bridgingFanSpeed,100
;   use5D,1
;   relativeEdistances,0
;   allowEaxisZeroing,1
;   independentExtruderAxes,0
;   includeM10123,0
;   stickySupport,1
;   applyToolheadOffsets,0
;   gcodeXoffset,0
;   gcodeYoffset,0
;   gcodeZoffset,0
;   overrideMachineDefinition,1
;   machineTypeOverride,0
;   strokeXoverride,250
;   strokeYoverride,210
;   strokeZoverride,200
;   originOffsetXoverride,0
;   originOffsetYoverride,0
;   originOffsetZoverride,0
;   homeXdirOverride,-1
;   homeYdirOverride,-1
;   homeZdirOverride,-1
;   flipXoverride,1
;   flipYoverride,-1
;   flipZoverride,1
;   toolheadOffsets,0,0|0,0|0,0|0,0|0,0|0,0
;   overrideFirmwareConfiguration,1
;   firmwareTypeOverride,RepRap (Marlin/Repetier/Sprinter)
;   GPXconfigOverride,r2
;   baudRateOverride,250000
;   overridePrinterModels,1
;   printerModelsOverride
;   startingGcode,M115 U3.0.7 ; use the latest firmware version,G28 W ; home all axes without mesh bed leveling,G80 ; run mesh bed leveling routine,G1 Y-3.0 F1000.0 ; prepare to prime,G92 E0 ; reset extrusion distance,G1 X60.0 E9.0  F1000.0 ; priming,G1 X100.0 E12.5  F1000.0 ; priming
;   layerChangeGcode,
;   retractionGcode,
;   toolChangeGcode,
;   endingGcode,M106 S0 ; turn off cooling fan,M104 S0 ; turn off extruder,M140 S0 ; turn off bed,G1 X0 Y200 ; part removal,M84 ; disable motors
;   exportFileFormat,gcode
;   celebration,0
;   celebrationSong,Random Song
;   postProcessing,
;   defaultSpeed,2400
;   outlineUnderspeed,0.8
;   solidInfillUnderspeed,0.8
;   supportUnderspeed,0.8
;   rapidXYspeed,4800
;   rapidZspeed,1002
;   minBridgingArea,50
;   bridgingExtraInflation,0
;   bridgingExtrusionMultiplier,1
;   bridgingSpeedMultiplier,1
;   useFixedBridgingAngle,0
;   fixedBridgingAngle,0
;   applyBridgingToPerimeters,0
;   filamentDiameters,1.75|1.75|1.75|1.75|1.75|1.75
;   filamentPricesPerKg,46|46|46|46|46|46
;   filamentDensities,1.25|1.25|1.25|1.25|1.25|1.25
;   useMinPrintHeight,1
;   minPrintHeight,0
;   useMaxPrintHeight,1
;   maxPrintHeight,235
;   useDiaphragm,0
;   diaphragmLayerInterval,20
;   robustSlicing,1
;   mergeAllIntoSolid,0
;   onlyRetractWhenCrossingOutline,1
;   retractBetweenLayers,1
;   useRetractionMinTravel,0
;   retractionMinTravel,3
;   retractWhileWiping,1
;   onlyWipeOutlines,1
;   avoidCrossingOutline,0
;   maxMovementDetourFactor,3
;   toolChangeRetractionDistance,12
;   toolChangeExtraRestartDistance,-0.5
;   toolChangeRetractionSpeed,600
;   externalThinWallType,0
;   internalThinWallType,2
;   thinWallAllowedOverlapPercentage,25
;   singleExtrusionMinLength,1
;   singleExtrusionMinPrintingWidthPercentage,50
;   singleExtrusionMaxPrintingWidthPercentage,200
;   singleExtrusionEndpointExtension,0.2
;   horizontalSizeCompensation,0
G90
M82
M106 S0
M140 S60
M190 S60
M104 S210 T0
M109 S210 T0
M115 U3.0.7 ; use the latest firmware version
G28 W ; home all axes without mesh bed leveling
G80 ; run mesh bed leveling routine
G1 Y-3.0 F1000.0 ; prepare to prime
G92 E0 ; reset extrusion distance
G1 X60.0 E9.0  F1000.0 ; priming
G1 X100.0 E12.5  F1000.0 ; priming
G92 E0
G1 E-1.5000 F1800
G1 Z0.350 F1002
; process Process1
; layer 1, Z = 0.350
T0
; tool H0.350 W0.528
; skirt
G1 X87.885 Y43.751 F4800
G1 E0.0000 F540
G92 E0
G1 X87.917 Y43.690 E0.0053 F1200
G1 X87.918 Y43.688 E0.0055
G1 X88.572 Y42.511 E0.1090
G1 X88.573 Y42.509 E0.1091
G1 X88.608 Y42.448 E0.1145
G1 X88.609 Y42.447 E0.1146
G1 X89.302 Y41.292 E0.2181
G1 X89.303 Y41.290 E0.2182
G1 X89.339 Y41.231 E0.2236
G1 X89.341 Y41.230 E0.2237
G1 X90.072 Y40.099 E0.3272
G1 X90.073 Y40.097 E0.3274
G1 X90.112 Y40.039 E0.3327
G1 X90.113 Y40.038 E0.3329
G1 X90.882 Y38.933 E0.4363
G1 X90.884 Y38.931 E0.4365
G1 X90.924 Y38.874 E0.4418
G1 X90.925 Y38.873 E0.4420
G1 X91.732 Y37.794 E0.5454
G1 X91.733 Y37.793 E0.5456
G1 X91.775 Y37.738 E0.5509
G1 X91.777 Y37.736 E0.5511
G1 X92.619 Y36.685 E0.6546
G1 X92.620 Y36.684 E0.6547
G1 X92.665 Y36.630 E0.6601
G1 X92.666 Y36.628 E0.6602
G1 X93.543 Y35.607 E0.7637
G1 X93.544 Y35.605 E0.7638
G1 X93.591 Y35.553 E0.7692
G1 X93.592 Y35.552 E0.7693
G1 X94.503 Y34.560 E0.8728
G1 X94.505 Y34.559 E0.8730
G1 X94.553 Y34.508 E0.8783
G1 X94.554 Y34.507 E0.8785
G1 X95.502 Y33.543 E0.9823
G1 X95.503 Y33.541 E0.9825
G1 X95.553 Y33.492 E0.9878
G1 X95.554 Y33.491 E0.9880
G1 X96.527 Y32.567 E1.0911
G1 X96.528 Y32.566 E1.0912
G1 X96.579 Y32.519 E1.0966
G1 X96.581 Y32.517 E1.0967
G1 X97.588 Y31.623 E1.2002
G1 X97.589 Y31.622 E1.2003
G1 X97.642 Y31.576 E1.2057
G1 X97.643 Y31.575 E1.2058
G1 X98.680 Y30.715 E1.3093
G1 X98.681 Y30.714 E1.3094
G1 X98.736 Y30.670 E1.3148
G1 X98.737 Y30.669 E1.3149
G1 X99.802 Y29.845 E1.4184
G1 X99.804 Y29.844 E1.4186
G1 X99.860 Y29.802 E1.4239
G1 X99.861 Y29.801 E1.4241
G1 X100.953 Y29.013 E1.5275
G1 X100.955 Y29.012 E1.5277
G1 X101.012 Y28.972 E1.5330
G1 X101.014 Y28.971 E1.5332
G1 X102.132 Y28.220 E1.6366
G1 X102.134 Y28.219 E1.6368
G1 X102.192 Y28.181 E1.6422
G1 X102.194 Y28.180 E1.6423
G1 X103.336 Y27.468 E1.7458
G1 X103.338 Y27.467 E1.7459
G1 X103.398 Y27.431 E1.7513
G1 X103.400 Y27.430 E1.7514
G1 X104.566 Y26.757 E1.8549
G1 X104.568 Y26.756 E1.8550
G1 X104.628 Y26.722 E1.8604
G1 X104.630 Y26.721 E1.8605
G1 X105.818 Y26.088 E1.9640
G1 X105.820 Y26.087 E1.9642
G1 X105.882 Y26.055 E1.9695
G1 X105.884 Y26.054 E1.9697
G1 X107.093 Y25.461 E2.0731
G1 X107.095 Y25.460 E2.0733
G1 X107.158 Y25.431 E2.0786
G1 X107.160 Y25.430 E2.0788
G1 X108.388 Y24.878 E2.1822
G1 X108.390 Y24.877 E2.1824
G1 X108.454 Y24.850 E2.1877
G1 X108.456 Y24.849 E2.1879
G1 X109.702 Y24.339 E2.2914
G1 X109.704 Y24.338 E2.2915
G1 X109.769 Y24.313 E2.2969
G1 X109.771 Y24.312 E2.2970
G1 X111.033 Y23.844 E2.4005
G1 X111.035 Y23.844 E2.4006
G1 X111.101 Y23.821 E2.4060
G1 X111.103 Y23.820 E2.4061
G1 X112.381 Y23.395 E2.5096
G1 X112.383 Y23.395 E2.5098
G1 X112.449 Y23.374 E2.5151
G1 X112.451 Y23.373 E2.5153
G1 X113.743 Y22.992 E2.6187
G1 X113.744 Y22.991 E2.6189
G1 X113.812 Y22.973 E2.6242
G1 X113.813 Y22.972 E2.6244
G1 X115.117 Y22.635 E2.7278
G1 X115.119 Y22.634 E2.7280
G1 X115.187 Y22.618 E2.7333
G1 X115.189 Y22.617 E2.7335
G1 X116.503 Y22.324 E2.8370
G1 X116.505 Y22.324 E2.8371
G1 X116.573 Y22.310 E2.8425
G1 X116.575 Y22.309 E2.8426
G1 X117.899 Y22.060 E2.9461
G1 X117.901 Y22.060 E2.9462
G1 X117.969 Y22.048 E2.9516
G1 X117.971 Y22.048 E2.9517
G1 X119.302 Y21.844 E3.0552
G1 X119.304 Y21.844 E3.0554
G1 X119.373 Y21.834 E3.0607
G1 X119.375 Y21.834 E3.0609
G1 X120.712 Y21.675 E3.1643
G1 X120.714 Y21.675 E3.1645
G1 X120.784 Y21.668 E3.1698
G1 X120.786 Y21.668 E3.1700
G1 X122.128 Y21.554 E3.2734
G1 X122.130 Y21.554 E3.2736
G1 X122.199 Y21.549 E3.2790
G1 X122.201 Y21.549 E3.2791
G1 X123.546 Y21.481 E3.3826
G1 X123.548 Y21.481 E3.3827
G1 X123.617 Y21.479 E3.3881
G1 X123.619 Y21.479 E3.3882
G1 X124.966 Y21.456 E3.4917
G1 X124.968 Y21.456 E3.4918
G1 X125.038 Y21.456 E3.4972
G1 X125.040 Y21.456 E3.4973
G1 X126.386 Y21.479 E3.6008
G1 X126.388 Y21.479 E3.6010
G1 X126.458 Y21.481 E3.6063
G1 X126.460 Y21.481 E3.6065
G1 X127.804 Y21.549 E3.7099
G1 X127.807 Y21.549 E3.7101
G1 X127.876 Y21.554 E3.7154
G1 X127.878 Y21.554 E3.7156
G1 X129.220 Y21.668 E3.8191
G1 X129.222 Y21.668 E3.8192
G1 X129.291 Y21.675 E3.8246
G1 X129.293 Y21.675 E3.8247
G1 X130.630 Y21.834 E3.9282
G1 X130.632 Y21.834 E3.9283
G1 X130.701 Y21.844 E3.9337
G1 X130.703 Y21.844 E3.9338
G1 X132.034 Y22.048 E4.0373
G1 X132.036 Y22.048 E4.0374
G1 X132.105 Y22.060 E4.0428
G1 X132.107 Y22.060 E4.0429
G1 X133.430 Y22.309 E4.1464
G1 X133.432 Y22.310 E4.1466
G1 X133.501 Y22.324 E4.1519
G1 X133.503 Y22.324 E4.1521
G1 X134.817 Y22.617 E4.2555
G1 X134.819 Y22.618 E4.2557
G1 X134.886 Y22.634 E4.2610
G1 X134.888 Y22.635 E4.2612
G1 X136.192 Y22.972 E4.3646
G1 X136.194 Y22.973 E4.3648
G1 X136.261 Y22.991 E4.3702
G1 X136.263 Y22.992 E4.3703
G1 X137.554 Y23.373 E4.4738
G1 X137.556 Y23.374 E4.4739
G1 X137.623 Y23.395 E4.4793
G1 X137.625 Y23.395 E4.4794
G1 X138.903 Y23.820 E4.5829
G1 X138.905 Y23.821 E4.5830
G1 X138.970 Y23.844 E4.5884
G1 X138.972 Y23.844 E4.5885
G1 X140.235 Y24.312 E4.6920
G1 X140.237 Y24.313 E4.6922
G1 X140.302 Y24.338 E4.6975
G1 X140.303 Y24.339 E4.6977
G1 X141.550 Y24.849 E4.8011
G1 X141.552 Y24.850 E4.8013
G1 X141.616 Y24.877 E4.8066
G1 X141.618 Y24.878 E4.8068
G1 X142.846 Y25.430 E4.9103
G1 X142.848 Y25.431 E4.9104
G1 X142.911 Y25.460 E4.9158
G1 X142.912 Y25.461 E4.9159
G1 X144.121 Y26.054 E5.0194
G1 X144.123 Y26.055 E5.0195
G1 X144.185 Y26.087 E5.0249
G1 X144.187 Y26.088 E5.0250
G1 X145.375 Y26.721 E5.1285
G1 X145.377 Y26.722 E5.1286
G1 X145.438 Y26.756 E5.1340
G1 X145.440 Y26.757 E5.1341
G1 X146.606 Y27.430 E5.2376
G1 X146.608 Y27.431 E5.2378
G1 X146.667 Y27.467 E5.2431
G1 X146.669 Y27.468 E5.2433
G1 X147.812 Y28.180 E5.3467
G1 X147.814 Y28.181 E5.3469
G1 X147.872 Y28.219 E5.3522
G1 X147.874 Y28.220 E5.3524
G1 X148.992 Y28.971 E5.4559
G1 X148.993 Y28.972 E5.4560
G1 X149.051 Y29.012 E5.4614
G1 X149.052 Y29.013 E5.4615
G1 X150.144 Y29.801 E5.5650
G1 X150.146 Y29.802 E5.5651
G1 X150.202 Y29.844 E5.5705
G1 X150.203 Y29.845 E5.5706
G1 X151.268 Y30.669 E5.6741
G1 X151.270 Y30.670 E5.6742
G1 X151.324 Y30.714 E5.6796
G1 X151.326 Y30.715 E5.6797
G1 X152.362 Y31.575 E5.7832
G1 X152.364 Y31.576 E5.7834
G1 X152.416 Y31.622 E5.7887
G1 X152.418 Y31.623 E5.7889
G1 X153.425 Y32.517 E5.8923
G1 X153.426 Y32.519 E5.8925
G1 X153.477 Y32.566 E5.8978
G1 X153.479 Y32.567 E5.8980
G1 X154.451 Y33.491 E6.0010
G1 X154.453 Y33.492 E6.0012
G1 X154.502 Y33.541 E6.0065
G1 X154.504 Y33.543 E6.0067
G1 X155.452 Y34.507 E6.1106
G1 X155.453 Y34.508 E6.1107
G1 X155.501 Y34.559 E6.1161
G1 X155.502 Y34.560 E6.1162
G1 X156.413 Y35.552 E6.2197
G1 X156.415 Y35.553 E6.2198
G1 X156.461 Y35.605 E6.2252
G1 X156.462 Y35.607 E6.2254
G1 X157.340 Y36.629 E6.3288
G1 X157.341 Y36.630 E6.3290
G1 X157.385 Y36.684 E6.3343
G1 X157.387 Y36.685 E6.3345
G1 X158.229 Y37.736 E6.4379
G1 X158.230 Y37.738 E6.4381
G1 X158.273 Y37.793 E6.4434
G1 X158.274 Y37.794 E6.4436
G1 X159.080 Y38.873 E6.5471
G1 X159.081 Y38.874 E6.5472
G1 X159.122 Y38.931 E6.5526
G1 X159.123 Y38.933 E6.5527
G1 X159.892 Y40.038 E6.6562
G1 X159.893 Y40.039 E6.6563
G1 X159.932 Y40.097 E6.6617
G1 X159.933 Y40.099 E6.6618
G1 X160.665 Y41.230 E6.7653
G1 X160.666 Y41.231 E6.7655
G1 X160.703 Y41.290 E6.7708
G1 X160.704 Y41.292 E6.7709
G1 X161.397 Y42.447 E6.8744
G1 X161.398 Y42.448 E6.8746
G1 X161.433 Y42.509 E6.8799
G1 X161.434 Y42.511 E6.8801
G1 X162.087 Y43.688 E6.9835
G1 X162.088 Y43.690 E6.9837
G1 X162.121 Y43.751 E6.9890
G1 X162.122 Y43.753 E6.9892
G1 X162.735 Y44.952 E7.0927
G1 X162.736 Y44.954 E7.0928
G1 X162.767 Y45.016 E7.0982
G1 X162.768 Y45.018 E7.0983
G1 X163.340 Y46.237 E7.2018
G1 X163.341 Y46.238 E7.2019
G1 X163.369 Y46.302 E7.2073
G1 X163.370 Y46.304 E7.2074
G1 X163.901 Y47.541 E7.3109
G1 X163.902 Y47.543 E7.3111
G1 X163.929 Y47.608 E7.3164
G1 X163.929 Y47.610 E7.3166
G1 X164.418 Y48.864 E7.4200
G1 X164.419 Y48.866 E7.4202
G1 X164.443 Y48.931 E7.4255
G1 X164.444 Y48.933 E7.4257
G1 X164.890 Y50.204 E7.5291
G1 X164.891 Y50.206 E7.5293
G1 X164.913 Y50.272 E7.5346
G1 X164.913 Y50.274 E7.5348
G1 X165.316 Y51.559 E7.6383
G1 X165.317 Y51.561 E7.6384
G1 X165.337 Y51.627 E7.6438
G1 X165.337 Y51.629 E7.6439
G1 X165.697 Y52.927 E7.7474
G1 X165.697 Y52.929 E7.7475
G1 X165.715 Y52.996 E7.7529
G1 X165.715 Y52.998 E7.7530
G1 X166.031 Y54.307 E7.8565
G1 X166.031 Y54.309 E7.8566
G1 X166.046 Y54.377 E7.8620
G1 X166.047 Y54.379 E7.8621
G1 X166.318 Y55.698 E7.9656
G1 X166.318 Y55.700 E7.9658
G1 X166.331 Y55.769 E7.9711
G1 X166.331 Y55.771 E7.9713
G1 X166.558 Y57.098 E8.0747
G1 X166.558 Y57.100 E8.0749
G1 X166.569 Y57.169 E8.0802
G1 X166.569 Y57.171 E8.0804
G1 X166.750 Y58.505 E8.1838
G1 X166.751 Y58.507 E8.1840
G1 X166.759 Y58.576 E8.1894
G1 X166.759 Y58.578 E8.1895
G1 X166.895 Y59.918 E8.2930
G1 X166.895 Y59.920 E8.2931
G1 X166.901 Y59.990 E8.2985
G1 X166.901 Y59.992 E8.2986
G1 X166.993 Y61.338 E8.4023
G1 X166.993 Y61.340 E8.4025
G1 X166.996 Y61.409 E8.4078
G1 X166.996 Y61.411 E8.4080
G1 X167.042 Y62.755 E8.5113
G1 X167.042 Y62.758 E8.5115
G1 X167.043 Y62.827 E8.5168
G1 X167.043 Y62.829 E8.5169
G1 X167.043 Y64.174 E8.6203
G1 X167.043 Y64.176 E8.6204
G1 X167.042 Y64.245 E8.6258
G1 X167.042 Y64.247 E8.6259
G1 X166.996 Y65.591 E8.7292
G1 X166.996 Y65.593 E8.7294
G1 X166.993 Y65.663 E8.7347
G1 X166.993 Y65.665 E8.7349
G1 X166.901 Y67.011 E8.8386
G1 X166.901 Y67.013 E8.8387
G1 X166.895 Y67.083 E8.8441
G1 X166.895 Y67.085 E8.8442
G1 X166.759 Y68.424 E8.9477
G1 X166.759 Y68.426 E8.9479
G1 X166.751 Y68.496 E8.9532
G1 X166.750 Y68.498 E8.9534
G1 X166.569 Y69.832 E9.0568
G1 X166.569 Y69.834 E9.0570
G1 X166.558 Y69.903 E9.0623
G1 X166.558 Y69.905 E9.0625
G1 X166.331 Y71.232 E9.1659
G1 X166.331 Y71.234 E9.1661
G1 X166.318 Y71.302 E9.1714
G1 X166.318 Y71.304 E9.1716
G1 X166.047 Y72.624 E9.2751
G1 X166.046 Y72.626 E9.2752
G1 X166.031 Y72.693 E9.2806
G1 X166.031 Y72.695 E9.2807
G1 X165.715 Y74.005 E9.3842
G1 X165.715 Y74.007 E9.3843
G1 X165.697 Y74.074 E9.3897
G1 X165.697 Y74.076 E9.3898
G1 X165.337 Y75.374 E9.4933
