; G-Code generated by Simplify3D(R) Version 4.0.0
; Dec 10, 2017 at 8:22:31 PM
; Settings Summary
;   processName,Process1
;   applyToModels,nozzle-fan
;   profileName,Prusa Research Original Prusa i3 MK2 (modified)
;   profileVersion,2017-07-23 22:27:18
;   baseProfile,
;   printMaterial,PLA
;   printQuality,Medium
;   printExtruders,
;   extruderName,Primary Extruder
;   extruderToolheadNumber,0
;   extruderDiameter,0.4
;   extruderAutoWidth,1
;   extruderWidth,0.48
;   extrusionMultiplier,1
;   extruderUseRetract,1
;   extruderRetractionDistance,1.5
;   extruderExtraRestartDistance,0
;   extruderRetractionZLift,0
;   extruderRetractionSpeed,1800
;   extruderUseCoasting,1
;   extruderCoastingDistance,0.2
;   extruderUseWipe,1
;   extruderWipeDistance,2
;   primaryExtruder,0
;   layerHeight,0.15
;   topSolidLayers,3
;   bottomSolidLayers,3
;   perimeterOutlines,3
;   printPerimetersInsideOut,1
;   startPointOption,2
;   startPointOriginX,0
;   startPointOriginY,0
;   sequentialIslands,0
;   spiralVaseMode,0
;   firstLayerHeightPercentage,120
;   firstLayerWidthPercentage,100
;   firstLayerUnderspeed,0.5
;   useRaft,0
;   raftExtruder,0
;   raftTopLayers,3
;   raftBaseLayers,2
;   raftOffset,3
;   raftSeparationDistance,0.14
;   raftTopInfill,100
;   aboveRaftSpeedMultiplier,0.3
;   useSkirt,1
;   skirtExtruder,0
;   skirtLayers,1
;   skirtOutlines,1
;   skirtOffset,4
;   usePrimePillar,0
;   primePillarExtruder,999
;   primePillarWidth,12
;   primePillarLocation,7
;   primePillarSpeedMultiplier,1
;   useOozeShield,0
;   oozeShieldExtruder,999
;   oozeShieldOffset,2
;   oozeShieldOutlines,1
;   oozeShieldSidewallShape,1
;   oozeShieldSidewallAngle,30
;   oozeShieldSpeedMultiplier,1
;   infillExtruder,0
;   internalInfillPattern,Rectilinear
;   externalInfillPattern,Rectilinear
;   infillPercentage,15
;   outlineOverlapPercentage,20
;   infillExtrusionWidthPercentage,100
;   minInfillLength,5
;   infillLayerInterval,1
;   internalInfillAngles,45,-45
;   overlapInternalInfillAngles,0
;   externalInfillAngles,45,-45
;   generateSupport,0
;   supportExtruder,0
;   supportInfillPercentage,30
;   supportExtraInflation,0
;   supportBaseLayers,0
;   denseSupportExtruder,0
;   denseSupportLayers,0
;   denseSupportInfillPercentage,70
;   supportLayerInterval,1
;   supportHorizontalPartOffset,0.3
;   supportUpperSeparationLayers,1
;   supportLowerSeparationLayers,1
;   supportType,0
;   supportGridSpacing,4
;   maxOverhangAngle,45
;   supportAngles,0
;   temperatureName,Primary Extruder,Heated Bed
;   temperatureNumber,0,0
;   temperatureSetpointCount,1,1
;   temperatureSetpointLayers,1,1
;   temperatureSetpointTemperatures,200,60
;   temperatureStabilizeAtStartup,1,1
;   temperatureHeatedBed,0,1
;   temperatureRelayBetweenLayers,0,0
;   temperatureRelayBetweenLoops,0,0
;   fanLayers,1,2
;   fanSpeeds,0,100
;   blipFanToFullPower,0
;   adjustSpeedForCooling,1
;   minSpeedLayerTime,15
;   minCoolingSpeedSlowdown,20
;   increaseFanForCooling,0
;   minFanLayerTime,45
;   maxCoolingFanSpeed,100
;   increaseFanForBridging,0
;   bridgingFanSpeed,100
;   use5D,1
;   relativeEdistances,0
;   allowEaxisZeroing,1
;   independentExtruderAxes,0
;   includeM10123,0
;   stickySupport,1
;   applyToolheadOffsets,0
;   gcodeXoffset,0
;   gcodeYoffset,0
;   gcodeZoffset,0
;   overrideMachineDefinition,1
;   machineTypeOverride,0
;   strokeXoverride,250
;   strokeYoverride,210
;   strokeZoverride,200
;   originOffsetXoverride,0
;   originOffsetYoverride,0
;   originOffsetZoverride,0
;   homeXdirOverride,-1
;   homeYdirOverride,-1
;   homeZdirOverride,-1
;   flipXoverride,1
;   flipYoverride,-1
;   flipZoverride,1
;   toolheadOffsets,0,0|0,0|0,0|0,0|0,0|0,0
;   overrideFirmwareConfiguration,1
;   firmwareTypeOverride,RepRap (Marlin/Repetier/Sprinter)
;   GPXconfigOverride,r2
;   baudRateOverride,250000
;   overridePrinterModels,1
;   printerModelsOverride
;   startingGcode,M115 U3.0.7 ; use the latest firmware version,G28 W ; home all axes without mesh bed leveling,G80 ; run mesh bed leveling routine,G1 Y-3.0 F1000.0 ; prepare to prime,G92 E0 ; reset extrusion distance,G1 X60.0 E9.0  F1000.0 ; priming,G1 X100.0 E12.5  F1000.0 ; priming
;   layerChangeGcode,
;   retractionGcode,
;   toolChangeGcode,
;   endingGcode,M106 S0 ; turn off cooling fan,M104 S0 ; turn off extruder,M140 S0 ; turn off bed,G1 X0 Y200 ; part removal,M84 ; disable motors
;   exportFileFormat,gcode
;   celebration,0
;   celebrationSong,Random Song
;   postProcessing,
;   defaultSpeed,2400
;   outlineUnderspeed,0.8
;   solidInfillUnderspeed,0.8
;   supportUnderspeed,0.8
;   rapidXYspeed,4800
;   rapidZspeed,1002
;   minBridgingArea,50
;   bridgingExtraInflation,0
;   bridgingExtrusionMultiplier,1
;   bridgingSpeedMultiplier,1
;   useFixedBridgingAngle,0
;   fixedBridgingAngle,0
;   applyBridgingToPerimeters,0
;   filamentDiameters,1.75|1.75|1.75|1.75|1.75|1.75
;   filamentPricesPerKg,199|46|46|46|46|46
;   filamentDensities,1.25|1.25|1.25|1.25|1.25|1.25
;   useMinPrintHeight,0
;   minPrintHeight,0
;   useMaxPrintHeight,1
;   maxPrintHeight,235
;   useDiaphragm,0
;   diaphragmLayerInterval,20
;   robustSlicing,1
;   mergeAllIntoSolid,0
;   onlyRetractWhenCrossingOutline,1
;   retractBetweenLayers,1
;   useRetractionMinTravel,0
;   retractionMinTravel,3
;   retractWhileWiping,1
;   onlyWipeOutlines,1
;   avoidCrossingOutline,0
;   maxMovementDetourFactor,3
;   toolChangeRetractionDistance,12
;   toolChangeExtraRestartDistance,-0.5
;   toolChangeRetractionSpeed,600
;   externalThinWallType,0
;   internalThinWallType,2
;   thinWallAllowedOverlapPercentage,25
;   singleExtrusionMinLength,1
;   singleExtrusionMinPrintingWidthPercentage,50
;   singleExtrusionMaxPrintingWidthPercentage,200
;   singleExtrusionEndpointExtension,0.2
;   horizontalSizeCompensation,0
G90
M82
M106 S0
M140 S60
M190 S60
M104 S200 T0
M109 S200 T0
M115 U3.0.7 ; use the latest firmware version
G28 W ; home all axes without mesh bed leveling
G80 ; run mesh bed leveling routine
G1 Y-3.0 F1000.0 ; prepare to prime
G92 E0 ; reset extrusion distance
G1 X60.0 E9.0  F1000.0 ; priming
G1 X100.0 E12.5  F1000.0 ; priming
G92 E0
G1 E-1.5000 F1800
G1 Z0.180 F1002
; process Process1
; layer 1, Z = 0.180
T0
; tool H0.180 W0.480
; skirt
G1 X99.050 Y83.897 F4800
G1 E0.0000 F540
G92 E0
G1 X100.179 Y82.644 E0.0606 F1200
G1 X100.188 Y82.635 E0.0610
G1 X100.508 Y82.346 E0.0765
G1 X100.518 Y82.338 E0.0770
G1 X101.882 Y81.347 E0.1376
G1 X101.893 Y81.340 E0.1380
G1 X102.267 Y81.124 E0.1535
G1 X102.278 Y81.118 E0.1540
G1 X103.819 Y80.432 E0.2145
G1 X103.831 Y80.428 E0.2150
G1 X104.241 Y80.294 E0.2305
G1 X104.253 Y80.291 E0.2310
G1 X105.217 Y80.086 E0.2664
G1 X105.407 Y79.897 E0.2760
G1 X105.495 Y79.860 E0.2794
G1 X110.618 Y79.860 E0.4635
G1 X110.721 Y79.912 E0.4676
G1 X113.185 Y83.303 E0.6181
G1 X113.203 Y83.417 E0.6223
G1 X112.939 Y84.229 E0.6530
G1 X114.770 Y85.511 E0.7333
G1 X114.821 Y85.592 E0.7367
G1 X115.587 Y89.934 E0.8951
G1 X115.566 Y90.027 E0.8985
G1 X114.247 Y91.912 E0.9812
G1 X115.832 Y92.192 E1.0390
G1 X115.913 Y92.243 E1.0424
G1 X118.441 Y95.855 E1.2008
G1 X118.462 Y95.949 E1.2042
G1 X118.330 Y96.696 E1.2315
G1 X118.680 Y96.494 E1.2460
G1 X118.775 Y96.482 E1.2494
G1 X123.033 Y97.623 E1.4078
G1 X123.109 Y97.681 E1.4113
G1 X123.212 Y97.860 E1.4187
G1 X126.787 Y97.860 E1.5471
G1 X126.891 Y97.681 E1.5545
G1 X126.967 Y97.623 E1.5579
G1 X131.226 Y96.482 E1.7163
G1 X131.320 Y96.494 E1.7198
G1 X131.670 Y96.696 E1.7343
G1 X131.538 Y95.949 E1.7615
G1 X131.559 Y95.855 E1.7650
G1 X134.087 Y92.243 E1.9233
G1 X134.168 Y92.192 E1.9268
G1 X135.629 Y91.934 E1.9801
G1 X134.434 Y90.227 E2.0549
G1 X134.413 Y90.134 E2.0583
G1 X135.179 Y85.792 E2.2167
G1 X135.230 Y85.712 E2.2201
G1 X137.114 Y84.392 E2.3028
G1 X136.797 Y83.417 E2.3396
G1 X136.815 Y83.303 E2.3437
G1 X139.279 Y79.912 E2.4943
G1 X139.382 Y79.860 E2.4984
G1 X144.505 Y79.860 E2.6825
G1 X144.593 Y79.897 E2.6859
G1 X144.783 Y80.086 E2.6955
G1 X145.747 Y80.291 E2.7309
G1 X145.759 Y80.294 E2.7314
G1 X146.169 Y80.428 E2.7469
G1 X146.181 Y80.432 E2.7473
G1 X147.722 Y81.118 E2.8079
G1 X147.733 Y81.124 E2.8084
G1 X148.107 Y81.340 E2.8239
G1 X148.117 Y81.347 E2.8243
G1 X149.482 Y82.338 E2.8849
G1 X149.492 Y82.346 E2.8854
G1 X149.812 Y82.635 E2.9009
G1 X149.821 Y82.644 E2.9013
G1 X150.950 Y83.897 E2.9619
G1 X150.957 Y83.906 E2.9623
G1 X151.211 Y84.256 E2.9779
G1 X151.218 Y84.266 E2.9783
G1 X152.061 Y85.727 E3.0389
G1 X152.067 Y85.738 E3.0393
G1 X152.243 Y86.132 E3.0548
G1 X152.247 Y86.144 E3.0553
G1 X152.768 Y87.748 E3.1159
G1 X152.771 Y87.760 E3.1163
G1 X152.861 Y88.183 E3.1318
G1 X152.863 Y88.195 E3.1323
G1 X153.040 Y89.875 E3.1930
G1 X153.040 Y89.888 E3.1934
G1 X153.039 Y90.327 E3.2092
G1 X153.039 Y90.339 E3.2096
G1 X152.668 Y93.758 E3.3332
G1 X152.666 Y93.771 E3.3336
G1 X152.577 Y94.186 E3.3489
G1 X152.574 Y94.198 E3.3493
G1 X150.891 Y99.377 E3.5450
G1 X150.886 Y99.389 E3.5454
G1 X150.711 Y99.784 E3.5609
G1 X150.705 Y99.795 E3.5614
G1 X147.980 Y104.514 E3.7571
G1 X147.974 Y104.524 E3.7576
G1 X147.720 Y104.874 E3.7731
G1 X147.712 Y104.883 E3.7735
G1 X147.240 Y105.407 E3.7989
G1 X147.240 Y106.344 E3.8325
G1 X147.703 Y106.807 E3.8560
G1 X147.740 Y106.895 E3.8595
G1 X147.740 Y115.305 E4.1615
G1 X147.703 Y115.393 E4.1650
G1 X145.330 Y117.766 E4.2855
G1 X139.320 Y128.176 E4.7173
G1 X139.276 Y128.220 E4.7195
G1 X137.364 Y129.324 E4.7988
G1 X137.303 Y129.340 E4.8011
G1 X112.757 Y129.340 E5.6828
G1 X112.696 Y129.324 E5.6851
G1 X110.785 Y128.220 E5.7644
G1 X110.740 Y128.176 E5.7666
G1 X103.057 Y114.868 E6.3186
G1 X103.045 Y114.839 E6.3197
G1 X102.764 Y113.791 E6.3587
G1 X102.760 Y113.760 E6.3598
G1 X102.760 Y105.407 E6.6599
G1 X102.288 Y104.883 E6.6852
G1 X102.280 Y104.874 E6.6856
G1 X102.026 Y104.524 E6.7011
G1 X102.020 Y104.514 E6.7016
G1 X99.295 Y99.795 E6.8973
G1 X99.289 Y99.784 E6.8978
G1 X99.114 Y99.389 E6.9133
G1 X99.109 Y99.377 E6.9138
G1 X97.426 Y94.198 E7.1094
G1 X97.423 Y94.186 E7.1098
G1 X97.334 Y93.771 E7.1251
G1 X97.332 Y93.759 E7.1255
G1 X96.961 Y90.339 E7.2491
G1 X96.960 Y90.327 E7.2495
G1 X96.960 Y89.888 E7.2653
G1 X96.960 Y89.875 E7.2657
G1 X97.137 Y88.195 E7.3264
G1 X97.139 Y88.182 E7.3269
G1 X97.229 Y87.760 E7.3424
G1 X97.232 Y87.748 E7.3428
G1 X97.753 Y86.144 E7.4034
G1 X97.757 Y86.132 E7.4039
G1 X97.933 Y85.738 E7.4194
G1 X97.939 Y85.727 E7.4198
G1 X98.782 Y84.266 E7.4804
G1 X98.789 Y84.256 E7.4809
G1 X98.932 Y84.058 E7.4896
G1 X99.043 Y83.906 F1200
G1 X99.050 Y83.897 F1200
G92 E0
G1 E-1.5000 F1800
; inner perimeter
G1 X103.322 Y87.283 F4800
G1 E0.0000 F1800
G92 E0
G1 X103.993 Y86.538 E0.0360 F1080
G1 X104.803 Y85.949 E0.0720
G1 X105.719 Y85.541 E0.1080
G1 X106.699 Y85.333 E0.1440
G1 X107.084 Y85.332 E0.1578
G1 X106.793 Y88.100 E0.2578
G1 X106.985 Y89.925 E0.3237
G1 X107.191 Y91.885 E0.3945
G1 X108.367 Y95.505 E0.5312
G1 X109.954 Y98.253 E0.6452
G1 X109.845 Y98.329 E0.6500
G1 X110.271 Y98.802 E0.6728
G1 X110.656 Y99.470 E0.7005
G1 X110.788 Y99.377 E0.7063
G1 X112.817 Y101.630 E0.8152
G1 X115.897 Y103.867 E0.9520
G1 X118.990 Y105.245 E1.0736
G1 X119.374 Y105.415 E1.0887
G1 X119.386 Y105.421 E1.0891
G1 X119.387 Y105.418 E1.0892
G1 X123.097 Y106.207 E1.2255
G1 X126.903 Y106.207 E1.3622
G1 X130.613 Y105.418 E1.4984
G1 X130.614 Y105.421 E1.4985
G1 X130.626 Y105.415 E1.4990
G1 X130.992 Y105.253 E1.5134
G1 X134.103 Y103.867 E1.6357
G1 X137.183 Y101.630 E1.7725
G1 X139.211 Y99.377 E1.8814
G1 X139.344 Y99.470 E1.8872
G1 X139.730 Y98.802 E1.9149
G1 X140.155 Y98.329 E1.9377
G1 X140.046 Y98.253 E1.9425
G1 X141.633 Y95.505 E2.0565
G1 X142.809 Y91.885 E2.1932
G1 X143.096 Y89.149 E2.2920
G1 X143.207 Y88.100 E2.3299
G1 X142.916 Y85.333 E2.4299
G1 X143.301 Y85.333 E2.4437
G1 X144.281 Y85.541 E2.4797
G1 X145.197 Y85.949 E2.5157
G1 X146.007 Y86.538 E2.5517
G1 X146.678 Y87.283 E2.5877
G1 X147.179 Y88.150 E2.6237
G1 X147.489 Y89.103 E2.6597
G1 X147.588 Y90.052 E2.6939
G1 X147.295 Y92.839 E2.7946
G1 X145.823 Y97.371 E2.9658
G1 X143.440 Y101.498 E3.1369
G1 X141.800 Y103.319 E3.2250
G1 X141.800 Y109.800 E3.4578
G1 X142.300 Y109.800 E3.4757
G1 X142.300 Y112.400 E3.5691
G1 X142.147 Y112.400 E3.5746
G1 X135.507 Y123.900 E4.0516
G1 X114.553 Y123.900 E4.8043
G1 X108.200 Y112.896 E5.2607
G1 X108.200 Y103.319 E5.6048
G1 X106.560 Y101.498 E5.6928
G1 X104.177 Y97.371 E5.8640
G1 X102.705 Y92.839 E6.0351
G1 X102.412 Y90.052 E6.1358
G1 X102.511 Y89.103 E6.1701
G1 X102.821 Y88.150 E6.2061
G1 X103.223 Y87.455 E6.2349
G1 X103.322 Y87.283 F1080
G1 X102.932 Y86.999 F4800
G92 E0
G1 X103.670 Y86.179 E0.0396 F1080
G1 X104.562 Y85.531 E0.0792
G1 X105.570 Y85.082 E0.1189
G1 X106.649 Y84.853 E0.1585
G1 X107.617 Y84.852 E0.1933
G1 X107.276 Y88.100 E0.3106
G1 X107.409 Y89.365 E0.3563
G1 X107.663 Y91.785 E0.4437
G1 X108.808 Y95.309 E0.5768
G1 X110.589 Y98.393 E0.7047
G1 X110.564 Y98.411 E0.7058
G1 X110.661 Y98.518 E0.7110
G1 X110.810 Y98.776 E0.7217
G1 X110.861 Y98.740 E0.7239
G1 X113.140 Y101.272 E0.8463
G1 X116.138 Y103.449 E0.9794
G1 X119.162 Y104.796 E1.0983
G1 X119.523 Y104.957 E1.1125
G1 X123.147 Y105.727 E1.2456
G1 X126.853 Y105.727 E1.3787
G1 X130.477 Y104.957 E1.5118
G1 X130.800 Y104.812 E1.5245
G1 X133.862 Y103.449 E1.6449
G1 X136.860 Y101.272 E1.7780
G1 X139.139 Y98.740 E1.9003
G1 X139.190 Y98.776 E1.9026
G1 X139.339 Y98.518 E1.9133
G1 X139.435 Y98.411 E1.9185
G1 X139.411 Y98.393 E1.9195
G1 X141.192 Y95.309 E2.0475
G1 X142.337 Y91.785 E2.1806
G1 X142.618 Y89.112 E2.2771
G1 X142.724 Y88.100 E2.3137
G1 X142.383 Y84.853 E2.4310
G1 X143.352 Y84.853 E2.4658
G1 X144.430 Y85.082 E2.5054
G1 X145.438 Y85.531 E2.5450
G1 X146.330 Y86.179 E2.5846
G1 X147.068 Y86.999 E2.6242
G1 X147.620 Y87.954 E2.6639
G1 X147.961 Y89.003 E2.7035
G1 X148.071 Y90.052 E2.7414
G1 X147.767 Y92.939 E2.8457
G1 X146.264 Y97.567 E3.0205
G1 X143.831 Y101.781 E3.1952
G1 X142.280 Y103.504 E3.2785
G1 X142.280 Y109.320 E3.4874
G1 X142.780 Y109.320 E3.5054
G1 X142.780 Y112.880 E3.6333
G1 X142.424 Y112.880 E3.6461
G1 X135.784 Y124.380 E4.1231
G1 X114.276 Y124.380 E4.8957
G1 X107.720 Y113.025 E5.3666
G1 X107.720 Y103.504 E5.7087
G1 X106.169 Y101.781 E5.7919
G1 X103.736 Y97.567 E5.9667
G1 X102.233 Y92.939 E6.1415
G1 X101.929 Y90.052 E6.2458
G1 X102.039 Y89.003 E6.2837
G1 X102.380 Y87.954 E6.3233
G1 X102.832 Y87.172 E6.3557
G1 X102.932 Y86.999 F1080
; outer perimeter
G1 X102.541 Y86.715 F4800
G92 E0
G1 X103.347 Y85.820 E0.0432 F960
G1 X104.321 Y85.113 E0.0865
G1 X105.421 Y84.623 E0.1297
G1 X106.598 Y84.373 E0.1730
G1 X107.440 Y84.372 E0.2032
G1 X107.440 Y84.340 E0.2044
G1 X108.192 Y84.340 E0.2314
G1 X108.135 Y84.515 E0.2380
G1 X107.759 Y88.100 E0.3675
G1 X107.832 Y88.799 E0.3928
G1 X110.747 Y88.285 E0.4991
G1 X110.837 Y88.797 E0.5178
G1 X108.356 Y89.235 E0.6083
G1 X108.326 Y89.067 E0.6144
G1 X107.867 Y89.131 E0.6311
G1 X108.135 Y91.685 E0.7233
G1 X109.249 Y95.113 E0.8528
G1 X110.964 Y98.082 E0.9759
G1 X113.358 Y96.406 E1.0809
G1 X113.656 Y96.832 E1.0996
G1 X111.284 Y98.493 E1.2036
G1 X113.463 Y100.913 E1.3206
G1 X116.379 Y103.031 E1.4501
G1 X118.750 Y104.087 E1.5433
G1 X119.493 Y101.312 E1.6465
G1 X119.996 Y101.447 E1.6651
G1 X119.231 Y104.301 E1.7713
G1 X119.672 Y104.498 E1.7886
G1 X123.198 Y105.247 E1.9181
G1 X124.840 Y105.247 E1.9771
G1 X124.840 Y102.340 E2.0815
G1 X125.160 Y102.340 E2.0930
G1 X125.160 Y105.247 E2.1974
G1 X126.802 Y105.247 E2.2564
G1 X130.328 Y104.498 E2.3859
G1 X130.769 Y104.301 E2.4032
G1 X130.004 Y101.447 E2.5094
G1 X130.507 Y101.312 E2.5280
G1 X131.250 Y104.087 E2.6312
G1 X133.621 Y103.031 E2.7244
G1 X136.537 Y100.913 E2.8539
G1 X138.716 Y98.493 E2.9709
G1 X136.344 Y96.832 E3.0749
G1 X136.642 Y96.406 E3.0936
G1 X139.036 Y98.082 E3.1986
G1 X140.751 Y95.113 E3.3217
G1 X141.865 Y91.685 E3.4512
G1 X142.093 Y89.514 E3.5296
G1 X139.163 Y88.997 E3.6365
G1 X139.253 Y88.485 E3.6552
G1 X142.147 Y88.995 E3.7608
G1 X142.241 Y88.100 E3.7931
G1 X141.865 Y84.515 E3.9226
G1 X141.808 Y84.340 E3.9292
G1 X142.560 Y84.340 E3.9562
G1 X142.560 Y84.373 E3.9574
G1 X143.402 Y84.373 E3.9876
G1 X144.579 Y84.623 E4.0309
G1 X145.679 Y85.113 E4.0741
G1 X146.653 Y85.820 E4.1174
G1 X147.459 Y86.715 E4.1606
G1 X148.061 Y87.758 E4.2039
