; G-Code generated by Simplify3D(R) Version 4.0.0
; Oct 5, 2017 at 9:41:27 PM
; Settings Summary
;   processName,Process1
;   applyToModels,bottom
;   profileName,Prusa Research Original Prusa i3 MK2 (modified)
;   profileVersion,2017-07-23 22:27:18
;   baseProfile,
;   printMaterial,PLA
;   printQuality,Fast
;   printExtruders,
;   extruderName,Primary Extruder
;   extruderToolheadNumber,0
;   extruderDiameter,0.4
;   extruderAutoWidth,1
;   extruderWidth,0.48
;   extrusionMultiplier,1
;   extruderUseRetract,1
;   extruderRetractionDistance,1.5
;   extruderExtraRestartDistance,0
;   extruderRetractionZLift,0
;   extruderRetractionSpeed,1800
;   extruderUseCoasting,1
;   extruderCoastingDistance,0.2
;   extruderUseWipe,1
;   extruderWipeDistance,2
;   primaryExtruder,0
;   layerHeight,0.35
;   topSolidLayers,2
;   bottomSolidLayers,2
;   perimeterOutlines,2
;   printPerimetersInsideOut,1
;   startPointOption,2
;   startPointOriginX,0
;   startPointOriginY,0
;   sequentialIslands,0
;   spiralVaseMode,0
;   firstLayerHeightPercentage,120
;   firstLayerWidthPercentage,100
;   firstLayerUnderspeed,0.5
;   useRaft,0
;   raftExtruder,0
;   raftTopLayers,3
;   raftBaseLayers,2
;   raftOffset,3
;   raftSeparationDistance,0.14
;   raftTopInfill,100
;   aboveRaftSpeedMultiplier,0.3
;   useSkirt,1
;   skirtExtruder,0
;   skirtLayers,1
;   skirtOutlines,1
;   skirtOffset,4
;   usePrimePillar,0
;   primePillarExtruder,999
;   primePillarWidth,12
;   primePillarLocation,7
;   primePillarSpeedMultiplier,1
;   useOozeShield,0
;   oozeShieldExtruder,999
;   oozeShieldOffset,2
;   oozeShieldOutlines,1
;   oozeShieldSidewallShape,1
;   oozeShieldSidewallAngle,30
;   oozeShieldSpeedMultiplier,1
;   infillExtruder,0
;   internalInfillPattern,Rectilinear
;   externalInfillPattern,Rectilinear
;   infillPercentage,10
;   outlineOverlapPercentage,20
;   infillExtrusionWidthPercentage,100
;   minInfillLength,5
;   infillLayerInterval,1
;   internalInfillAngles,45,-45
;   overlapInternalInfillAngles,0
;   externalInfillAngles,45,-45
;   generateSupport,1
;   supportExtruder,0
;   supportInfillPercentage,25
;   supportExtraInflation,0
;   supportBaseLayers,0
;   denseSupportExtruder,0
;   denseSupportLayers,0
;   denseSupportInfillPercentage,70
;   supportLayerInterval,1
;   supportHorizontalPartOffset,0.3
;   supportUpperSeparationLayers,1
;   supportLowerSeparationLayers,1
;   supportType,0
;   supportGridSpacing,4
;   maxOverhangAngle,45
;   supportAngles,0
;   temperatureName,Primary Extruder,Heated Bed
;   temperatureNumber,0,0
;   temperatureSetpointCount,1,1
;   temperatureSetpointLayers,1,1
;   temperatureSetpointTemperatures,200,60
;   temperatureStabilizeAtStartup,1,1
;   temperatureHeatedBed,0,1
;   temperatureRelayBetweenLayers,0,0
;   temperatureRelayBetweenLoops,0,0
;   fanLayers,1,2
;   fanSpeeds,0,100
;   blipFanToFullPower,0
;   adjustSpeedForCooling,1
;   minSpeedLayerTime,15
;   minCoolingSpeedSlowdown,20
;   increaseFanForCooling,0
;   minFanLayerTime,45
;   maxCoolingFanSpeed,100
;   increaseFanForBridging,0
;   bridgingFanSpeed,100
;   use5D,1
;   relativeEdistances,0
;   allowEaxisZeroing,1
;   independentExtruderAxes,0
;   includeM10123,0
;   stickySupport,1
;   applyToolheadOffsets,0
;   gcodeXoffset,0
;   gcodeYoffset,0
;   gcodeZoffset,0
;   overrideMachineDefinition,1
;   machineTypeOverride,0
;   strokeXoverride,250
;   strokeYoverride,210
;   strokeZoverride,200
;   originOffsetXoverride,0
;   originOffsetYoverride,0
;   originOffsetZoverride,0
;   homeXdirOverride,-1
;   homeYdirOverride,-1
;   homeZdirOverride,-1
;   flipXoverride,1
;   flipYoverride,-1
;   flipZoverride,1
;   toolheadOffsets,0,0|0,0|0,0|0,0|0,0|0,0
;   overrideFirmwareConfiguration,1
;   firmwareTypeOverride,RepRap (Marlin/Repetier/Sprinter)
;   GPXconfigOverride,r2
;   baudRateOverride,250000
;   overridePrinterModels,1
;   printerModelsOverride
;   startingGcode,M115 U3.0.7 ; use the latest firmware version,G28 W ; home all axes without mesh bed leveling,G80 ; run mesh bed leveling routine,G1 Y-3.0 F1000.0 ; prepare to prime,G92 E0 ; reset extrusion distance,G1 X60.0 E9.0  F1000.0 ; priming,G1 X100.0 E12.5  F1000.0 ; priming
;   layerChangeGcode,
;   retractionGcode,
;   toolChangeGcode,
;   endingGcode,M106 S0 ; turn off cooling fan,M104 S0 ; turn off extruder,M140 S0 ; turn off bed,G1 X0 Y200 ; part removal,M84 ; disable motors
;   exportFileFormat,gcode
;   celebration,0
;   celebrationSong,Random Song
;   postProcessing,
;   defaultSpeed,2400
;   outlineUnderspeed,0.8
;   solidInfillUnderspeed,0.8
;   supportUnderspeed,0.8
;   rapidXYspeed,4800
;   rapidZspeed,1002
;   minBridgingArea,50
;   bridgingExtraInflation,0
;   bridgingExtrusionMultiplier,1
;   bridgingSpeedMultiplier,1
;   useFixedBridgingAngle,0
;   fixedBridgingAngle,0
;   applyBridgingToPerimeters,0
;   filamentDiameters,1.75|1.75|1.75|1.75|1.75|1.75
;   filamentPricesPerKg,46|46|46|46|46|46
;   filamentDensities,1.25|1.25|1.25|1.25|1.25|1.25
;   useMinPrintHeight,1
;   minPrintHeight,0
;   useMaxPrintHeight,1
;   maxPrintHeight,235
;   useDiaphragm,0
;   diaphragmLayerInterval,20
;   robustSlicing,1
;   mergeAllIntoSolid,0
;   onlyRetractWhenCrossingOutline,1
;   retractBetweenLayers,1
;   useRetractionMinTravel,0
;   retractionMinTravel,3
;   retractWhileWiping,1
;   onlyWipeOutlines,1
;   avoidCrossingOutline,0
;   maxMovementDetourFactor,3
;   toolChangeRetractionDistance,12
;   toolChangeExtraRestartDistance,-0.5
;   toolChangeRetractionSpeed,600
;   externalThinWallType,0
;   internalThinWallType,2
;   thinWallAllowedOverlapPercentage,25
;   singleExtrusionMinLength,1
;   singleExtrusionMinPrintingWidthPercentage,50
;   singleExtrusionMaxPrintingWidthPercentage,200
;   singleExtrusionEndpointExtension,0.2
;   horizontalSizeCompensation,0
G90
M82
M106 S0
M140 S60
M190 S60
M104 S200 T0
M109 S200 T0
M115 U3.0.7 ; use the latest firmware version
G28 W ; home all axes without mesh bed leveling
G80 ; run mesh bed leveling routine
G1 Y-3.0 F1000.0 ; prepare to prime
G92 E0 ; reset extrusion distance
G1 X60.0 E9.0  F1000.0 ; priming
G1 X100.0 E12.5  F1000.0 ; priming
G92 E0
G1 E-1.5000 F1800
G1 Z0.420 F1002
; process Process1
; layer 1, Z = 0.420
T0
; tool H0.420 W0.480
; skirt
G1 X84.222 Y72.141 F4800
G1 E0.0000 F540
G92 E0
G1 X84.230 Y72.133 E0.0010 F1200
G1 X84.516 Y71.846 E0.0349
G1 X84.525 Y71.839 E0.0359
G1 X85.141 Y71.333 E0.1027
G1 X85.150 Y71.326 E0.1037
G1 X85.487 Y71.101 E0.1376
G1 X85.497 Y71.095 E0.1386
G1 X86.200 Y70.719 E0.2054
G1 X86.210 Y70.714 E0.2064
G1 X86.584 Y70.559 E0.2403
G1 X86.595 Y70.555 E0.2413
G1 X87.358 Y70.324 E0.3081
G1 X87.369 Y70.321 E0.3091
G1 X87.766 Y70.242 E0.3430
G1 X87.778 Y70.241 E0.3440
G1 X88.470 Y70.172 E0.4023
G1 X88.476 Y70.172 E0.4028
G1 X88.678 Y70.162 E0.4197
G1 X88.684 Y70.162 E0.4202
G1 X158.781 Y70.162 E6.2955
G1 X158.787 Y70.162 E6.2960
G1 X158.989 Y70.172 E6.3129
G1 X158.995 Y70.172 E6.3134
G1 X159.688 Y70.241 E6.3717
G1 X159.699 Y70.242 E6.3727
G1 X160.096 Y70.321 E6.4066
G1 X160.108 Y70.324 E6.4076
G1 X160.870 Y70.555 E6.4744
G1 X160.881 Y70.559 E6.4754
G1 X161.255 Y70.714 E6.5093
G1 X161.266 Y70.719 E6.5103
G1 X161.969 Y71.095 E6.5771
G1 X161.979 Y71.101 E6.5781
G1 X162.315 Y71.326 E6.6120
G1 X162.325 Y71.333 E6.6130
G1 X162.941 Y71.839 E6.6798
G1 X162.950 Y71.846 E6.6808
G1 X163.236 Y72.133 E6.7147
G1 X163.244 Y72.142 E6.7157
G1 X163.749 Y72.758 E6.7825
G1 X163.756 Y72.767 E6.7835
G1 X163.981 Y73.103 E6.8174
G1 X163.987 Y73.113 E6.8184
G1 X164.363 Y73.816 E6.8852
G1 X164.368 Y73.827 E6.8862
G1 X164.523 Y74.201 E6.9201
G1 X164.527 Y74.212 E6.9211
G1 X164.758 Y74.975 E6.9879
G1 X164.761 Y74.986 E6.9889
G1 X164.840 Y75.383 E7.0228
G1 X164.842 Y75.395 E7.0238
G1 X164.910 Y76.087 E7.0821
G1 X164.910 Y76.093 E7.0826
G1 X164.920 Y76.295 E7.0995
G1 X164.920 Y76.301 E7.1000
G1 X164.920 Y77.523 E7.2025
G1 X165.699 Y78.302 E7.2947
G1 X165.703 Y78.306 E7.2952
G1 X165.839 Y78.456 E7.3122
G1 X165.842 Y78.460 E7.3127
G1 X166.284 Y78.998 E7.3710
G1 X166.291 Y79.007 E7.3720
G1 X166.515 Y79.344 E7.4059
G1 X166.522 Y79.354 E7.4069
G1 X166.897 Y80.057 E7.4737
G1 X166.902 Y80.067 E7.4747
G1 X167.057 Y80.441 E7.5086
G1 X167.061 Y80.453 E7.5096
G1 X167.293 Y81.215 E7.5764
G1 X167.295 Y81.227 E7.5774
G1 X167.374 Y81.624 E7.6113
G1 X167.376 Y81.635 E7.6123
G1 X167.444 Y82.327 E7.6706
G1 X167.445 Y82.333 E7.6711
G1 X167.455 Y82.535 E7.6880
G1 X167.455 Y82.541 E7.6885
G1 X167.455 Y117.348 E10.6059
G1 X167.455 Y117.354 E10.6064
G1 X167.445 Y117.556 E10.6233
G1 X167.444 Y117.562 E10.6238
G1 X167.376 Y118.254 E10.6821
G1 X167.374 Y118.266 E10.6831
G1 X167.295 Y118.663 E10.7170
G1 X167.293 Y118.674 E10.7180
G1 X167.061 Y119.437 E10.7848
G1 X167.057 Y119.448 E10.7858
G1 X166.902 Y119.822 E10.8197
G1 X166.897 Y119.833 E10.8207
G1 X166.522 Y120.535 E10.8875
G1 X166.515 Y120.545 E10.8885
G1 X166.291 Y120.882 E10.9224
G1 X166.284 Y120.891 E10.9234
G1 X165.842 Y121.429 E10.9817
G1 X165.839 Y121.433 E10.9822
G1 X165.703 Y121.583 E10.9992
G1 X165.699 Y121.588 E10.9996
G1 X164.920 Y122.366 E11.0919
G1 X164.920 Y131.287 E11.8396
G1 X164.920 Y131.293 E11.8401
G1 X164.910 Y131.495 E11.8571
G1 X164.910 Y131.501 E11.8576
G1 X164.842 Y132.193 E11.9159
G1 X164.840 Y132.205 E11.9169
G1 X164.761 Y132.602 E11.9508
G1 X164.758 Y132.613 E11.9518
G1 X164.527 Y133.376 E12.0186
G1 X164.523 Y133.387 E12.0196
G1 X164.368 Y133.761 E12.0535
G1 X164.363 Y133.772 E12.0545
G1 X163.987 Y134.475 E12.1213
G1 X163.981 Y134.485 E12.1223
G1 X163.756 Y134.821 E12.1562
G1 X163.749 Y134.831 E12.1572
G1 X163.308 Y135.368 E12.2155
G1 X163.304 Y135.373 E12.2160
G1 X163.168 Y135.523 E12.2329
G1 X163.164 Y135.527 E12.2334
G1 X160.609 Y138.082 E12.5363
G1 X160.605 Y138.086 E12.5368
G1 X160.455 Y138.222 E12.5537
G1 X160.451 Y138.226 E12.5542
G1 X159.913 Y138.667 E12.6125
G1 X159.903 Y138.674 E12.6135
G1 X159.567 Y138.899 E12.6474
G1 X159.557 Y138.905 E12.6484
G1 X158.854 Y139.281 E12.7152
G1 X158.843 Y139.286 E12.7162
G1 X158.469 Y139.440 E12.7501
G1 X158.458 Y139.444 E12.7511
G1 X157.696 Y139.676 E12.8179
G1 X157.684 Y139.679 E12.8189
G1 X157.287 Y139.758 E12.8528
G1 X157.276 Y139.759 E12.8538
G1 X156.583 Y139.828 E12.9121
G1 X156.577 Y139.828 E12.9126
G1 X156.375 Y139.838 E12.9296
G1 X156.369 Y139.838 E12.9301
G1 X88.684 Y139.838 E18.6031
G1 X88.678 Y139.838 E18.6036
G1 X88.476 Y139.828 E18.6206
G1 X88.470 Y139.828 E18.6211
G1 X87.778 Y139.759 E18.6794
G1 X87.766 Y139.758 E18.6804
G1 X87.369 Y139.679 E18.7143
G1 X87.358 Y139.676 E18.7153
G1 X86.595 Y139.444 E18.7821
G1 X86.584 Y139.440 E18.7831
G1 X86.210 Y139.286 E18.8170
G1 X86.200 Y139.281 E18.8180
G1 X85.497 Y138.905 E18.8848
G1 X85.487 Y138.899 E18.8858
G1 X85.150 Y138.674 E18.9197
G1 X85.141 Y138.667 E18.9207
G1 X84.525 Y138.161 E18.9875
G1 X84.516 Y138.154 E18.9885
G1 X84.230 Y137.867 E19.0224
G1 X84.222 Y137.859 E19.0234
G1 X83.716 Y137.243 E19.0902
G1 X83.709 Y137.233 E19.0912
G1 X83.484 Y136.897 E19.1251
G1 X83.478 Y136.886 E19.1261
G1 X83.103 Y136.184 E19.1929
G1 X83.098 Y136.173 E19.1938
G1 X82.943 Y135.799 E19.2278
G1 X82.939 Y135.788 E19.2288
G1 X82.707 Y135.025 E19.2955
G1 X82.705 Y135.014 E19.2965
G1 X82.626 Y134.617 E19.3305
G1 X82.624 Y134.605 E19.3315
G1 X82.556 Y133.913 E19.3898
G1 X82.555 Y133.907 E19.3903
G1 X82.545 Y133.705 E19.4072
G1 X82.545 Y133.699 E19.4077
G1 X82.547 Y76.288 E24.2197
G1 X82.547 Y76.282 E24.2202
G1 X82.557 Y76.080 E24.2371
G1 X82.557 Y76.074 E24.2376
G1 X82.624 Y75.395 E24.2948
G1 X82.626 Y75.383 E24.2958
G1 X82.705 Y74.986 E24.3297
G1 X82.707 Y74.975 E24.3307
G1 X82.939 Y74.212 E24.3975
G1 X82.943 Y74.201 E24.3985
G1 X83.098 Y73.827 E24.4324
G1 X83.103 Y73.816 E24.4334
G1 X83.478 Y73.114 E24.5002
G1 X83.484 Y73.103 E24.5012
G1 X83.709 Y72.767 E24.5351
G1 X83.716 Y72.757 E24.5361
G1 X84.095 Y72.296 E24.5861
G1 X84.222 Y72.141 F1200
G92 E0
G1 E-1.5000 F1800
; inner perimeter
G1 X87.883 Y75.499 F4800
G1 E0.0000 F1800
G92 E0
G1 X88.076 Y75.341 E0.0210 F1080
G1 X88.297 Y75.223 E0.0420
G1 X88.536 Y75.150 E0.0629
G1 X88.821 Y75.122 E0.0869
G1 X158.645 Y75.122 E5.9392
G1 X158.929 Y75.150 E5.9632
G1 X159.169 Y75.223 E5.9842
G1 X159.390 Y75.341 E6.0051
G1 X159.583 Y75.499 E6.0261
G1 X159.742 Y75.693 E6.0471
G1 X159.860 Y75.913 E6.0681
G1 X159.932 Y76.153 E6.0890
G1 X159.960 Y76.437 E6.1130
G1 X159.960 Y78.486 E6.2847
G1 X160.009 Y78.982 E6.3265
G1 X160.164 Y79.493 E6.3713
G1 X160.416 Y79.964 E6.4160
G1 X160.732 Y80.349 E6.4578
G1 X162.095 Y81.712 E6.6193
G1 X162.276 Y81.933 E6.6433
G1 X162.394 Y82.154 E6.6642
G1 X162.467 Y82.393 E6.6852
G1 X162.495 Y82.678 E6.7092
G1 X162.495 Y117.211 E9.6036
G1 X162.467 Y117.496 E9.6276
G1 X162.394 Y117.735 E9.6486
G1 X162.276 Y117.956 E9.6695
G1 X162.095 Y118.177 E9.6935
G1 X160.732 Y119.540 E9.8550
G1 X160.416 Y119.925 E9.8968
G1 X160.164 Y120.396 E9.9415
G1 X160.009 Y120.907 E9.9863
G1 X159.960 Y121.403 E10.0281
G1 X159.960 Y131.151 E10.8451
G1 X159.932 Y131.435 E10.8691
G1 X159.860 Y131.675 E10.8900
G1 X159.742 Y131.895 E10.9110
G1 X159.560 Y132.116 E10.9350
G1 X157.198 Y134.478 E11.2149
G1 X156.978 Y134.659 E11.2389
G1 X156.757 Y134.777 E11.2599
G1 X156.517 Y134.850 E11.2808
G1 X156.233 Y134.878 E11.3048
G1 X88.821 Y134.878 E16.9550
G1 X88.536 Y134.850 E16.9789
G1 X88.297 Y134.777 E16.9999
G1 X88.076 Y134.659 E17.0209
G1 X87.883 Y134.501 E17.0419
G1 X87.724 Y134.307 E17.0628
G1 X87.606 Y134.087 E17.0838
G1 X87.533 Y133.847 E17.1048
G1 X87.505 Y133.563 E17.1287
G1 X87.507 Y76.424 E21.9178
G1 X87.533 Y76.153 E21.9407
G1 X87.606 Y75.913 E21.9617
G1 X87.724 Y75.693 E21.9826
G1 X87.756 Y75.654 E21.9868
G1 X87.883 Y75.499 F1080
; outer perimeter
G1 X87.542 Y75.158 F4800
G92 E0
G1 X87.808 Y74.940 E0.0289 F960
G1 X88.112 Y74.777 E0.0578
G1 X88.442 Y74.677 E0.0867
G1 X88.797 Y74.642 E0.1166
G1 X158.669 Y74.642 E5.9729
G1 X159.023 Y74.677 E6.0028
G1 X159.353 Y74.777 E6.0317
G1 X159.658 Y74.940 E6.0606
G1 X159.924 Y75.158 E6.0895
G1 X160.143 Y75.425 E6.1184
G1 X160.305 Y75.729 E6.1473
G1 X160.405 Y76.059 E6.1762
G1 X160.440 Y76.414 E6.2061
G1 X160.440 Y78.463 E6.3778
G1 X160.482 Y78.888 E6.4137
G1 X160.610 Y79.309 E6.4505
G1 X160.817 Y79.696 E6.4873
G1 X161.088 Y80.027 E6.5231
G1 X162.451 Y81.390 E6.6847
G1 X162.677 Y81.665 E6.7146
G1 X162.840 Y81.969 E6.7435
G1 X162.940 Y82.299 E6.7724
G1 X162.975 Y82.654 E6.8023
G1 X162.975 Y117.235 E9.7007
G1 X162.940 Y117.590 E9.7306
G1 X162.840 Y117.920 E9.7595
G1 X162.677 Y118.224 E9.7884
G1 X162.451 Y118.500 E9.8182
G1 X161.088 Y119.862 E9.9798
G1 X160.817 Y120.193 E10.0156
G1 X160.610 Y120.580 E10.0525
G1 X160.482 Y121.001 E10.0893
G1 X160.440 Y121.426 E10.1251
G1 X160.440 Y131.174 E10.9421
G1 X160.405 Y131.529 E10.9720
G1 X160.305 Y131.859 E11.0009
G1 X160.143 Y132.163 E11.0298
G1 X159.917 Y132.439 E11.0597
G1 X157.521 Y134.834 E11.3437
G1 X157.246 Y135.060 E11.3735
G1 X156.941 Y135.223 E11.4024
G1 X156.611 Y135.323 E11.4313
G1 X156.257 Y135.358 E11.4612
G1 X88.797 Y135.358 E17.1154
G1 X88.442 Y135.323 E17.1453
G1 X88.112 Y135.223 E17.1742
G1 X87.808 Y135.060 E17.2031
G1 X87.542 Y134.842 E17.2320
G1 X87.323 Y134.575 E17.2609
G1 X87.160 Y134.271 E17.2898
G1 X87.060 Y133.941 E17.3187
G1 X87.025 Y133.586 E17.3486
G1 X87.027 Y76.401 E22.1416
G1 X87.060 Y76.059 E22.1704
G1 X87.160 Y75.729 E22.1993
G1 X87.323 Y75.425 E22.2282
G1 X87.415 Y75.313 E22.2403
G1 X87.542 Y75.158 F960
G1 X87.808 Y74.940 F2400
G1 X88.112 Y74.777 F2400
G1 X88.442 Y74.677 F2400
G1 X88.797 Y74.642 F2400
G1 X89.406 Y74.642 F2400
; solid layer
G1 X88.627 Y134.473 F4800
G92 E0
G1 X87.910 Y133.756 E0.0850 F960
G1 X87.889 Y133.544 E0.1029
G1 X87.889 Y133.056 E0.1438
G1 X89.327 Y134.494 E0.3142
G1 X90.006 Y134.494 E0.3711
G1 X87.889 Y132.377 E0.6220
G1 X87.889 Y131.699 E0.6789
G1 X90.685 Y134.494 E1.0102
G1 X91.364 Y134.494 E1.0671
G1 X87.889 Y131.020 E1.4790
G1 X87.889 Y130.341 E1.5358
G1 X92.042 Y134.494 E2.0281
G1 X92.721 Y134.494 E2.0850
G1 X87.889 Y129.662 E2.6578
G1 X87.889 Y128.983 E2.7147
G1 X93.400 Y134.494 E3.3679
G1 X94.079 Y134.494 E3.4248
G1 X87.889 Y128.305 E4.1584
G1 X87.889 Y127.626 E4.2153
G1 X94.758 Y134.494 E5.0294
