; G-Code generated by Simplify3D(R) Version 4.0.0
; Jan 24, 2018 at 8:44:37 PM
; Settings Summary
;   processName,Process1
;   applyToModels,Mini_Tape_Gun_0.0_-metal_cutter
;   profileName,Prusa Research Original Prusa i3 MK2 (modified)
;   profileVersion,2017-07-23 22:27:18
;   baseProfile,
;   printMaterial,PLA
;   printQuality,Medium
;   printExtruders,
;   extruderName,Primary Extruder
;   extruderToolheadNumber,0
;   extruderDiameter,0.4
;   extruderAutoWidth,1
;   extruderWidth,0.48
;   extrusionMultiplier,1
;   extruderUseRetract,1
;   extruderRetractionDistance,1.5
;   extruderExtraRestartDistance,0
;   extruderRetractionZLift,0
;   extruderRetractionSpeed,1800
;   extruderUseCoasting,1
;   extruderCoastingDistance,0.2
;   extruderUseWipe,1
;   extruderWipeDistance,2
;   primaryExtruder,0
;   layerHeight,0.15
;   topSolidLayers,4
;   bottomSolidLayers,4
;   perimeterOutlines,3
;   printPerimetersInsideOut,1
;   startPointOption,2
;   startPointOriginX,0
;   startPointOriginY,0
;   sequentialIslands,0
;   spiralVaseMode,0
;   firstLayerHeightPercentage,120
;   firstLayerWidthPercentage,100
;   firstLayerUnderspeed,0.5
;   useRaft,0
;   raftExtruder,0
;   raftTopLayers,3
;   raftBaseLayers,2
;   raftOffset,3
;   raftSeparationDistance,0.14
;   raftTopInfill,100
;   aboveRaftSpeedMultiplier,0.3
;   useSkirt,1
;   skirtExtruder,0
;   skirtLayers,1
;   skirtOutlines,1
;   skirtOffset,4
;   usePrimePillar,0
;   primePillarExtruder,999
;   primePillarWidth,12
;   primePillarLocation,7
;   primePillarSpeedMultiplier,1
;   useOozeShield,0
;   oozeShieldExtruder,999
;   oozeShieldOffset,2
;   oozeShieldOutlines,1
;   oozeShieldSidewallShape,1
;   oozeShieldSidewallAngle,30
;   oozeShieldSpeedMultiplier,1
;   infillExtruder,0
;   internalInfillPattern,Rectilinear
;   externalInfillPattern,Rectilinear
;   infillPercentage,12
;   outlineOverlapPercentage,20
;   infillExtrusionWidthPercentage,100
;   minInfillLength,5
;   infillLayerInterval,1
;   internalInfillAngles,45,-45
;   overlapInternalInfillAngles,0
;   externalInfillAngles,45,-45
;   generateSupport,1
;   supportExtruder,0
;   supportInfillPercentage,30
;   supportExtraInflation,0
;   supportBaseLayers,0
;   denseSupportExtruder,0
;   denseSupportLayers,0
;   denseSupportInfillPercentage,70
;   supportLayerInterval,1
;   supportHorizontalPartOffset,0.3
;   supportUpperSeparationLayers,1
;   supportLowerSeparationLayers,1
;   supportType,0
;   supportGridSpacing,4
;   maxOverhangAngle,45
;   supportAngles,0
;   temperatureName,Primary Extruder,Heated Bed
;   temperatureNumber,0,0
;   temperatureSetpointCount,1,1
;   temperatureSetpointLayers,1,1
;   temperatureSetpointTemperatures,210,60
;   temperatureStabilizeAtStartup,1,1
;   temperatureHeatedBed,0,1
;   temperatureRelayBetweenLayers,0,0
;   temperatureRelayBetweenLoops,0,0
;   fanLayers,1,2
;   fanSpeeds,0,100
;   blipFanToFullPower,0
;   adjustSpeedForCooling,1
;   minSpeedLayerTime,15
;   minCoolingSpeedSlowdown,20
;   increaseFanForCooling,0
;   minFanLayerTime,45
;   maxCoolingFanSpeed,100
;   increaseFanForBridging,0
;   bridgingFanSpeed,100
;   use5D,1
;   relativeEdistances,0
;   allowEaxisZeroing,1
;   independentExtruderAxes,0
;   includeM10123,0
;   stickySupport,1
;   applyToolheadOffsets,0
;   gcodeXoffset,0
;   gcodeYoffset,0
;   gcodeZoffset,0
;   overrideMachineDefinition,1
;   machineTypeOverride,0
;   strokeXoverride,250
;   strokeYoverride,210
;   strokeZoverride,200
;   originOffsetXoverride,0
;   originOffsetYoverride,0
;   originOffsetZoverride,0
;   homeXdirOverride,-1
;   homeYdirOverride,-1
;   homeZdirOverride,-1
;   flipXoverride,1
;   flipYoverride,-1
;   flipZoverride,1
;   toolheadOffsets,0,0|0,0|0,0|0,0|0,0|0,0
;   overrideFirmwareConfiguration,1
;   firmwareTypeOverride,RepRap (Marlin/Repetier/Sprinter)
;   GPXconfigOverride,r2
;   baudRateOverride,250000
;   overridePrinterModels,1
;   printerModelsOverride
;   startingGcode,M115 U3.0.7 ; use the latest firmware version,G28 W ; home all axes without mesh bed leveling,G80 ; run mesh bed leveling routine,G1 Y-3.0 F1000.0 ; prepare to prime,G92 E0 ; reset extrusion distance,G1 X60.0 E9.0  F1000.0 ; priming,G1 X100.0 E12.5  F1000.0 ; priming
;   layerChangeGcode,
;   retractionGcode,
;   toolChangeGcode,
;   endingGcode,M106 S0 ; turn off cooling fan,M104 S0 ; turn off extruder,M140 S0 ; turn off bed,G1 X0 Y200 ; part removal,M84 ; disable motors
;   exportFileFormat,gcode
;   celebration,0
;   celebrationSong,Random Song
;   postProcessing,
;   defaultSpeed,2400
;   outlineUnderspeed,0.8
;   solidInfillUnderspeed,0.8
;   supportUnderspeed,0.8
;   rapidXYspeed,4800
;   rapidZspeed,1002
;   minBridgingArea,50
;   bridgingExtraInflation,0
;   bridgingExtrusionMultiplier,1
;   bridgingSpeedMultiplier,1
;   useFixedBridgingAngle,0
;   fixedBridgingAngle,0
;   applyBridgingToPerimeters,0
;   filamentDiameters,1.75|1.75|1.75|1.75|1.75|1.75
;   filamentPricesPerKg,199|46|46|46|46|46
;   filamentDensities,1.25|1.25|1.25|1.25|1.25|1.25
;   useMinPrintHeight,0
;   minPrintHeight,0
;   useMaxPrintHeight,1
;   maxPrintHeight,235
;   useDiaphragm,0
;   diaphragmLayerInterval,20
;   robustSlicing,1
;   mergeAllIntoSolid,0
;   onlyRetractWhenCrossingOutline,1
;   retractBetweenLayers,1
;   useRetractionMinTravel,0
;   retractionMinTravel,3
;   retractWhileWiping,1
;   onlyWipeOutlines,1
;   avoidCrossingOutline,0
;   maxMovementDetourFactor,3
;   toolChangeRetractionDistance,12
;   toolChangeExtraRestartDistance,-0.5
;   toolChangeRetractionSpeed,600
;   externalThinWallType,0
;   internalThinWallType,2
;   thinWallAllowedOverlapPercentage,25
;   singleExtrusionMinLength,1
;   singleExtrusionMinPrintingWidthPercentage,50
;   singleExtrusionMaxPrintingWidthPercentage,200
;   singleExtrusionEndpointExtension,0.2
;   horizontalSizeCompensation,0
G90
M82
M106 S0
M140 S60
M190 S60
M104 S210 T0
M109 S210 T0
M115 U3.0.7 ; use the latest firmware version
G28 W ; home all axes without mesh bed leveling
G80 ; run mesh bed leveling routine
G1 Y-3.0 F1000.0 ; prepare to prime
G92 E0 ; reset extrusion distance
G1 X60.0 E9.0  F1000.0 ; priming
G1 X100.0 E12.5  F1000.0 ; priming
G92 E0
G1 E-1.5000 F1800
G1 Z0.180 F1002
; process Process1
; layer 1, Z = 0.180
T0
; tool H0.180 W0.480
; skirt
G1 X118.901 Y92.888 F4800
G1 E0.0000 F540
G92 E0
G1 X121.312 Y90.478 E0.1225 F777
G1 X121.400 Y90.441 E0.1259
G1 X122.332 Y90.441 E0.1594
G1 X122.586 Y90.161 E0.1729
G1 X122.626 Y90.132 E0.1747
G1 X124.222 Y89.424 E0.2374
G1 X124.271 Y89.413 E0.2392
G1 X127.069 Y89.413 E0.3398
G1 X127.114 Y89.421 E0.3414
G1 X128.576 Y90.000 E0.3979
G1 X128.614 Y90.025 E0.3995
G1 X129.663 Y91.010 E0.4512
G1 X129.682 Y91.032 E0.4522
G1 X130.222 Y91.861 E0.4878
G1 X130.234 Y91.887 E0.4888
G1 X130.573 Y92.849 E0.5255
G1 X130.575 Y92.856 E0.5257
G1 X130.648 Y93.114 E0.5354
G1 X130.650 Y93.122 E0.5356
G1 X130.838 Y94.014 E0.5684
G1 X130.840 Y94.027 E0.5689
G1 X130.885 Y94.454 E0.5843
G1 X130.886 Y94.466 E0.5847
G1 X130.886 Y115.534 E1.3415
G1 X130.885 Y115.546 E1.3419
G1 X130.840 Y115.973 E1.3574
G1 X130.838 Y115.986 E1.3578
G1 X130.650 Y116.875 E1.3905
G1 X130.648 Y116.882 E1.3907
G1 X130.578 Y117.133 E1.4001
G1 X130.576 Y117.141 E1.4004
G1 X130.266 Y118.031 E1.4342
G1 X130.255 Y118.055 E1.4352
G1 X129.791 Y118.812 E1.4671
G1 X129.775 Y118.832 E1.4680
G1 X128.761 Y119.890 E1.5206
G1 X128.721 Y119.917 E1.5224
G1 X127.172 Y120.578 E1.5829
G1 X127.125 Y120.587 E1.5846
G1 X124.190 Y120.587 E1.6900
G1 X124.137 Y120.574 E1.6920
G1 X122.424 Y119.736 E1.7605
G1 X122.381 Y119.702 E1.7625
G1 X122.270 Y119.559 E1.7690
G1 X121.400 Y119.559 E1.8002
G1 X121.312 Y119.522 E1.8036
G1 X118.901 Y117.112 E1.9261
G1 X118.865 Y117.023 E1.9295
G1 X118.865 Y93.081 E2.7896
G1 X118.865 Y92.977 F777
G1 X118.901 Y92.888 F777
G92 E0
G1 E-1.5000 F1800
; inner perimeter
G1 X124.305 Y95.881 F4800
G1 E0.0000 F1800
G92 E0
G1 X125.445 Y95.881 E0.0410 F699
G1 X125.445 Y114.119 E0.6961
G1 X124.305 Y114.119 E0.7371
G1 X124.305 Y96.081 E1.3850
G1 X124.305 Y95.881 F699
G1 X123.825 Y95.401 F4800
G92 E0
G1 X125.344 Y95.401 E0.0546 F699
G1 X125.573 Y94.448 E0.0898
G1 X125.861 Y94.452 E0.1001
G1 X125.925 Y94.757 E0.1113
G1 X125.925 Y115.243 E0.8472
G1 X125.860 Y115.553 E0.8586
G1 X125.571 Y115.556 E0.8690
G1 X125.349 Y114.599 E0.9043
G1 X123.825 Y114.599 E0.9590
G1 X123.825 Y95.601 E1.6414
G1 X123.825 Y95.401 F699
; outer perimeter
G1 X123.345 Y94.921 F4800
G92 E0
G1 X124.966 Y94.921 E0.0582 F622
G1 X125.155 Y94.136 E0.0872
G1 X125.237 Y93.908 E0.0960
G1 X125.250 Y93.893 E0.0967
G1 X126.189 Y93.893 E0.1304
G1 X126.192 Y93.896 E0.1306
G1 X126.297 Y94.195 E0.1419
G1 X126.406 Y94.706 E0.1607
G1 X126.406 Y115.294 E0.9002
G1 X126.297 Y115.805 E0.9190
G1 X126.198 Y116.089 E0.9298
G1 X126.181 Y116.107 E0.9307
G1 X125.245 Y116.107 E0.9643
G1 X125.231 Y116.080 E0.9654
G1 X125.133 Y115.792 E0.9763
G1 X124.967 Y115.079 E1.0026
G1 X123.345 Y115.079 E1.0609
G1 X123.345 Y95.120 E1.7778
G1 X123.345 Y94.921 F622
G1 X124.966 Y94.921 F2400
G1 X125.055 Y94.553 F2400
; solid layer
G1 X124.689 Y96.543 F4800
G92 E0
G1 X125.061 Y96.916 E0.0189 F622
G1 X125.061 Y97.594 E0.0433
G1 X124.689 Y97.222 E0.0622
G1 X124.689 Y97.901 E0.0866
G1 X125.061 Y98.273 E0.1056
G1 X125.061 Y98.952 E0.1299
G1 X124.689 Y98.579 E0.1489
G1 X124.689 Y99.258 E0.1733
G1 X125.061 Y99.631 E0.1922
G1 X125.061 Y100.310 E0.2166
G1 X124.689 Y99.937 E0.2355
G1 X124.689 Y100.616 E0.2599
G1 X125.061 Y100.989 E0.2788
G1 X125.061 Y101.667 E0.3032
G1 X124.689 Y101.295 E0.3221
G1 X124.689 Y101.974 E0.3465
G1 X125.061 Y102.346 E0.3654
G1 X125.061 Y103.025 E0.3898
G1 X124.689 Y102.652 E0.4088
G1 X124.689 Y103.331 E0.4331
G1 X125.061 Y103.704 E0.4521
G1 X125.061 Y104.383 E0.4765
G1 X124.689 Y104.010 E0.4954
G1 X124.689 Y104.689 E0.5198
G1 X125.061 Y105.061 E0.5387
G1 X125.061 Y105.740 E0.5631
G1 X124.689 Y105.368 E0.5820
G1 X124.689 Y106.046 E0.6064
G1 X125.061 Y106.419 E0.6253
G1 X125.061 Y107.098 E0.6497
G1 X124.689 Y106.725 E0.6686
G1 X124.689 Y107.404 E0.6930
G1 X125.061 Y107.777 E0.7120
G1 X125.061 Y108.456 E0.7363
G1 X124.689 Y108.083 E0.7553
G1 X124.689 Y108.762 E0.7797
G1 X125.061 Y109.134 E0.7986
G1 X125.061 Y109.813 E0.8230
G1 X124.689 Y109.441 E0.8419
G1 X124.689 Y110.119 E0.8663
G1 X125.061 Y110.492 E0.8852
G1 X125.061 Y111.171 E0.9096
G1 X124.689 Y110.798 E0.9285
G1 X124.689 Y111.477 E0.9529
G1 X125.061 Y111.850 E0.9719
G1 X125.061 Y112.529 E0.9962
G1 X124.689 Y112.156 E1.0152
G1 X124.689 Y112.835 E1.0395
G1 X125.061 Y113.207 E1.0585
G1 X125.061 Y113.735 E1.0774
G1 X124.910 Y113.735 E1.0829
G1 X124.830 Y113.655 E1.0869
G1 X124.689 Y113.514 F622
G92 E0
G1 E-1.5000 F1800
; layer 2, Z = 0.330
M106 S255
; tool H0.150 W0.480
; inner perimeter
G1 X124.298 Y114.119 F4800
G1 Z0.330 F1002
G1 E0.0000 F1800
G92 E0
G1 X124.298 Y95.881 E0.5459 F792
G1 X125.663 Y95.881 E0.5868
G1 X125.663 Y114.119 E1.1327
G1 X124.498 Y114.119 E1.1676
G1 X124.298 Y114.119 F792
G1 X123.818 Y114.599 F4800
G92 E0
G1 X123.818 Y95.401 E0.5747 F792
G1 X125.251 Y95.401 E0.6176
G1 X125.477 Y93.795 E0.6661
G1 X125.597 Y93.105 E0.6871
G1 X125.927 Y93.105 E0.6970
G1 X126.022 Y93.748 E0.7164
G1 X126.143 Y94.726 E0.7459
G1 X126.143 Y115.274 E1.3610
G1 X126.023 Y116.249 E1.3904
G1 X125.921 Y116.895 E1.4100
G1 X125.597 Y116.895 E1.4197
G1 X125.483 Y116.245 E1.4394
G1 X125.251 Y114.599 E1.4892
G1 X124.018 Y114.599 E1.5261
G1 X123.818 Y114.599 F792
; outer perimeter
G1 X123.338 Y115.079 F4800
G92 E0
G1 X123.338 Y94.921 E0.6034 F704
G1 X124.834 Y94.921 E0.6482
G1 X125.002 Y93.721 E0.6845
G1 X125.134 Y92.966 E0.7074
G1 X125.203 Y92.666 E0.7166
G1 X125.216 Y92.638 E0.7175
G1 X125.262 Y92.625 E0.7190
G1 X126.268 Y92.625 E0.7491
G1 X126.295 Y92.629 E0.7499
G1 X126.325 Y92.643 E0.7509
G1 X126.332 Y92.650 E0.7512
G1 X126.338 Y92.667 E0.7518
G1 X126.387 Y92.931 E0.7598
G1 X126.498 Y93.683 E0.7826
G1 X126.623 Y94.696 E0.8131
G1 X126.623 Y115.304 E1.4300
G1 X126.498 Y116.316 E1.4605
G1 X126.337 Y117.336 E1.4914
G1 X126.332 Y117.350 E1.4919
G1 X126.325 Y117.357 E1.4922
G1 X126.295 Y117.371 E1.4932
G1 X126.268 Y117.375 E1.4940
G1 X125.262 Y117.375 E1.5241
G1 X125.216 Y117.362 E1.5255
G1 X125.203 Y117.334 E1.5264
G1 X125.134 Y117.033 E1.5357
G1 X125.009 Y116.321 E1.5573
G1 X124.834 Y115.079 E1.5949
G1 X123.538 Y115.079 E1.6337
G1 X123.338 Y115.079 F704
G1 X123.338 Y113.079 F2400
; gap fill
G1 X125.636 Y114.546 F4800
G92 E0
G1 X125.675 Y114.508 E0.0016 F704
G1 X125.754 Y114.508 E0.0040
G1 X125.754 Y114.955 E0.0174
G1 X125.754 Y115.107 F704
G1 X125.720 Y115.141 F704
G1 X125.683 Y95.492 F4800
G92 E0
G1 X125.754 Y95.421 E0.0030 F704
G1 X125.754 Y94.914 E0.0182
G1 X125.754 Y94.750 F704
G1 X125.754 Y94.743 F704
G1 X125.733 Y94.763 F704
; solid layer
G1 X124.682 Y96.494 F4800
G92 E0
G1 X124.910 Y96.265 E0.0097 F704
G1 X125.279 Y96.265 E0.0207
G1 X125.279 Y96.575 E0.0300
G1 X124.682 Y97.173 E0.0553
G1 X124.682 Y97.851 E0.0756
G1 X125.279 Y97.254 E0.1009
G1 X125.279 Y97.933 E0.1212
G1 X124.682 Y98.530 E0.1465
G1 X124.682 Y99.209 E0.1668
G1 X125.279 Y98.611 E0.1921
G1 X125.279 Y99.290 E0.2125
G1 X124.682 Y99.888 E0.2378
G1 X124.682 Y100.567 E0.2581
G1 X125.279 Y99.969 E0.2834
G1 X125.279 Y100.648 E0.3037
G1 X124.682 Y101.245 E0.3290
G1 X124.682 Y101.924 E0.3493
G1 X125.279 Y101.327 E0.3746
G1 X125.279 Y102.005 E0.3949
G1 X124.682 Y102.603 E0.4202
G1 X124.682 Y103.282 E0.4406
G1 X125.279 Y102.684 E0.4659
G1 X125.279 Y103.363 E0.4862
G1 X124.682 Y103.961 E0.5115
G1 X124.682 Y104.640 E0.5318
G1 X125.279 Y104.042 E0.5571
G1 X125.279 Y104.721 E0.5774
G1 X124.682 Y105.318 E0.6027
G1 X124.682 Y105.997 E0.6230
G1 X125.279 Y105.400 E0.6483
G1 X125.279 Y106.078 E0.6687
G1 X124.682 Y106.676 E0.6940
G1 X124.682 Y107.355 E0.7143
G1 X125.279 Y106.757 E0.7396
G1 X125.279 Y107.436 E0.7599
G1 X124.682 Y108.034 E0.7852
G1 X124.682 Y108.712 E0.8055
G1 X125.279 Y108.115 E0.8308
G1 X125.279 Y108.794 E0.8511
G1 X124.682 Y109.391 E0.8764
G1 X124.682 Y110.070 E0.8968
G1 X125.279 Y109.473 E0.9221
G1 X125.279 Y110.151 E0.9424
G1 X124.682 Y110.749 E0.9677
G1 X124.682 Y111.428 E0.9880
G1 X125.279 Y110.830 E1.0133
G1 X125.279 Y111.509 E1.0336
G1 X124.682 Y112.107 E1.0589
G1 X124.682 Y112.785 E1.0792
G1 X125.279 Y112.188 E1.1045
G1 X125.279 Y112.867 E1.1249
G1 X124.682 Y113.464 E1.1501
G1 X124.682 Y113.735 E1.1582
G1 X125.090 Y113.735 E1.1705
G1 X125.138 Y113.687 E1.1725
G1 X125.279 Y113.545 F704
G92 E0
G1 E-1.5000 F1800
; layer 3, Z = 0.480
; inner perimeter
G1 X125.775 Y114.119 F4800
G1 Z0.480 F1002
G1 E0.0000 F1800
G92 E0
G1 X124.291 Y114.119 E0.0444 F831
G1 X124.291 Y95.881 E0.5903
G1 X125.775 Y95.881 E0.6348
G1 X125.775 Y113.919 E1.1747
G1 X125.775 Y114.119 F831
G1 X125.220 Y114.599 F4800
G92 E0
G1 X123.811 Y114.599 E0.0422 F831
G1 X123.811 Y95.401 E0.6168
G1 X125.213 Y95.401 E0.6588
G1 X125.464 Y93.133 E0.7271
G1 X125.490 Y92.950 E0.7327
G1 X126.068 Y92.951 E0.7499
G1 X126.255 Y94.719 E0.8032
G1 X126.255 Y115.279 E1.4186
G1 X126.061 Y117.048 E1.4719
G1 X125.494 Y117.048 E1.4888
G1 X125.355 Y115.941 E1.5223
G1 X125.240 Y114.798 E1.5566
G1 X125.220 Y114.599 F831
; outer perimeter
G1 X124.786 Y115.079 F4800
G92 E0
G1 X123.331 Y115.079 E0.0436 F739
G1 X123.331 Y94.921 E0.6469
G1 X124.783 Y94.921 E0.6904
G1 X124.987 Y93.073 E0.7461
G1 X125.049 Y92.643 E0.7591
G1 X125.076 Y92.555 E0.7619
G1 X125.092 Y92.533 E0.7627
G1 X125.123 Y92.504 E0.7639
G1 X125.167 Y92.481 E0.7654
G1 X125.237 Y92.470 E0.7675
G1 X126.315 Y92.472 E0.7998
G1 X126.374 Y92.484 E0.8016
G1 X126.464 Y92.536 E0.8047
G1 X126.488 Y92.564 E0.8058
G1 X126.519 Y92.653 E0.8086
G1 X126.735 Y94.694 E0.8701
G1 X126.735 Y115.306 E1.4871
G1 X126.505 Y117.397 E1.5500
G1 X126.461 Y117.469 E1.5526
G1 X126.433 Y117.491 E1.5536
G1 X126.385 Y117.514 E1.5552
G1 X126.315 Y117.528 E1.5574
G1 X125.221 Y117.529 E1.5901
G1 X125.145 Y117.506 E1.5925
G1 X125.086 Y117.460 E1.5947
G1 X125.076 Y117.445 E1.5952
G1 X125.049 Y117.359 E1.5980
G1 X124.878 Y115.995 E1.6391
G1 X124.806 Y115.278 E1.6607
G1 X124.786 Y115.079 F739
G1 X123.331 Y115.079 F2400
G1 X123.331 Y114.534 F2400
; gap fill
G1 X125.683 Y114.508 F4800
G92 E0
