; G-Code generated by Simplify3D(R) Version 4.0.0
; May 16, 2018 at 8:59:05 PM
; Settings Summary
;   processName,Process1
;   applyToModels,140mm-fan-wheather-shroud
;   profileName,Prusa Research Original Prusa i3 MK2 (modified)
;   profileVersion,2017-07-23 22:27:18
;   baseProfile,
;   printMaterial,PLA
;   printQuality,Fast
;   printExtruders,
;   extruderName,Primary Extruder
;   extruderToolheadNumber,0
;   extruderDiameter,0.4
;   extruderAutoWidth,1
;   extruderWidth,0.48
;   extrusionMultiplier,1
;   extruderUseRetract,1
;   extruderRetractionDistance,1.5
;   extruderExtraRestartDistance,0
;   extruderRetractionZLift,0
;   extruderRetractionSpeed,1800
;   extruderUseCoasting,1
;   extruderCoastingDistance,0.2
;   extruderUseWipe,1
;   extruderWipeDistance,2
;   primaryExtruder,0
;   layerHeight,0.35
;   topSolidLayers,4
;   bottomSolidLayers,4
;   perimeterOutlines,3
;   printPerimetersInsideOut,1
;   startPointOption,2
;   startPointOriginX,0
;   startPointOriginY,0
;   sequentialIslands,0
;   spiralVaseMode,0
;   firstLayerHeightPercentage,120
;   firstLayerWidthPercentage,100
;   firstLayerUnderspeed,0.5
;   useRaft,0
;   raftExtruder,0
;   raftTopLayers,3
;   raftBaseLayers,2
;   raftOffset,3
;   raftSeparationDistance,0.14
;   raftTopInfill,100
;   aboveRaftSpeedMultiplier,0.3
;   useSkirt,1
;   skirtExtruder,0
;   skirtLayers,1
;   skirtOutlines,1
;   skirtOffset,4
;   usePrimePillar,0
;   primePillarExtruder,999
;   primePillarWidth,12
;   primePillarLocation,7
;   primePillarSpeedMultiplier,1
;   useOozeShield,0
;   oozeShieldExtruder,999
;   oozeShieldOffset,2
;   oozeShieldOutlines,1
;   oozeShieldSidewallShape,1
;   oozeShieldSidewallAngle,30
;   oozeShieldSpeedMultiplier,1
;   infillExtruder,0
;   internalInfillPattern,Fast Honeycomb
;   externalInfillPattern,Rectilinear
;   infillPercentage,18
;   outlineOverlapPercentage,20
;   infillExtrusionWidthPercentage,100
;   minInfillLength,5
;   infillLayerInterval,1
;   internalInfillAngles,0
;   overlapInternalInfillAngles,0
;   externalInfillAngles,45,-45
;   generateSupport,1
;   supportExtruder,0
;   supportInfillPercentage,25
;   supportExtraInflation,0
;   supportBaseLayers,0
;   denseSupportExtruder,0
;   denseSupportLayers,0
;   denseSupportInfillPercentage,70
;   supportLayerInterval,1
;   supportHorizontalPartOffset,0.3
;   supportUpperSeparationLayers,1
;   supportLowerSeparationLayers,1
;   supportType,0
;   supportGridSpacing,4
;   maxOverhangAngle,45
;   supportAngles,0
;   temperatureName,Primary Extruder,Heated Bed
;   temperatureNumber,0,0
;   temperatureSetpointCount,1,1
;   temperatureSetpointLayers,1,1
;   temperatureSetpointTemperatures,210,60
;   temperatureStabilizeAtStartup,1,1
;   temperatureHeatedBed,0,1
;   temperatureRelayBetweenLayers,0,0
;   temperatureRelayBetweenLoops,0,0
;   fanLayers,1,2
;   fanSpeeds,0,100
;   blipFanToFullPower,0
;   adjustSpeedForCooling,1
;   minSpeedLayerTime,15
;   minCoolingSpeedSlowdown,20
;   increaseFanForCooling,0
;   minFanLayerTime,45
;   maxCoolingFanSpeed,100
;   increaseFanForBridging,0
;   bridgingFanSpeed,100
;   use5D,1
;   relativeEdistances,0
;   allowEaxisZeroing,1
;   independentExtruderAxes,0
;   includeM10123,0
;   stickySupport,1
;   applyToolheadOffsets,0
;   gcodeXoffset,0
;   gcodeYoffset,0
;   gcodeZoffset,0
;   overrideMachineDefinition,1
;   machineTypeOverride,0
;   strokeXoverride,250
;   strokeYoverride,210
;   strokeZoverride,200
;   originOffsetXoverride,0
;   originOffsetYoverride,0
;   originOffsetZoverride,0
;   homeXdirOverride,-1
;   homeYdirOverride,-1
;   homeZdirOverride,-1
;   flipXoverride,1
;   flipYoverride,-1
;   flipZoverride,1
;   toolheadOffsets,0,0|0,0|0,0|0,0|0,0|0,0
;   overrideFirmwareConfiguration,1
;   firmwareTypeOverride,RepRap (Marlin/Repetier/Sprinter)
;   GPXconfigOverride,r2
;   baudRateOverride,250000
;   overridePrinterModels,1
;   printerModelsOverride
;   startingGcode,M115 U3.0.7 ; use the latest firmware version,G28 W ; home all axes without mesh bed leveling,G80 ; run mesh bed leveling routine,G1 Y-3.0 F1000.0 ; prepare to prime,G92 E0 ; reset extrusion distance,G1 X60.0 E9.0  F1000.0 ; priming,G1 X100.0 E12.5  F1000.0 ; priming
;   layerChangeGcode,
;   retractionGcode,
;   toolChangeGcode,
;   endingGcode,M106 S0 ; turn off cooling fan,M104 S0 ; turn off extruder,M140 S0 ; turn off bed,G1 X0 Y200 ; part removal,M84 ; disable motors
;   exportFileFormat,gcode
;   celebration,0
;   celebrationSong,Random Song
;   postProcessing,
;   defaultSpeed,2400
;   outlineUnderspeed,0.8
;   solidInfillUnderspeed,0.8
;   supportUnderspeed,0.8
;   rapidXYspeed,4800
;   rapidZspeed,1002
;   minBridgingArea,50
;   bridgingExtraInflation,0
;   bridgingExtrusionMultiplier,1
;   bridgingSpeedMultiplier,1
;   useFixedBridgingAngle,0
;   fixedBridgingAngle,0
;   applyBridgingToPerimeters,0
;   filamentDiameters,1.75|1.75|1.75|1.75|1.75|1.75
;   filamentPricesPerKg,46|46|46|46|46|46
;   filamentDensities,1.25|1.25|1.25|1.25|1.25|1.25
;   useMinPrintHeight,1
;   minPrintHeight,0
;   useMaxPrintHeight,1
;   maxPrintHeight,235
;   useDiaphragm,0
;   diaphragmLayerInterval,20
;   robustSlicing,1
;   mergeAllIntoSolid,0
;   onlyRetractWhenCrossingOutline,1
;   retractBetweenLayers,1
;   useRetractionMinTravel,0
;   retractionMinTravel,3
;   retractWhileWiping,1
;   onlyWipeOutlines,1
;   avoidCrossingOutline,0
;   maxMovementDetourFactor,3
;   toolChangeRetractionDistance,12
;   toolChangeExtraRestartDistance,-0.5
;   toolChangeRetractionSpeed,600
;   externalThinWallType,0
;   internalThinWallType,0
;   thinWallAllowedOverlapPercentage,25
;   singleExtrusionMinLength,1
;   singleExtrusionMinPrintingWidthPercentage,50
;   singleExtrusionMaxPrintingWidthPercentage,200
;   singleExtrusionEndpointExtension,0.2
;   horizontalSizeCompensation,0
G90
M82
M106 S0
M140 S60
M190 S60
M104 S210 T0
M109 S210 T0
M115 U3.0.7 ; use the latest firmware version
G28 W ; home all axes without mesh bed leveling
G80 ; run mesh bed leveling routine
G1 Y-3.0 F1000.0 ; prepare to prime
G92 E0 ; reset extrusion distance
G1 X60.0 E9.0  F1000.0 ; priming
G1 X100.0 E12.5  F1000.0 ; priming
G92 E0
G1 E-1.5000 F1800
G1 Z0.420 F1002
; process Process1
; layer 1, Z = 0.420
T0
; tool H0.420 W0.480
; skirt
G1 X53.078 Y35.495 F4800
G1 E0.0000 F540
G92 E0
G1 X53.083 Y35.489 E0.0006 F1200
G1 X53.848 Y34.564 E0.1013
G1 X53.853 Y34.558 E0.1019
G1 X54.031 Y34.369 E0.1236
G1 X54.036 Y34.364 E0.1243
G1 X54.911 Y33.542 E0.2249
G1 X54.917 Y33.537 E0.2255
G1 X55.116 Y33.372 E0.2472
G1 X55.122 Y33.367 E0.2478
G1 X56.094 Y32.661 E0.3485
G1 X56.100 Y32.657 E0.3491
G1 X56.319 Y32.518 E0.3709
G1 X56.325 Y32.514 E0.3715
G1 X57.349 Y31.951 E0.4694
G1 X57.354 Y31.949 E0.4699
G1 X57.529 Y31.863 E0.4862
G1 X57.534 Y31.861 E0.4867
G1 X58.144 Y31.597 E0.5424
G1 X58.150 Y31.595 E0.5429
G1 X58.331 Y31.526 E0.5591
G1 X58.336 Y31.524 E0.5596
G1 X59.447 Y31.163 E0.6575
G1 X59.455 Y31.161 E0.6582
G1 X59.706 Y31.097 E0.6799
G1 X59.713 Y31.095 E0.6805
G1 X60.893 Y30.870 E0.7812
G1 X60.900 Y30.869 E0.7818
G1 X61.157 Y30.836 E0.8035
G1 X61.165 Y30.836 E0.8042
G1 X62.331 Y30.762 E0.9021
G1 X62.337 Y30.762 E0.9026
G1 X62.531 Y30.759 E0.9188
G1 X62.536 Y30.759 E0.9193
G1 X63.201 Y30.780 E0.9751
G1 X63.207 Y30.780 E0.9755
G1 X63.400 Y30.795 E0.9918
G1 X63.406 Y30.796 E0.9923
G1 X64.565 Y30.942 E1.0902
G1 X64.573 Y30.944 E1.0908
G1 X64.827 Y30.992 E1.1126
G1 X64.835 Y30.994 E1.1132
G1 X65.998 Y31.293 E1.2139
G1 X66.005 Y31.295 E1.2145
G1 X66.251 Y31.375 E1.2362
G1 X66.258 Y31.377 E1.2368
G1 X67.374 Y31.819 E1.3374
G1 X67.381 Y31.822 E1.3381
G1 X67.616 Y31.932 E1.3598
G1 X67.622 Y31.936 E1.3604
G1 X68.646 Y32.499 E1.4583
G1 X68.651 Y32.502 E1.4588
G1 X68.817 Y32.603 E1.4751
G1 X68.822 Y32.606 E1.4756
G1 X69.372 Y32.980 E1.5314
G1 X69.377 Y32.984 E1.5318
G1 X69.532 Y33.100 E1.5481
G1 X69.536 Y33.103 E1.5486
G1 X70.436 Y33.848 E1.6465
G1 X70.442 Y33.853 E1.6471
G1 X70.631 Y34.030 E1.6688
G1 X70.636 Y34.036 E1.6695
G1 X71.457 Y34.910 E1.7700
G1 X73.078 Y33.653 E1.9419
G1 X73.081 Y33.650 E1.9423
G1 X73.186 Y33.574 E1.9531
G1 X73.189 Y33.572 E1.9534
G1 X77.661 Y30.533 E2.4066
G1 X77.664 Y30.531 E2.4069
G1 X77.773 Y30.462 E2.4177
G1 X77.777 Y30.460 E2.4181
G1 X82.430 Y27.708 E2.8712
G1 X82.433 Y27.706 E2.8715
G1 X82.547 Y27.643 E2.8824
G1 X82.550 Y27.642 E2.8827
G1 X87.367 Y25.187 E3.3358
G1 X87.371 Y25.186 E3.3361
G1 X87.488 Y25.130 E3.3470
G1 X87.491 Y25.129 E3.3473
G1 X92.453 Y22.982 E3.8005
G1 X92.457 Y22.980 E3.8008
G1 X92.577 Y22.933 E3.8116
G1 X92.580 Y22.931 E3.8119
G1 X97.667 Y21.100 E4.2651
G1 X97.671 Y21.099 E4.2654
G1 X97.794 Y21.059 E4.2762
G1 X97.797 Y21.058 E4.2766
G1 X102.989 Y19.549 E4.7297
G1 X102.993 Y19.548 E4.7300
G1 X103.118 Y19.516 E4.7409
G1 X103.122 Y19.515 E4.7412
G1 X108.398 Y18.336 E5.1943
G1 X108.402 Y18.335 E5.1947
G1 X108.529 Y18.311 E5.2055
G1 X108.533 Y18.310 E5.2058
G1 X113.873 Y17.464 E5.6590
G1 X113.876 Y17.464 E5.6593
G1 X114.005 Y17.448 E5.6701
G1 X114.009 Y17.447 E5.6704
G1 X119.391 Y16.939 E6.1236
G1 X119.395 Y16.938 E6.1239
G1 X119.524 Y16.930 E6.1347
G1 X119.528 Y16.930 E6.1351
G1 X124.931 Y16.760 E6.5882
G1 X124.935 Y16.760 E6.5885
G1 X125.065 Y16.760 E6.5994
G1 X125.069 Y16.760 E6.5997
G1 X130.472 Y16.930 E7.0528
G1 X130.476 Y16.930 E7.0532
G1 X130.605 Y16.938 E7.0640
G1 X130.609 Y16.939 E7.0643
G1 X135.991 Y17.447 E7.5175
G1 X135.995 Y17.448 E7.5178
G1 X136.124 Y17.464 E7.5286
G1 X136.127 Y17.464 E7.5289
G1 X141.467 Y18.310 E7.9821
G1 X141.471 Y18.311 E7.9824
G1 X141.598 Y18.335 E7.9932
G1 X141.602 Y18.336 E7.9936
G1 X146.878 Y19.515 E8.4467
G1 X146.882 Y19.516 E8.4470
G1 X147.007 Y19.548 E8.4579
G1 X147.011 Y19.549 E8.4582
G1 X152.202 Y21.058 E8.9113
G1 X152.206 Y21.059 E8.9117
G1 X152.329 Y21.099 E8.9225
G1 X152.333 Y21.100 E8.9228
G1 X157.420 Y22.931 E9.3760
G1 X157.423 Y22.933 E9.3763
G1 X157.543 Y22.980 E9.3871
G1 X157.547 Y22.982 E9.3874
G1 X162.509 Y25.129 E9.8406
G1 X162.512 Y25.130 E9.8409
G1 X162.629 Y25.186 E9.8518
G1 X162.633 Y25.187 E9.8521
G1 X167.450 Y27.642 E10.3052
G1 X167.453 Y27.643 E10.3055
G1 X167.567 Y27.706 E10.3164
G1 X167.570 Y27.708 E10.3167
G1 X172.223 Y30.460 E10.7698
G1 X172.227 Y30.462 E10.7702
G1 X172.336 Y30.531 E10.7810
G1 X172.339 Y30.533 E10.7813
G1 X176.811 Y33.572 E11.2345
G1 X176.814 Y33.574 E11.2348
G1 X176.919 Y33.650 E11.2456
G1 X176.922 Y33.653 E11.2460
G1 X178.543 Y34.910 E11.4179
G1 X179.342 Y34.059 E11.5157
G1 X179.346 Y34.055 E11.5162
G1 X179.485 Y33.920 E11.5325
G1 X179.489 Y33.916 E11.5330
G1 X179.988 Y33.476 E11.5887
G1 X179.993 Y33.473 E11.5892
G1 X180.144 Y33.352 E11.6054
G1 X180.148 Y33.348 E11.6059
G1 X181.094 Y32.661 E11.7039
G1 X181.100 Y32.657 E11.7045
G1 X181.319 Y32.518 E11.7262
G1 X181.325 Y32.514 E11.7268
G1 X182.378 Y31.936 E11.8275
G1 X182.384 Y31.932 E11.8281
G1 X182.619 Y31.822 E11.8498
G1 X182.626 Y31.819 E11.8505
G1 X183.742 Y31.377 E11.9511
G1 X183.749 Y31.375 E11.9517
G1 X183.995 Y31.295 E11.9734
G1 X184.002 Y31.293 E11.9740
G1 X185.165 Y30.994 E12.0747
G1 X185.173 Y30.992 E12.0753
G1 X185.427 Y30.944 E12.0970
G1 X185.435 Y30.942 E12.0977
G1 X186.594 Y30.796 E12.1956
G1 X186.600 Y30.795 E12.1961
G1 X186.793 Y30.780 E12.2124
G1 X186.799 Y30.780 E12.2128
G1 X187.464 Y30.759 E12.2686
G1 X187.469 Y30.759 E12.2691
G1 X187.663 Y30.762 E12.2853
G1 X187.669 Y30.762 E12.2858
G1 X188.835 Y30.836 E12.3837
G1 X188.843 Y30.836 E12.3844
G1 X189.100 Y30.869 E12.4061
G1 X189.107 Y30.870 E12.4067
G1 X190.287 Y31.095 E12.5074
G1 X190.294 Y31.097 E12.5080
G1 X190.545 Y31.161 E12.5297
G1 X190.553 Y31.163 E12.5304
G1 X191.664 Y31.524 E12.6283
G1 X191.669 Y31.526 E12.6288
G1 X191.850 Y31.595 E12.6450
G1 X191.856 Y31.597 E12.6455
G1 X192.466 Y31.861 E12.7012
G1 X192.471 Y31.863 E12.7017
G1 X192.646 Y31.949 E12.7180
G1 X192.651 Y31.951 E12.7185
G1 X193.675 Y32.514 E12.8164
G1 X193.681 Y32.518 E12.8170
G1 X193.900 Y32.657 E12.8388
G1 X193.906 Y32.661 E12.8394
G1 X194.878 Y33.367 E12.9400
G1 X194.884 Y33.372 E12.9407
G1 X195.083 Y33.537 E12.9624
G1 X195.089 Y33.542 E12.9630
G1 X195.964 Y34.364 E13.0636
G1 X195.969 Y34.369 E13.0643
G1 X196.147 Y34.558 E13.0860
G1 X196.152 Y34.564 E13.0866
G1 X196.917 Y35.489 E13.1873
G1 X196.922 Y35.495 E13.1879
G1 X197.074 Y35.704 E13.2096
G1 X197.078 Y35.710 E13.2102
G1 X197.722 Y36.724 E13.3109
G1 X197.725 Y36.731 E13.3115
G1 X197.850 Y36.958 E13.3332
G1 X197.854 Y36.964 E13.3338
G1 X198.365 Y38.051 E13.4345
G1 X198.368 Y38.058 E13.4351
G1 X198.463 Y38.298 E13.4568
G1 X198.466 Y38.306 E13.4574
G1 X198.827 Y39.417 E13.5554
G1 X198.828 Y39.422 E13.5558
G1 X198.880 Y39.609 E13.5721
G1 X198.881 Y39.615 E13.5726
G1 X199.019 Y40.233 E13.6257
G1 X199.020 Y40.236 E13.6260
G1 X199.044 Y40.364 E13.6368
G1 X199.045 Y40.367 E13.6371
G1 X199.144 Y40.993 E13.6902
G1 X199.145 Y40.998 E13.6907
G1 X199.166 Y41.191 E13.7070
G1 X199.166 Y41.197 E13.7074
G1 X199.240 Y42.363 E13.8054
G1 X199.240 Y42.371 E13.8060
G1 X199.240 Y42.629 E13.8277
G1 X199.240 Y42.637 E13.8283
G1 X199.164 Y43.835 E13.9290
G1 X199.164 Y43.843 E13.9296
G1 X199.131 Y44.100 E13.9513
G1 X199.130 Y44.107 E13.9519
G1 X198.905 Y45.287 E14.0526
G1 X198.903 Y45.294 E14.0532
G1 X198.839 Y45.545 E14.0749
G1 X198.837 Y45.553 E14.0756
G1 X198.466 Y46.694 E14.1762
G1 X198.463 Y46.702 E14.1768
G1 X198.368 Y46.942 E14.1985
G1 X198.365 Y46.949 E14.1992
G1 X197.854 Y48.036 E14.2998
G1 X197.850 Y48.042 E14.3004
G1 X197.725 Y48.269 E14.3222
G1 X197.722 Y48.276 E14.3228
G1 X197.078 Y49.290 E14.4234
G1 X197.074 Y49.296 E14.4241
G1 X196.922 Y49.505 E14.4458
G1 X196.917 Y49.511 E14.4464
G1 X196.152 Y50.436 E14.5470
G1 X196.147 Y50.442 E14.5477
G1 X195.970 Y50.631 E14.5694
G1 X195.964 Y50.636 E14.5700
G1 X195.112 Y51.436 E14.6679
G1 X195.108 Y51.440 E14.6684
G1 X195.089 Y51.456 E14.6705
G1 X196.347 Y53.078 E14.8426
G1 X196.350 Y53.081 E14.8429
G1 X196.426 Y53.186 E14.8538
G1 X196.428 Y53.189 E14.8541
G1 X199.467 Y57.661 E15.3072
G1 X199.469 Y57.664 E15.3075
G1 X199.538 Y57.773 E15.3184
G1 X199.540 Y57.777 E15.3187
G1 X202.292 Y62.430 E15.7718
G1 X202.294 Y62.433 E15.7722
G1 X202.357 Y62.547 E15.7830
G1 X202.358 Y62.550 E15.7833
G1 X204.813 Y67.367 E16.2365
G1 X204.814 Y67.371 E16.2368
G1 X204.870 Y67.488 E16.2476
G1 X204.871 Y67.491 E16.2480
G1 X207.018 Y72.453 E16.7011
G1 X207.020 Y72.456 E16.7014
G1 X207.067 Y72.577 E16.7123
G1 X207.069 Y72.580 E16.7126
G1 X208.900 Y77.667 E17.1657
G1 X208.901 Y77.671 E17.1660
G1 X208.941 Y77.794 E17.1769
G1 X208.942 Y77.797 E17.1772
G1 X210.451 Y82.989 E17.6304
G1 X210.452 Y82.993 E17.6307
G1 X210.484 Y83.118 E17.6415
G1 X210.485 Y83.122 E17.6418
G1 X211.664 Y88.398 E18.0950
G1 X211.665 Y88.402 E18.0953
G1 X211.689 Y88.529 E18.1061
G1 X211.690 Y88.533 E18.1065
G1 X212.536 Y93.873 E18.5596
G1 X212.536 Y93.876 E18.5599
G1 X212.552 Y94.005 E18.5708
G1 X212.553 Y94.009 E18.5711
G1 X213.061 Y99.391 E19.0242
G1 X213.062 Y99.395 E19.0245
G1 X213.070 Y99.524 E19.0354
G1 X213.070 Y99.528 E19.0357
G1 X213.240 Y104.931 E19.4889
G1 X213.240 Y104.935 E19.4892
G1 X213.240 Y105.065 E19.5000
G1 X213.240 Y105.069 E19.5003
G1 X213.070 Y110.472 E19.9535
G1 X213.070 Y110.476 E19.9538
G1 X213.062 Y110.605 E19.9646
G1 X213.061 Y110.609 E19.9650
G1 X212.553 Y115.991 E20.4181
G1 X212.552 Y115.995 E20.4184
G1 X212.536 Y116.124 E20.4293
G1 X212.536 Y116.127 E20.4296
G1 X211.690 Y121.467 E20.8827
G1 X211.689 Y121.471 E20.8830
G1 X211.665 Y121.598 E20.8939
G1 X211.664 Y121.602 E20.8942
G1 X210.485 Y126.878 E21.3474
G1 X210.484 Y126.882 E21.3477
G1 X210.452 Y127.007 E21.3585
G1 X210.451 Y127.011 E21.3588
G1 X208.942 Y132.202 E21.8120
G1 X208.941 Y132.206 E21.8123
G1 X208.901 Y132.329 E21.8231
G1 X208.900 Y132.333 E21.8235
G1 X207.069 Y137.420 E22.2766
G1 X207.067 Y137.423 E22.2769
G1 X207.020 Y137.543 E22.2878
G1 X207.018 Y137.547 E22.2881
G1 X204.871 Y142.509 E22.7412
G1 X204.870 Y142.512 E22.7416
G1 X204.814 Y142.629 E22.7524
G1 X204.813 Y142.633 E22.7527
G1 X202.358 Y147.450 E23.2059
G1 X202.357 Y147.453 E23.2062
G1 X202.294 Y147.567 E23.2170
G1 X202.292 Y147.570 E23.2173
G1 X199.540 Y152.223 E23.6705
G1 X199.538 Y152.227 E23.6708
