; G-Code generated by Simplify3D(R) Version 3.1.1
; Jul 23, 2017 at 8:46:54 PM
; Settings Summary
;   processName,Process1
;   applyToModels,GoPro_session_Lens_Cap
;   profileName,Prusa Research Original Prusa i3 MK2 (modified)
;   profileVersion,2017-06-30 16:32:30
;   baseProfile,
;   printMaterial,PLA
;   printQuality,Medium
;   printExtruders,
;   extruderName,Primary Extruder
;   extruderToolheadNumber,0
;   extruderDiameter,0.4
;   extruderAutoWidth,1
;   extruderWidth,0.48
;   extrusionMultiplier,1
;   extruderUseRetract,1
;   extruderRetractionDistance,1.5
;   extruderExtraRestartDistance,0
;   extruderRetractionZLift,0
;   extruderRetractionSpeed,1800
;   extruderUseCoasting,1
;   extruderCoastingDistance,0.2
;   extruderUseWipe,1
;   extruderWipeDistance,2
;   primaryExtruder,0
;   layerHeight,0.2
;   topSolidLayers,3
;   bottomSolidLayers,3
;   perimeterOutlines,3
;   printPerimetersInsideOut,1
;   startPointOption,2
;   startPointOriginX,0
;   startPointOriginY,0
;   startPointOriginZ,0
;   sequentialIslands,0
;   spiralVaseMode,0
;   firstLayerHeightPercentage,150
;   firstLayerWidthPercentage,100
;   firstLayerUnderspeed,0.5
;   useRaft,0
;   raftExtruder,0
;   raftLayers,3
;   raftOffset,3
;   raftSeparationDistance,0.14
;   raftInfill,85
;   disableRaftBaseLayers,0
;   useSkirt,1
;   skirtExtruder,0
;   skirtLayers,1
;   skirtOutlines,1
;   skirtOffset,4
;   usePrimePillar,0
;   primePillarExtruder,999
;   primePillarWidth,12
;   primePillarLocation,7
;   primePillarSpeedMultiplier,1
;   useOozeShield,0
;   oozeShieldExtruder,999
;   oozeShieldOffset,2
;   oozeShieldOutlines,1
;   oozeShieldSidewallShape,1
;   oozeShieldSidewallAngle,30
;   oozeShieldSpeedMultiplier,1
;   infillExtruder,0
;   internalInfillPattern,Rectilinear
;   externalInfillPattern,Rectilinear
;   infillPercentage,15
;   outlineOverlapPercentage,20
;   infillExtrusionWidthPercentage,100
;   minInfillLength,5
;   infillLayerInterval,1
;   infillAngles,45,-45
;   overlapInfillAngles,0
;   generateSupport,0
;   supportExtruder,0
;   supportInfillPercentage,30
;   supportExtraInflation,0
;   denseSupportLayers,0
;   denseSupportInfillPercentage,70
;   supportLayerInterval,1
;   supportHorizontalPartOffset,0.3
;   supportUpperSeparationLayers,1
;   supportLowerSeparationLayers,1
;   supportType,0
;   supportGridSpacing,4
;   maxOverhangAngle,45
;   supportAngles,0
;   temperatureName,Primary Extruder,Heated Bed
;   temperatureNumber,0,0
;   temperatureSetpointCount,1,1
;   temperatureSetpointLayers,1,1
;   temperatureSetpointTemperatures,200,60
;   temperatureStabilizeAtStartup,1,1
;   temperatureHeatedBed,0,1
;   temperatureRelayBetweenLayers,0,0
;   temperatureRelayBetweenLoops,0,0
;   fanLayers,1,2
;   fanSpeeds,0,100
;   blipFanToFullPower,0
;   adjustSpeedForCooling,1
;   minSpeedLayerTime,15
;   minCoolingSpeedSlowdown,20
;   increaseFanForCooling,0
;   minFanLayerTime,45
;   maxCoolingFanSpeed,100
;   increaseFanForBridging,0
;   bridgingFanSpeed,100
;   use5D,1
;   relativeEdistances,0
;   allowEaxisZeroing,1
;   independentExtruderAxes,0
;   includeM10123,0
;   stickySupport,1
;   applyToolheadOffsets,0
;   gcodeXoffset,0
;   gcodeYoffset,0
;   gcodeZoffset,0
;   overrideMachineDefinition,1
;   machineTypeOverride,0
;   strokeXoverride,250
;   strokeYoverride,210
;   strokeZoverride,200
;   originOffsetXoverride,0
;   originOffsetYoverride,0
;   originOffsetZoverride,0
;   homeXdirOverride,-1
;   homeYdirOverride,-1
;   homeZdirOverride,-1
;   flipXoverride,1
;   flipYoverride,-1
;   flipZoverride,1
;   toolheadOffsets,0,0|0,0|0,0|0,0|0,0|0,0
;   overrideFirmwareConfiguration,1
;   firmwareTypeOverride,RepRap (Marlin/Repetier/Sprinter)
;   GPXconfigOverride,r2
;   baudRateOverride,250000
;   overridePrinterModels,1
;   printerModelsOverride
;   startingGcode,M115 U3.0.7 ; use the latest firmware version,G28 W ; home all axes without mesh bed leveling,G80 ; run mesh bed leveling routine,G1 Y-3.0 F1000.0 ; prepare to prime,G92 E0 ; reset extrusion distance,G1 X60.0 E9.0  F1000.0 ; priming,G1 X100.0 E12.5  F1000.0 ; priming
;   layerChangeGcode,
;   retractionGcode,
;   toolChangeGcode,
;   endingGcode,M106 S0 ; turn off cooling fan,M104 S0 ; turn off extruder,M140 S0 ; turn off bed,G1 X0 Y200 ; part removal,M84 ; disable motors
;   exportFileFormat,gcode
;   celebration,0
;   celebrationSong,Random Song
;   postProcessing,
;   defaultSpeed,2400
;   outlineUnderspeed,0.8
;   solidInfillUnderspeed,0.8
;   supportUnderspeed,0.8
;   rapidXYspeed,4800
;   rapidZspeed,1000
;   minBridgingArea,50
;   bridgingExtraInflation,0
;   bridgingExtrusionMultiplier,1
;   bridgingSpeedMultiplier,1
;   filamentDiameter,1.75
;   filamentPricePerKg,46
;   filamentDensity,1.25
;   useMinPrintHeight,0
;   minPrintHeight,0
;   useMaxPrintHeight,0
;   maxPrintHeight,0
;   useDiaphragm,0
;   diaphragmLayerInterval,20
;   robustSlicing,1
;   mergeAllIntoSolid,0
;   onlyRetractWhenCrossingOutline,1
;   retractBetweenLayers,1
;   useRetractionMinTravel,0
;   retractionMinTravel,3
;   retractWhileWiping,1
;   onlyWipeOutlines,1
;   avoidCrossingOutline,0
;   maxMovementDetourFactor,3
;   toolChangeRetractionDistance,12
;   toolChangeExtraRestartDistance,-0.5
;   toolChangeRetractionSpeed,600
;   allowThinWallGapFill,1
;   thinWallAllowedOverlapPercentage,25
;   horizontalSizeCompensation,0
G90
M82
M106 S0
M140 S60
M190 S60
M104 S200 T0
M109 S200 T0
M115 U3.0.7 ; use the latest firmware version
G28 W ; home all axes without mesh bed leveling
G80 ; run mesh bed leveling routine
G1 Y-3.0 F1000.0 ; prepare to prime
G92 E0 ; reset extrusion distance
G1 X60.0 E9.0  F1000.0 ; priming
G1 X100.0 E12.5  F1000.0 ; priming
G92 E0
G1 E-1.5000 F1800
G1 Z0.300 F1000
; layer 1, Z = 0.3
T0
; tool H0.300 W0.480
; skirt
G1 X104.836 Y86.668 F4800
G1 E0.0000 F540
G92 E0
G1 X105.597 Y85.799 E0.0692 F1200
G1 X105.603 Y85.794 E0.0697
G1 X105.794 Y85.603 E0.0858
G1 X105.799 Y85.597 E0.0863
G1 X106.668 Y84.836 E0.1555
G1 X106.674 Y84.831 E0.1559
G1 X106.888 Y84.666 E0.1721
G1 X106.895 Y84.662 E0.1725
G1 X107.855 Y84.020 E0.2417
G1 X107.862 Y84.016 E0.2422
G1 X108.096 Y83.881 E0.2583
G1 X108.103 Y83.877 E0.2588
G1 X109.139 Y83.366 E0.3280
G1 X109.146 Y83.363 E0.3285
G1 X109.395 Y83.259 E0.3446
G1 X109.403 Y83.257 E0.3451
G1 X110.497 Y82.885 E0.4143
G1 X110.505 Y82.883 E0.4147
G1 X110.765 Y82.813 E0.4309
G1 X110.773 Y82.811 E0.4314
G1 X111.906 Y82.586 E0.5005
G1 X111.914 Y82.585 E0.5010
G1 X112.181 Y82.549 E0.5172
G1 X112.189 Y82.549 E0.5176
G1 X113.275 Y82.477 E0.5828
G1 X113.279 Y82.477 E0.5830
G1 X113.414 Y82.473 E0.5911
G1 X113.418 Y82.473 E0.5913
G1 X136.582 Y82.473 E1.9782
G1 X136.586 Y82.473 E1.9784
G1 X136.721 Y82.477 E1.9865
G1 X136.725 Y82.477 E1.9867
G1 X137.811 Y82.549 E2.0519
G1 X137.819 Y82.549 E2.0523
G1 X138.086 Y82.585 E2.0685
G1 X138.094 Y82.586 E2.0689
G1 X139.227 Y82.811 E2.1381
G1 X139.235 Y82.813 E2.1386
G1 X139.495 Y82.883 E2.1547
G1 X139.503 Y82.885 E2.1552
G1 X140.597 Y83.257 E2.2244
G1 X140.605 Y83.259 E2.2249
G1 X140.854 Y83.363 E2.2410
G1 X140.861 Y83.366 E2.2415
G1 X141.897 Y83.877 E2.3107
G1 X141.904 Y83.881 E2.3111
G1 X142.138 Y84.016 E2.3273
G1 X142.145 Y84.020 E2.3278
G1 X143.105 Y84.662 E2.3969
G1 X143.112 Y84.666 E2.3974
G1 X143.326 Y84.831 E2.4136
G1 X143.332 Y84.836 E2.4140
G1 X144.201 Y85.597 E2.4832
G1 X144.206 Y85.603 E2.4837
G1 X144.397 Y85.794 E2.4998
G1 X144.403 Y85.799 E2.5003
G1 X145.164 Y86.668 E2.5695
G1 X145.169 Y86.674 E2.5700
G1 X145.334 Y86.888 E2.5861
G1 X145.338 Y86.895 E2.5866
G1 X145.980 Y87.855 E2.6558
G1 X145.984 Y87.862 E2.6562
G1 X146.119 Y88.096 E2.6724
G1 X146.123 Y88.103 E2.6729
G1 X146.634 Y89.139 E2.7420
G1 X146.637 Y89.146 E2.7425
G1 X146.741 Y89.395 E2.7587
G1 X146.743 Y89.403 E2.7591
G1 X147.115 Y90.497 E2.8283
G1 X147.117 Y90.505 E2.8288
G1 X147.187 Y90.765 E2.8449
G1 X147.189 Y90.773 E2.8454
G1 X147.414 Y91.906 E2.9146
G1 X147.415 Y91.914 E2.9151
G1 X147.451 Y92.181 E2.9312
G1 X147.451 Y92.189 E2.9317
G1 X147.523 Y93.275 E2.9968
G1 X147.523 Y93.279 E2.9971
G1 X147.527 Y93.414 E3.0051
G1 X147.527 Y93.418 E3.0054
G1 X147.527 Y116.582 E4.3922
G1 X147.527 Y116.586 E4.3924
G1 X147.523 Y116.721 E4.4005
G1 X147.523 Y116.725 E4.4007
G1 X147.451 Y117.811 E4.4659
G1 X147.451 Y117.819 E4.4664
G1 X147.415 Y118.086 E4.4825
G1 X147.414 Y118.094 E4.4830
G1 X147.189 Y119.227 E4.5522
G1 X147.187 Y119.235 E4.5526
G1 X147.117 Y119.495 E4.5688
G1 X147.115 Y119.503 E4.5693
G1 X146.743 Y120.597 E4.6384
G1 X146.741 Y120.605 E4.6389
G1 X146.637 Y120.854 E4.6551
G1 X146.634 Y120.861 E4.6555
G1 X146.123 Y121.897 E4.7247
G1 X146.119 Y121.904 E4.7252
G1 X145.984 Y122.138 E4.7413
G1 X145.980 Y122.145 E4.7418
G1 X145.338 Y123.105 E4.8110
G1 X145.334 Y123.112 E4.8114
G1 X145.169 Y123.326 E4.8276
G1 X145.164 Y123.332 E4.8281
G1 X144.403 Y124.201 E4.8972
G1 X144.397 Y124.206 E4.8977
G1 X144.206 Y124.397 E4.9139
G1 X144.201 Y124.403 E4.9143
G1 X143.332 Y125.164 E4.9835
G1 X143.326 Y125.169 E4.9840
G1 X143.112 Y125.334 E5.0001
G1 X143.105 Y125.338 E5.0006
G1 X142.145 Y125.980 E5.0698
G1 X142.138 Y125.984 E5.0703
G1 X141.904 Y126.119 E5.0864
G1 X141.897 Y126.123 E5.0869
G1 X140.861 Y126.634 E5.1561
G1 X140.854 Y126.637 E5.1565
G1 X140.605 Y126.741 E5.1727
G1 X140.597 Y126.743 E5.1732
G1 X139.503 Y127.115 E5.2423
G1 X139.495 Y127.117 E5.2428
G1 X139.235 Y127.187 E5.2590
G1 X139.227 Y127.189 E5.2594
G1 X138.094 Y127.414 E5.3286
G1 X138.086 Y127.415 E5.3291
G1 X137.819 Y127.451 E5.3452
G1 X137.811 Y127.451 E5.3457
G1 X136.725 Y127.523 E5.4108
G1 X136.721 Y127.523 E5.4111
G1 X136.586 Y127.527 E5.4192
G1 X136.582 Y127.527 E5.4194
G1 X113.418 Y127.527 E6.8062
G1 X113.414 Y127.527 E6.8065
G1 X113.279 Y127.523 E6.8145
G1 X113.275 Y127.523 E6.8148
G1 X112.189 Y127.451 E6.8799
G1 X112.181 Y127.451 E6.8804
G1 X111.914 Y127.415 E6.8965
G1 X111.906 Y127.414 E6.8970
G1 X110.773 Y127.189 E6.9662
G1 X110.765 Y127.187 E6.9667
G1 X110.505 Y127.117 E6.9828
G1 X110.497 Y127.115 E6.9833
G1 X109.403 Y126.743 E7.0525
G1 X109.395 Y126.741 E7.0529
G1 X109.146 Y126.637 E7.0691
G1 X109.139 Y126.634 E7.0696
G1 X108.103 Y126.123 E7.1387
G1 X108.096 Y126.119 E7.1392
G1 X107.862 Y125.984 E7.1554
G1 X107.855 Y125.980 E7.1558
G1 X106.895 Y125.338 E7.2250
G1 X106.888 Y125.334 E7.2255
G1 X106.674 Y125.169 E7.2416
G1 X106.668 Y125.164 E7.2421
G1 X105.799 Y124.403 E7.3113
G1 X105.794 Y124.397 E7.3118
G1 X105.603 Y124.206 E7.3279
G1 X105.597 Y124.201 E7.3284
G1 X104.836 Y123.332 E7.3976
G1 X104.831 Y123.326 E7.3980
G1 X104.666 Y123.112 E7.4142
G1 X104.662 Y123.105 E7.4146
G1 X104.020 Y122.145 E7.4838
G1 X104.016 Y122.138 E7.4843
G1 X103.881 Y121.904 E7.5005
G1 X103.877 Y121.897 E7.5009
G1 X103.366 Y120.861 E7.5701
G1 X103.363 Y120.854 E7.5706
G1 X103.259 Y120.605 E7.5867
G1 X103.257 Y120.597 E7.5872
G1 X102.885 Y119.503 E7.6564
G1 X102.883 Y119.495 E7.6568
G1 X102.813 Y119.235 E7.6730
G1 X102.811 Y119.227 E7.6735
G1 X102.586 Y118.094 E7.7426
G1 X102.585 Y118.086 E7.7431
G1 X102.549 Y117.819 E7.7593
G1 X102.549 Y117.811 E7.7597
G1 X102.477 Y116.725 E7.8249
G1 X102.477 Y116.721 E7.8251
G1 X102.473 Y116.586 E7.8332
G1 X102.473 Y116.582 E7.8334
G1 X102.473 Y93.418 E9.2203
G1 X102.473 Y93.414 E9.2205
G1 X102.477 Y93.279 E9.2286
G1 X102.477 Y93.275 E9.2288
G1 X102.549 Y92.189 E9.2940
G1 X102.549 Y92.181 E9.2944
G1 X102.585 Y91.914 E9.3106
G1 X102.586 Y91.906 E9.3110
G1 X102.811 Y90.773 E9.3802
G1 X102.813 Y90.765 E9.3807
G1 X102.883 Y90.505 E9.3968
G1 X102.885 Y90.497 E9.3973
G1 X103.257 Y89.403 E9.4665
G1 X103.259 Y89.395 E9.4670
G1 X103.363 Y89.146 E9.4831
G1 X103.366 Y89.139 E9.4836
G1 X103.877 Y88.103 E9.5528
G1 X103.881 Y88.096 E9.5532
G1 X104.016 Y87.862 E9.5694
G1 X104.020 Y87.855 E9.5699
G1 X104.662 Y86.895 E9.6390
G1 X104.666 Y86.888 E9.6395
G1 X104.714 Y86.827 E9.6442
G1 X104.831 Y86.674 F1200
G1 X104.836 Y86.668 F1200
G92 E0
G1 E-1.5000 F1800
; inner perimeter
G1 X109.066 Y90.094 F4800
G1 E0.0000 F1800
G92 E0
G1 X109.547 Y89.547 E0.0436 F1120
G1 X110.094 Y89.066 E0.0872
G1 X110.700 Y88.662 E0.1308
G1 X111.354 Y88.339 E0.1745
G1 X112.043 Y88.105 E0.2181
G1 X112.758 Y87.963 E0.2617
G1 X113.524 Y87.913 E0.3077
G1 X136.476 Y87.913 E1.6817
G1 X137.242 Y87.963 E1.7277
G1 X137.956 Y88.105 E1.7713
G1 X138.646 Y88.339 E1.8149
G1 X139.300 Y88.662 E1.8586
G1 X139.906 Y89.066 E1.9022
G1 X140.453 Y89.547 E1.9458
G1 X140.934 Y90.094 E1.9894
G1 X141.338 Y90.700 E2.0330
G1 X141.661 Y91.354 E2.0766
G1 X141.895 Y92.043 E2.1203
G1 X142.037 Y92.758 E2.1639
G1 X142.087 Y93.524 E2.2098
G1 X142.087 Y116.476 E3.5839
G1 X142.037 Y117.242 E3.6299
G1 X141.895 Y117.957 E3.6735
G1 X141.661 Y118.646 E3.7171
G1 X141.338 Y119.300 E3.7607
G1 X140.934 Y119.906 E3.8043
G1 X140.453 Y120.453 E3.8480
G1 X139.906 Y120.934 E3.8916
G1 X139.300 Y121.338 E3.9352
G1 X138.646 Y121.661 E3.9788
G1 X137.956 Y121.895 E4.0224
G1 X137.242 Y122.037 E4.0660
G1 X136.476 Y122.087 E4.1120
G1 X113.524 Y122.087 E5.4861
G1 X112.758 Y122.037 E5.5320
G1 X112.043 Y121.895 E5.5757
G1 X111.354 Y121.661 E5.6193
G1 X110.700 Y121.338 E5.6629
G1 X110.094 Y120.934 E5.7065
G1 X109.547 Y120.453 E5.7501
G1 X109.066 Y119.906 E5.7937
G1 X108.662 Y119.300 E5.8374
G1 X108.339 Y118.646 E5.8810
G1 X108.105 Y117.957 E5.9246
G1 X107.963 Y117.242 E5.9682
G1 X107.913 Y116.476 E6.0142
G1 X107.913 Y93.524 E7.3883
G1 X107.963 Y92.758 E7.4342
G1 X108.105 Y92.043 E7.4778
G1 X108.339 Y91.354 E7.5215
G1 X108.662 Y90.700 E7.5651
G1 X108.955 Y90.261 E7.5967
G1 X109.066 Y90.094 F1120
; inner perimeter
G1 X108.685 Y89.802 F4800
G92 E0
G1 X109.207 Y89.207 E0.0474 F1040
G1 X109.802 Y88.685 E0.0948
G1 X110.460 Y88.245 E0.1421
G1 X111.170 Y87.895 E0.1895
G1 X111.919 Y87.641 E0.2369
G1 X112.695 Y87.486 E0.2843
G1 X113.509 Y87.433 E0.3331
G1 X136.491 Y87.433 E1.7090
G1 X137.305 Y87.486 E1.7578
G1 X138.081 Y87.641 E1.8052
G1 X138.830 Y87.895 E1.8526
G1 X139.540 Y88.245 E1.9000
G1 X140.198 Y88.685 E1.9474
G1 X140.793 Y89.207 E1.9948
G1 X141.315 Y89.802 E2.0421
G1 X141.755 Y90.460 E2.0895
G1 X142.105 Y91.169 E2.1369
G1 X142.359 Y91.919 E2.1843
G1 X142.514 Y92.695 E2.2317
G1 X142.567 Y93.509 E2.2805
G1 X142.567 Y116.491 E3.6564
G1 X142.514 Y117.305 E3.7052
G1 X142.359 Y118.081 E3.7526
G1 X142.105 Y118.830 E3.8000
G1 X141.755 Y119.540 E3.8474
G1 X141.315 Y120.198 E3.8947
G1 X140.793 Y120.793 E3.9421
G1 X140.198 Y121.315 E3.9895
G1 X139.540 Y121.755 E4.0369
G1 X138.830 Y122.105 E4.0843
G1 X138.081 Y122.359 E4.1317
G1 X137.305 Y122.514 E4.1790
G1 X136.491 Y122.567 E4.2278
G1 X113.509 Y122.567 E5.6038
G1 X112.695 Y122.514 E5.6526
G1 X111.919 Y122.359 E5.7000
G1 X111.170 Y122.105 E5.7473
G1 X110.460 Y121.755 E5.7947
G1 X109.802 Y121.315 E5.8421
G1 X109.207 Y120.793 E5.8895
G1 X108.685 Y120.198 E5.9369
G1 X108.245 Y119.540 E5.9843
G1 X107.895 Y118.831 E6.0316
G1 X107.641 Y118.081 E6.0790
G1 X107.486 Y117.305 E6.1264
G1 X107.433 Y116.491 E6.1752
G1 X107.433 Y93.509 E7.5512
G1 X107.486 Y92.695 E7.6000
G1 X107.641 Y91.919 E7.6473
G1 X107.895 Y91.170 E7.6947
G1 X108.245 Y90.460 E7.7421
G1 X108.574 Y89.968 E7.7775
G1 X108.685 Y89.802 F1040
; outer perimeter
G1 X108.303 Y89.509 F4800
G92 E0
G1 X108.866 Y88.866 E0.0511 F960
G1 X109.509 Y88.303 E0.1023
G1 X110.219 Y87.828 E0.1534
G1 X110.985 Y87.451 E0.2046
G1 X111.794 Y87.176 E0.2557
G1 X112.632 Y87.009 E0.3069
G1 X113.493 Y86.953 E0.3585
G1 X136.507 Y86.953 E1.7363
G1 X137.368 Y87.009 E1.7880
G1 X138.206 Y87.176 E1.8391
G1 X139.015 Y87.451 E1.8903
G1 X139.781 Y87.828 E1.9414
G1 X140.491 Y88.303 E1.9926
G1 X141.134 Y88.866 E2.0437
G1 X141.697 Y89.509 E2.0949
G1 X142.172 Y90.219 E2.1460
G1 X142.549 Y90.985 E2.1972
G1 X142.824 Y91.794 E2.2483
G1 X142.991 Y92.632 E2.2995
G1 X143.047 Y93.493 E2.3511
G1 X143.047 Y116.507 E3.7289
G1 X142.991 Y117.368 E3.7805
G1 X142.824 Y118.206 E3.8317
G1 X142.549 Y119.015 E3.8828
G1 X142.172 Y119.781 E3.9340
G1 X141.697 Y120.491 E3.9851
G1 X141.134 Y121.134 E4.0363
G1 X140.491 Y121.697 E4.0874
G1 X139.781 Y122.172 E4.1386
G1 X139.015 Y122.549 E4.1897
G1 X138.206 Y122.824 E4.2409
G1 X137.368 Y122.991 E4.2920
G1 X136.507 Y123.047 E4.3437
G1 X113.493 Y123.047 E5.7215
G1 X112.632 Y122.991 E5.7731
