; G-Code generated by Simplify3D(R) Version 3.1.1
; Jul 23, 2017 at 8:08:59 PM
; Settings Summary
;   processName,Process1
;   applyToModels,GoPro_session_Lens_Cap
;   profileName,Prusa Research Original Prusa i3 MK2 (modified)
;   profileVersion,2017-06-30 16:32:30
;   baseProfile,
;   printMaterial,PLA
;   printQuality,Medium
;   printExtruders,
;   extruderName,Primary Extruder
;   extruderToolheadNumber,0
;   extruderDiameter,0.4
;   extruderAutoWidth,1
;   extruderWidth,0.48
;   extrusionMultiplier,1
;   extruderUseRetract,1
;   extruderRetractionDistance,1.5
;   extruderExtraRestartDistance,0
;   extruderRetractionZLift,0
;   extruderRetractionSpeed,1800
;   extruderUseCoasting,1
;   extruderCoastingDistance,0.2
;   extruderUseWipe,1
;   extruderWipeDistance,2
;   primaryExtruder,0
;   layerHeight,0.2
;   topSolidLayers,3
;   bottomSolidLayers,3
;   perimeterOutlines,3
;   printPerimetersInsideOut,1
;   startPointOption,2
;   startPointOriginX,0
;   startPointOriginY,0
;   startPointOriginZ,0
;   sequentialIslands,0
;   spiralVaseMode,0
;   firstLayerHeightPercentage,150
;   firstLayerWidthPercentage,100
;   firstLayerUnderspeed,0.5
;   useRaft,0
;   raftExtruder,0
;   raftLayers,3
;   raftOffset,3
;   raftSeparationDistance,0.14
;   raftInfill,85
;   disableRaftBaseLayers,0
;   useSkirt,1
;   skirtExtruder,0
;   skirtLayers,1
;   skirtOutlines,1
;   skirtOffset,4
;   usePrimePillar,0
;   primePillarExtruder,999
;   primePillarWidth,12
;   primePillarLocation,7
;   primePillarSpeedMultiplier,1
;   useOozeShield,0
;   oozeShieldExtruder,999
;   oozeShieldOffset,2
;   oozeShieldOutlines,1
;   oozeShieldSidewallShape,1
;   oozeShieldSidewallAngle,30
;   oozeShieldSpeedMultiplier,1
;   infillExtruder,0
;   internalInfillPattern,Rectilinear
;   externalInfillPattern,Rectilinear
;   infillPercentage,15
;   outlineOverlapPercentage,20
;   infillExtrusionWidthPercentage,100
;   minInfillLength,5
;   infillLayerInterval,1
;   infillAngles,45,-45
;   overlapInfillAngles,0
;   generateSupport,0
;   supportExtruder,0
;   supportInfillPercentage,30
;   supportExtraInflation,0
;   denseSupportLayers,0
;   denseSupportInfillPercentage,70
;   supportLayerInterval,1
;   supportHorizontalPartOffset,0.3
;   supportUpperSeparationLayers,1
;   supportLowerSeparationLayers,1
;   supportType,0
;   supportGridSpacing,4
;   maxOverhangAngle,45
;   supportAngles,0
;   temperatureName,Primary Extruder,Heated Bed
;   temperatureNumber,0,0
;   temperatureSetpointCount,1,1
;   temperatureSetpointLayers,1,1
;   temperatureSetpointTemperatures,200,60
;   temperatureStabilizeAtStartup,1,1
;   temperatureHeatedBed,0,1
;   temperatureRelayBetweenLayers,0,0
;   temperatureRelayBetweenLoops,0,0
;   fanLayers,1,2
;   fanSpeeds,0,100
;   blipFanToFullPower,0
;   adjustSpeedForCooling,1
;   minSpeedLayerTime,15
;   minCoolingSpeedSlowdown,20
;   increaseFanForCooling,0
;   minFanLayerTime,45
;   maxCoolingFanSpeed,100
;   increaseFanForBridging,0
;   bridgingFanSpeed,100
;   use5D,1
;   relativeEdistances,0
;   allowEaxisZeroing,1
;   independentExtruderAxes,0
;   includeM10123,0
;   stickySupport,1
;   applyToolheadOffsets,0
;   gcodeXoffset,0
;   gcodeYoffset,0
;   gcodeZoffset,0
;   overrideMachineDefinition,1
;   machineTypeOverride,0
;   strokeXoverride,250
;   strokeYoverride,210
;   strokeZoverride,200
;   originOffsetXoverride,0
;   originOffsetYoverride,0
;   originOffsetZoverride,0
;   homeXdirOverride,-1
;   homeYdirOverride,-1
;   homeZdirOverride,-1
;   flipXoverride,1
;   flipYoverride,-1
;   flipZoverride,1
;   toolheadOffsets,0,0|0,0|0,0|0,0|0,0|0,0
;   overrideFirmwareConfiguration,1
;   firmwareTypeOverride,RepRap (Marlin/Repetier/Sprinter)
;   GPXconfigOverride,r2
;   baudRateOverride,250000
;   overridePrinterModels,1
;   printerModelsOverride
;   startingGcode,M115 U3.0.7 ; use the latest firmware version,G28 W ; home all axes without mesh bed leveling,G80 ; run mesh bed leveling routine,G1 Y-3.0 F1000.0 ; prepare to prime,G92 E0 ; reset extrusion distance,G1 X60.0 E9.0  F1000.0 ; priming,G1 X100.0 E12.5  F1000.0 ; priming
;   layerChangeGcode,
;   retractionGcode,
;   toolChangeGcode,
;   endingGcode,M106 S0 ; turn off cooling fan,M104 S0 ; turn off extruder,M140 S0 ; turn off bed,G1 X0 Y200 ; part removal,M84 ; disable motors
;   exportFileFormat,gcode
;   celebration,0
;   celebrationSong,Random Song
;   postProcessing,
;   defaultSpeed,2400
;   outlineUnderspeed,0.8
;   solidInfillUnderspeed,0.8
;   supportUnderspeed,0.8
;   rapidXYspeed,4800
;   rapidZspeed,1000
;   minBridgingArea,50
;   bridgingExtraInflation,0
;   bridgingExtrusionMultiplier,1
;   bridgingSpeedMultiplier,1
;   filamentDiameter,1.75
;   filamentPricePerKg,46
;   filamentDensity,1.25
;   useMinPrintHeight,0
;   minPrintHeight,0
;   useMaxPrintHeight,0
;   maxPrintHeight,0
;   useDiaphragm,0
;   diaphragmLayerInterval,20
;   robustSlicing,1
;   mergeAllIntoSolid,0
;   onlyRetractWhenCrossingOutline,1
;   retractBetweenLayers,1
;   useRetractionMinTravel,0
;   retractionMinTravel,3
;   retractWhileWiping,1
;   onlyWipeOutlines,1
;   avoidCrossingOutline,0
;   maxMovementDetourFactor,3
;   toolChangeRetractionDistance,12
;   toolChangeExtraRestartDistance,-0.5
;   toolChangeRetractionSpeed,600
;   allowThinWallGapFill,1
;   thinWallAllowedOverlapPercentage,25
;   horizontalSizeCompensation,0
G90
M82
M106 S0
M140 S60
M190 S60
M104 S200 T0
M109 S200 T0
M115 U3.0.7 ; use the latest firmware version
G28 W ; home all axes without mesh bed leveling
G80 ; run mesh bed leveling routine
G1 Y-3.0 F1000.0 ; prepare to prime
G92 E0 ; reset extrusion distance
G1 X60.0 E9.0  F1000.0 ; priming
G1 X100.0 E12.5  F1000.0 ; priming
G92 E0
G1 E-1.5000 F1800
G1 Z0.300 F1000
; layer 1, Z = 0.3
T0
; tool H0.300 W0.480
; skirt
G1 X104.493 Y86.350 F4800
G1 E0.0000 F540
G92 E0
G1 X105.266 Y85.468 E0.0702 F1200
G1 X105.272 Y85.463 E0.0707
G1 X105.463 Y85.272 E0.0869
G1 X105.468 Y85.266 E0.0873
G1 X106.350 Y84.493 E0.1576
G1 X106.356 Y84.488 E0.1581
G1 X106.570 Y84.324 E0.1742
G1 X106.577 Y84.319 E0.1747
G1 X107.552 Y83.667 E0.2449
G1 X107.559 Y83.663 E0.2454
G1 X107.793 Y83.528 E0.2615
G1 X107.800 Y83.524 E0.2620
G1 X108.852 Y83.005 E0.3323
G1 X108.859 Y83.002 E0.3327
G1 X109.108 Y82.899 E0.3489
G1 X109.116 Y82.896 E0.3493
G1 X110.227 Y82.519 E0.4196
G1 X110.234 Y82.517 E0.4201
G1 X110.495 Y82.447 E0.4362
G1 X110.503 Y82.445 E0.4367
G1 X111.653 Y82.216 E0.5069
G1 X111.661 Y82.215 E0.5074
G1 X111.929 Y82.180 E0.5236
G1 X111.936 Y82.179 E0.5240
G1 X113.040 Y82.107 E0.5902
G1 X113.044 Y82.106 E0.5905
G1 X113.179 Y82.102 E0.5985
G1 X113.183 Y82.102 E0.5988
G1 X136.817 Y82.102 E2.0137
G1 X136.821 Y82.102 E2.0140
G1 X136.956 Y82.106 E2.0221
G1 X136.960 Y82.107 E2.0223
G1 X138.064 Y82.179 E2.0885
G1 X138.071 Y82.180 E2.0890
G1 X138.339 Y82.215 E2.1051
G1 X138.347 Y82.216 E2.1056
G1 X139.497 Y82.445 E2.1758
G1 X139.505 Y82.447 E2.1763
G1 X139.766 Y82.517 E2.1925
G1 X139.773 Y82.519 E2.1929
G1 X140.884 Y82.896 E2.2632
G1 X140.892 Y82.899 E2.2636
G1 X141.141 Y83.002 E2.2798
G1 X141.148 Y83.005 E2.2803
G1 X142.200 Y83.524 E2.3505
G1 X142.207 Y83.528 E2.3510
G1 X142.441 Y83.663 E2.3671
G1 X142.448 Y83.667 E2.3676
G1 X143.423 Y84.319 E2.4379
G1 X143.430 Y84.324 E2.4383
G1 X143.643 Y84.488 E2.4545
G1 X143.650 Y84.493 E2.4549
G1 X144.532 Y85.266 E2.5252
G1 X144.537 Y85.272 E2.5257
G1 X144.728 Y85.462 E2.5418
G1 X144.734 Y85.468 E2.5423
G1 X145.507 Y86.350 E2.6125
G1 X145.512 Y86.356 E2.6130
G1 X145.676 Y86.570 E2.6291
G1 X145.681 Y86.577 E2.6296
G1 X146.333 Y87.552 E2.6999
G1 X146.337 Y87.559 E2.7003
G1 X146.472 Y87.793 E2.7165
G1 X146.476 Y87.800 E2.7169
G1 X146.995 Y88.852 E2.7872
G1 X146.998 Y88.859 E2.7877
G1 X147.101 Y89.108 E2.8038
G1 X147.104 Y89.116 E2.8043
G1 X147.481 Y90.227 E2.8745
G1 X147.483 Y90.234 E2.8750
G1 X147.553 Y90.495 E2.8912
G1 X147.555 Y90.503 E2.8916
G1 X147.784 Y91.653 E2.9619
G1 X147.785 Y91.661 E2.9623
G1 X147.820 Y91.929 E2.9785
G1 X147.821 Y91.936 E2.9790
G1 X147.893 Y93.040 E3.0452
G1 X147.894 Y93.044 E3.0454
G1 X147.898 Y93.179 E3.0535
G1 X147.898 Y93.183 E3.0537
G1 X147.898 Y116.817 E4.4687
G1 X147.898 Y116.821 E4.4689
G1 X147.894 Y116.956 E4.4770
G1 X147.893 Y116.960 E4.4772
G1 X147.821 Y118.064 E4.5434
G1 X147.820 Y118.071 E4.5439
G1 X147.785 Y118.339 E4.5601
G1 X147.784 Y118.347 E4.5605
G1 X147.555 Y119.497 E4.6308
G1 X147.553 Y119.505 E4.6312
G1 X147.483 Y119.766 E4.6474
G1 X147.481 Y119.773 E4.6479
G1 X147.104 Y120.884 E4.7181
G1 X147.101 Y120.892 E4.7186
G1 X146.998 Y121.141 E4.7347
G1 X146.995 Y121.148 E4.7352
G1 X146.476 Y122.200 E4.8055
G1 X146.472 Y122.207 E4.8059
G1 X146.337 Y122.441 E4.8221
G1 X146.333 Y122.448 E4.8225
G1 X145.681 Y123.423 E4.8928
G1 X145.676 Y123.430 E4.8933
G1 X145.512 Y123.644 E4.9094
G1 X145.507 Y123.650 E4.9099
G1 X144.734 Y124.532 E4.9801
G1 X144.728 Y124.537 E4.9806
G1 X144.537 Y124.728 E4.9967
G1 X144.532 Y124.734 E4.9972
G1 X143.650 Y125.507 E5.0675
G1 X143.643 Y125.512 E5.0679
G1 X143.430 Y125.676 E5.0841
G1 X143.423 Y125.681 E5.0845
G1 X142.448 Y126.333 E5.1548
G1 X142.441 Y126.337 E5.1553
G1 X142.207 Y126.472 E5.1714
G1 X142.200 Y126.476 E5.1719
G1 X141.148 Y126.995 E5.2421
G1 X141.141 Y126.998 E5.2426
G1 X140.892 Y127.101 E5.2588
G1 X140.884 Y127.104 E5.2592
G1 X139.773 Y127.481 E5.3295
G1 X139.766 Y127.483 E5.3299
G1 X139.505 Y127.553 E5.3461
G1 X139.497 Y127.555 E5.3466
G1 X138.347 Y127.784 E5.4168
G1 X138.339 Y127.785 E5.4173
G1 X138.071 Y127.820 E5.4334
G1 X138.064 Y127.821 E5.4339
G1 X136.960 Y127.893 E5.5001
G1 X136.956 Y127.894 E5.5003
G1 X136.821 Y127.898 E5.5084
G1 X136.817 Y127.898 E5.5087
G1 X113.183 Y127.898 E6.9236
G1 X113.179 Y127.898 E6.9239
G1 X113.044 Y127.894 E6.9319
G1 X113.040 Y127.893 E6.9322
G1 X111.936 Y127.821 E6.9984
G1 X111.929 Y127.820 E6.9988
G1 X111.661 Y127.785 E7.0150
G1 X111.653 Y127.784 E7.0155
G1 X110.503 Y127.555 E7.0857
G1 X110.495 Y127.553 E7.0862
G1 X110.234 Y127.483 E7.1023
G1 X110.227 Y127.481 E7.1028
G1 X109.116 Y127.104 E7.1731
G1 X109.108 Y127.101 E7.1735
G1 X108.859 Y126.998 E7.1897
G1 X108.852 Y126.995 E7.1901
G1 X107.800 Y126.476 E7.2604
G1 X107.793 Y126.472 E7.2609
G1 X107.559 Y126.337 E7.2770
G1 X107.552 Y126.333 E7.2775
G1 X106.577 Y125.681 E7.3477
G1 X106.570 Y125.676 E7.3482
G1 X106.356 Y125.512 E7.3643
G1 X106.350 Y125.507 E7.3648
G1 X105.468 Y124.734 E7.4351
G1 X105.463 Y124.728 E7.4355
G1 X105.272 Y124.537 E7.4517
G1 X105.266 Y124.532 E7.4522
G1 X104.493 Y123.650 E7.5224
G1 X104.488 Y123.644 E7.5229
G1 X104.324 Y123.430 E7.5390
G1 X104.319 Y123.423 E7.5395
G1 X103.667 Y122.448 E7.6097
G1 X103.663 Y122.441 E7.6102
G1 X103.528 Y122.207 E7.6264
G1 X103.524 Y122.200 E7.6268
G1 X103.005 Y121.148 E7.6971
G1 X103.002 Y121.141 E7.6975
G1 X102.899 Y120.892 E7.7137
G1 X102.896 Y120.884 E7.7142
G1 X102.519 Y119.773 E7.7844
G1 X102.517 Y119.766 E7.7849
G1 X102.447 Y119.505 E7.8010
G1 X102.445 Y119.497 E7.8015
G1 X102.216 Y118.347 E7.8717
G1 X102.215 Y118.339 E7.8722
G1 X102.180 Y118.071 E7.8884
G1 X102.179 Y118.064 E7.8888
G1 X102.107 Y116.960 E7.9550
G1 X102.106 Y116.956 E7.9553
G1 X102.102 Y116.821 E7.9634
G1 X102.102 Y116.817 E7.9636
G1 X102.102 Y93.183 E9.3786
G1 X102.102 Y93.179 E9.3788
G1 X102.106 Y93.044 E9.3869
G1 X102.107 Y93.040 E9.3871
G1 X102.179 Y91.936 E9.4533
G1 X102.180 Y91.929 E9.4538
G1 X102.215 Y91.661 E9.4699
G1 X102.216 Y91.653 E9.4704
G1 X102.445 Y90.503 E9.5407
G1 X102.447 Y90.495 E9.5411
G1 X102.517 Y90.234 E9.5573
G1 X102.519 Y90.227 E9.5577
G1 X102.896 Y89.116 E9.6280
G1 X102.899 Y89.108 E9.6285
G1 X103.002 Y88.859 E9.6446
G1 X103.005 Y88.852 E9.6451
G1 X103.524 Y87.800 E9.7153
G1 X103.528 Y87.793 E9.7158
G1 X103.663 Y87.559 E9.7319
G1 X103.667 Y87.552 E9.7324
G1 X104.319 Y86.577 E9.8027
G1 X104.324 Y86.570 E9.8031
G1 X104.371 Y86.509 E9.8078
G1 X104.488 Y86.356 F1200
G1 X104.493 Y86.350 F1200
G92 E0
G1 E-1.5000 F1800
; inner perimeter
G1 X108.724 Y89.777 F4800
G1 E0.0000 F1800
G92 E0
G1 X109.216 Y89.216 E0.0447 F1120
G1 X109.777 Y88.724 E0.0894
G1 X110.397 Y88.309 E0.1340
G1 X111.067 Y87.979 E0.1787
G1 X111.773 Y87.739 E0.2234
G1 X112.505 Y87.593 E0.2681
G1 X113.289 Y87.542 E0.3151
G1 X136.711 Y87.542 E1.7173
G1 X137.495 Y87.593 E1.7644
G1 X138.227 Y87.739 E1.8090
G1 X138.933 Y87.979 E1.8537
G1 X139.603 Y88.309 E1.8984
G1 X140.223 Y88.724 E1.9431
G1 X140.784 Y89.216 E1.9878
G1 X141.276 Y89.777 E2.0324
G1 X141.691 Y90.397 E2.0771
G1 X142.021 Y91.067 E2.1218
G1 X142.261 Y91.773 E2.1665
G1 X142.407 Y92.505 E2.2112
G1 X142.458 Y93.289 E2.2582
G1 X142.458 Y116.711 E3.6604
G1 X142.407 Y117.495 E3.7074
G1 X142.261 Y118.227 E3.7521
G1 X142.021 Y118.933 E3.7968
G1 X141.691 Y119.603 E3.8415
G1 X141.276 Y120.223 E3.8862
G1 X140.784 Y120.784 E3.9308
G1 X140.223 Y121.276 E3.9755
G1 X139.603 Y121.691 E4.0202
G1 X138.933 Y122.021 E4.0649
G1 X138.227 Y122.261 E4.1096
G1 X137.495 Y122.407 E4.1542
G1 X136.711 Y122.458 E4.2013
G1 X113.289 Y122.458 E5.6035
G1 X112.505 Y122.407 E5.6505
G1 X111.773 Y122.261 E5.6952
G1 X111.067 Y122.021 E5.7399
G1 X110.397 Y121.691 E5.7846
G1 X109.777 Y121.276 E5.8292
G1 X109.216 Y120.784 E5.8739
G1 X108.724 Y120.223 E5.9186
G1 X108.309 Y119.603 E5.9633
G1 X107.979 Y118.933 E6.0080
G1 X107.739 Y118.227 E6.0526
G1 X107.593 Y117.495 E6.0973
G1 X107.542 Y116.711 E6.1444
G1 X107.542 Y93.289 E7.5466
G1 X107.593 Y92.505 E7.5936
G1 X107.739 Y91.773 E7.6383
G1 X107.979 Y91.067 E7.6830
G1 X108.309 Y90.397 E7.7276
G1 X108.612 Y89.943 E7.7603
G1 X108.724 Y89.777 F1120
; inner perimeter
G1 X108.342 Y89.484 F4800
G92 E0
G1 X108.875 Y88.875 E0.0484 F1040
G1 X109.484 Y88.342 E0.0969
G1 X110.157 Y87.892 E0.1453
G1 X110.883 Y87.534 E0.1938
G1 X111.649 Y87.274 E0.2422
G1 X112.443 Y87.116 E0.2907
G1 X113.274 Y87.062 E0.3405
G1 X136.726 Y87.062 E1.7446
G1 X137.557 Y87.116 E1.7945
G1 X138.351 Y87.274 E1.8429
G1 X139.117 Y87.534 E1.8914
G1 X139.843 Y87.892 E1.9398
G1 X140.516 Y88.342 E1.9883
G1 X141.125 Y88.876 E2.0367
G1 X141.658 Y89.484 E2.0852
G1 X142.108 Y90.157 E2.1336
G1 X142.466 Y90.883 E2.1821
G1 X142.726 Y91.649 E2.2305
G1 X142.884 Y92.443 E2.2790
G1 X142.938 Y93.274 E2.3288
G1 X142.938 Y116.726 E3.7329
G1 X142.884 Y117.557 E3.7828
G1 X142.726 Y118.351 E3.8312
G1 X142.466 Y119.117 E3.8797
G1 X142.108 Y119.843 E3.9281
G1 X141.658 Y120.516 E3.9766
G1 X141.125 Y121.124 E4.0250
G1 X140.516 Y121.658 E4.0735
G1 X139.843 Y122.108 E4.1219
G1 X139.117 Y122.466 E4.1704
G1 X138.351 Y122.726 E4.2188
G1 X137.557 Y122.884 E4.2672
G1 X136.726 Y122.938 E4.3171
G1 X113.274 Y122.938 E5.7212
G1 X112.443 Y122.884 E5.7710
G1 X111.649 Y122.726 E5.8195
G1 X110.883 Y122.466 E5.8679
G1 X110.157 Y122.108 E5.9164
G1 X109.484 Y121.658 E5.9648
G1 X108.875 Y121.124 E6.0133
G1 X108.342 Y120.516 E6.0617
G1 X107.892 Y119.843 E6.1102
G1 X107.534 Y119.117 E6.1586
G1 X107.274 Y118.351 E6.2071
G1 X107.116 Y117.557 E6.2555
G1 X107.062 Y116.726 E6.3054
G1 X107.062 Y93.274 E7.7095
G1 X107.116 Y92.443 E7.7593
G1 X107.274 Y91.649 E7.8078
G1 X107.534 Y90.883 E7.8562
G1 X107.892 Y90.157 E7.9047
G1 X108.231 Y89.650 E7.9411
G1 X108.342 Y89.484 F1040
; outer perimeter
G1 X107.960 Y89.191 F4800
G92 E0
G1 X108.535 Y88.535 E0.0522 F960
G1 X109.191 Y87.960 E0.1044
G1 X109.916 Y87.476 E0.1566
G1 X110.698 Y87.090 E0.2089
G1 X111.524 Y86.810 E0.2611
G1 X112.380 Y86.640 E0.3133
G1 X113.258 Y86.582 E0.3660
G1 X136.742 Y86.582 E1.7719
G1 X137.620 Y86.640 E1.8246
G1 X138.476 Y86.810 E1.8768
G1 X139.301 Y87.090 E1.9290
G1 X140.084 Y87.476 E1.9813
G1 X140.809 Y87.960 E2.0335
G1 X141.465 Y88.535 E2.0857
G1 X142.040 Y89.191 E2.1379
G1 X142.524 Y89.916 E2.1901
G1 X142.910 Y90.698 E2.2423
G1 X143.190 Y91.524 E2.2945
G1 X143.360 Y92.380 E2.3468
G1 X143.418 Y93.258 E2.3995
G1 X143.418 Y116.742 E3.8054
G1 X143.360 Y117.620 E3.8581
G1 X143.190 Y118.476 E3.9103
G1 X142.910 Y119.302 E3.9625
G1 X142.524 Y120.084 E4.0147
G1 X142.040 Y120.809 E4.0670
G1 X141.465 Y121.465 E4.1192
G1 X140.809 Y122.040 E4.1714
G1 X140.084 Y122.524 E4.2236
G1 X139.301 Y122.910 E4.2758
G1 X138.476 Y123.190 E4.3280
G1 X137.620 Y123.360 E4.3802
G1 X136.742 Y123.418 E4.4329
G1 X113.258 Y123.418 E5.8389
G1 X112.380 Y123.360 E5.8916
