; G-Code generated by Simplify3D(R) Version 4.0.0
; Feb 4, 2018 at 9:09:05 AM
; Settings Summary
;   processName,Process1
;   applyToModels,laundry-basket-clipon
;   profileName,Prusa Research Original Prusa i3 MK2 (modified)
;   profileVersion,2017-07-23 22:27:18
;   baseProfile,
;   printMaterial,PLA
;   printQuality,Fast
;   printExtruders,
;   extruderName,Primary Extruder
;   extruderToolheadNumber,0
;   extruderDiameter,0.4
;   extruderAutoWidth,1
;   extruderWidth,0.48
;   extrusionMultiplier,1
;   extruderUseRetract,1
;   extruderRetractionDistance,1.5
;   extruderExtraRestartDistance,0
;   extruderRetractionZLift,0
;   extruderRetractionSpeed,1800
;   extruderUseCoasting,1
;   extruderCoastingDistance,0.2
;   extruderUseWipe,1
;   extruderWipeDistance,2
;   primaryExtruder,0
;   layerHeight,0.35
;   topSolidLayers,3
;   bottomSolidLayers,3
;   perimeterOutlines,2
;   printPerimetersInsideOut,1
;   startPointOption,2
;   startPointOriginX,0
;   startPointOriginY,0
;   sequentialIslands,0
;   spiralVaseMode,0
;   firstLayerHeightPercentage,120
;   firstLayerWidthPercentage,100
;   firstLayerUnderspeed,0.5
;   useRaft,0
;   raftExtruder,0
;   raftTopLayers,3
;   raftBaseLayers,2
;   raftOffset,3
;   raftSeparationDistance,0.14
;   raftTopInfill,100
;   aboveRaftSpeedMultiplier,0.3
;   useSkirt,1
;   skirtExtruder,0
;   skirtLayers,1
;   skirtOutlines,1
;   skirtOffset,4
;   usePrimePillar,0
;   primePillarExtruder,999
;   primePillarWidth,12
;   primePillarLocation,7
;   primePillarSpeedMultiplier,1
;   useOozeShield,0
;   oozeShieldExtruder,999
;   oozeShieldOffset,2
;   oozeShieldOutlines,1
;   oozeShieldSidewallShape,1
;   oozeShieldSidewallAngle,30
;   oozeShieldSpeedMultiplier,1
;   infillExtruder,0
;   internalInfillPattern,Rectilinear
;   externalInfillPattern,Rectilinear
;   infillPercentage,10
;   outlineOverlapPercentage,20
;   infillExtrusionWidthPercentage,100
;   minInfillLength,5
;   infillLayerInterval,1
;   internalInfillAngles,45,-45
;   overlapInternalInfillAngles,0
;   externalInfillAngles,45,-45
;   generateSupport,0
;   supportExtruder,0
;   supportInfillPercentage,25
;   supportExtraInflation,0
;   supportBaseLayers,0
;   denseSupportExtruder,0
;   denseSupportLayers,0
;   denseSupportInfillPercentage,70
;   supportLayerInterval,1
;   supportHorizontalPartOffset,0.3
;   supportUpperSeparationLayers,1
;   supportLowerSeparationLayers,1
;   supportType,0
;   supportGridSpacing,4
;   maxOverhangAngle,45
;   supportAngles,0
;   temperatureName,Primary Extruder,Heated Bed
;   temperatureNumber,0,0
;   temperatureSetpointCount,1,1
;   temperatureSetpointLayers,1,1
;   temperatureSetpointTemperatures,210,60
;   temperatureStabilizeAtStartup,1,1
;   temperatureHeatedBed,0,1
;   temperatureRelayBetweenLayers,0,0
;   temperatureRelayBetweenLoops,0,0
;   fanLayers,1,2
;   fanSpeeds,0,100
;   blipFanToFullPower,0
;   adjustSpeedForCooling,1
;   minSpeedLayerTime,15
;   minCoolingSpeedSlowdown,20
;   increaseFanForCooling,0
;   minFanLayerTime,45
;   maxCoolingFanSpeed,100
;   increaseFanForBridging,0
;   bridgingFanSpeed,100
;   use5D,1
;   relativeEdistances,0
;   allowEaxisZeroing,1
;   independentExtruderAxes,0
;   includeM10123,0
;   stickySupport,1
;   applyToolheadOffsets,0
;   gcodeXoffset,0
;   gcodeYoffset,0
;   gcodeZoffset,0
;   overrideMachineDefinition,1
;   machineTypeOverride,0
;   strokeXoverride,250
;   strokeYoverride,210
;   strokeZoverride,200
;   originOffsetXoverride,0
;   originOffsetYoverride,0
;   originOffsetZoverride,0
;   homeXdirOverride,-1
;   homeYdirOverride,-1
;   homeZdirOverride,-1
;   flipXoverride,1
;   flipYoverride,-1
;   flipZoverride,1
;   toolheadOffsets,0,0|0,0|0,0|0,0|0,0|0,0
;   overrideFirmwareConfiguration,1
;   firmwareTypeOverride,RepRap (Marlin/Repetier/Sprinter)
;   GPXconfigOverride,r2
;   baudRateOverride,250000
;   overridePrinterModels,1
;   printerModelsOverride
;   startingGcode,M115 U3.0.7 ; use the latest firmware version,G28 W ; home all axes without mesh bed leveling,G80 ; run mesh bed leveling routine,G1 Y-3.0 F1000.0 ; prepare to prime,G92 E0 ; reset extrusion distance,G1 X60.0 E9.0  F1000.0 ; priming,G1 X100.0 E12.5  F1000.0 ; priming
;   layerChangeGcode,
;   retractionGcode,
;   toolChangeGcode,
;   endingGcode,M106 S0 ; turn off cooling fan,M104 S0 ; turn off extruder,M140 S0 ; turn off bed,G1 X0 Y200 ; part removal,M84 ; disable motors
;   exportFileFormat,gcode
;   celebration,0
;   celebrationSong,Random Song
;   postProcessing,
;   defaultSpeed,2400
;   outlineUnderspeed,0.8
;   solidInfillUnderspeed,0.8
;   supportUnderspeed,0.8
;   rapidXYspeed,4800
;   rapidZspeed,1002
;   minBridgingArea,50
;   bridgingExtraInflation,0
;   bridgingExtrusionMultiplier,1
;   bridgingSpeedMultiplier,1
;   useFixedBridgingAngle,0
;   fixedBridgingAngle,0
;   applyBridgingToPerimeters,0
;   filamentDiameters,1.75|1.75|1.75|1.75|1.75|1.75
;   filamentPricesPerKg,199|46|46|46|46|46
;   filamentDensities,1.25|1.25|1.25|1.25|1.25|1.25
;   useMinPrintHeight,0
;   minPrintHeight,0
;   useMaxPrintHeight,0
;   maxPrintHeight,40.21
;   useDiaphragm,0
;   diaphragmLayerInterval,20
;   robustSlicing,1
;   mergeAllIntoSolid,0
;   onlyRetractWhenCrossingOutline,1
;   retractBetweenLayers,1
;   useRetractionMinTravel,0
;   retractionMinTravel,3
;   retractWhileWiping,1
;   onlyWipeOutlines,1
;   avoidCrossingOutline,0
;   maxMovementDetourFactor,3
;   toolChangeRetractionDistance,12
;   toolChangeExtraRestartDistance,-0.5
;   toolChangeRetractionSpeed,600
;   externalThinWallType,0
;   internalThinWallType,2
;   thinWallAllowedOverlapPercentage,25
;   singleExtrusionMinLength,1
;   singleExtrusionMinPrintingWidthPercentage,50
;   singleExtrusionMaxPrintingWidthPercentage,200
;   singleExtrusionEndpointExtension,0.2
;   horizontalSizeCompensation,0
G90
M82
M106 S0
M140 S60
M190 S60
M104 S210 T0
M109 S210 T0
M115 U3.0.7 ; use the latest firmware version
G28 W ; home all axes without mesh bed leveling
G80 ; run mesh bed leveling routine
G1 Y-3.0 F1000.0 ; prepare to prime
G92 E0 ; reset extrusion distance
G1 X60.0 E9.0  F1000.0 ; priming
G1 X100.0 E12.5  F1000.0 ; priming
G92 E0
G1 E-1.5000 F1800
G1 Z0.420 F1002
; process Process1
; layer 1, Z = 0.420
T0
; tool H0.420 W0.480
; skirt
G1 X114.585 Y88.207 F4800
G1 E0.0000 F540
G92 E0
G1 X116.995 Y85.797 E0.2857 F1200
G1 X117.083 Y85.760 E0.2937
G1 X132.917 Y85.760 E1.6208
G1 X133.005 Y85.797 E1.6288
G1 X135.415 Y88.207 E1.9146
G1 X135.452 Y88.295 E1.9226
G1 X135.452 Y121.705 E4.7228
G1 X135.415 Y121.793 E4.7308
G1 X133.005 Y124.203 E5.0165
G1 X132.917 Y124.240 E5.0245
G1 X117.083 Y124.240 E6.3516
G1 X116.995 Y124.203 E6.3596
G1 X114.585 Y121.793 E6.6453
G1 X114.548 Y121.705 E6.6533
G1 X114.548 Y88.400 E9.4448
G1 X114.548 Y88.295 F1200
G1 X114.585 Y88.207 F1200
G92 E0
G1 E-1.5000 F1800
; inner perimeter
G1 X119.508 Y90.720 F4800
G1 E0.0000 F1800
G92 E0
G1 X130.492 Y90.720 E0.9206 F1080
G1 X130.492 Y119.280 E3.3144
G1 X119.508 Y119.280 E4.2350
G1 X119.509 Y117.692 E4.3680
G1 X119.508 Y90.920 E6.6120
G1 X119.508 Y90.720 F1080
; outer perimeter
G1 X119.028 Y90.240 F4800
G92 E0
G1 X130.972 Y90.240 E1.0011 F960
G1 X130.972 Y119.760 E3.4753
G1 X119.028 Y119.760 E4.4764
G1 X119.029 Y117.692 E4.6497
G1 X119.028 Y90.440 E6.9339
G1 X119.028 Y90.240 F960
G1 X121.028 Y90.240 F2400
; solid layer
G1 X129.432 Y91.104 F4800
G92 E0
G1 X130.108 Y91.780 E0.0801 F960
G1 X130.108 Y92.459 E0.1370
G1 X128.753 Y91.104 E0.2976
G1 X128.075 Y91.104 E0.3544
G1 X130.108 Y93.137 E0.5955
G1 X130.108 Y93.816 E0.6524
G1 X127.396 Y91.104 E0.9739
G1 X126.717 Y91.104 E1.0308
G1 X130.108 Y94.495 E1.4327
G1 X130.108 Y95.174 E1.4896
G1 X126.038 Y91.104 E1.9720
G1 X125.359 Y91.104 E2.0289
G1 X130.108 Y95.853 E2.5918
G1 X130.108 Y96.531 E2.6487
G1 X124.680 Y91.104 E3.2920
G1 X124.002 Y91.104 E3.3489
G1 X130.108 Y97.210 E4.0727
G1 X130.108 Y97.889 E4.1296
G1 X123.323 Y91.104 E4.9339
G1 X122.644 Y91.104 E4.9908
G1 X130.108 Y98.568 E5.8755
G1 X130.108 Y99.247 E5.9324
G1 X121.965 Y91.104 E6.8976
G1 X121.286 Y91.104 E6.9545
G1 X130.108 Y99.926 E8.0001
G1 X130.108 Y100.604 E8.0570
G1 X120.608 Y91.104 E9.1831
G1 X119.929 Y91.104 E9.2400
G1 X130.108 Y101.283 E10.4466
G1 X130.108 Y101.962 E10.5035
G1 X119.892 Y91.746 E11.7144
G1 X119.892 Y92.425 E11.7713
G1 X130.108 Y102.641 E12.9822
G1 X130.108 Y103.320 E13.0391
G1 X119.892 Y93.104 E14.2500
G1 X119.892 Y93.783 E14.3069
G1 X130.108 Y103.999 E15.5178
G1 X130.108 Y104.677 E15.5747
G1 X119.892 Y94.462 E16.7856
G1 X119.892 Y95.140 E16.8425
G1 X130.108 Y105.356 E18.0534
G1 X130.108 Y106.035 E18.1103
G1 X119.892 Y95.819 E19.3212
G1 X119.892 Y96.498 E19.3781
G1 X130.108 Y106.714 E20.5890
G1 X130.108 Y107.393 E20.6459
G1 X119.892 Y97.177 E21.8568
G1 X119.892 Y97.856 E21.9137
G1 X130.108 Y108.071 E23.1246
G1 X130.108 Y108.750 E23.1815
G1 X119.892 Y98.535 E24.3924
G1 X119.892 Y99.214 E24.4493
G1 X130.108 Y109.429 E25.6601
G1 X130.108 Y110.108 E25.7170
G1 X119.893 Y99.892 E26.9279
G1 X119.893 Y100.571 E26.9848
G1 X130.108 Y110.787 E28.1957
G1 X130.108 Y111.466 E28.2526
G1 X119.893 Y101.250 E29.4634
G1 X119.893 Y101.929 E29.5203
G1 X130.108 Y112.144 E30.7312
G1 X130.108 Y112.823 E30.7881
G1 X119.893 Y102.608 E31.9989
G1 X119.893 Y103.287 E32.0558
G1 X130.108 Y113.502 E33.2667
G1 X130.108 Y114.181 E33.3236
G1 X119.893 Y103.966 E34.5344
G1 X119.893 Y104.644 E34.5913
G1 X130.108 Y114.860 E35.8021
G1 X130.108 Y115.539 E35.8590
G1 X119.893 Y105.323 E37.0699
G1 X119.893 Y106.002 E37.1268
G1 X130.108 Y116.217 E38.3376
G1 X130.108 Y116.896 E38.3945
G1 X119.893 Y106.681 E39.6053
G1 X119.893 Y107.360 E39.6622
G1 X130.108 Y117.575 E40.8731
G1 X130.108 Y118.254 E40.9300
G1 X119.893 Y108.039 E42.1408
G1 X119.893 Y108.718 E42.1977
G1 X130.071 Y118.896 E43.4042
G1 X129.392 Y118.896 E43.4610
G1 X119.893 Y109.396 E44.5871
G1 X119.893 Y110.075 E44.6440
G1 X128.714 Y118.896 E45.6895
G1 X128.035 Y118.896 E45.7464
G1 X119.893 Y110.754 E46.7115
G1 X119.893 Y111.433 E46.7684
G1 X127.356 Y118.896 E47.6530
G1 X126.677 Y118.896 E47.7099
G1 X119.893 Y112.112 E48.5140
G1 X119.893 Y112.791 E48.5709
G1 X125.998 Y118.896 E49.2946
G1 X125.320 Y118.896 E49.3515
G1 X119.893 Y113.470 E49.9947
G1 X119.893 Y114.148 E50.0516
G1 X124.641 Y118.896 E50.6143
G1 X123.962 Y118.896 E50.6712
G1 X119.893 Y114.827 E51.1535
G1 X119.893 Y115.506 E51.2104
G1 X123.283 Y118.896 E51.6122
G1 X122.604 Y118.896 E51.6691
G1 X119.893 Y116.185 E51.9904
G1 X119.893 Y116.864 E52.0473
G1 X121.925 Y118.896 E52.2882
G1 X121.247 Y118.896 E52.3451
G1 X119.893 Y117.543 E52.5055
G1 X119.893 Y117.693 E52.5180
G1 X119.893 Y118.221 E52.5624
G1 X120.426 Y118.755 E52.6256
G1 X120.568 Y118.896 F960
G92 E0
G1 E-1.5000 F1800
; layer 2, Z = 0.770
M106 S255
; tool H0.350 W0.480
; inner perimeter
G1 X119.207 Y119.280 F4800
G1 Z0.770 F1002
G1 E0.0000 F1800
G92 E0
G1 X119.207 Y90.720 E1.9948 F2160
G1 X130.793 Y90.720 E2.8040
G1 X130.793 Y119.280 E4.7989
G1 X119.407 Y119.280 E5.5941
G1 X119.207 Y119.280 F2160
; outer perimeter
G1 X118.727 Y119.760 F4800
G92 E0
G1 X118.727 Y90.240 E2.0619 F1920
G1 X131.273 Y90.240 E2.9381
G1 X131.273 Y119.760 E5.0000
G1 X118.927 Y119.760 E5.8623
G1 X118.727 Y119.760 F1920
G1 X118.727 Y117.760 F2400
; solid layer
G1 X130.409 Y118.598 F4800
G92 E0
G1 X130.111 Y118.896 E0.0294 F1920
G1 X129.432 Y118.896 E0.0768
G1 X130.409 Y117.919 E0.1733
G1 X130.409 Y117.240 E0.2207
G1 X128.753 Y118.896 E0.3843
G1 X128.075 Y118.896 E0.4317
G1 X130.409 Y116.562 E0.6622
G1 X130.409 Y115.883 E0.7097
G1 X127.396 Y118.896 E1.0073
G1 X126.717 Y118.896 E1.0547
G1 X130.409 Y115.204 E1.4194
G1 X130.409 Y114.525 E1.4668
G1 X126.038 Y118.896 E1.8985
G1 X125.359 Y118.896 E1.9460
G1 X130.409 Y113.846 E2.4447
G1 X130.409 Y113.168 E2.4922
G1 X124.680 Y118.896 E3.0580
G1 X124.002 Y118.896 E3.1054
G1 X130.409 Y112.489 E3.7383
G1 X130.409 Y111.810 E3.7857
G1 X123.323 Y118.896 E4.4857
G1 X122.644 Y118.896 E4.5331
G1 X130.409 Y111.131 E5.3001
G1 X130.409 Y110.452 E5.3475
G1 X121.965 Y118.896 E6.1815
G1 X121.286 Y118.896 E6.2290
G1 X130.409 Y109.773 E7.1301
G1 X130.409 Y109.095 E7.1775
G1 X120.608 Y118.896 E8.1456
G1 X119.929 Y118.896 E8.1930
G1 X130.409 Y108.416 E9.2283
G1 X130.409 Y107.737 E9.2757
G1 X119.591 Y118.555 E10.3442
G1 X119.591 Y117.876 E10.3916
G1 X130.409 Y107.058 E11.4602
G1 X130.409 Y106.379 E11.5076
G1 X119.591 Y117.197 E12.5762
G1 X119.591 Y116.518 E12.6236
G1 X130.409 Y105.701 E13.6922
G1 X130.409 Y105.022 E13.7396
G1 X119.591 Y115.840 E14.8081
G1 X119.591 Y115.161 E14.8556
G1 X130.409 Y104.343 E15.9241
G1 X130.409 Y103.664 E15.9715
G1 X119.591 Y114.482 E17.0401
G1 X119.591 Y113.803 E17.0875
G1 X130.409 Y102.985 E18.1561
G1 X130.409 Y102.306 E18.2035
G1 X119.591 Y113.124 E19.2720
G1 X119.591 Y112.445 E19.3195
G1 X130.409 Y101.628 E20.3880
G1 X130.409 Y100.949 E20.4354
G1 X119.591 Y111.767 E21.5040
G1 X119.591 Y111.088 E21.5514
G1 X130.409 Y100.270 E22.6200
G1 X130.409 Y99.591 E22.6674
G1 X119.591 Y110.409 E23.7360
G1 X119.591 Y109.730 E23.7834
G1 X130.409 Y98.912 E24.8519
G1 X130.409 Y98.233 E24.8993
G1 X119.591 Y109.051 E25.9679
G1 X119.591 Y108.373 E26.0153
G1 X130.409 Y97.555 E27.0839
G1 X130.409 Y96.876 E27.1313
G1 X119.591 Y107.694 E28.1999
G1 X119.591 Y107.015 E28.2473
G1 X130.409 Y96.197 E29.3158
G1 X130.409 Y95.518 E29.3633
G1 X119.591 Y106.336 E30.4318
G1 X119.591 Y105.657 E30.4792
G1 X130.409 Y94.839 E31.5478
G1 X130.409 Y94.161 E31.5952
G1 X119.591 Y104.978 E32.6638
G1 X119.591 Y104.300 E32.7112
G1 X130.409 Y93.482 E33.7797
G1 X130.409 Y92.803 E33.8272
G1 X119.591 Y103.621 E34.8957
G1 X119.591 Y102.942 E34.9431
G1 X130.409 Y92.124 E36.0117
G1 X130.409 Y91.445 E36.0591
G1 X119.591 Y102.263 E37.1277
G1 X119.591 Y101.584 E37.1751
G1 X130.071 Y91.104 E38.2103
G1 X129.393 Y91.104 E38.2577
G1 X119.591 Y100.905 E39.2259
G1 X119.591 Y100.227 E39.2733
G1 X128.714 Y91.104 E40.1744
G1 X128.035 Y91.104 E40.2218
G1 X119.591 Y99.548 E41.0559
G1 X119.591 Y98.869 E41.1033
G1 X127.356 Y91.104 E41.8703
G1 X126.677 Y91.104 E41.9177
G1 X119.591 Y98.190 E42.6177
G1 X119.591 Y97.511 E42.6651
G1 X125.998 Y91.104 E43.2980
G1 X125.320 Y91.104 E43.3454
G1 X119.591 Y96.833 E43.9113
G1 X119.591 Y96.154 E43.9587
G1 X124.641 Y91.104 E44.4575
G1 X123.962 Y91.104 E44.5049
G1 X119.591 Y95.475 E44.9366
G1 X119.591 Y94.796 E44.9840
G1 X123.283 Y91.104 E45.3487
G1 X122.604 Y91.104 E45.3961
G1 X119.591 Y94.117 E45.6938
G1 X119.591 Y93.438 E45.7412
G1 X121.925 Y91.104 E45.9718
G1 X121.247 Y91.104 E46.0192
G1 X119.591 Y92.760 E46.1827
G1 X119.591 Y92.081 E46.2301
G1 X120.568 Y91.104 E46.3266
G1 X119.889 Y91.104 E46.3740
G1 X119.732 Y91.261 E46.3895
G1 X119.591 Y91.402 F1920
G92 E0
G1 E-1.5000 F1800
; layer 3, Z = 1.120
; outer perimeter
G1 X119.004 Y90.240 F4800
G1 Z1.120 F1002
G1 E0.0000 F1800
G92 E0
G1 X119.004 Y119.760 E2.0619 F478
G1 X118.643 Y119.760 E2.0870
G1 X118.643 Y90.240 E4.1489
G1 X118.804 Y90.240 E4.1601
G1 X119.004 Y90.240 F478
G92 E0
G1 X119.004 Y92.240 E-1.5000 F2400
G1 X130.996 Y90.240 F4800
G1 E0.0000 F1800
G92 E0
G1 X131.357 Y90.240 E0.0252 F478
G1 X131.357 Y119.760 E2.0871
G1 X130.996 Y119.760 E2.1122
G1 X130.996 Y90.440 E4.1601
G1 X130.996 Y90.240 F478
G92 E0
G1 X131.357 Y90.240 E-0.2705 F2400
G1 X131.357 Y91.879 E-1.5000
; layer 4, Z = 1.470
G1 X131.360 Y90.240 F4800
G1 Z1.470 F1002
G1 E0.0000 F1800
G92 E0
G1 X131.360 Y119.760 E2.0619 F477
G1 X131.040 Y119.760 E2.0842
G1 X131.040 Y90.240 E4.1461
G1 X131.160 Y90.240 E4.1545
G1 X131.360 Y90.240 F477
G92 E0
G1 X131.360 Y92.240 E-1.5000 F2400
G1 X118.960 Y90.240 F4800
G1 E0.0000 F1800
G92 E0
G1 X118.960 Y119.760 E2.0619 F477
G1 X118.640 Y119.760 E2.0842
G1 X118.640 Y90.240 E4.1461
G1 X118.760 Y90.240 E4.1545
G1 X118.960 Y90.240 F477
G92 E0
G1 X118.960 Y92.240 E-1.5000 F2400
; layer 5, Z = 1.820
G1 X118.960 Y90.240 F4800
G1 Z1.820 F1002
G1 E0.0000 F1800
G92 E0
G1 X118.960 Y119.760 E2.0619 F477
G1 X118.640 Y119.760 E2.0842
G1 X118.640 Y90.240 E4.1461
G1 X118.760 Y90.240 E4.1545
G1 X118.960 Y90.240 F477
G92 E0
G1 X118.960 Y92.240 E-1.5000 F2400
G1 X131.040 Y90.240 F4800
G1 E0.0000 F1800
G92 E0
G1 X131.360 Y90.240 E0.0224 F477
