; generated by Slic3r Prusa Edition 1.40.0+ on 2018-10-07 at 16:37:22

; 

; external perimeters extrusion width = 0.60mm
; perimeters extrusion width = 0.43mm
; infill extrusion width = 0.45mm
; solid infill extrusion width = 0.70mm
; top infill extrusion width = 0.43mm
; support material extrusion width = 0.35mm
; first layer extrusion width = 0.42mm

M107
M115 U3.1.0 ; tell printer latest fw version
M201 X9000 Y9000 Z500 E10000 ; sets maximum accelerations, mm/sec^2
M203 X500 Y500 Z12 E120 ; sets maximum feedrates, mm/sec
M204 S1500 T1500 ; sets acceleration (S) and retract acceleration (T)
M205 X10 Y10 Z0.2 E2.5 ; sets the jerk limits, mm/sec
M205 S0 T0 ; sets the minimum extruding and travel feed rate, mm/sec
M83  ; extruder relative mode
M104 S230 ; set extruder temp
M140 S75 ; set bed temp
M190 S75 ; wait for bed temp
M109 S230 ; wait for extruder temp
G28 W ; home all without mesh bed level
G80 ; mesh bed leveling
G1 Y-3.0 F1000.0 ; go outside print area
G92 E0.0
G1 X60.0 E9.0  F1000.0 ; intro line
G1 X100.0 E12.5  F1000.0 ; intro line
G92 E0.0
M900 K45; Filament gcode
G21 ; set units to millimeters
G90 ; use absolute coordinates
M83 ; use relative distances for extrusion
;BEFORE_LAYER_CHANGE
G92 E0.0
;0.2


G1 E-0.80000 F2100.00000
G1 Z0.600 F10800.000
;AFTER_LAYER_CHANGE
;0.2
G1 X108.204 Y91.285
G1 Z0.200
G1 E0.80000 F2100.00000
M204 S1000
G1 F1800
G1 X109.902 Y89.324 E0.08132
G1 X110.282 Y88.979 E0.01610
G1 X112.235 Y87.580 E0.07530
G1 X114.614 Y86.523 E0.08163
G1 X117.164 Y85.978 E0.08175
G1 X119.549 Y85.962 E0.07480
G1 X141.872 Y88.934 E0.70611
G1 X142.478 Y89.101 E0.01968
G1 X143.024 Y89.409 E0.01968
G1 X143.431 Y89.783 E0.01734
G1 X143.750 Y90.240 E0.01746
G1 X143.963 Y90.754 E0.01746
G1 X144.060 Y91.303 E0.01746
G1 X144.066 Y103.484 E0.38195
G1 X144.002 Y104.042 E0.01758
G1 X143.754 Y104.699 E0.02202
G1 X143.337 Y105.264 E0.02202
G1 X125.309 Y123.292 E0.79942
G1 X124.823 Y123.671 E0.01931
G1 X124.212 Y123.938 E0.02091
G1 X123.556 Y124.038 E0.02079
G1 X111.488 Y124.038 E0.37839
G1 X110.931 Y123.974 E0.01758
G1 X110.229 Y123.701 E0.02361
G1 X109.634 Y123.233 E0.02374
G1 X109.203 Y122.616 E0.02361
G1 X108.970 Y121.896 E0.02374
G1 X106.167 Y100.823 E0.66654
G1 X105.934 Y98.448 E0.07481
G1 X106.217 Y95.825 E0.08273
G1 X107.015 Y93.376 E0.08076
G1 X108.174 Y91.337 E0.07355
G1 X108.502 Y91.523 F10800.000
G1 F1800
G1 X110.509 Y89.280 E0.09439
G1 X112.419 Y87.909 E0.07371
G1 X114.731 Y86.881 E0.07933
G1 X117.209 Y86.353 E0.07944
G1 X119.549 Y86.339 E0.07337
G1 X141.813 Y89.307 E0.70424
G1 X142.326 Y89.446 E0.01669
G1 X142.791 Y89.706 E0.01669
G1 X143.146 Y90.031 E0.01510
G1 X143.422 Y90.425 E0.01510
G1 X143.603 Y90.867 E0.01498
G1 X143.685 Y91.342 E0.01510
G1 X143.689 Y103.480 E0.38058
G1 X143.633 Y103.962 E0.01521
G1 X143.421 Y104.521 E0.01873
G1 X143.064 Y105.004 E0.01885
G1 X125.045 Y123.023 E0.79899
G1 X124.628 Y123.348 E0.01658
G1 X124.107 Y123.575 E0.01783
G1 X123.541 Y123.661 E0.01794
G1 X111.489 Y123.661 E0.37789
G1 X111.011 Y123.606 E0.01510
G1 X110.411 Y123.371 E0.02021
G1 X109.902 Y122.968 E0.02032
G1 X109.534 Y122.435 E0.02032
G1 X109.339 Y121.817 E0.02032
G1 X106.543 Y100.786 E0.66522
G1 X106.312 Y98.453 E0.07349
G1 X106.585 Y95.905 E0.08035
G1 X107.360 Y93.527 E0.07841
G1 X108.472 Y91.575 E0.07044
G1 F8640
G1 X110.509 Y89.280 E-0.70866
G1 X110.690 Y89.150 E-0.05134
G1 E-0.04000 F2100.00000
G1 Z0.800 F10800.000
G1 X122.536 Y106.642
G1 Z0.200
G1 E0.80000 F2100.00000
G1 F1800
G1 X124.543 Y105.184 E0.07777
G1 X125.806 Y103.781 E0.05919
G1 X126.540 Y102.508 E0.04606
G1 X140.413 Y102.508 E0.43498
G1 X122.536 Y120.386 E0.79272
G1 X122.536 Y106.702 E0.42907
G1 X122.913 Y106.834 F10800.000
G1 F1800
G1 X124.796 Y105.465 E0.07299
G1 X126.113 Y104.003 E0.06168
G1 X126.758 Y102.886 E0.04048
G1 X139.503 Y102.886 E0.39961
G1 X122.913 Y119.476 E0.73564
G1 X122.913 Y106.894 E0.39450
G1 X123.290 Y107.026 F10800.000
G1 F1800
G1 X125.050 Y105.747 E0.06821
G1 X126.419 Y104.226 E0.06416
G1 X126.976 Y103.263 E0.03489
G1 X138.593 Y103.263 E0.36424
G1 X123.290 Y118.565 E0.67855
G1 X123.290 Y107.086 E0.35993
G1 X122.949 Y106.817 F10800.000
G1 F8640
G1 X125.050 Y105.747 E-0.51059
G1 X125.773 Y104.944 E-0.24941
G1 E-0.04000 F2100.00000
G1 Z0.800 F10800.000
G1 X123.596 Y105.856
G1 Z0.200
G1 E0.80000 F2100.00000
G1 F1800
G1 X121.681 Y106.861 E0.06781
G1 X119.581 Y107.378 E0.06781
G1 X117.419 Y107.378 E0.06781
G1 X115.319 Y106.861 E0.06781
G1 X113.404 Y105.856 E0.06781
G1 X111.785 Y104.421 E0.06782
G1 X110.554 Y102.634 E0.06804
G1 X109.789 Y100.620 E0.06757
G1 X109.529 Y98.473 E0.06781
G1 X109.789 Y96.326 E0.06781
G1 X110.556 Y94.303 E0.06781
G1 X111.785 Y92.524 E0.06781
G1 X113.404 Y91.089 E0.06781
G1 X115.319 Y90.084 E0.06781
G1 X117.420 Y89.567 E0.06784
G1 X119.598 Y89.571 E0.06830
G1 X121.681 Y90.084 E0.06728
G1 X123.596 Y91.089 E0.06781
G1 X125.215 Y92.524 E0.06781
G1 X126.444 Y94.303 E0.06781
G1 X127.211 Y96.326 E0.06781
G1 X127.471 Y98.473 E0.06781
G1 X127.211 Y100.620 E0.06781
G1 X126.450 Y102.626 E0.06728
G1 X125.216 Y104.421 E0.06830
G1 X123.641 Y105.816 E0.06596
G1 X123.391 Y105.534 F10800.000
G1 F1800
G1 X121.547 Y106.506 E0.06537
G1 X119.536 Y107.001 E0.06494
G1 X117.464 Y107.001 E0.06494
G1 X115.453 Y106.506 E0.06494
G1 X113.620 Y105.543 E0.06494
G1 X112.069 Y104.170 E0.06495
G1 X110.890 Y102.458 E0.06516
G1 X110.158 Y100.529 E0.06470
G1 X109.909 Y98.473 E0.06494
G1 X110.158 Y96.417 E0.06494
G1 X110.893 Y94.480 E0.06494
G1 X112.069 Y92.775 E0.06494
G1 X113.620 Y91.402 E0.06494
G1 X115.453 Y90.440 E0.06494
G1 X117.465 Y89.944 E0.06496
G1 X119.552 Y89.948 E0.06543
G1 X121.547 Y90.440 E0.06442
G1 X123.380 Y91.402 E0.06494
G1 X124.931 Y92.775 E0.06494
G1 X126.107 Y94.480 E0.06494
G1 X126.842 Y96.417 E0.06494
G1 X127.091 Y98.473 E0.06494
G1 X126.842 Y100.529 E0.06494
G1 X126.113 Y102.450 E0.06442
G1 X124.931 Y104.169 E0.06543
G1 X123.436 Y105.494 E0.06263
G1 X123.186 Y105.212 F10800.000
G1 F1800
G1 X121.412 Y106.151 E0.06293
G1 X119.490 Y106.624 E0.06207
G1 X117.510 Y106.624 E0.06207
G1 X115.588 Y106.151 E0.06207
G1 X113.835 Y105.231 E0.06207
G1 X112.353 Y103.918 E0.06207
G1 X111.226 Y102.282 E0.06229
G1 X110.527 Y100.438 E0.06184
G1 X110.288 Y98.473 E0.06207
G1 X110.527 Y96.507 E0.06207
G1 X111.229 Y94.656 E0.06207
G1 X112.354 Y93.027 E0.06207
G1 X113.835 Y91.715 E0.06207
G1 X115.588 Y90.795 E0.06207
G1 X117.510 Y90.321 E0.06208
G1 X119.506 Y90.325 E0.06256
G1 X121.412 Y90.795 E0.06156
G1 X123.165 Y91.715 E0.06207
G1 X124.646 Y93.027 E0.06207
G1 X125.771 Y94.656 E0.06207
G1 X126.473 Y96.507 E0.06207
G1 X126.712 Y98.473 E0.06207
G1 X126.473 Y100.438 E0.06207
G1 X125.777 Y102.273 E0.06156
G1 X124.647 Y103.918 E0.06256
G1 X123.231 Y105.172 E0.05930
G1 X123.219 Y105.610 F10800.000
G1 F8640
G1 X121.412 Y106.151 E-0.47694
G1 X120.222 Y106.444 E-0.28306
G1 E-0.04000 F2100.00000
G1 Z0.800 F10800.000
G1 X125.151 Y92.437
G1 Z0.200
G1 E0.80000 F2100.00000
G1 F1800
G1 X140.536 Y92.437 E0.48240
G1 X140.536 Y102.508 E0.31579
G1 X140.515 Y102.508 E0.00066
G1 X122.536 Y120.487 E0.79722
G1 X122.536 Y120.508 E0.00066
G1 X112.464 Y120.508 E0.31579
G1 X112.464 Y105.191 E0.48026
G1 X111.194 Y103.781 E0.05951
G1 X110.250 Y102.146 E0.05919
G1 X109.667 Y100.350 E0.05919
G1 X109.469 Y98.473 E0.05919
G1 X109.667 Y96.595 E0.05919
G1 X110.250 Y94.800 E0.05920
G1 X111.194 Y93.165 E0.05919
G1 X112.457 Y91.762 E0.05919
G1 X113.985 Y90.652 E0.05920
G1 X115.709 Y89.884 E0.05919
G1 X117.556 Y89.492 E0.05919
G1 X119.444 Y89.492 E0.05919
G1 X121.274 Y89.881 E0.05867
G1 X123.016 Y90.652 E0.05973
G1 X124.543 Y91.762 E0.05917
G1 X125.110 Y92.392 E0.02660
G1 X125.318 Y92.060 F10800.000
G1 F1800
G1 X140.913 Y92.060 E0.48895
G1 X140.913 Y102.886 E0.33944
G1 X140.671 Y102.886 E0.00758
G1 X122.913 Y120.644 E0.78742
G1 X122.913 Y120.886 E0.00758
G1 X112.087 Y120.886 E0.33944
G1 X112.087 Y105.336 E0.48755
G1 X110.887 Y104.003 E0.05621
G1 X109.904 Y102.300 E0.06168
G1 X109.296 Y100.429 E0.06168
G1 X109.090 Y98.473 E0.06168
G1 X109.296 Y96.516 E0.06168
G1 X109.904 Y94.645 E0.06168
G1 X110.887 Y92.942 E0.06168
G1 X112.204 Y91.480 E0.06168
G1 X113.795 Y90.324 E0.06168
G1 X115.592 Y89.523 E0.06168
G1 X117.516 Y89.114 E0.06168
G1 X119.484 Y89.114 E0.06168
G1 X121.391 Y89.520 E0.06115
G1 X123.205 Y90.324 E0.06221
G1 X124.796 Y91.480 E0.06167
G1 X125.278 Y92.015 E0.02258
G1 X125.486 Y91.683 F10800.000
G1 F1800
G1 X141.290 Y91.683 E0.49551
G1 X141.290 Y103.263 E0.36308
G1 X140.827 Y103.263 E0.01451
G1 X123.290 Y120.800 E0.77763
G1 X123.290 Y121.263 E0.01451
G1 X111.710 Y121.263 E0.36308
G1 X111.710 Y105.481 E0.49483
G1 X110.581 Y104.226 E0.05292
G1 X109.557 Y102.454 E0.06416
G1 X108.925 Y100.508 E0.06416
G1 X108.711 Y98.473 E0.06416
G1 X108.925 Y96.437 E0.06416
G1 X109.557 Y94.491 E0.06417
G1 X110.581 Y92.719 E0.06416
G1 X111.950 Y91.198 E0.06416
G1 X113.606 Y89.995 E0.06417
G1 X115.475 Y89.163 E0.06416
G1 X117.477 Y88.737 E0.06416
G1 X119.523 Y88.737 E0.06416
G1 X121.508 Y89.159 E0.06362
G1 X123.395 Y89.995 E0.06470
G1 X125.050 Y91.198 E0.06416
G1 X125.446 Y91.638 E0.01856
G1 X125.603 Y92.065 F10800.000
G1 X125.652 Y92.550
G1 F1800
G1 X135.327 Y102.226 E0.43325
G1 X135.866 Y102.226 E0.01705
G1 X126.360 Y92.720 E0.42565
G1 X126.898 Y92.720 E0.01705
G1 X136.404 Y102.226 E0.42565
G1 X136.943 Y102.226 E0.01705
G1 X127.437 Y92.720 E0.42565
G1 X127.975 Y92.720 E0.01705
G1 X137.481 Y102.226 E0.42565
G1 X138.020 Y102.226 E0.01705
G1 X128.514 Y92.720 E0.42565
G1 X129.052 Y92.720 E0.01705
G1 X138.558 Y102.226 E0.42565
G1 X139.097 Y102.226 E0.01705
G1 X129.591 Y92.720 E0.42565
G1 X130.129 Y92.720 E0.01705
G1 X139.635 Y102.226 E0.42565
G1 X140.174 Y102.226 E0.01705
G1 X130.668 Y92.720 E0.42565
G1 X131.206 Y92.720 E0.01705
G1 X140.253 Y101.766 E0.40508
G1 X140.253 Y101.228 E0.01705
G1 X131.745 Y92.720 E0.38097
G1 X132.283 Y92.720 E0.01705
G1 X140.253 Y100.689 E0.35686
G1 X140.253 Y100.151 E0.01705
G1 X132.822 Y92.720 E0.33274
G1 X133.360 Y92.720 E0.01705
G1 X140.253 Y99.612 E0.30863
G1 X140.253 Y99.074 E0.01705
G1 X133.899 Y92.720 E0.28452
G1 X134.437 Y92.720 E0.01705
G1 X140.253 Y98.535 E0.26041
G1 X140.253 Y97.997 E0.01705
G1 X134.976 Y92.720 E0.23630
G1 X135.514 Y92.720 E0.01705
G1 X140.253 Y97.458 E0.21218
G1 X140.253 Y96.920 E0.01705
G1 X136.053 Y92.720 E0.18807
G1 X136.591 Y92.720 E0.01705
G1 X140.253 Y96.381 E0.16396
G1 X140.253 Y95.843 E0.01705
G1 X137.130 Y92.720 E0.13985
G1 X137.668 Y92.720 E0.01705
G1 X140.253 Y95.304 E0.11574
G1 X140.253 Y94.766 E0.01705
G1 X138.207 Y92.720 E0.09162
G1 X138.745 Y92.720 E0.01705
G1 X140.253 Y94.227 E0.06751
G1 X140.253 Y93.689 E0.01705
G1 X139.284 Y92.720 E0.04340
G1 X139.822 Y92.720 E0.01705
G1 X140.423 Y93.320 E0.02689
G1 F8640
G1 X139.822 Y92.720 E-0.19607
G1 X139.284 Y92.720 E-0.12434
G1 X140.253 Y93.689 E-0.31650
G1 X140.253 Y94.222 E-0.12309
G1 E-0.04000 F2100.00000
G1 Z0.800 F10800.000
G1 X134.959 Y102.395
G1 Z0.200
G1 E0.80000 F2100.00000
G1 F1800
G1 X126.610 Y94.047 E0.37381
G1 X126.696 Y94.171 E0.00478
G1 X127.001 Y94.977 E0.02728
G1 X134.250 Y102.226 E0.32459
G1 X133.712 Y102.226 E0.01705
G1 X127.330 Y95.844 E0.28574
G1 X127.487 Y96.257 E0.01400
G1 X127.526 Y96.578 E0.01023
G1 X133.173 Y102.226 E0.25287
G1 X132.635 Y102.226 E0.01705
G1 X127.601 Y97.191 E0.22542
G1 X127.675 Y97.804 E0.01955
G1 X132.096 Y102.226 E0.19798
G1 X131.558 Y102.226 E0.01705
G1 X127.749 Y98.417 E0.17053
G1 X127.703 Y98.909 E0.01565
G1 X131.019 Y102.226 E0.14849
G1 X130.481 Y102.226 E0.01705
G1 X127.645 Y99.389 E0.12699
G1 X127.586 Y99.870 E0.01532
G1 X129.942 Y102.226 E0.10549
G1 X129.404 Y102.226 E0.01705
G1 X127.528 Y100.350 E0.08399
G1 X127.487 Y100.688 E0.01077
G1 X127.443 Y100.803 E0.00392
G1 X128.865 Y102.226 E0.06368
G1 X128.327 Y102.226 E0.01705
G1 X127.295 Y101.194 E0.04620
G1 X127.147 Y101.584 E0.01322
G1 X127.788 Y102.226 E0.02872
G1 X127.250 Y102.226 E0.01705
G1 X126.867 Y101.843 E0.01713
G1 F8640
G1 X127.250 Y102.226 E-0.12489
G1 X127.788 Y102.226 E-0.12434
G1 X127.147 Y101.584 E-0.20942
G1 X127.295 Y101.194 E-0.09642
G1 X127.923 Y101.821 E-0.20493
G1 E-0.04000 F2100.00000
G1 Z0.800 F10800.000
G1 X122.423 Y107.358
G1 Z0.200
G1 E0.80000 F2100.00000
G1 F1800
G1 X122.051 Y106.986 E0.01668
G1 X121.782 Y107.127 E0.00961
G1 X121.678 Y107.153 E0.00341
G1 X122.253 Y107.728 E0.02579
G1 X122.253 Y108.267 E0.01710
G1 X121.245 Y107.260 E0.04519
G1 X120.813 Y107.366 E0.01413
G1 X122.253 Y108.807 E0.06459
G1 X122.253 Y109.346 E0.01710
G1 X120.380 Y107.473 E0.08399
G1 X119.947 Y107.579 E0.01413
G1 X122.253 Y109.885 E0.10340
G1 X122.253 Y110.424 E0.01710
G1 X119.490 Y107.661 E0.12391
G1 X118.950 Y107.661 E0.01710
G1 X122.253 Y110.964 E0.14810
G1 X122.253 Y111.503 E0.01710
G1 X118.411 Y107.661 E0.17228
G1 X117.872 Y107.661 E0.01710
G1 X122.253 Y112.042 E0.19646
G1 X122.253 Y112.582 E0.01710
G1 X117.316 Y107.644 E0.22141
G1 X116.600 Y107.468 E0.02337
G1 X122.253 Y113.121 E0.25350
G1 X122.253 Y113.660 E0.01710
G1 X115.884 Y107.291 E0.28559
G1 X115.218 Y107.127 E0.02177
G1 X115.140 Y107.086 E0.00279
G1 X122.253 Y114.200 E0.31898
G1 X122.253 Y114.739 E0.01710
G1 X113.601 Y106.087 E0.38796
G1 F8640
G1 X115.929 Y108.415 E-0.76000
G1 E-0.04000 F2100.00000
G1 Z0.800 F10800.000
G1 X122.423 Y115.448
G1 Z0.200
G1 E0.80000 F2100.00000
G1 F1800
G1 X112.747 Y105.772 E0.43389
G1 X112.747 Y106.311 E0.01710
G1 X122.253 Y115.817 E0.42628
G1 X122.253 Y116.357 E0.01710
G1 X112.747 Y106.851 E0.42628
G1 X112.747 Y107.390 E0.01710
G1 X122.253 Y116.896 E0.42628
G1 X122.253 Y117.435 E0.01710
G1 X112.747 Y107.929 E0.42628
G1 X112.747 Y108.469 E0.01710
G1 X122.253 Y117.975 E0.42628
G1 X122.253 Y118.514 E0.01710
G1 X112.747 Y109.008 E0.42628
G1 X112.747 Y109.547 E0.01710
G1 X122.253 Y119.053 E0.42628
G1 X122.253 Y119.593 E0.01710
G1 X112.747 Y110.086 E0.42628
G1 X112.747 Y110.626 E0.01710
G1 X122.253 Y120.132 E0.42628
G1 X122.253 Y120.226 E0.00297
G1 X121.808 Y120.226 E0.01413
G1 X112.747 Y111.165 E0.40630
G1 X112.747 Y111.704 E0.01710
G1 X121.268 Y120.226 E0.38212
G1 X120.729 Y120.226 E0.01710
G1 X112.747 Y112.244 E0.35794
G1 X112.747 Y112.783 E0.01710
G1 X120.190 Y120.226 E0.33375
G1 X119.650 Y120.226 E0.01710
G1 X112.747 Y113.322 E0.30957
G1 X112.747 Y113.862 E0.01710
G1 X119.111 Y120.226 E0.28539
G1 X118.572 Y120.226 E0.01710
G1 X112.747 Y114.401 E0.26120
G1 X112.747 Y114.940 E0.01710
G1 X118.032 Y120.226 E0.23702
G1 X117.493 Y120.226 E0.01710
G1 X112.747 Y115.479 E0.21283
G1 X112.747 Y116.019 E0.01710
G1 X116.954 Y120.226 E0.18865
G1 X116.415 Y120.226 E0.01710
G1 X112.747 Y116.558 E0.16447
G1 X112.747 Y117.097 E0.01710
G1 X115.875 Y120.226 E0.14028
G1 X115.336 Y120.226 E0.01710
G1 X112.747 Y117.637 E0.11610
G1 X112.747 Y118.176 E0.01710
G1 X114.797 Y120.226 E0.09192
G1 X114.257 Y120.226 E0.01710
G1 X112.747 Y118.715 E0.06773
G1 X112.747 Y119.255 E0.01710
G1 X113.718 Y120.226 E0.04355
G1 X113.179 Y120.226 E0.01710
G1 X112.577 Y119.624 E0.02697
;BEFORE_LAYER_CHANGE
G92 E0.0
;0.55


G1 F8640
G1 X113.179 Y120.226 E-0.19643
G1 X113.718 Y120.226 E-0.12453
G1 X112.747 Y119.255 E-0.31713
G1 X112.747 Y118.726 E-0.12192
G1 E-0.04000 F2100.00000
G1 Z0.800 F10800.000
;AFTER_LAYER_CHANGE
;0.55
G1 X126.670 Y102.733
G1 Z0.550
G1 E0.80000 F2100.00000
M204 S800
G1 F3000
G1 X139.872 Y102.733 E0.68178
G1 X122.760 Y119.845 E1.24971
G1 X122.760 Y106.756 E0.67592
G1 X124.694 Y105.351 E0.12341
G1 X125.988 Y103.913 E0.09993
G1 X126.640 Y102.785 E0.06729
M204 S1000
G1 X126.924 Y103.173 F10800.000
M204 S800
G1 F2400
G1 X138.810 Y103.173 E0.90785
G1 X123.200 Y118.783 E1.68612
G1 X123.200 Y106.980 E0.90147
G1 X124.989 Y105.680 E0.16894
G1 X126.346 Y104.173 E0.15486
G1 X126.894 Y103.225 E0.08366
M204 S1000
G1 X127.011 Y102.782 F10800.000
G1 F8640
G1 X130.185 Y103.210 E-0.76000
G1 E-0.04000 F2100.00000
G1 Z1.150 F10800.000
G1 X122.405 Y106.628
G1 Z0.550
G1 E0.80000 F2100.00000
M204 S800
G1 F3000
G1 X122.405 Y120.378 E0.71003
G1 X112.595 Y120.378 E0.50662
G1 X112.595 Y105.314 E0.77793
G1 X113.329 Y105.964 E0.05066
G1 X115.272 Y106.984 E0.11332
G1 X117.403 Y107.509 E0.11332
G1 X119.597 Y107.509 E0.11332
G1 X121.728 Y106.984 E0.11332
G1 X122.352 Y106.656 E0.03640
M204 S1000
