; G-Code generated by Simplify3D(R) Version 4.0.0
; Sep 9, 2017 at 2:13:02 PM
; Settings Summary
;   processName,Process1
;   applyToModels,backlight-holder
;   profileName,Prusa Research Original Prusa i3 MK2 (modified)
;   profileVersion,2017-07-23 22:27:18
;   baseProfile,
;   printMaterial,PLA
;   printQuality,Medium
;   printExtruders,
;   extruderName,Primary Extruder
;   extruderToolheadNumber,0
;   extruderDiameter,0.4
;   extruderAutoWidth,1
;   extruderWidth,0.48
;   extrusionMultiplier,1
;   extruderUseRetract,1
;   extruderRetractionDistance,1.5
;   extruderExtraRestartDistance,0
;   extruderRetractionZLift,0
;   extruderRetractionSpeed,1800
;   extruderUseCoasting,1
;   extruderCoastingDistance,0.2
;   extruderUseWipe,1
;   extruderWipeDistance,2
;   primaryExtruder,0
;   layerHeight,0.35
;   topSolidLayers,3
;   bottomSolidLayers,3
;   perimeterOutlines,3
;   printPerimetersInsideOut,1
;   startPointOption,2
;   startPointOriginX,0
;   startPointOriginY,0
;   sequentialIslands,0
;   spiralVaseMode,0
;   firstLayerHeightPercentage,120
;   firstLayerWidthPercentage,100
;   firstLayerUnderspeed,0.5
;   useRaft,0
;   raftExtruder,0
;   raftTopLayers,3
;   raftBaseLayers,2
;   raftOffset,3
;   raftSeparationDistance,0.14
;   raftTopInfill,100
;   aboveRaftSpeedMultiplier,0.3
;   useSkirt,1
;   skirtExtruder,0
;   skirtLayers,1
;   skirtOutlines,1
;   skirtOffset,4
;   usePrimePillar,0
;   primePillarExtruder,999
;   primePillarWidth,12
;   primePillarLocation,7
;   primePillarSpeedMultiplier,1
;   useOozeShield,0
;   oozeShieldExtruder,999
;   oozeShieldOffset,2
;   oozeShieldOutlines,1
;   oozeShieldSidewallShape,1
;   oozeShieldSidewallAngle,30
;   oozeShieldSpeedMultiplier,1
;   infillExtruder,0
;   internalInfillPattern,Rectilinear
;   externalInfillPattern,Rectilinear
;   infillPercentage,10
;   outlineOverlapPercentage,20
;   infillExtrusionWidthPercentage,100
;   minInfillLength,5
;   infillLayerInterval,1
;   internalInfillAngles,45,-45
;   overlapInternalInfillAngles,0
;   externalInfillAngles,45,-45
;   generateSupport,1
;   supportExtruder,0
;   supportInfillPercentage,30
;   supportExtraInflation,0
;   supportBaseLayers,0
;   denseSupportExtruder,0
;   denseSupportLayers,0
;   denseSupportInfillPercentage,70
;   supportLayerInterval,1
;   supportHorizontalPartOffset,0.3
;   supportUpperSeparationLayers,1
;   supportLowerSeparationLayers,1
;   supportType,1
;   supportGridSpacing,4
;   maxOverhangAngle,45
;   supportAngles,0
;   temperatureName,Primary Extruder,Heated Bed
;   temperatureNumber,0,0
;   temperatureSetpointCount,1,1
;   temperatureSetpointLayers,1,1
;   temperatureSetpointTemperatures,200,60
;   temperatureStabilizeAtStartup,1,1
;   temperatureHeatedBed,0,1
;   temperatureRelayBetweenLayers,0,0
;   temperatureRelayBetweenLoops,0,0
;   fanLayers,1,2
;   fanSpeeds,0,100
;   blipFanToFullPower,0
;   adjustSpeedForCooling,1
;   minSpeedLayerTime,15
;   minCoolingSpeedSlowdown,20
;   increaseFanForCooling,0
;   minFanLayerTime,45
;   maxCoolingFanSpeed,100
;   increaseFanForBridging,0
;   bridgingFanSpeed,100
;   use5D,1
;   relativeEdistances,0
;   allowEaxisZeroing,1
;   independentExtruderAxes,0
;   includeM10123,0
;   stickySupport,1
;   applyToolheadOffsets,0
;   gcodeXoffset,0
;   gcodeYoffset,0
;   gcodeZoffset,0
;   overrideMachineDefinition,1
;   machineTypeOverride,0
;   strokeXoverride,250
;   strokeYoverride,210
;   strokeZoverride,200
;   originOffsetXoverride,0
;   originOffsetYoverride,0
;   originOffsetZoverride,0
;   homeXdirOverride,-1
;   homeYdirOverride,-1
;   homeZdirOverride,-1
;   flipXoverride,1
;   flipYoverride,-1
;   flipZoverride,1
;   toolheadOffsets,0,0|0,0|0,0|0,0|0,0|0,0
;   overrideFirmwareConfiguration,1
;   firmwareTypeOverride,RepRap (Marlin/Repetier/Sprinter)
;   GPXconfigOverride,r2
;   baudRateOverride,250000
;   overridePrinterModels,1
;   printerModelsOverride
;   startingGcode,M115 U3.0.7 ; use the latest firmware version,G28 W ; home all axes without mesh bed leveling,G80 ; run mesh bed leveling routine,G1 Y-3.0 F1000.0 ; prepare to prime,G92 E0 ; reset extrusion distance,G1 X60.0 E9.0  F1000.0 ; priming,G1 X100.0 E12.5  F1000.0 ; priming
;   layerChangeGcode,
;   retractionGcode,
;   toolChangeGcode,
;   endingGcode,M106 S0 ; turn off cooling fan,M104 S0 ; turn off extruder,M140 S0 ; turn off bed,G1 X0 Y200 ; part removal,M84 ; disable motors
;   exportFileFormat,gcode
;   celebration,0
;   celebrationSong,Random Song
;   postProcessing,
;   defaultSpeed,2400
;   outlineUnderspeed,0.8
;   solidInfillUnderspeed,0.8
;   supportUnderspeed,0.8
;   rapidXYspeed,4800
;   rapidZspeed,1002
;   minBridgingArea,50
;   bridgingExtraInflation,0
;   bridgingExtrusionMultiplier,1
;   bridgingSpeedMultiplier,1
;   useFixedBridgingAngle,0
;   fixedBridgingAngle,0
;   applyBridgingToPerimeters,0
;   filamentDiameters,1.75|1.75|1.75|1.75|1.75|1.75
;   filamentPricesPerKg,46|46|46|46|46|46
;   filamentDensities,1.25|1.25|1.25|1.25|1.25|1.25
;   useMinPrintHeight,1
;   minPrintHeight,0
;   useMaxPrintHeight,1
;   maxPrintHeight,235
;   useDiaphragm,0
;   diaphragmLayerInterval,20
;   robustSlicing,1
;   mergeAllIntoSolid,0
;   onlyRetractWhenCrossingOutline,1
;   retractBetweenLayers,1
;   useRetractionMinTravel,0
;   retractionMinTravel,3
;   retractWhileWiping,1
;   onlyWipeOutlines,1
;   avoidCrossingOutline,0
;   maxMovementDetourFactor,3
;   toolChangeRetractionDistance,12
;   toolChangeExtraRestartDistance,-0.5
;   toolChangeRetractionSpeed,600
;   externalThinWallType,0
;   internalThinWallType,2
;   thinWallAllowedOverlapPercentage,25
;   singleExtrusionMinLength,1
;   singleExtrusionMinPrintingWidthPercentage,50
;   singleExtrusionMaxPrintingWidthPercentage,200
;   singleExtrusionEndpointExtension,0.2
;   horizontalSizeCompensation,0
G90
M82
M106 S0
M140 S60
M190 S60
M104 S200 T0
M109 S200 T0
M115 U3.0.7 ; use the latest firmware version
G28 W ; home all axes without mesh bed leveling
G80 ; run mesh bed leveling routine
G1 Y-3.0 F1000.0 ; prepare to prime
G92 E0 ; reset extrusion distance
G1 X60.0 E9.0  F1000.0 ; priming
G1 X100.0 E12.5  F1000.0 ; priming
G92 E0
G1 E-1.5000 F1800
G1 Z0.420 F1002
; process Process1
; layer 1, Z = 0.420
T0
; tool H0.420 W0.480
; skirt
G1 X110.530 Y93.091 F4800
G1 E0.0000 F540
G92 E0
G1 X110.634 Y92.967 E0.0136 F1200
G1 X110.637 Y92.964 E0.0140
G1 X111.665 Y91.834 E0.1420
G1 X111.669 Y91.830 E0.1424
G1 X111.782 Y91.715 E0.1560
G1 X111.785 Y91.712 E0.1564
G1 X112.556 Y90.988 E0.2449
G1 X112.558 Y90.986 E0.2452
G1 X112.656 Y90.900 E0.2561
G1 X112.658 Y90.898 E0.2564
G1 X113.460 Y90.235 E0.3436
G1 X113.463 Y90.232 E0.3439
G1 X113.565 Y90.153 E0.3548
G1 X113.568 Y90.151 E0.3551
G1 X114.410 Y89.539 E0.4423
G1 X114.413 Y89.537 E0.4426
G1 X114.520 Y89.464 E0.4534
G1 X114.523 Y89.462 E0.4538
G1 X115.402 Y88.905 E0.5410
G1 X115.405 Y88.903 E0.5413
G1 X115.516 Y88.837 E0.5521
G1 X115.520 Y88.835 E0.5525
G1 X116.445 Y88.326 E0.6410
G1 X116.450 Y88.324 E0.6414
G1 X116.594 Y88.251 E0.6550
G1 X116.599 Y88.249 E0.6554
G1 X118.006 Y87.614 E0.7848
G1 X118.011 Y87.612 E0.7852
G1 X118.192 Y87.540 E0.8015
G1 X118.197 Y87.538 E0.8020
G1 X119.673 Y87.033 E0.9328
G1 X119.679 Y87.031 E0.9333
G1 X119.866 Y86.977 E0.9496
G1 X119.871 Y86.975 E0.9501
G1 X121.379 Y86.614 E1.0800
G1 X121.384 Y86.613 E1.0804
G1 X121.543 Y86.581 E1.0941
G1 X121.548 Y86.580 E1.0945
G1 X122.598 Y86.415 E1.1836
G1 X122.602 Y86.414 E1.1839
G1 X122.731 Y86.398 E1.1948
G1 X122.735 Y86.398 E1.1951
G1 X123.770 Y86.300 E1.2823
G1 X123.774 Y86.300 E1.2826
G1 X123.903 Y86.292 E1.2935
G1 X123.907 Y86.292 E1.2938
G1 X124.947 Y86.260 E1.3810
G1 X124.951 Y86.260 E1.3813
G1 X125.080 Y86.260 E1.3921
G1 X125.084 Y86.260 E1.3925
G1 X126.124 Y86.294 E1.4796
G1 X126.127 Y86.294 E1.4800
G1 X126.257 Y86.302 E1.4908
G1 X126.260 Y86.303 E1.4911
G1 X127.295 Y86.401 E1.5783
G1 X127.299 Y86.402 E1.5786
G1 X127.426 Y86.418 E1.5893
G1 X127.430 Y86.418 E1.5896
G1 X128.461 Y86.582 E1.6771
G1 X128.466 Y86.583 E1.6775
G1 X128.625 Y86.614 E1.6911
G1 X128.629 Y86.615 E1.6915
G1 X130.136 Y86.977 E1.8214
G1 X130.141 Y86.979 E1.8218
G1 X130.328 Y87.033 E1.8381
G1 X130.333 Y87.035 E1.8386
G1 X131.809 Y87.541 E1.9694
G1 X131.815 Y87.543 E1.9699
G1 X131.995 Y87.614 E1.9862
G1 X132.000 Y87.617 E1.9866
G1 X133.422 Y88.259 E2.1174
G1 X133.427 Y88.262 E2.1179
G1 X133.600 Y88.350 E2.1341
G1 X133.605 Y88.352 E2.1346
G1 X134.960 Y89.126 E2.2654
G1 X134.965 Y89.129 E2.2659
G1 X135.129 Y89.233 E2.2822
G1 X135.134 Y89.236 E2.2826
G1 X136.410 Y90.134 E2.4134
G1 X136.415 Y90.137 E2.4139
G1 X136.568 Y90.256 E2.4302
G1 X136.572 Y90.260 E2.4306
G1 X137.759 Y91.274 E2.5614
G1 X137.763 Y91.278 E2.5619
G1 X137.904 Y91.411 E2.5782
G1 X137.908 Y91.415 E2.5786
G1 X138.983 Y92.524 E2.7081
G1 X138.986 Y92.527 E2.7085
G1 X139.094 Y92.648 E2.7220
G1 X139.097 Y92.652 E2.7224
G1 X139.770 Y93.466 E2.8110
G1 X139.772 Y93.469 E2.8113
G1 X139.851 Y93.571 E2.8221
G1 X139.854 Y93.574 E2.8225
G1 X140.465 Y94.416 E2.9097
G1 X140.467 Y94.419 E2.9100
G1 X140.540 Y94.526 E2.9208
G1 X140.542 Y94.529 E2.9212
G1 X141.099 Y95.408 E3.0084
G1 X141.101 Y95.411 E3.0087
G1 X141.167 Y95.523 E3.0195
G1 X141.169 Y95.526 E3.0199
G1 X141.670 Y96.438 E3.1071
G1 X141.672 Y96.442 E3.1074
G1 X141.730 Y96.557 E3.1182
G1 X141.732 Y96.560 E3.1186
G1 X142.181 Y97.517 E3.2071
G1 X142.183 Y97.521 E3.2075
G1 X142.246 Y97.670 E3.2211
G1 X142.248 Y97.674 E3.2215
G1 X142.793 Y99.119 E3.3509
G1 X142.795 Y99.124 E3.3513
G1 X142.855 Y99.309 E3.3676
G1 X142.857 Y99.314 E3.3681
G1 X143.268 Y100.819 E3.4989
G1 X143.269 Y100.825 E3.4994
G1 X143.311 Y101.014 E3.5156
G1 X143.313 Y101.020 E3.5161
G1 X143.577 Y102.541 E3.6455
G1 X143.578 Y102.546 E3.6459
G1 X143.600 Y102.706 E3.6595
G1 X143.600 Y102.711 E3.6599
G1 X143.699 Y103.761 E3.7483
G1 X143.699 Y103.765 E3.7486
G1 X143.707 Y103.894 E3.7594
G1 X143.708 Y103.897 E3.7597
G1 X143.740 Y104.932 E3.8465
G1 X143.740 Y104.936 E3.8468
G1 X143.740 Y105.065 E3.8576
G1 X143.740 Y105.069 E3.8579
G1 X143.707 Y106.108 E3.9451
G1 X143.707 Y106.112 E3.9454
G1 X143.699 Y106.241 E3.9563
G1 X143.699 Y106.245 E3.9566
G1 X143.601 Y107.281 E4.0438
G1 X143.600 Y107.284 E4.0441
G1 X143.584 Y107.413 E4.0550
G1 X143.584 Y107.417 E4.0553
G1 X143.421 Y108.444 E4.1425
G1 X143.420 Y108.448 E4.1428
G1 X143.396 Y108.575 E4.1536
G1 X143.395 Y108.579 E4.1540
G1 X143.165 Y109.610 E4.2425
G1 X143.164 Y109.614 E4.2429
G1 X143.122 Y109.771 E4.2565
G1 X143.121 Y109.775 E4.2569
G1 X142.676 Y111.220 E4.3836
G1 X142.675 Y111.224 E4.3839
G1 X142.633 Y111.346 E4.3948
G1 X142.632 Y111.350 E4.3951
G1 X142.425 Y111.897 E4.4441
G1 X142.424 Y111.901 E4.4444
G1 X142.374 Y112.020 E4.4553
G1 X142.373 Y112.024 E4.4556
G1 X141.744 Y113.416 E4.5836
G1 X141.742 Y113.421 E4.5841
G1 X141.653 Y113.594 E4.6004
G1 X141.651 Y113.599 E4.6008
G1 X140.878 Y114.955 E4.7316
G1 X140.875 Y114.959 E4.7321
G1 X140.771 Y115.124 E4.7484
G1 X140.767 Y115.128 E4.7489
G1 X139.870 Y116.405 E4.8796
G1 X139.867 Y116.409 E4.8801
G1 X139.748 Y116.563 E4.8964
G1 X139.744 Y116.567 E4.8969
G1 X138.731 Y117.753 E5.0276
G1 X138.727 Y117.758 E5.0281
G1 X138.594 Y117.899 E5.0444
G1 X138.590 Y117.903 E5.0448
G1 X137.482 Y118.978 E5.1743
G1 X137.478 Y118.981 E5.1747
G1 X137.357 Y119.089 E5.1882
G1 X137.354 Y119.092 E5.1886
G1 X136.540 Y119.765 E5.2772
G1 X136.537 Y119.768 E5.2775
G1 X136.435 Y119.847 E5.2883
G1 X136.432 Y119.849 E5.2886
G1 X135.590 Y120.461 E5.3758
G1 X135.587 Y120.463 E5.3761
G1 X135.480 Y120.536 E5.3870
G1 X135.477 Y120.538 E5.3873
G1 X134.598 Y121.095 E5.4745
G1 X134.595 Y121.097 E5.4749
G1 X134.484 Y121.163 E5.4857
G1 X134.480 Y121.165 E5.4860
G1 X133.569 Y121.666 E5.5732
G1 X133.565 Y121.668 E5.5735
G1 X133.450 Y121.727 E5.5844
G1 X133.447 Y121.729 E5.5847
G1 X132.491 Y122.178 E5.6733
G1 X132.486 Y122.180 E5.6737
G1 X132.337 Y122.243 E5.6872
G1 X132.333 Y122.245 E5.6876
G1 X130.888 Y122.791 E5.8170
G1 X130.883 Y122.793 E5.8175
G1 X130.698 Y122.853 E5.8338
G1 X130.693 Y122.855 E5.8343
G1 X129.182 Y123.268 E5.9656
G1 X129.176 Y123.269 E5.9660
G1 X128.986 Y123.311 E5.9824
G1 X128.980 Y123.312 E5.9829
G1 X127.436 Y123.581 E6.1143
G1 X127.430 Y123.582 E6.1147
G1 X127.237 Y123.606 E6.1311
G1 X127.231 Y123.607 E6.1315
G1 X125.676 Y123.728 E6.2623
G1 X125.670 Y123.728 E6.2628
G1 X125.476 Y123.734 E6.2791
G1 X125.471 Y123.734 E6.2795
G1 X123.927 Y123.709 E6.4089
G1 X123.922 Y123.708 E6.4093
G1 X123.760 Y123.699 E6.4229
G1 X123.756 Y123.699 E6.4233
G1 X122.704 Y123.599 E6.5118
G1 X122.701 Y123.598 E6.5121
G1 X122.573 Y123.582 E6.5229
G1 X122.569 Y123.582 E6.5232
G1 X121.532 Y123.417 E6.6112
G1 X121.528 Y123.416 E6.6116
G1 X121.369 Y123.384 E6.6252
G1 X121.365 Y123.383 E6.6256
G1 X119.863 Y123.022 E6.7550
G1 X119.858 Y123.021 E6.7555
G1 X119.671 Y122.967 E6.7718
G1 X119.666 Y122.965 E6.7722
G1 X118.189 Y122.459 E6.9030
G1 X118.184 Y122.457 E6.9035
G1 X118.004 Y122.385 E6.9198
G1 X117.998 Y122.383 E6.9203
G1 X116.576 Y121.740 E7.0511
G1 X116.571 Y121.738 E7.0516
G1 X116.398 Y121.649 E7.0678
G1 X116.393 Y121.647 E7.0683
G1 X115.038 Y120.873 E7.1991
G1 X115.033 Y120.870 E7.1996
G1 X114.869 Y120.766 E7.2159
G1 X114.864 Y120.762 E7.2164
G1 X113.588 Y119.864 E7.3472
G1 X113.583 Y119.861 E7.3477
G1 X113.430 Y119.742 E7.3639
G1 X113.425 Y119.738 E7.3644
G1 X112.239 Y118.724 E7.4952
G1 X112.235 Y118.720 E7.4957
G1 X112.093 Y118.587 E7.5120
G1 X112.089 Y118.583 E7.5125
G1 X111.015 Y117.473 E7.6419
G1 X111.012 Y117.470 E7.6423
G1 X110.904 Y117.349 E7.6559
G1 X110.901 Y117.345 E7.6563
G1 X110.227 Y116.530 E7.7449
G1 X110.225 Y116.528 E7.7452
G1 X110.146 Y116.425 E7.7561
G1 X110.144 Y116.422 E7.7564
G1 X109.532 Y115.580 E7.8436
G1 X109.530 Y115.577 E7.8439
G1 X109.457 Y115.469 E7.8548
G1 X109.455 Y115.466 E7.8551
G1 X108.889 Y114.573 E7.9437
G1 X108.887 Y114.569 E7.9441
G1 X108.806 Y114.429 E7.9577
G1 X108.803 Y114.425 E7.9581
G1 X108.089 Y113.074 E8.0862
G1 X108.087 Y113.069 E8.0866
G1 X108.017 Y112.924 E8.1002
G1 X108.015 Y112.919 E8.1006
G1 X107.596 Y111.949 E8.1892
G1 X107.595 Y111.945 E8.1895
G1 X107.547 Y111.825 E8.2003
G1 X107.546 Y111.821 E8.2007
G1 X107.188 Y110.826 E8.2892
G1 X107.187 Y110.822 E8.2896
G1 X107.138 Y110.668 E8.3032
G1 X107.137 Y110.663 E8.3036
G1 X106.731 Y109.173 E8.4330
G1 X106.729 Y109.168 E8.4335
G1 X106.687 Y108.978 E8.4498
G1 X106.686 Y108.972 E8.4503
G1 X106.422 Y107.451 E8.5797
G1 X106.421 Y107.446 E8.5801
G1 X106.400 Y107.286 E8.5936
G1 X106.399 Y107.282 E8.5940
G1 X106.301 Y106.234 E8.6822
G1 X106.300 Y106.231 E8.6825
G1 X106.292 Y106.102 E8.6933
G1 X106.292 Y106.099 E8.6936
G1 X106.260 Y105.065 E8.7802
G1 X106.260 Y105.061 E8.7806
G1 X106.260 Y104.932 E8.7914
G1 X106.260 Y104.929 E8.7917
G1 X106.293 Y103.892 E8.8787
G1 X106.293 Y103.888 E8.8790
G1 X106.301 Y103.759 E8.8898
G1 X106.301 Y103.755 E8.8901
G1 X106.399 Y102.719 E8.9773
G1 X106.400 Y102.716 E8.9776
G1 X106.416 Y102.587 E8.9885
G1 X106.416 Y102.583 E8.9888
G1 X106.579 Y101.556 E9.0760
G1 X106.580 Y101.552 E9.0763
G1 X106.604 Y101.425 E9.0872
G1 X106.605 Y101.421 E9.0875
G1 X106.828 Y100.422 E9.1733
G1 X106.829 Y100.419 E9.1736
G1 X106.852 Y100.325 E9.1817
G1 X106.853 Y100.322 E9.1819
G1 X107.003 Y99.773 E9.2296
G1 X107.004 Y99.770 E9.2299
G1 X107.042 Y99.646 E9.2408
G1 X107.043 Y99.642 E9.2411
G1 X107.538 Y98.197 E9.3692
G1 X107.540 Y98.192 E9.3696
G1 X107.612 Y98.011 E9.3859
G1 X107.614 Y98.006 E9.3864
G1 X108.256 Y96.584 E9.5172
G1 X108.258 Y96.579 E9.5176
G1 X108.347 Y96.406 E9.5339
G1 X108.349 Y96.401 E9.5344
G1 X109.114 Y95.059 E9.6638
G1 X109.117 Y95.055 E9.6642
G1 X109.202 Y94.918 E9.6778
G1 X109.205 Y94.914 E9.6782
G1 X109.799 Y94.040 E9.7667
G1 X109.801 Y94.037 E9.7670
G1 X109.877 Y93.933 E9.7779
G1 X109.879 Y93.930 E9.7782
G1 X110.407 Y93.249 E9.8504
G1 X110.527 Y93.095 F1200
G1 X110.530 Y93.091 F1200
G92 E0
G1 E-1.5000 F1800
; inner perimeter
G1 X114.758 Y96.515 F4800
G1 E0.0000 F1800
G92 E0
G1 X115.017 Y96.212 E0.0334 F1080
G1 X115.596 Y95.596 E0.1042
G1 X116.212 Y95.017 E0.1751
G1 X116.522 Y94.752 E0.2093
G1 X116.841 Y94.497 E0.2435
G1 X117.525 Y94.000 E0.3143
G1 X118.238 Y93.548 E0.3852
