; G-Code generated by Simplify3D(R) Version 4.0.0
; Jun 10, 2018 at 4:28:26 PM
; Settings Summary
;   processName,Process1
;   applyToModels,citadel-bottle-holder
;   profileName,Prusa Research Original Prusa i3 MK2 (modified)
;   profileVersion,2017-07-23 22:27:18
;   baseProfile,
;   printMaterial,PLA
;   printQuality,Fast
;   printExtruders,
;   extruderName,Primary Extruder
;   extruderToolheadNumber,0
;   extruderDiameter,0.4
;   extruderAutoWidth,1
;   extruderWidth,0.48
;   extrusionMultiplier,1
;   extruderUseRetract,1
;   extruderRetractionDistance,1.5
;   extruderExtraRestartDistance,0
;   extruderRetractionZLift,0
;   extruderRetractionSpeed,1800
;   extruderUseCoasting,1
;   extruderCoastingDistance,0.2
;   extruderUseWipe,1
;   extruderWipeDistance,2
;   primaryExtruder,0
;   layerHeight,0.35
;   topSolidLayers,3
;   bottomSolidLayers,3
;   perimeterOutlines,3
;   printPerimetersInsideOut,1
;   startPointOption,2
;   startPointOriginX,0
;   startPointOriginY,0
;   sequentialIslands,0
;   spiralVaseMode,0
;   firstLayerHeightPercentage,100
;   firstLayerWidthPercentage,100
;   firstLayerUnderspeed,0.5
;   useRaft,0
;   raftExtruder,0
;   raftTopLayers,3
;   raftBaseLayers,2
;   raftOffset,3
;   raftSeparationDistance,0.14
;   raftTopInfill,100
;   aboveRaftSpeedMultiplier,0.3
;   useSkirt,1
;   skirtExtruder,0
;   skirtLayers,1
;   skirtOutlines,1
;   skirtOffset,4
;   usePrimePillar,0
;   primePillarExtruder,999
;   primePillarWidth,12
;   primePillarLocation,7
;   primePillarSpeedMultiplier,1
;   useOozeShield,0
;   oozeShieldExtruder,999
;   oozeShieldOffset,2
;   oozeShieldOutlines,1
;   oozeShieldSidewallShape,1
;   oozeShieldSidewallAngle,30
;   oozeShieldSpeedMultiplier,1
;   infillExtruder,0
;   internalInfillPattern,Rectilinear
;   externalInfillPattern,Rectilinear
;   infillPercentage,10
;   outlineOverlapPercentage,20
;   infillExtrusionWidthPercentage,100
;   minInfillLength,5
;   infillLayerInterval,1
;   internalInfillAngles,45,-45
;   overlapInternalInfillAngles,0
;   externalInfillAngles,45,-45
;   generateSupport,1
;   supportExtruder,0
;   supportInfillPercentage,25
;   supportExtraInflation,0
;   supportBaseLayers,0
;   denseSupportExtruder,0
;   denseSupportLayers,0
;   denseSupportInfillPercentage,70
;   supportLayerInterval,1
;   supportHorizontalPartOffset,0.3
;   supportUpperSeparationLayers,1
;   supportLowerSeparationLayers,1
;   supportType,0
;   supportGridSpacing,4
;   maxOverhangAngle,45
;   supportAngles,0
;   temperatureName,Primary Extruder,Heated Bed
;   temperatureNumber,0,0
;   temperatureSetpointCount,1,1
;   temperatureSetpointLayers,1,1
;   temperatureSetpointTemperatures,210,60
;   temperatureStabilizeAtStartup,1,1
;   temperatureHeatedBed,0,1
;   temperatureRelayBetweenLayers,0,0
;   temperatureRelayBetweenLoops,0,0
;   fanLayers,1,2
;   fanSpeeds,0,100
;   blipFanToFullPower,0
;   adjustSpeedForCooling,1
;   minSpeedLayerTime,15
;   minCoolingSpeedSlowdown,20
;   increaseFanForCooling,0
;   minFanLayerTime,45
;   maxCoolingFanSpeed,100
;   increaseFanForBridging,0
;   bridgingFanSpeed,100
;   use5D,1
;   relativeEdistances,0
;   allowEaxisZeroing,1
;   independentExtruderAxes,0
;   includeM10123,0
;   stickySupport,1
;   applyToolheadOffsets,0
;   gcodeXoffset,0
;   gcodeYoffset,0
;   gcodeZoffset,0
;   overrideMachineDefinition,1
;   machineTypeOverride,0
;   strokeXoverride,250
;   strokeYoverride,210
;   strokeZoverride,200
;   originOffsetXoverride,0
;   originOffsetYoverride,0
;   originOffsetZoverride,0
;   homeXdirOverride,-1
;   homeYdirOverride,-1
;   homeZdirOverride,-1
;   flipXoverride,1
;   flipYoverride,-1
;   flipZoverride,1
;   toolheadOffsets,0,0|0,0|0,0|0,0|0,0|0,0
;   overrideFirmwareConfiguration,1
;   firmwareTypeOverride,RepRap (Marlin/Repetier/Sprinter)
;   GPXconfigOverride,r2
;   baudRateOverride,250000
;   overridePrinterModels,1
;   printerModelsOverride
;   startingGcode,M115 U3.0.7 ; use the latest firmware version,G28 W ; home all axes without mesh bed leveling,G80 ; run mesh bed leveling routine,G1 Y-3.0 F1000.0 ; prepare to prime,G92 E0 ; reset extrusion distance,G1 X60.0 E9.0  F1000.0 ; priming,G1 X100.0 E12.5  F1000.0 ; priming
;   layerChangeGcode,
;   retractionGcode,
;   toolChangeGcode,
;   endingGcode,M106 S0 ; turn off cooling fan,M104 S0 ; turn off extruder,M140 S0 ; turn off bed,G1 X0 Y200 ; part removal,M84 ; disable motors
;   exportFileFormat,gcode
;   celebration,0
;   celebrationSong,Random Song
;   postProcessing,
;   defaultSpeed,2400
;   outlineUnderspeed,0.8
;   solidInfillUnderspeed,0.8
;   supportUnderspeed,0.8
;   rapidXYspeed,4800
;   rapidZspeed,1002
;   minBridgingArea,50
;   bridgingExtraInflation,0
;   bridgingExtrusionMultiplier,1
;   bridgingSpeedMultiplier,1
;   useFixedBridgingAngle,0
;   fixedBridgingAngle,0
;   applyBridgingToPerimeters,0
;   filamentDiameters,1.75|1.75|1.75|1.75|1.75|1.75
;   filamentPricesPerKg,200|46|46|46|46|46
;   filamentDensities,1.25|1.25|1.25|1.25|1.25|1.25
;   useMinPrintHeight,1
;   minPrintHeight,0
;   useMaxPrintHeight,1
;   maxPrintHeight,235
;   useDiaphragm,0
;   diaphragmLayerInterval,20
;   robustSlicing,1
;   mergeAllIntoSolid,0
;   onlyRetractWhenCrossingOutline,1
;   retractBetweenLayers,1
;   useRetractionMinTravel,0
;   retractionMinTravel,3
;   retractWhileWiping,1
;   onlyWipeOutlines,1
;   avoidCrossingOutline,0
;   maxMovementDetourFactor,3
;   toolChangeRetractionDistance,12
;   toolChangeExtraRestartDistance,-0.5
;   toolChangeRetractionSpeed,600
;   externalThinWallType,0
;   internalThinWallType,2
;   thinWallAllowedOverlapPercentage,25
;   singleExtrusionMinLength,1
;   singleExtrusionMinPrintingWidthPercentage,50
;   singleExtrusionMaxPrintingWidthPercentage,200
;   singleExtrusionEndpointExtension,0.2
;   horizontalSizeCompensation,0
G90
M82
M106 S0
M140 S60
M190 S60
M104 S210 T0
M109 S210 T0
M115 U3.0.7 ; use the latest firmware version
G28 W ; home all axes without mesh bed leveling
G80 ; run mesh bed leveling routine
G1 Y-3.0 F1000.0 ; prepare to prime
G92 E0 ; reset extrusion distance
G1 X60.0 E9.0  F1000.0 ; priming
G1 X100.0 E12.5  F1000.0 ; priming
G92 E0
G1 E-1.5000 F1800
G1 Z0.350 F1002
; process Process1
; layer 1, Z = 0.350
T0
; tool H0.350 W0.480
; skirt
G1 X69.789 Y56.263 F4800
G1 E0.0000 F540
G92 E0
G1 X71.357 Y54.842 E0.1478 F1200
G1 X71.361 Y54.838 E0.1482
G1 X71.518 Y54.710 E0.1623
G1 X71.522 Y54.706 E0.1627
G1 X73.222 Y53.445 E0.3105
G1 X73.227 Y53.442 E0.3109
G1 X73.395 Y53.330 E0.3251
G1 X73.400 Y53.327 E0.3255
G1 X75.215 Y52.239 E0.4733
G1 X75.220 Y52.236 E0.4737
G1 X75.398 Y52.140 E0.4878
G1 X75.403 Y52.138 E0.4882
G1 X77.316 Y51.233 E0.6360
G1 X77.322 Y51.231 E0.6364
G1 X77.509 Y51.153 E0.6506
G1 X77.514 Y51.151 E0.6510
G1 X79.506 Y50.438 E0.7988
G1 X79.512 Y50.437 E0.7992
G1 X79.705 Y50.378 E0.8133
G1 X79.711 Y50.376 E0.8137
G1 X81.764 Y49.862 E0.9615
G1 X81.769 Y49.861 E0.9619
G1 X81.968 Y49.821 E0.9760
G1 X81.974 Y49.820 E0.9764
G1 X84.067 Y49.510 E1.1242
G1 X84.072 Y49.509 E1.1246
G1 X84.274 Y49.489 E1.1388
G1 X84.280 Y49.489 E1.1392
G1 X86.393 Y49.385 E1.2870
G1 X86.399 Y49.385 E1.2874
G1 X86.601 Y49.385 E1.3015
G1 X86.607 Y49.385 E1.3019
G1 X88.720 Y49.489 E1.4497
G1 X88.726 Y49.489 E1.4501
G1 X88.928 Y49.509 E1.4643
G1 X88.933 Y49.510 E1.4647
G1 X91.026 Y49.820 E1.6125
G1 X91.032 Y49.821 E1.6129
G1 X91.231 Y49.861 E1.6270
G1 X91.236 Y49.862 E1.6274
G1 X93.289 Y50.376 E1.7752
G1 X93.295 Y50.378 E1.7756
G1 X93.488 Y50.437 E1.7897
G1 X93.494 Y50.438 E1.7901
G1 X95.486 Y51.151 E1.9379
G1 X95.491 Y51.153 E1.9383
G1 X95.678 Y51.231 E1.9525
G1 X95.684 Y51.233 E1.9529
G1 X97.597 Y52.138 E2.1007
G1 X97.602 Y52.140 E2.1011
G1 X97.780 Y52.236 E2.1152
G1 X97.785 Y52.239 E2.1156
G1 X99.600 Y53.327 E2.2634
G1 X99.605 Y53.330 E2.2638
G1 X99.773 Y53.442 E2.2780
G1 X99.778 Y53.445 E2.2784
G1 X101.478 Y54.706 E2.4262
G1 X101.482 Y54.710 E2.4266
G1 X101.639 Y54.838 E2.4407
G1 X101.643 Y54.842 E2.4411
G1 X103.211 Y56.263 E2.5889
G1 X103.215 Y56.267 E2.5893
G1 X103.358 Y56.410 E2.6034
G1 X103.362 Y56.414 E2.6038
G1 X104.783 Y57.982 E2.7516
G1 X104.787 Y57.986 E2.7520
G1 X104.915 Y58.143 E2.7662
G1 X104.919 Y58.147 E2.7666
G1 X105.750 Y59.268 E2.8640
G1 X106.581 Y58.147 E2.9614
G1 X106.585 Y58.143 E2.9619
G1 X106.713 Y57.986 E2.9760
G1 X106.717 Y57.982 E2.9764
G1 X108.138 Y56.414 E3.1242
G1 X108.142 Y56.410 E3.1246
G1 X108.285 Y56.267 E3.1387
G1 X108.289 Y56.263 E3.1391
G1 X109.857 Y54.842 E3.2869
G1 X109.861 Y54.838 E3.2873
G1 X110.018 Y54.710 E3.3015
G1 X110.022 Y54.706 E3.3019
G1 X111.722 Y53.445 E3.4497
G1 X111.727 Y53.442 E3.4501
G1 X111.895 Y53.330 E3.4642
G1 X111.900 Y53.327 E3.4646
G1 X113.715 Y52.239 E3.6124
G1 X113.720 Y52.236 E3.6128
G1 X113.898 Y52.140 E3.6269
G1 X113.904 Y52.138 E3.6274
G1 X115.816 Y51.233 E3.7752
G1 X115.822 Y51.231 E3.7756
G1 X116.009 Y51.153 E3.7897
G1 X116.014 Y51.151 E3.7901
G1 X118.006 Y50.438 E3.9379
G1 X118.012 Y50.437 E3.9383
G1 X118.205 Y50.378 E3.9524
G1 X118.211 Y50.376 E3.9528
G1 X120.264 Y49.862 E4.1006
G1 X120.269 Y49.861 E4.1010
G1 X120.468 Y49.821 E4.1152
G1 X120.474 Y49.820 E4.1156
G1 X122.567 Y49.510 E4.2634
G1 X122.572 Y49.509 E4.2638
G1 X122.774 Y49.489 E4.2779
G1 X122.780 Y49.489 E4.2783
G1 X124.893 Y49.385 E4.4261
G1 X124.899 Y49.385 E4.4265
G1 X125.101 Y49.385 E4.4406
G1 X125.107 Y49.385 E4.4411
G1 X127.220 Y49.489 E4.5888
G1 X127.226 Y49.489 E4.5893
G1 X127.428 Y49.509 E4.6034
G1 X127.433 Y49.510 E4.6038
G1 X129.526 Y49.820 E4.7516
G1 X129.532 Y49.821 E4.7520
G1 X129.731 Y49.861 E4.7661
G1 X129.736 Y49.862 E4.7665
G1 X131.789 Y50.376 E4.9143
G1 X131.795 Y50.378 E4.9147
G1 X131.988 Y50.437 E4.9289
G1 X131.994 Y50.438 E4.9293
G1 X133.986 Y51.151 E5.0771
G1 X133.991 Y51.153 E5.0775
G1 X134.178 Y51.231 E5.0916
G1 X134.184 Y51.233 E5.0920
G1 X136.096 Y52.138 E5.2398
G1 X136.102 Y52.140 E5.2402
G1 X136.280 Y52.236 E5.2543
G1 X136.285 Y52.239 E5.2548
G1 X138.100 Y53.327 E5.4025
G1 X138.105 Y53.330 E5.4030
G1 X138.273 Y53.442 E5.4171
G1 X138.278 Y53.445 E5.4175
G1 X139.978 Y54.706 E5.5653
G1 X139.982 Y54.710 E5.5657
G1 X140.139 Y54.838 E5.5798
G1 X140.143 Y54.842 E5.5802
G1 X141.711 Y56.263 E5.7280
G1 X141.715 Y56.267 E5.7284
G1 X141.858 Y56.410 E5.7426
G1 X141.862 Y56.414 E5.7430
G1 X143.283 Y57.982 E5.8908
G1 X143.287 Y57.986 E5.8912
G1 X143.415 Y58.143 E5.9053
G1 X143.419 Y58.147 E5.9057
G1 X144.250 Y59.268 E6.0032
G1 X145.081 Y58.147 E6.1006
G1 X145.085 Y58.143 E6.1010
G1 X145.213 Y57.986 E6.1151
G1 X145.217 Y57.982 E6.1155
G1 X146.638 Y56.414 E6.2633
G1 X146.642 Y56.410 E6.2637
G1 X146.785 Y56.267 E6.2779
G1 X146.789 Y56.263 E6.2783
G1 X148.357 Y54.842 E6.4261
G1 X148.361 Y54.838 E6.4265
G1 X148.518 Y54.710 E6.4406
G1 X148.522 Y54.706 E6.4410
G1 X150.222 Y53.445 E6.5888
G1 X150.227 Y53.442 E6.5892
G1 X150.395 Y53.330 E6.6033
G1 X150.400 Y53.327 E6.6038
G1 X152.215 Y52.239 E6.7515
G1 X152.220 Y52.236 E6.7520
G1 X152.398 Y52.140 E6.7661
G1 X152.404 Y52.138 E6.7665
G1 X154.316 Y51.233 E6.9143
G1 X154.322 Y51.231 E6.9147
G1 X154.509 Y51.153 E6.9288
G1 X154.514 Y51.151 E6.9292
G1 X156.506 Y50.438 E7.0770
G1 X156.512 Y50.437 E7.0774
G1 X156.705 Y50.378 E7.0916
G1 X156.711 Y50.376 E7.0920
G1 X158.764 Y49.862 E7.2398
G1 X158.769 Y49.861 E7.2402
G1 X158.968 Y49.821 E7.2543
G1 X158.974 Y49.820 E7.2547
G1 X161.067 Y49.510 E7.4025
G1 X161.072 Y49.509 E7.4029
G1 X161.274 Y49.489 E7.4170
G1 X161.280 Y49.489 E7.4175
G1 X163.393 Y49.385 E7.5652
G1 X163.399 Y49.385 E7.5657
G1 X163.601 Y49.385 E7.5798
G1 X163.607 Y49.385 E7.5802
G1 X165.720 Y49.489 E7.7280
G1 X165.726 Y49.489 E7.7284
G1 X165.928 Y49.509 E7.7425
G1 X165.933 Y49.510 E7.7429
G1 X168.026 Y49.820 E7.8907
G1 X168.032 Y49.821 E7.8911
G1 X168.231 Y49.861 E7.9053
G1 X168.236 Y49.862 E7.9057
G1 X170.289 Y50.376 E8.0535
G1 X170.295 Y50.378 E8.0539
G1 X170.488 Y50.437 E8.0680
G1 X170.494 Y50.438 E8.0684
G1 X172.486 Y51.151 E8.2162
G1 X172.491 Y51.153 E8.2166
G1 X172.678 Y51.231 E8.2307
G1 X172.684 Y51.233 E8.2312
G1 X174.596 Y52.138 E8.3789
G1 X174.602 Y52.140 E8.3794
G1 X174.780 Y52.236 E8.3935
G1 X174.785 Y52.239 E8.3939
G1 X176.600 Y53.327 E8.5417
G1 X176.605 Y53.330 E8.5421
G1 X176.773 Y53.442 E8.5562
G1 X176.778 Y53.445 E8.5566
G1 X178.478 Y54.706 E8.7044
G1 X178.482 Y54.710 E8.7048
G1 X178.639 Y54.838 E8.7190
G1 X178.643 Y54.842 E8.7194
G1 X180.211 Y56.263 E8.8672
G1 X180.215 Y56.267 E8.8676
G1 X180.358 Y56.410 E8.8817
G1 X180.362 Y56.414 E8.8821
G1 X181.783 Y57.982 E9.0299
G1 X181.787 Y57.986 E9.0303
G1 X181.915 Y58.143 E9.0444
G1 X181.919 Y58.147 E9.0449
G1 X183.180 Y59.847 E9.1927
G1 X183.183 Y59.852 E9.1931
G1 X183.295 Y60.020 E9.2072
G1 X183.298 Y60.025 E9.2076
G1 X184.386 Y61.840 E9.3554
G1 X184.389 Y61.845 E9.3558
G1 X184.485 Y62.023 E9.3699
G1 X184.487 Y62.029 E9.3704
G1 X185.392 Y63.941 E9.5181
G1 X185.394 Y63.947 E9.5185
G1 X185.472 Y64.134 E9.5327
G1 X185.474 Y64.139 E9.5331
G1 X186.186 Y66.131 E9.6809
G1 X186.188 Y66.137 E9.6813
G1 X186.247 Y66.330 E9.6954
G1 X186.249 Y66.336 E9.6958
G1 X186.763 Y68.389 E9.8436
G1 X186.764 Y68.394 E9.8440
G1 X186.804 Y68.593 E9.8581
G1 X186.805 Y68.599 E9.8586
G1 X187.115 Y70.692 E10.0064
G1 X187.116 Y70.697 E10.0068
G1 X187.136 Y70.899 E10.0209
G1 X187.136 Y70.905 E10.0213
G1 X187.240 Y73.018 E10.1691
G1 X187.240 Y73.024 E10.1695
G1 X187.240 Y73.226 E10.1836
G1 X187.240 Y73.232 E10.1840
G1 X187.136 Y75.345 E10.3318
G1 X187.136 Y75.351 E10.3322
G1 X187.116 Y75.553 E10.3464
G1 X187.115 Y75.558 E10.3468
G1 X186.805 Y77.651 E10.4946
G1 X186.804 Y77.657 E10.4950
G1 X186.764 Y77.856 E10.5091
G1 X186.763 Y77.861 E10.5095
G1 X186.249 Y79.914 E10.6573
G1 X186.247 Y79.920 E10.6577
G1 X186.188 Y80.113 E10.6719
G1 X186.186 Y80.119 E10.6723
G1 X185.474 Y82.111 E10.8201
G1 X185.472 Y82.116 E10.8205
G1 X185.394 Y82.303 E10.8346
G1 X185.392 Y82.309 E10.8350
G1 X184.487 Y84.221 E10.9828
G1 X184.485 Y84.227 E10.9832
G1 X184.389 Y84.405 E10.9973
G1 X184.386 Y84.410 E10.9977
G1 X183.298 Y86.225 E11.1455
G1 X183.295 Y86.230 E11.1459
G1 X183.183 Y86.398 E11.1601
G1 X183.180 Y86.403 E11.1605
G1 X181.919 Y88.103 E11.3083
G1 X181.915 Y88.107 E11.3087
G1 X181.787 Y88.264 E11.3228
G1 X181.783 Y88.268 E11.3232
G1 X180.362 Y89.836 E11.4710
G1 X180.358 Y89.840 E11.4714
G1 X180.215 Y89.983 E11.4856
G1 X180.211 Y89.987 E11.4860
G1 X178.643 Y91.408 E11.6338
G1 X178.639 Y91.412 E11.6342
G1 X178.482 Y91.540 E11.6483
G1 X178.478 Y91.544 E11.6487
G1 X176.778 Y92.805 E11.7965
G1 X176.773 Y92.808 E11.7969
G1 X176.605 Y92.920 E11.8110
G1 X176.600 Y92.923 E11.8115
G1 X174.785 Y94.011 E11.9592
G1 X174.780 Y94.014 E11.9597
G1 X174.602 Y94.110 E11.9738
G1 X174.596 Y94.112 E11.9742
G1 X172.684 Y95.017 E12.1220
G1 X172.678 Y95.019 E12.1224
G1 X172.491 Y95.097 E12.1365
G1 X172.486 Y95.099 E12.1369
G1 X170.494 Y95.812 E12.2847
G1 X170.488 Y95.813 E12.2851
G1 X170.295 Y95.872 E12.2993
G1 X170.289 Y95.874 E12.2997
G1 X168.236 Y96.388 E12.4475
G1 X168.231 Y96.389 E12.4479
G1 X168.032 Y96.429 E12.4620
G1 X168.026 Y96.430 E12.4624
G1 X166.243 Y96.694 E12.5883
G1 X166.936 Y98.631 E12.7320
G1 X166.938 Y98.637 E12.7324
G1 X166.997 Y98.830 E12.7466
G1 X166.999 Y98.836 E12.7470
G1 X167.513 Y100.889 E12.8948
G1 X167.514 Y100.894 E12.8952
G1 X167.554 Y101.093 E12.9093
G1 X167.555 Y101.099 E12.9097
G1 X167.865 Y103.192 E13.0575
G1 X167.866 Y103.197 E13.0579
G1 X167.886 Y103.399 E13.0720
G1 X167.886 Y103.405 E13.0725
G1 X167.990 Y105.518 E13.2202
G1 X167.990 Y105.524 E13.2207
G1 X167.990 Y105.726 E13.2348
G1 X167.990 Y105.732 E13.2352
G1 X167.886 Y107.845 E13.3830
G1 X167.886 Y107.851 E13.3834
G1 X167.866 Y108.053 E13.3975
G1 X167.865 Y108.058 E13.3979
G1 X167.555 Y110.151 E13.5457
G1 X167.554 Y110.157 E13.5461
G1 X167.514 Y110.356 E13.5603
G1 X167.513 Y110.361 E13.5607
G1 X166.999 Y112.414 E13.7085
G1 X166.997 Y112.420 E13.7089
G1 X166.938 Y112.613 E13.7230
G1 X166.936 Y112.619 E13.7234
G1 X166.668 Y113.369 E13.7791
G1 X168.026 Y113.570 E13.8750
G1 X168.032 Y113.571 E13.8754
G1 X168.231 Y113.611 E13.8895
G1 X168.236 Y113.612 E13.8899
G1 X170.289 Y114.126 E14.0377
G1 X170.295 Y114.128 E14.0381
G1 X170.488 Y114.187 E14.0523
