; G-Code generated by Simplify3D(R) Version 3.1.1
; Jun 26, 2017 at 8:40:37 PM
; Settings Summary
;   processName,Process1
;   applyToModels,Base_Rasp3_NoSpringSDSlot,Lid
;   profileName,Prusa Research Original Prusa i3 MK2 (modified)
;   profileVersion,2016-11-25 08:00:00
;   baseProfile,
;   printMaterial,PLA
;   printQuality,Medium
;   printExtruders,
;   extruderName,Primary Extruder
;   extruderToolheadNumber,0
;   extruderDiameter,0.4
;   extruderAutoWidth,1
;   extruderWidth,0.48
;   extrusionMultiplier,1
;   extruderUseRetract,1
;   extruderRetractionDistance,1.5
;   extruderExtraRestartDistance,0
;   extruderRetractionZLift,0
;   extruderRetractionSpeed,1800
;   extruderUseCoasting,1
;   extruderCoastingDistance,0.2
;   extruderUseWipe,1
;   extruderWipeDistance,2
;   primaryExtruder,0
;   layerHeight,0.2
;   topSolidLayers,3
;   bottomSolidLayers,3
;   perimeterOutlines,2
;   printPerimetersInsideOut,1
;   startPointOption,2
;   startPointOriginX,0
;   startPointOriginY,0
;   startPointOriginZ,0
;   sequentialIslands,0
;   spiralVaseMode,0
;   firstLayerHeightPercentage,150
;   firstLayerWidthPercentage,100
;   firstLayerUnderspeed,0.5
;   useRaft,0
;   raftExtruder,0
;   raftLayers,3
;   raftOffset,3
;   raftSeparationDistance,0.14
;   raftInfill,85
;   disableRaftBaseLayers,0
;   useSkirt,1
;   skirtExtruder,0
;   skirtLayers,1
;   skirtOutlines,2
;   skirtOffset,4
;   usePrimePillar,0
;   primePillarExtruder,999
;   primePillarWidth,12
;   primePillarLocation,7
;   primePillarSpeedMultiplier,1
;   useOozeShield,0
;   oozeShieldExtruder,999
;   oozeShieldOffset,2
;   oozeShieldOutlines,1
;   oozeShieldSidewallShape,1
;   oozeShieldSidewallAngle,30
;   oozeShieldSpeedMultiplier,1
;   infillExtruder,0
;   internalInfillPattern,Rectilinear
;   externalInfillPattern,Rectilinear
;   infillPercentage,20
;   outlineOverlapPercentage,20
;   infillExtrusionWidthPercentage,100
;   minInfillLength,5
;   infillLayerInterval,1
;   infillAngles,45,-45
;   overlapInfillAngles,0
;   generateSupport,0
;   supportExtruder,0
;   supportInfillPercentage,30
;   supportExtraInflation,0
;   denseSupportLayers,0
;   denseSupportInfillPercentage,70
;   supportLayerInterval,1
;   supportHorizontalPartOffset,0.3
;   supportUpperSeparationLayers,1
;   supportLowerSeparationLayers,1
;   supportType,0
;   supportGridSpacing,4
;   maxOverhangAngle,45
;   supportAngles,0
;   temperatureName,Primary Extruder,Heated Bed
;   temperatureNumber,0,0
;   temperatureSetpointCount,1,1
;   temperatureSetpointLayers,1,1
;   temperatureSetpointTemperatures,200,60
;   temperatureStabilizeAtStartup,1,1
;   temperatureHeatedBed,0,1
;   temperatureRelayBetweenLayers,0,0
;   temperatureRelayBetweenLoops,0,0
;   fanLayers,1,2
;   fanSpeeds,0,100
;   blipFanToFullPower,0
;   adjustSpeedForCooling,1
;   minSpeedLayerTime,15
;   minCoolingSpeedSlowdown,20
;   increaseFanForCooling,0
;   minFanLayerTime,45
;   maxCoolingFanSpeed,100
;   increaseFanForBridging,0
;   bridgingFanSpeed,100
;   use5D,1
;   relativeEdistances,0
;   allowEaxisZeroing,1
;   independentExtruderAxes,0
;   includeM10123,0
;   stickySupport,1
;   applyToolheadOffsets,0
;   gcodeXoffset,0
;   gcodeYoffset,0
;   gcodeZoffset,0
;   overrideMachineDefinition,1
;   machineTypeOverride,0
;   strokeXoverride,250
;   strokeYoverride,210
;   strokeZoverride,200
;   originOffsetXoverride,0
;   originOffsetYoverride,0
;   originOffsetZoverride,0
;   homeXdirOverride,-1
;   homeYdirOverride,-1
;   homeZdirOverride,-1
;   flipXoverride,1
;   flipYoverride,-1
;   flipZoverride,1
;   toolheadOffsets,0,0|0,0|0,0|0,0|0,0|0,0
;   overrideFirmwareConfiguration,1
;   firmwareTypeOverride,RepRap (Marlin/Repetier/Sprinter)
;   GPXconfigOverride,r2
;   baudRateOverride,250000
;   overridePrinterModels,1
;   printerModelsOverride
;   startingGcode,M115 U3.0.7 ; use the latest firmware version,G28 W ; home all axes without mesh bed leveling,G80 ; run mesh bed leveling routine,G1 Y-3.0 F1000.0 ; prepare to prime,G92 E0 ; reset extrusion distance,G1 X60.0 E9.0  F1000.0 ; priming,G1 X100.0 E12.5  F1000.0 ; priming
;   layerChangeGcode,
;   retractionGcode,
;   toolChangeGcode,
;   endingGcode,M106 S0 ; turn off cooling fan,M104 S0 ; turn off extruder,M140 S0 ; turn off bed,G1 X0 Y200 ; part removal,M84 ; disable motors
;   exportFileFormat,gcode
;   celebration,0
;   celebrationSong,Random Song
;   postProcessing,
;   defaultSpeed,2400
;   outlineUnderspeed,0.8
;   solidInfillUnderspeed,0.8
;   supportUnderspeed,0.8
;   rapidXYspeed,4800
;   rapidZspeed,1000
;   minBridgingArea,50
;   bridgingExtraInflation,0
;   bridgingExtrusionMultiplier,1
;   bridgingSpeedMultiplier,1
;   filamentDiameter,1.75
;   filamentPricePerKg,46
;   filamentDensity,1.25
;   useMinPrintHeight,0
;   minPrintHeight,0
;   useMaxPrintHeight,0
;   maxPrintHeight,0
;   useDiaphragm,0
;   diaphragmLayerInterval,20
;   robustSlicing,1
;   mergeAllIntoSolid,0
;   onlyRetractWhenCrossingOutline,1
;   retractBetweenLayers,1
;   useRetractionMinTravel,0
;   retractionMinTravel,3
;   retractWhileWiping,1
;   onlyWipeOutlines,1
;   avoidCrossingOutline,0
;   maxMovementDetourFactor,3
;   toolChangeRetractionDistance,12
;   toolChangeExtraRestartDistance,-0.5
;   toolChangeRetractionSpeed,600
;   allowThinWallGapFill,1
;   thinWallAllowedOverlapPercentage,25
;   horizontalSizeCompensation,0
G90
M82
M106 S0
M140 S60
M190 S60
M104 S200 T0
M109 S200 T0
M115 U3.0.7 ; use the latest firmware version
G28 W ; home all axes without mesh bed leveling
G80 ; run mesh bed leveling routine
G1 Y-3.0 F1000.0 ; prepare to prime
G92 E0 ; reset extrusion distance
G1 X60.0 E9.0  F1000.0 ; priming
G1 X100.0 E12.5  F1000.0 ; priming
G92 E0
G1 E-1.5000 F1800
G1 Z0.300 F1000
; layer 1, Z = 0.3
T0
; tool H0.300 W0.480
; skirt
G1 X75.971 Y42.843 F4800
G1 E0.0000 F540
G92 E0
G1 X76.050 Y42.725 E0.0085 F1200
G1 X83.225 Y35.550 E0.6160
G1 X83.343 Y35.471 E0.6245
G1 X84.944 Y34.808 E0.7283
G1 X85.083 Y34.780 E0.7368
G1 X164.917 Y34.780 E5.5162
G1 X165.056 Y34.808 E5.5247
G1 X166.657 Y35.471 E5.6285
G1 X166.775 Y35.550 E5.6370
G1 X173.950 Y42.725 E6.2445
G1 X174.029 Y42.843 E6.2530
G1 X174.692 Y44.444 E6.3567
G1 X174.720 Y44.583 E6.3652
G1 X174.720 Y97.417 E9.5283
G1 X174.692 Y97.556 E9.5368
G1 X174.029 Y99.157 E9.6405
G1 X173.950 Y99.275 E9.6490
G1 X170.445 Y102.780 E9.9458
G1 X171.800 Y102.780 E10.0269
G1 X172.065 Y102.890 E10.0440
G1 X174.610 Y105.435 E10.2596
G1 X174.720 Y105.700 E10.2767
G1 X174.720 Y115.303 E10.8516
G1 X174.610 Y115.568 E10.8688
G1 X172.065 Y118.113 E11.0843
G1 X171.800 Y118.223 E11.1015
G1 X171.555 Y118.223 E11.1161
G1 X170.865 Y118.913 E11.1746
G1 X170.600 Y119.023 E11.1917
G1 X156.720 Y119.023 E12.0227
G1 X156.720 Y122.983 E12.2598
G1 X170.600 Y122.983 E13.0908
G1 X170.865 Y123.093 E13.1079
G1 X171.555 Y123.783 E13.1664
G1 X171.800 Y123.783 E13.1810
G1 X172.065 Y123.893 E13.1982
G1 X174.610 Y126.438 E13.4137
G1 X174.720 Y126.703 E13.4309
G1 X174.720 Y133.316 E13.8268
G1 X174.610 Y133.581 E13.8439
G1 X172.065 Y136.126 E14.0595
G1 X171.800 Y136.236 E14.0766
G1 X171.555 Y136.236 E14.0913
G1 X170.865 Y136.926 E14.1497
G1 X170.600 Y137.036 E14.1669
G1 X156.720 Y137.036 E14.9979
G1 X156.720 Y140.996 E15.2349
G1 X170.600 Y140.996 E16.0659
G1 X170.865 Y141.106 E16.0831
G1 X171.555 Y141.796 E16.1415
G1 X171.800 Y141.796 E16.1562
G1 X172.065 Y141.906 E16.1733
G1 X174.610 Y144.451 E16.3889
G1 X174.720 Y144.716 E16.4060
G1 X174.720 Y172.300 E18.0574
G1 X174.610 Y172.565 E18.0746
G1 X172.065 Y175.110 E18.2901
G1 X171.800 Y175.220 E18.3073
G1 X85.083 Y175.220 E23.4988
G1 X84.944 Y175.192 E23.5073
G1 X83.343 Y174.529 E23.6111
G1 X83.225 Y174.450 E23.6196
G1 X76.050 Y167.275 E24.2271
G1 X75.971 Y167.157 E24.2356
G1 X75.308 Y165.556 E24.3394
G1 X75.280 Y165.417 E24.3478
G1 X75.280 Y112.583 E27.5109
G1 X75.308 Y112.444 E27.5194
G1 X75.971 Y110.843 E27.6231
G1 X76.050 Y110.725 E27.6316
G1 X81.775 Y105.000 E28.1163
G1 X76.050 Y99.275 E28.6011
G1 X75.971 Y99.157 E28.6096
G1 X75.308 Y97.556 E28.7133
G1 X75.280 Y97.417 E28.7218
G1 X75.280 Y74.700 E30.0818
G1 X75.390 Y74.435 E30.0990
G1 X77.935 Y71.890 E30.3145
G1 X78.200 Y71.780 E30.3317
G1 X83.130 Y71.780 E30.6268
G1 X83.130 Y68.220 E30.8399
G1 X78.200 Y68.220 E31.1351
G1 X77.935 Y68.110 E31.1522
G1 X75.390 Y65.565 E31.3678
G1 X75.280 Y65.300 E31.3849
G1 X75.280 Y44.583 E32.6252
G1 X75.308 Y44.444 E32.6337
G1 X75.894 Y43.028 E32.7255
G1 X75.971 Y42.843 F1200
G1 X76.396 Y43.070 F4800
G92 E0
G1 X76.423 Y43.031 E0.0028 F1200
G1 X83.531 Y35.923 E0.6047
G1 X83.570 Y35.896 E0.6075
G1 X85.084 Y35.269 E0.7056
G1 X85.131 Y35.260 E0.7085
G1 X164.869 Y35.260 E5.4823
G1 X164.916 Y35.269 E5.4851
G1 X166.429 Y35.896 E5.5832
G1 X166.469 Y35.923 E5.5860
G1 X173.577 Y43.031 E6.1879
G1 X173.604 Y43.071 E6.1907
G1 X174.231 Y44.584 E6.2888
G1 X174.240 Y44.631 E6.2916
G1 X174.240 Y97.369 E9.4490
G1 X174.231 Y97.416 E9.4518
G1 X173.604 Y98.930 E9.5499
G1 X173.577 Y98.969 E9.5528
G1 X169.286 Y103.260 E9.9161
G1 X171.705 Y103.260 E10.0609
G1 X171.793 Y103.297 E10.0666
G1 X174.203 Y105.707 E10.2707
G1 X174.240 Y105.795 E10.2764
G1 X174.240 Y115.208 E10.8399
G1 X174.203 Y115.296 E10.8456
G1 X171.793 Y117.706 E11.0497
G1 X171.705 Y117.743 E11.0554
G1 X171.356 Y117.743 E11.0763
G1 X170.593 Y118.506 E11.1409
G1 X170.505 Y118.543 E11.1466
G1 X156.240 Y118.543 E12.0006
G1 X156.240 Y123.463 E12.2952
G1 X170.505 Y123.463 E13.1492
G1 X170.593 Y123.500 E13.1549
G1 X171.356 Y124.263 E13.2195
G1 X171.705 Y124.263 E13.2404
G1 X171.793 Y124.300 E13.2461
G1 X174.203 Y126.710 E13.4502
G1 X174.240 Y126.798 E13.4559
G1 X174.240 Y133.221 E13.8404
G1 X174.203 Y133.309 E13.8461
G1 X171.793 Y135.719 E14.0502
G1 X171.705 Y135.756 E14.0559
G1 X171.356 Y135.756 E14.0768
G1 X170.593 Y136.519 E14.1414
G1 X170.505 Y136.556 E14.1472
G1 X156.240 Y136.556 E15.0012
G1 X156.240 Y141.476 E15.2957
G1 X170.505 Y141.476 E16.1497
G1 X170.593 Y141.513 E16.1554
G1 X171.356 Y142.276 E16.2201
G1 X171.705 Y142.276 E16.2409
G1 X171.793 Y142.313 E16.2466
G1 X174.203 Y144.723 E16.4507
G1 X174.240 Y144.811 E16.4564
G1 X174.240 Y172.205 E18.0964
G1 X174.203 Y172.293 E18.1021
G1 X171.793 Y174.703 E18.3062
G1 X171.705 Y174.740 E18.3120
G1 X85.131 Y174.740 E23.4950
G1 X85.084 Y174.731 E23.4978
G1 X83.570 Y174.104 E23.5959
G1 X83.531 Y174.077 E23.5987
G1 X76.423 Y166.969 E24.2006
G1 X76.396 Y166.929 E24.2034
G1 X75.769 Y165.416 E24.3015
G1 X75.760 Y165.369 E24.3044
G1 X75.760 Y112.631 E27.4617
G1 X75.769 Y112.584 E27.4646
G1 X76.396 Y111.070 E27.5627
G1 X76.423 Y111.031 E27.5655
G1 X82.454 Y105.000 E28.0761
G1 X76.423 Y98.969 E28.5868
G1 X76.396 Y98.930 E28.5896
G1 X75.769 Y97.416 E28.6877
G1 X75.760 Y97.369 E28.6905
G1 X75.760 Y74.795 E30.0420
G1 X75.797 Y74.707 E30.0477
G1 X78.207 Y72.297 E30.2518
G1 X78.295 Y72.260 E30.2575
G1 X83.610 Y72.260 E30.5757
G1 X83.610 Y67.740 E30.8463
G1 X78.295 Y67.740 E31.1645
G1 X78.207 Y67.703 E31.1702
G1 X75.797 Y65.293 E31.3743
G1 X75.760 Y65.205 E31.3800
G1 X75.760 Y44.631 E32.6117
G1 X75.769 Y44.584 E32.6146
G1 X76.320 Y43.255 E32.7007
G1 X76.396 Y43.071 F1200
G92 E0
G1 E-1.5000 F1800
; inner perimeter
G1 X80.720 Y45.748 F4800
G1 E0.0000 F1800
G92 E0
G1 X86.248 Y40.220 E0.4681 F1080
G1 X163.752 Y40.220 E5.1081
G1 X169.280 Y45.748 E5.5761
G1 X169.280 Y96.252 E8.5997
G1 X163.752 Y101.780 E9.0677
G1 X147.370 Y101.780 E10.0485
G1 X147.370 Y97.480 E10.3059
G1 X125.630 Y97.480 E11.6074
G1 X125.630 Y101.780 E11.8649
G1 X86.248 Y101.780 E14.2226
G1 X80.720 Y96.252 E14.6907
G1 X80.720 Y77.220 E15.8300
G1 X88.570 Y77.220 E16.3000
G1 X88.570 Y62.780 E17.1645
G1 X80.720 Y62.780 E17.6345
G1 X80.720 Y45.948 E18.6422
G1 X80.720 Y45.748 F1080
; outer perimeter
G1 X80.240 Y45.549 F4800
G92 E0
G1 X86.049 Y39.740 E0.4919 F960
G1 X163.951 Y39.740 E5.1557
G1 X169.760 Y45.549 E5.6475
G1 X169.760 Y96.451 E8.6949
G1 X163.951 Y102.260 E9.1868
G1 X146.890 Y102.260 E10.2081
G1 X146.890 Y97.960 E10.4656
G1 X126.110 Y97.960 E11.7096
G1 X126.110 Y102.260 E11.9671
G1 X86.049 Y102.260 E14.3654
G1 X80.240 Y96.451 E14.8573
G1 X80.240 Y76.740 E16.0373
G1 X88.090 Y76.740 E16.5073
G1 X88.090 Y63.260 E17.3143
G1 X80.240 Y63.260 E17.7843
G1 X80.240 Y45.749 E18.8326
G1 X80.240 Y45.549 F960
G1 X81.654 Y44.135 F2400
; solid layer
G1 X81.717 Y62.396 F4800
G92 E0
G1 X81.104 Y61.783 E0.0519 F960
G1 X81.104 Y61.104 E0.0926
G1 X82.396 Y62.396 E0.2019
G1 X83.075 Y62.396 E0.2426
G1 X81.104 Y60.425 E0.4095
G1 X81.104 Y59.746 E0.4501
G1 X83.754 Y62.396 E0.6744
G1 X84.432 Y62.396 E0.7151
G1 X81.104 Y59.068 E0.9969
G1 X81.104 Y58.389 E1.0375
G1 X85.111 Y62.396 E1.3768
G1 X85.790 Y62.396 E1.4174
G1 X81.104 Y57.710 E1.8142
G1 X81.104 Y57.031 E1.8548
G1 X86.469 Y62.396 E2.3091
G1 X87.148 Y62.396 E2.3497
G1 X81.104 Y56.352 E2.8614
G1 X81.104 Y55.673 E2.9021
G1 X87.827 Y62.396 E3.4712
G1 X88.505 Y62.396 E3.5119
G1 X81.104 Y54.995 E4.1385
G1 X81.104 Y54.316 E4.1792
G1 X125.246 Y98.458 E7.9165
G1 X125.246 Y97.779 E7.9572
G1 X81.104 Y53.637 E11.6945
G1 X81.104 Y52.958 E11.7351
G1 X125.246 Y97.100 E15.4725
G1 X125.246 Y97.096 E15.4727
G1 X125.921 Y97.096 E15.5131
G1 X81.104 Y52.279 E19.3076
G1 X81.104 Y51.600 E19.3482
G1 X126.600 Y97.096 E23.2002
G1 X127.278 Y97.096 E23.2408
G1 X81.104 Y50.922 E27.1502
G1 X81.104 Y50.243 E27.1909
G1 X127.957 Y97.096 E31.1578
G1 X128.636 Y97.096 E31.1984
G1 X81.104 Y49.564 E35.2228
G1 X81.104 Y48.885 E35.2634
G1 X129.315 Y97.096 E39.3453
G1 X129.994 Y97.096 E39.3859
G1 X81.104 Y48.206 E43.5252
G1 X81.104 Y47.528 E43.5659
G1 X130.672 Y97.096 E47.7626
G1 X131.351 Y97.096 E47.8033
G1 X81.104 Y46.849 E52.0575
G1 X81.104 Y46.170 E52.0982
G1 X132.030 Y97.096 E56.4099
G1 X132.709 Y97.096 E56.4506
G1 X81.312 Y45.699 E60.8021
G1 X81.652 Y45.360 E60.8309
G1 X133.388 Y97.096 E65.2112
G1 X134.067 Y97.096 E65.2518
G1 X81.991 Y45.020 E69.6609
G1 X82.330 Y44.681 E69.6896
G1 X134.745 Y97.096 E74.1274
G1 X135.424 Y97.096 E74.1681
G1 X82.670 Y44.342 E78.6346
G1 X83.009 Y44.002 E78.6633
G1 X136.103 Y97.096 E83.1586
G1 X136.782 Y97.096 E83.1993
G1 X83.349 Y43.663 E87.7233
G1 X83.688 Y43.323 E87.7520
G1 X137.461 Y97.096 E92.3047
G1 X138.140 Y97.096 E92.3454
G1 X84.027 Y42.984 E96.9269
G1 X84.367 Y42.644 E96.9556
G1 X138.818 Y97.096 E101.5658
G1 X139.497 Y97.096 E101.6065
G1 X84.706 Y42.305 E106.2454
G1 X85.046 Y41.966 E106.2741
G1 X140.176 Y97.096 E110.9418
G1 X140.855 Y97.096 E110.9825
G1 X85.385 Y41.626 E115.6789
G1 X85.724 Y41.287 E115.7076
G1 X141.534 Y97.096 E120.4328
G1 X142.212 Y97.096 E120.4734
G1 X86.064 Y40.947 E125.2273
G1 X86.403 Y40.608 E125.2561
G1 X142.891 Y97.096 E130.0387
G1 X143.570 Y97.096 E130.0794
G1 X87.078 Y40.604 E134.8623
G1 X87.757 Y40.604 E134.9030
G1 X144.249 Y97.096 E139.6860
G1 X144.928 Y97.096 E139.7266
G1 X88.436 Y40.604 E144.5096
G1 X89.115 Y40.604 E144.5502
G1 X145.607 Y97.096 E149.3332
G1 X146.285 Y97.096 E149.3738
G1 X89.793 Y40.604 E154.1568
G1 X90.472 Y40.604 E154.1974
G1 X146.964 Y97.096 E158.9804
G1 X147.643 Y97.096 E159.0211
G1 X91.151 Y40.604 E163.8040
G1 X91.830 Y40.604 E163.8447
G1 X152.622 Y101.396 E168.9917
G1 X153.301 Y101.396 E169.0324
G1 X92.509 Y40.604 E174.1794
G1 X93.187 Y40.604 E174.2201
G1 X153.979 Y101.396 E179.3671
G1 X154.658 Y101.396 E179.4077
G1 X93.866 Y40.604 E184.5548
G1 X94.545 Y40.604 E184.5954
G1 X155.337 Y101.396 E189.7425
G1 X156.016 Y101.396 E189.7831
G1 X95.224 Y40.604 E194.9302
G1 X95.903 Y40.604 E194.9708
G1 X156.695 Y101.396 E200.1178
G1 X157.374 Y101.396 E200.1585
G1 X96.582 Y40.604 E205.3055
G1 X97.260 Y40.604 E205.3462
G1 X158.052 Y101.396 E210.4932
G1 X158.731 Y101.396 E210.5338
G1 X97.939 Y40.604 E215.6809
G1 X98.618 Y40.604 E215.7215
G1 X159.410 Y101.396 E220.8686
G1 X160.089 Y101.396 E220.9092
G1 X99.297 Y40.604 E226.0563
G1 X99.976 Y40.604 E226.0969
G1 X160.768 Y101.396 E231.2439
G1 X161.447 Y101.396 E231.2846
G1 X100.655 Y40.604 E236.4316
G1 X101.333 Y40.604 E236.4723
G1 X162.125 Y101.396 E241.6193
G1 X162.804 Y101.396 E241.6600
G1 X102.012 Y40.604 E246.8070
G1 X102.691 Y40.604 E246.8476
G1 X163.483 Y101.396 E251.9947
G1 X163.593 Y101.396 E252.0012
G1 X163.877 Y101.111 E252.0253
G1 X103.370 Y40.604 E257.1483
