; G-Code generated by Simplify3D(R) Version 4.0.0
; Feb 2, 2018 at 9:02:14 PM
; Settings Summary
;   processName,Process1
;   applyToModels,crate
;   profileName,Prusa Research Original Prusa i3 MK2 (modified)
;   profileVersion,2017-07-23 22:27:18
;   baseProfile,
;   printMaterial,PLA
;   printQuality,Fast
;   printExtruders,
;   extruderName,Primary Extruder
;   extruderToolheadNumber,0
;   extruderDiameter,0.4
;   extruderAutoWidth,1
;   extruderWidth,0.48
;   extrusionMultiplier,1
;   extruderUseRetract,1
;   extruderRetractionDistance,1.5
;   extruderExtraRestartDistance,0
;   extruderRetractionZLift,0
;   extruderRetractionSpeed,1800
;   extruderUseCoasting,1
;   extruderCoastingDistance,0.2
;   extruderUseWipe,1
;   extruderWipeDistance,2
;   primaryExtruder,0
;   layerHeight,0.35
;   topSolidLayers,3
;   bottomSolidLayers,3
;   perimeterOutlines,2
;   printPerimetersInsideOut,1
;   startPointOption,2
;   startPointOriginX,0
;   startPointOriginY,0
;   sequentialIslands,0
;   spiralVaseMode,0
;   firstLayerHeightPercentage,120
;   firstLayerWidthPercentage,100
;   firstLayerUnderspeed,0.5
;   useRaft,0
;   raftExtruder,0
;   raftTopLayers,3
;   raftBaseLayers,2
;   raftOffset,3
;   raftSeparationDistance,0.14
;   raftTopInfill,100
;   aboveRaftSpeedMultiplier,0.3
;   useSkirt,1
;   skirtExtruder,0
;   skirtLayers,1
;   skirtOutlines,1
;   skirtOffset,4
;   usePrimePillar,0
;   primePillarExtruder,999
;   primePillarWidth,12
;   primePillarLocation,7
;   primePillarSpeedMultiplier,1
;   useOozeShield,0
;   oozeShieldExtruder,999
;   oozeShieldOffset,2
;   oozeShieldOutlines,1
;   oozeShieldSidewallShape,1
;   oozeShieldSidewallAngle,30
;   oozeShieldSpeedMultiplier,1
;   infillExtruder,0
;   internalInfillPattern,Rectilinear
;   externalInfillPattern,Rectilinear
;   infillPercentage,10
;   outlineOverlapPercentage,20
;   infillExtrusionWidthPercentage,100
;   minInfillLength,5
;   infillLayerInterval,1
;   internalInfillAngles,45,-45
;   overlapInternalInfillAngles,0
;   externalInfillAngles,45,-45
;   generateSupport,1
;   supportExtruder,0
;   supportInfillPercentage,25
;   supportExtraInflation,0
;   supportBaseLayers,0
;   denseSupportExtruder,0
;   denseSupportLayers,0
;   denseSupportInfillPercentage,70
;   supportLayerInterval,1
;   supportHorizontalPartOffset,0.3
;   supportUpperSeparationLayers,1
;   supportLowerSeparationLayers,1
;   supportType,0
;   supportGridSpacing,4
;   maxOverhangAngle,45
;   supportAngles,0
;   temperatureName,Primary Extruder,Heated Bed
;   temperatureNumber,0,0
;   temperatureSetpointCount,1,1
;   temperatureSetpointLayers,1,1
;   temperatureSetpointTemperatures,210,60
;   temperatureStabilizeAtStartup,1,1
;   temperatureHeatedBed,0,1
;   temperatureRelayBetweenLayers,0,0
;   temperatureRelayBetweenLoops,0,0
;   fanLayers,1,2
;   fanSpeeds,0,100
;   blipFanToFullPower,0
;   adjustSpeedForCooling,1
;   minSpeedLayerTime,15
;   minCoolingSpeedSlowdown,20
;   increaseFanForCooling,0
;   minFanLayerTime,45
;   maxCoolingFanSpeed,100
;   increaseFanForBridging,0
;   bridgingFanSpeed,100
;   use5D,1
;   relativeEdistances,0
;   allowEaxisZeroing,1
;   independentExtruderAxes,0
;   includeM10123,0
;   stickySupport,1
;   applyToolheadOffsets,0
;   gcodeXoffset,0
;   gcodeYoffset,0
;   gcodeZoffset,0
;   overrideMachineDefinition,1
;   machineTypeOverride,0
;   strokeXoverride,250
;   strokeYoverride,210
;   strokeZoverride,200
;   originOffsetXoverride,0
;   originOffsetYoverride,0
;   originOffsetZoverride,0
;   homeXdirOverride,-1
;   homeYdirOverride,-1
;   homeZdirOverride,-1
;   flipXoverride,1
;   flipYoverride,-1
;   flipZoverride,1
;   toolheadOffsets,0,0|0,0|0,0|0,0|0,0|0,0
;   overrideFirmwareConfiguration,1
;   firmwareTypeOverride,RepRap (Marlin/Repetier/Sprinter)
;   GPXconfigOverride,r2
;   baudRateOverride,250000
;   overridePrinterModels,1
;   printerModelsOverride
;   startingGcode,M115 U3.0.7 ; use the latest firmware version,G28 W ; home all axes without mesh bed leveling,G80 ; run mesh bed leveling routine,G1 Y-3.0 F1000.0 ; prepare to prime,G92 E0 ; reset extrusion distance,G1 X60.0 E9.0  F1000.0 ; priming,G1 X100.0 E12.5  F1000.0 ; priming
;   layerChangeGcode,
;   retractionGcode,
;   toolChangeGcode,
;   endingGcode,M106 S0 ; turn off cooling fan,M104 S0 ; turn off extruder,M140 S0 ; turn off bed,G1 X0 Y200 ; part removal,M84 ; disable motors
;   exportFileFormat,gcode
;   celebration,0
;   celebrationSong,Random Song
;   postProcessing,
;   defaultSpeed,2400
;   outlineUnderspeed,0.8
;   solidInfillUnderspeed,0.8
;   supportUnderspeed,0.8
;   rapidXYspeed,4800
;   rapidZspeed,1002
;   minBridgingArea,50
;   bridgingExtraInflation,0
;   bridgingExtrusionMultiplier,1
;   bridgingSpeedMultiplier,1
;   useFixedBridgingAngle,0
;   fixedBridgingAngle,0
;   applyBridgingToPerimeters,0
;   filamentDiameters,1.75|1.75|1.75|1.75|1.75|1.75
;   filamentPricesPerKg,199|46|46|46|46|46
;   filamentDensities,1.25|1.25|1.25|1.25|1.25|1.25
;   useMinPrintHeight,0
;   minPrintHeight,0
;   useMaxPrintHeight,1
;   maxPrintHeight,235
;   useDiaphragm,0
;   diaphragmLayerInterval,20
;   robustSlicing,1
;   mergeAllIntoSolid,0
;   onlyRetractWhenCrossingOutline,1
;   retractBetweenLayers,1
;   useRetractionMinTravel,0
;   retractionMinTravel,3
;   retractWhileWiping,1
;   onlyWipeOutlines,1
;   avoidCrossingOutline,0
;   maxMovementDetourFactor,3
;   toolChangeRetractionDistance,12
;   toolChangeExtraRestartDistance,-0.5
;   toolChangeRetractionSpeed,600
;   externalThinWallType,0
;   internalThinWallType,2
;   thinWallAllowedOverlapPercentage,25
;   singleExtrusionMinLength,1
;   singleExtrusionMinPrintingWidthPercentage,50
;   singleExtrusionMaxPrintingWidthPercentage,200
;   singleExtrusionEndpointExtension,0.2
;   horizontalSizeCompensation,0
G90
M82
M106 S0
M140 S60
M190 S60
M104 S210 T0
M109 S210 T0
M115 U3.0.7 ; use the latest firmware version
G28 W ; home all axes without mesh bed leveling
G80 ; run mesh bed leveling routine
G1 Y-3.0 F1000.0 ; prepare to prime
G92 E0 ; reset extrusion distance
G1 X60.0 E9.0  F1000.0 ; priming
G1 X100.0 E12.5  F1000.0 ; priming
G92 E0
G1 E-1.5000 F1800
G1 Z0.420 F1002
; process Process1
; layer 1, Z = 0.420
T0
; tool H0.420 W0.480
; skirt
G1 X71.442 Y78.032 F4800
G1 E0.0000 F540
G92 E0
G1 X72.693 Y78.032 E0.1049 F1200
G1 X72.915 Y77.811 E0.1312
G1 X73.003 Y77.774 E0.1392
G1 X75.230 Y77.774 E0.3258
G1 X75.937 Y77.067 E0.4096
G1 X76.025 Y77.031 E0.4176
G1 X83.914 Y77.031 E1.0788
G1 X84.002 Y77.067 E1.0869
G1 X84.200 Y77.265 E1.1102
G1 X90.991 Y77.265 E1.6795
G1 X91.080 Y77.301 E1.6875
G1 X91.311 Y77.532 E1.7149
G1 X94.191 Y77.532 E1.9563
G1 X94.279 Y77.569 E1.9643
G1 X94.304 Y77.594 E1.9672
G1 X97.732 Y77.594 E2.2546
G1 X97.820 Y77.630 E2.2626
G1 X97.848 Y77.658 E2.2659
G1 X104.053 Y77.686 E2.7859
G1 X104.504 Y77.235 E2.8394
G1 X104.592 Y77.199 E2.8474
G1 X112.481 Y77.199 E3.5086
G1 X112.570 Y77.235 E3.5166
G1 X112.673 Y77.339 E3.5289
G1 X115.355 Y77.339 E3.7537
G1 X115.443 Y77.376 E3.7617
G1 X115.653 Y77.586 E3.7865
G1 X116.058 Y77.587 E3.8205
G1 X116.294 Y77.350 E3.8485
G1 X116.382 Y77.314 E3.8565
G1 X119.551 Y77.314 E4.1220
G1 X119.681 Y77.184 E4.1375
G1 X119.769 Y77.147 E4.1455
G1 X127.658 Y77.147 E4.8067
G1 X127.746 Y77.184 E4.8147
G1 X127.939 Y77.376 E4.8375
G1 X131.081 Y77.376 E5.1009
G1 X131.170 Y77.412 E5.1089
G1 X131.336 Y77.578 E5.1286
G1 X134.642 Y77.578 E5.4057
G1 X134.710 Y77.550 E5.4119
G1 X142.599 Y77.550 E6.0731
G1 X142.687 Y77.587 E6.0811
G1 X143.122 Y78.022 E6.1326
G1 X143.717 Y78.022 E6.1825
G1 X144.100 Y77.639 E6.2279
G1 X144.188 Y77.603 E6.2359
G1 X146.882 Y77.603 E6.4617
G1 X147.227 Y77.258 E6.5026
G1 X147.315 Y77.221 E6.5106
G1 X155.205 Y77.221 E7.1718
G1 X155.293 Y77.258 E7.1798
G1 X155.580 Y77.546 E7.2139
G1 X162.677 Y77.546 E7.8088
G1 X162.755 Y77.578 E7.8158
G1 X165.116 Y77.578 E8.0137
G1 X165.204 Y77.614 E8.0217
G1 X165.231 Y77.641 E8.0249
G1 X169.257 Y77.641 E8.3624
G1 X169.347 Y77.552 E8.3729
G1 X169.435 Y77.516 E8.3809
G1 X177.324 Y77.516 E9.0422
G1 X177.412 Y77.552 E9.0502
G1 X178.272 Y78.412 E9.1521
G1 X179.263 Y78.412 E9.2351
G1 X179.351 Y78.449 E9.2431
G1 X181.762 Y80.859 E9.5289
G1 X181.798 Y80.947 E9.5369
G1 X181.798 Y88.837 E10.1981
G1 X181.762 Y88.925 E10.2061
G1 X181.721 Y88.965 E10.2109
G1 X181.726 Y90.642 E10.3514
G1 X181.780 Y90.695 E10.3578
G1 X181.817 Y90.784 E10.3658
G1 X181.817 Y93.046 E10.5555
G1 X182.160 Y93.389 E10.5961
G1 X182.196 Y93.477 E10.6041
G1 X182.196 Y101.367 E11.2653
G1 X182.160 Y101.455 E11.2733
G1 X182.113 Y101.502 E11.2789
G1 X182.113 Y104.365 E11.5189
G1 X182.076 Y104.453 E11.5269
G1 X181.868 Y104.661 E11.5515
G1 X181.868 Y105.390 E11.6126
G1 X182.343 Y105.865 E11.6688
G1 X182.379 Y105.953 E11.6768
G1 X182.379 Y113.842 E12.3381
G1 X182.343 Y113.930 E12.3461
G1 X182.269 Y114.003 E12.3548
G1 X182.269 Y115.591 E12.4879
G1 X182.233 Y115.680 E12.4959
G1 X182.036 Y115.876 E12.5192
G1 X182.036 Y118.923 E12.7745
G1 X182.000 Y119.011 E12.7825
G1 X181.947 Y119.064 E12.7888
G1 X182.054 Y119.170 E12.8014
G1 X182.090 Y119.259 E12.8094
G1 X182.090 Y127.148 E13.4707
G1 X182.054 Y127.236 E13.4787
G1 X181.574 Y127.716 E13.5355
G1 X181.574 Y128.672 E13.6156
G1 X181.537 Y128.760 E13.6236
G1 X179.127 Y131.170 E13.9094
G1 X179.039 Y131.207 E13.9174
G1 X178.000 Y131.207 E14.0044
G1 X177.144 Y132.063 E14.1059
G1 X177.056 Y132.100 E14.1139
G1 X174.180 Y132.100 E14.3549
G1 X174.114 Y132.166 E14.3627
G1 X174.026 Y132.202 E14.3707
G1 X170.956 Y132.202 E14.6281
G1 X170.912 Y132.247 E14.6333
G1 X170.823 Y132.283 E14.6413
G1 X168.213 Y132.283 E14.8601
G1 X168.149 Y132.347 E14.8677
G1 X168.061 Y132.383 E14.8757
G1 X160.172 Y132.383 E15.5369
G1 X160.084 Y132.347 E15.5449
G1 X159.871 Y132.134 E15.5702
G1 X158.798 Y132.134 E15.6600
G1 X158.668 Y132.264 E15.6755
G1 X158.580 Y132.300 E15.6835
G1 X150.691 Y132.300 E16.3447
G1 X150.603 Y132.264 E16.3527
G1 X150.502 Y132.163 E16.3647
G1 X146.112 Y132.145 E16.7326
G1 X146.101 Y132.156 E16.7339
G1 X146.013 Y132.193 E16.7419
G1 X138.124 Y132.193 E17.4031
G1 X138.036 Y132.156 E17.4111
G1 X137.945 Y132.066 E17.4218
G1 X137.654 Y132.065 E17.4462
G1 X137.497 Y132.222 E17.4648
G1 X137.409 Y132.258 E17.4728
G1 X129.520 Y132.258 E18.1341
G1 X129.431 Y132.222 E18.1421
G1 X129.344 Y132.134 E18.1525
G1 X129.140 Y132.133 E18.1696
G1 X128.761 Y132.510 E18.2144
G1 X128.673 Y132.547 E18.2224
G1 X117.477 Y132.498 E19.1607
G1 X117.389 Y132.461 E19.1687
G1 X117.127 Y132.197 E19.1999
G1 X114.925 Y132.197 E19.3845
G1 X114.895 Y132.227 E19.3880
G1 X114.806 Y132.264 E19.3960
G1 X106.917 Y132.264 E20.0573
G1 X106.829 Y132.227 E20.0653
G1 X106.726 Y132.124 E20.0775
G1 X103.726 Y132.124 E20.3289
G1 X103.638 Y132.088 E20.3369
G1 X103.549 Y131.999 E20.3474
G1 X101.631 Y131.999 E20.5082
G1 X101.588 Y132.017 E20.5121
G1 X93.699 Y132.017 E21.1733
G1 X93.611 Y131.981 E21.1813
G1 X93.479 Y131.848 E21.1970
G1 X87.313 Y131.848 E21.7138
G1 X87.224 Y131.812 E21.7218
G1 X87.007 Y131.594 E21.7476
G1 X83.403 Y131.577 E22.0497
G1 X82.936 Y132.044 E22.1050
G1 X82.848 Y132.081 E22.1130
G1 X74.959 Y132.081 E22.7742
G1 X74.870 Y132.044 E22.7822
G1 X74.567 Y131.740 E22.8183
G1 X72.217 Y131.740 E23.0152
G1 X72.128 Y131.704 E23.0232
G1 X69.718 Y129.293 E23.3090
G1 X69.681 Y129.205 E23.3170
G1 X69.681 Y128.854 E23.3464
G1 X67.716 Y126.888 E23.5794
G1 X67.679 Y126.800 E23.5874
G1 X67.679 Y123.766 E23.8417
G1 X67.577 Y123.663 E23.8539
G1 X67.541 Y123.575 E23.8619
G1 X67.541 Y120.507 E24.1190
G1 X67.488 Y120.455 E24.1252
G1 X67.451 Y120.366 E24.1332
G1 X67.451 Y116.827 E24.4299
G1 X67.311 Y116.687 E24.4465
G1 X67.274 Y116.599 E24.4545
G1 X67.274 Y108.710 E25.1157
G1 X67.311 Y108.621 E25.1237
G1 X67.519 Y108.413 E25.1484
G1 X67.519 Y107.901 E25.1913
G1 X67.516 Y107.896 E25.1918
G1 X67.516 Y100.006 E25.8531
G1 X67.553 Y99.918 E25.8611
G1 X67.789 Y99.682 E25.8891
G1 X67.789 Y96.249 E26.1768
G1 X67.826 Y96.161 E26.1848
G1 X67.920 Y96.067 E26.1959
G1 X67.920 Y94.039 E26.3659
G1 X67.825 Y93.944 E26.3771
G1 X67.788 Y93.856 E26.3851
G1 X67.788 Y85.967 E27.0464
G1 X67.825 Y85.879 E27.0544
G1 X67.913 Y85.791 E27.0647
G1 X67.913 Y83.080 E27.2920
G1 X67.949 Y82.992 E27.3000
G1 X68.906 Y82.035 E27.4134
G1 X68.906 Y80.568 E27.5364
G1 X68.943 Y80.480 E27.5444
G1 X71.280 Y78.143 E27.8214
G1 X71.354 Y78.069 F1200
G1 X71.442 Y78.032 F1200
G92 E0
G1 E-1.5000 F1800
; inner perimeter
G1 X76.249 Y85.966 F4800
G1 E0.0000 F1800
G92 E0
G1 X76.420 Y85.861 E0.0168 F1080
G1 X76.605 Y85.785 E0.0336
G1 X76.800 Y85.738 E0.0504
G1 X77.028 Y85.720 E0.0696
G1 X172.972 Y85.720 E8.1111
G1 X173.200 Y85.738 E8.1303
G1 X173.395 Y85.785 E8.1471
G1 X173.580 Y85.862 E8.1640
G1 X173.751 Y85.966 E8.1808
G1 X173.903 Y86.096 E8.1976
G1 X174.034 Y86.249 E8.2144
G1 X174.138 Y86.420 E8.2312
G1 X174.215 Y86.605 E8.2480
G1 X174.262 Y86.800 E8.2648
G1 X174.280 Y87.028 E8.2840
G1 X174.280 Y122.972 E11.2966
G1 X174.262 Y123.200 E11.3158
G1 X174.215 Y123.395 E11.3326
G1 X174.138 Y123.580 E11.3494
G1 X174.034 Y123.751 E11.3662
G1 X173.904 Y123.903 E11.3830
G1 X173.751 Y124.034 E11.3998
G1 X173.580 Y124.138 E11.4166
G1 X173.395 Y124.215 E11.4334
G1 X173.200 Y124.262 E11.4502
G1 X172.972 Y124.280 E11.4694
G1 X77.028 Y124.280 E19.5109
G1 X76.800 Y124.262 E19.5301
G1 X76.605 Y124.215 E19.5469
G1 X76.420 Y124.138 E19.5637
G1 X76.249 Y124.034 E19.5805
G1 X76.096 Y123.903 E19.5974
G1 X75.966 Y123.751 E19.6141
G1 X75.862 Y123.580 E19.6310
G1 X75.785 Y123.395 E19.6478
G1 X75.738 Y123.200 E19.6646
G1 X75.720 Y122.972 E19.6838
G1 X75.720 Y87.028 E22.6964
G1 X75.738 Y86.800 E22.7156
G1 X75.785 Y86.605 E22.7324
G1 X75.861 Y86.420 E22.7492
G1 X75.966 Y86.249 E22.7660
G1 X76.096 Y86.096 E22.7828
G1 X76.097 Y86.096 E22.7828
G1 X76.249 Y85.966 F1080
; outer perimeter
G1 X75.966 Y85.577 F4800
G92 E0
G1 X76.201 Y85.432 E0.0231 F960
G1 X76.456 Y85.327 E0.0463
G1 X76.725 Y85.262 E0.0694
G1 X77.009 Y85.240 E0.0933
G1 X172.991 Y85.240 E8.1381
G1 X173.275 Y85.262 E8.1620
G1 X173.544 Y85.327 E8.1851
G1 X173.799 Y85.433 E8.2083
G1 X174.034 Y85.577 E8.2314
G1 X174.244 Y85.756 E8.2545
G1 X174.423 Y85.966 E8.2777
G1 X174.567 Y86.201 E8.3008
G1 X174.673 Y86.456 E8.3240
G1 X174.738 Y86.725 E8.3471
G1 X174.760 Y87.009 E8.3710
G1 X174.760 Y122.991 E11.3868
G1 X174.738 Y123.275 E11.4107
G1 X174.673 Y123.544 E11.4339
G1 X174.567 Y123.799 E11.4570
G1 X174.423 Y124.034 E11.4802
G1 X174.244 Y124.244 E11.5033
G1 X174.034 Y124.423 E11.5264
G1 X173.799 Y124.567 E11.5496
G1 X173.544 Y124.673 E11.5727
G1 X173.275 Y124.738 E11.5958
G1 X172.991 Y124.760 E11.6198
G1 X77.009 Y124.760 E19.6645
G1 X76.725 Y124.738 E19.6884
G1 X76.456 Y124.673 E19.7115
G1 X76.201 Y124.567 E19.7347
G1 X75.966 Y124.423 E19.7578
G1 X75.756 Y124.244 E19.7810
G1 X75.577 Y124.034 E19.8041
G1 X75.433 Y123.799 E19.8272
G1 X75.327 Y123.544 E19.8504
G1 X75.262 Y123.275 E19.8735
G1 X75.240 Y122.991 E19.8974
G1 X75.240 Y87.009 E22.9132
G1 X75.262 Y86.725 E22.9372
G1 X75.327 Y86.456 E22.9603
G1 X75.432 Y86.201 E22.9834
G1 X75.577 Y85.966 E23.0066
G1 X75.756 Y85.756 E23.0297
G1 X75.814 Y85.707 E23.0361
G1 X75.966 Y85.577 F960
G1 X76.201 Y85.432 F2400
G1 X76.456 Y85.327 F2400
G1 X76.725 Y85.262 F2400
G1 X77.009 Y85.240 F2400
G1 X77.896 Y85.240 F2400
; solid layer
G1 X76.587 Y123.791 F4800
G92 E0
G1 X76.209 Y123.413 E0.0448 F960
G1 X76.205 Y123.405 E0.0455
G1 X76.151 Y123.276 E0.0573
G1 X76.118 Y123.140 E0.0690
G1 X76.104 Y122.957 E0.0844
G1 X76.104 Y122.629 E0.1119
G1 X77.371 Y123.896 E0.2621
G1 X78.050 Y123.896 E0.3190
G1 X76.104 Y121.950 E0.5497
G1 X76.104 Y121.271 E0.6066
G1 X78.729 Y123.896 E0.9178
G1 X79.408 Y123.896 E0.9747
G1 X76.104 Y120.592 E1.3663
G1 X76.104 Y119.913 E1.4232
G1 X80.087 Y123.896 E1.8953
G1 X80.766 Y123.896 E1.9522
G1 X76.104 Y119.234 E2.5047
G1 X76.104 Y118.556 E2.5616
G1 X81.444 Y123.896 E3.1946
G1 X82.123 Y123.896 E3.2515
G1 X76.104 Y117.877 E3.9650
G1 X76.104 Y117.198 E4.0219
G1 X82.802 Y123.896 E4.8158
G1 X83.481 Y123.896 E4.8727
G1 X76.104 Y116.519 E5.7471
G1 X76.104 Y115.840 E5.8040
G1 X84.160 Y123.896 E6.7588
G1 X84.838 Y123.896 E6.8157
G1 X76.104 Y115.162 E7.8511
G1 X76.104 Y114.483 E7.9080
