; G-Code generated by Simplify3D(R) Version 4.0.0
; Feb 2, 2018 at 11:02:25 PM
; Settings Summary
;   processName,Process1
;   applyToModels,crate,crate(2)
;   profileName,Prusa Research Original Prusa i3 MK2 (modified)
;   profileVersion,2017-07-23 22:27:18
;   baseProfile,
;   printMaterial,PLA
;   printQuality,Fast
;   printExtruders,
;   extruderName,Primary Extruder
;   extruderToolheadNumber,0
;   extruderDiameter,0.4
;   extruderAutoWidth,1
;   extruderWidth,0.48
;   extrusionMultiplier,1
;   extruderUseRetract,1
;   extruderRetractionDistance,1.5
;   extruderExtraRestartDistance,0
;   extruderRetractionZLift,0
;   extruderRetractionSpeed,1800
;   extruderUseCoasting,1
;   extruderCoastingDistance,0.2
;   extruderUseWipe,1
;   extruderWipeDistance,2
;   primaryExtruder,0
;   layerHeight,0.35
;   topSolidLayers,3
;   bottomSolidLayers,3
;   perimeterOutlines,2
;   printPerimetersInsideOut,1
;   startPointOption,2
;   startPointOriginX,0
;   startPointOriginY,0
;   sequentialIslands,0
;   spiralVaseMode,0
;   firstLayerHeightPercentage,120
;   firstLayerWidthPercentage,100
;   firstLayerUnderspeed,0.5
;   useRaft,0
;   raftExtruder,0
;   raftTopLayers,3
;   raftBaseLayers,2
;   raftOffset,3
;   raftSeparationDistance,0.14
;   raftTopInfill,100
;   aboveRaftSpeedMultiplier,0.3
;   useSkirt,1
;   skirtExtruder,0
;   skirtLayers,1
;   skirtOutlines,1
;   skirtOffset,4
;   usePrimePillar,0
;   primePillarExtruder,999
;   primePillarWidth,12
;   primePillarLocation,7
;   primePillarSpeedMultiplier,1
;   useOozeShield,0
;   oozeShieldExtruder,999
;   oozeShieldOffset,2
;   oozeShieldOutlines,1
;   oozeShieldSidewallShape,1
;   oozeShieldSidewallAngle,30
;   oozeShieldSpeedMultiplier,1
;   infillExtruder,0
;   internalInfillPattern,Rectilinear
;   externalInfillPattern,Rectilinear
;   infillPercentage,10
;   outlineOverlapPercentage,20
;   infillExtrusionWidthPercentage,100
;   minInfillLength,5
;   infillLayerInterval,1
;   internalInfillAngles,45,-45
;   overlapInternalInfillAngles,0
;   externalInfillAngles,45,-45
;   generateSupport,1
;   supportExtruder,0
;   supportInfillPercentage,25
;   supportExtraInflation,0
;   supportBaseLayers,0
;   denseSupportExtruder,0
;   denseSupportLayers,0
;   denseSupportInfillPercentage,70
;   supportLayerInterval,1
;   supportHorizontalPartOffset,0.3
;   supportUpperSeparationLayers,1
;   supportLowerSeparationLayers,1
;   supportType,0
;   supportGridSpacing,4
;   maxOverhangAngle,45
;   supportAngles,0
;   temperatureName,Primary Extruder,Heated Bed
;   temperatureNumber,0,0
;   temperatureSetpointCount,1,1
;   temperatureSetpointLayers,1,1
;   temperatureSetpointTemperatures,210,60
;   temperatureStabilizeAtStartup,1,1
;   temperatureHeatedBed,0,1
;   temperatureRelayBetweenLayers,0,0
;   temperatureRelayBetweenLoops,0,0
;   fanLayers,1,2
;   fanSpeeds,0,100
;   blipFanToFullPower,0
;   adjustSpeedForCooling,1
;   minSpeedLayerTime,15
;   minCoolingSpeedSlowdown,20
;   increaseFanForCooling,0
;   minFanLayerTime,45
;   maxCoolingFanSpeed,100
;   increaseFanForBridging,0
;   bridgingFanSpeed,100
;   use5D,1
;   relativeEdistances,0
;   allowEaxisZeroing,1
;   independentExtruderAxes,0
;   includeM10123,0
;   stickySupport,1
;   applyToolheadOffsets,0
;   gcodeXoffset,0
;   gcodeYoffset,0
;   gcodeZoffset,0
;   overrideMachineDefinition,1
;   machineTypeOverride,0
;   strokeXoverride,250
;   strokeYoverride,210
;   strokeZoverride,200
;   originOffsetXoverride,0
;   originOffsetYoverride,0
;   originOffsetZoverride,0
;   homeXdirOverride,-1
;   homeYdirOverride,-1
;   homeZdirOverride,-1
;   flipXoverride,1
;   flipYoverride,-1
;   flipZoverride,1
;   toolheadOffsets,0,0|0,0|0,0|0,0|0,0|0,0
;   overrideFirmwareConfiguration,1
;   firmwareTypeOverride,RepRap (Marlin/Repetier/Sprinter)
;   GPXconfigOverride,r2
;   baudRateOverride,250000
;   overridePrinterModels,1
;   printerModelsOverride
;   startingGcode,M115 U3.0.7 ; use the latest firmware version,G28 W ; home all axes without mesh bed leveling,G80 ; run mesh bed leveling routine,G1 Y-3.0 F1000.0 ; prepare to prime,G92 E0 ; reset extrusion distance,G1 X60.0 E9.0  F1000.0 ; priming,G1 X100.0 E12.5  F1000.0 ; priming
;   layerChangeGcode,
;   retractionGcode,
;   toolChangeGcode,
;   endingGcode,M106 S0 ; turn off cooling fan,M104 S0 ; turn off extruder,M140 S0 ; turn off bed,G1 X0 Y200 ; part removal,M84 ; disable motors
;   exportFileFormat,gcode
;   celebration,0
;   celebrationSong,Random Song
;   postProcessing,
;   defaultSpeed,2400
;   outlineUnderspeed,0.8
;   solidInfillUnderspeed,0.8
;   supportUnderspeed,0.8
;   rapidXYspeed,4800
;   rapidZspeed,1002
;   minBridgingArea,50
;   bridgingExtraInflation,0
;   bridgingExtrusionMultiplier,1
;   bridgingSpeedMultiplier,1
;   useFixedBridgingAngle,0
;   fixedBridgingAngle,0
;   applyBridgingToPerimeters,0
;   filamentDiameters,1.75|1.75|1.75|1.75|1.75|1.75
;   filamentPricesPerKg,199|46|46|46|46|46
;   filamentDensities,1.25|1.25|1.25|1.25|1.25|1.25
;   useMinPrintHeight,0
;   minPrintHeight,0
;   useMaxPrintHeight,1
;   maxPrintHeight,235
;   useDiaphragm,0
;   diaphragmLayerInterval,20
;   robustSlicing,1
;   mergeAllIntoSolid,0
;   onlyRetractWhenCrossingOutline,1
;   retractBetweenLayers,1
;   useRetractionMinTravel,0
;   retractionMinTravel,3
;   retractWhileWiping,1
;   onlyWipeOutlines,1
;   avoidCrossingOutline,0
;   maxMovementDetourFactor,3
;   toolChangeRetractionDistance,12
;   toolChangeExtraRestartDistance,-0.5
;   toolChangeRetractionSpeed,600
;   externalThinWallType,0
;   internalThinWallType,2
;   thinWallAllowedOverlapPercentage,25
;   singleExtrusionMinLength,1
;   singleExtrusionMinPrintingWidthPercentage,50
;   singleExtrusionMaxPrintingWidthPercentage,200
;   singleExtrusionEndpointExtension,0.2
;   horizontalSizeCompensation,0
G90
M82
M106 S0
M140 S60
M190 S60
M104 S210 T0
M109 S210 T0
M115 U3.0.7 ; use the latest firmware version
G28 W ; home all axes without mesh bed leveling
G80 ; run mesh bed leveling routine
G1 Y-3.0 F1000.0 ; prepare to prime
G92 E0 ; reset extrusion distance
G1 X60.0 E9.0  F1000.0 ; priming
G1 X100.0 E12.5  F1000.0 ; priming
G92 E0
G1 E-1.5000 F1800
G1 Z0.420 F1002
; process Process1
; layer 1, Z = 0.420
T0
; tool H0.420 W0.480
; skirt
G1 X68.906 Y56.568 F4800
G1 E0.0000 F540
G92 E0
G1 X68.943 Y56.480 E0.0080 F1200
G1 X71.354 Y54.069 E0.2937
G1 X71.442 Y54.032 E0.3017
G1 X72.693 Y54.032 E0.4067
G1 X72.915 Y53.811 E0.4329
G1 X73.003 Y53.774 E0.4409
G1 X75.230 Y53.774 E0.6275
G1 X75.937 Y53.067 E0.7114
G1 X76.025 Y53.031 E0.7194
G1 X83.914 Y53.031 E1.3806
G1 X84.002 Y53.067 E1.3886
G1 X84.200 Y53.265 E1.4120
G1 X90.991 Y53.265 E1.9812
G1 X91.080 Y53.301 E1.9892
G1 X91.311 Y53.532 E2.0166
G1 X94.191 Y53.532 E2.2580
G1 X94.279 Y53.569 E2.2660
G1 X94.304 Y53.594 E2.2690
G1 X97.732 Y53.594 E2.5563
G1 X97.820 Y53.630 E2.5643
G1 X97.848 Y53.658 E2.5676
G1 X104.053 Y53.686 E3.0877
G1 X104.504 Y53.235 E3.1411
G1 X104.592 Y53.199 E3.1491
G1 X112.481 Y53.199 E3.8104
G1 X112.570 Y53.235 E3.8184
G1 X112.673 Y53.339 E3.8307
G1 X115.355 Y53.339 E4.0554
G1 X115.443 Y53.376 E4.0634
G1 X115.653 Y53.586 E4.0883
G1 X116.058 Y53.587 E4.1222
G1 X116.294 Y53.350 E4.1502
G1 X116.382 Y53.314 E4.1582
G1 X119.551 Y53.314 E4.4238
G1 X119.681 Y53.184 E4.4392
G1 X119.769 Y53.147 E4.4472
G1 X127.658 Y53.147 E5.1085
G1 X127.746 Y53.184 E5.1165
G1 X127.939 Y53.376 E5.1392
G1 X131.081 Y53.376 E5.4027
G1 X131.170 Y53.412 E5.4107
G1 X131.336 Y53.578 E5.4303
G1 X134.642 Y53.578 E5.7075
G1 X134.710 Y53.550 E5.7136
G1 X142.599 Y53.550 E6.3748
G1 X142.687 Y53.587 E6.3828
G1 X143.122 Y54.022 E6.4344
G1 X143.717 Y54.022 E6.4843
G1 X144.100 Y53.639 E6.5296
G1 X144.188 Y53.603 E6.5376
G1 X146.882 Y53.603 E6.7634
G1 X147.227 Y53.258 E6.8043
G1 X147.315 Y53.221 E6.8123
G1 X155.205 Y53.221 E7.4736
G1 X155.293 Y53.258 E7.4816
G1 X155.580 Y53.546 E7.5157
G1 X162.677 Y53.546 E8.1105
G1 X162.755 Y53.578 E8.1175
G1 X165.116 Y53.578 E8.3154
G1 X165.204 Y53.614 E8.3234
G1 X165.231 Y53.641 E8.3267
G1 X169.257 Y53.641 E8.6641
G1 X169.347 Y53.552 E8.6747
G1 X169.435 Y53.516 E8.6827
G1 X177.324 Y53.516 E9.3439
G1 X177.412 Y53.552 E9.3519
G1 X178.272 Y54.412 E9.4538
G1 X179.263 Y54.412 E9.5369
G1 X179.351 Y54.449 E9.5449
G1 X181.762 Y56.859 E9.8306
G1 X181.798 Y56.947 E9.8386
G1 X181.798 Y64.837 E10.4999
G1 X181.762 Y64.925 E10.5079
G1 X181.721 Y64.965 E10.5127
G1 X181.726 Y66.642 E10.6532
G1 X181.780 Y66.695 E10.6595
G1 X181.817 Y66.784 E10.6675
G1 X181.817 Y69.046 E10.8572
G1 X182.160 Y69.389 E10.8978
G1 X182.196 Y69.477 E10.9058
G1 X182.196 Y77.367 E11.5671
G1 X182.160 Y77.455 E11.5751
G1 X182.113 Y77.502 E11.5807
G1 X182.113 Y80.365 E11.8207
G1 X182.076 Y80.453 E11.8287
G1 X181.868 Y80.661 E11.8533
G1 X181.868 Y81.390 E11.9144
G1 X182.343 Y81.865 E11.9706
G1 X182.379 Y81.953 E11.9786
G1 X182.379 Y89.842 E12.6398
G1 X182.343 Y89.930 E12.6478
G1 X182.269 Y90.003 E12.6565
G1 X182.269 Y91.591 E12.7896
G1 X182.233 Y91.680 E12.7976
G1 X182.036 Y91.876 E12.8209
G1 X182.036 Y94.923 E13.0763
G1 X182.000 Y95.011 E13.0843
G1 X181.947 Y95.064 E13.0905
G1 X182.054 Y95.170 E13.1032
G1 X182.090 Y95.259 E13.1112
G1 X182.090 Y103.148 E13.7724
G1 X182.054 Y103.236 E13.7804
G1 X181.574 Y103.716 E13.8372
G1 X181.574 Y104.671 E13.9174
G1 X181.762 Y104.859 E13.9396
G1 X181.798 Y104.947 E13.9476
G1 X181.798 Y112.837 E14.6089
G1 X181.762 Y112.925 E14.6169
G1 X181.721 Y112.965 E14.6217
G1 X181.726 Y114.642 E14.7622
G1 X181.780 Y114.695 E14.7685
G1 X181.817 Y114.784 E14.7765
G1 X181.817 Y117.046 E14.9662
G1 X182.160 Y117.389 E15.0068
G1 X182.196 Y117.477 E15.0148
G1 X182.196 Y125.367 E15.6761
G1 X182.160 Y125.455 E15.6841
G1 X182.113 Y125.502 E15.6897
G1 X182.113 Y128.365 E15.9297
G1 X182.076 Y128.453 E15.9377
G1 X181.868 Y128.661 E15.9623
G1 X181.868 Y129.390 E16.0234
G1 X182.343 Y129.865 E16.0796
G1 X182.379 Y129.953 E16.0876
G1 X182.379 Y137.842 E16.7488
G1 X182.343 Y137.930 E16.7568
G1 X182.269 Y138.003 E16.7655
G1 X182.269 Y139.591 E16.8986
G1 X182.233 Y139.679 E16.9066
G1 X182.036 Y139.876 E16.9299
G1 X182.036 Y142.923 E17.1853
G1 X182.000 Y143.011 E17.1933
G1 X181.947 Y143.064 E17.1995
G1 X182.054 Y143.170 E17.2122
G1 X182.090 Y143.259 E17.2202
G1 X182.090 Y151.148 E17.8814
G1 X182.054 Y151.236 E17.8894
G1 X181.574 Y151.715 E17.9462
G1 X181.574 Y152.671 E18.0264
G1 X181.537 Y152.760 E18.0344
G1 X179.127 Y155.170 E18.3201
G1 X179.039 Y155.207 E18.3281
G1 X178.001 Y155.207 E18.4151
G1 X177.144 Y156.063 E18.5167
G1 X177.056 Y156.100 E18.5247
G1 X174.180 Y156.100 E18.7657
G1 X174.114 Y156.166 E18.7735
G1 X174.026 Y156.202 E18.7815
G1 X170.956 Y156.202 E19.0388
G1 X170.912 Y156.247 E19.0441
G1 X170.823 Y156.283 E19.0521
G1 X168.213 Y156.283 E19.2709
G1 X168.149 Y156.347 E19.2784
G1 X168.061 Y156.383 E19.2864
G1 X160.172 Y156.383 E19.9476
G1 X160.084 Y156.347 E19.9557
G1 X159.871 Y156.134 E19.9809
G1 X158.798 Y156.134 E20.0708
G1 X158.668 Y156.264 E20.0862
G1 X158.580 Y156.300 E20.0942
G1 X150.691 Y156.300 E20.7554
G1 X150.603 Y156.264 E20.7634
G1 X150.502 Y156.163 E20.7754
G1 X146.112 Y156.145 E21.1433
G1 X146.101 Y156.156 E21.1446
G1 X146.013 Y156.193 E21.1526
G1 X138.124 Y156.193 E21.8139
G1 X138.036 Y156.156 E21.8219
G1 X137.945 Y156.066 E21.8326
G1 X137.654 Y156.065 E21.8570
G1 X137.497 Y156.222 E21.8756
G1 X137.409 Y156.258 E21.8836
G1 X129.520 Y156.258 E22.5448
G1 X129.431 Y156.222 E22.5528
G1 X129.344 Y156.134 E22.5632
G1 X129.140 Y156.133 E22.5803
G1 X128.761 Y156.510 E22.6251
G1 X128.673 Y156.547 E22.6331
G1 X117.477 Y156.498 E23.5715
G1 X117.389 Y156.461 E23.5795
G1 X117.127 Y156.197 E23.6106
G1 X114.925 Y156.197 E23.7952
G1 X114.895 Y156.227 E23.7988
G1 X114.806 Y156.264 E23.8068
G1 X106.917 Y156.264 E24.4680
G1 X106.829 Y156.227 E24.4760
G1 X106.726 Y156.124 E24.4882
G1 X103.726 Y156.124 E24.7397
G1 X103.638 Y156.088 E24.7477
G1 X103.549 Y155.999 E24.7582
G1 X101.631 Y155.999 E24.9189
G1 X101.588 Y156.017 E24.9228
G1 X93.699 Y156.017 E25.5841
G1 X93.611 Y155.981 E25.5921
G1 X93.479 Y155.848 E25.6077
G1 X87.313 Y155.848 E26.1246
G1 X87.224 Y155.812 E26.1326
G1 X87.007 Y155.594 E26.1583
G1 X83.403 Y155.577 E26.4604
G1 X82.936 Y156.044 E26.5157
G1 X82.848 Y156.081 E26.5237
G1 X74.959 Y156.081 E27.1850
G1 X74.870 Y156.044 E27.1930
G1 X74.567 Y155.740 E27.2290
G1 X72.217 Y155.740 E27.4260
G1 X72.128 Y155.704 E27.4340
G1 X69.718 Y153.293 E27.7197
G1 X69.681 Y153.205 E27.7277
G1 X69.681 Y152.854 E27.7572
G1 X67.716 Y150.888 E27.9901
G1 X67.680 Y150.800 E27.9981
G1 X67.680 Y147.766 E28.2525
G1 X67.577 Y147.663 E28.2646
G1 X67.541 Y147.575 E28.2726
G1 X67.541 Y144.507 E28.5297
G1 X67.488 Y144.455 E28.5360
G1 X67.451 Y144.366 E28.5440
G1 X67.451 Y140.827 E28.8406
G1 X67.311 Y140.687 E28.8572
G1 X67.274 Y140.599 E28.8652
G1 X67.274 Y132.710 E29.5265
G1 X67.311 Y132.621 E29.5345
G1 X67.519 Y132.413 E29.5591
G1 X67.519 Y131.901 E29.6020
G1 X67.516 Y131.896 E29.6026
G1 X67.516 Y124.006 E30.2638
G1 X67.553 Y123.918 E30.2718
G1 X67.789 Y123.682 E30.2998
G1 X67.789 Y120.249 E30.5875
G1 X67.826 Y120.161 E30.5955
G1 X67.920 Y120.067 E30.6066
G1 X67.920 Y118.039 E30.7766
G1 X67.825 Y117.944 E30.7879
G1 X67.788 Y117.856 E30.7959
G1 X67.788 Y109.967 E31.4571
G1 X67.825 Y109.879 E31.4651
G1 X67.912 Y109.791 E31.4755
G1 X67.912 Y107.080 E31.7027
G1 X67.949 Y106.992 E31.7107
G1 X68.906 Y106.034 E31.8242
G1 X68.906 Y104.568 E31.9471
G1 X68.943 Y104.480 E31.9551
G1 X69.125 Y104.297 E31.9767
G1 X67.716 Y102.888 E32.1437
G1 X67.679 Y102.800 E32.1517
G1 X67.679 Y99.766 E32.4061
G1 X67.577 Y99.663 E32.4182
G1 X67.541 Y99.575 E32.4262
G1 X67.541 Y96.507 E32.6833
G1 X67.488 Y96.455 E32.6896
G1 X67.451 Y96.366 E32.6976
G1 X67.451 Y92.827 E32.9942
G1 X67.311 Y92.687 E33.0109
G1 X67.274 Y92.599 E33.0189
G1 X67.274 Y84.710 E33.6801
G1 X67.311 Y84.621 E33.6881
G1 X67.519 Y84.413 E33.7127
G1 X67.519 Y83.901 E33.7557
G1 X67.516 Y83.896 E33.7562
G1 X67.516 Y76.006 E34.4174
G1 X67.553 Y75.918 E34.4254
G1 X67.789 Y75.682 E34.4535
G1 X67.789 Y72.249 E34.7412
G1 X67.826 Y72.161 E34.7492
G1 X67.920 Y72.067 E34.7602
G1 X67.920 Y70.039 E34.9303
G1 X67.825 Y69.944 E34.9415
G1 X67.788 Y69.856 E34.9495
G1 X67.788 Y61.967 E35.6107
G1 X67.825 Y61.879 E35.6187
G1 X67.913 Y61.791 E35.6291
G1 X67.913 Y59.080 E35.8563
G1 X67.949 Y58.992 E35.8643
G1 X68.906 Y58.035 E35.9778
G1 X68.906 Y56.768 E36.0840
G1 X68.906 Y56.568 F1200
G92 E0
G1 E-1.5000 F1800
; inner perimeter
G1 X75.966 Y62.249 F4800
G1 E0.0000 F1800
G92 E0
G1 X76.096 Y62.096 E0.0168 F1080
G1 X76.249 Y61.966 E0.0336
G1 X76.420 Y61.861 E0.0504
G1 X76.605 Y61.785 E0.0672
G1 X76.800 Y61.738 E0.0840
G1 X77.028 Y61.720 E0.1032
G1 X172.972 Y61.720 E8.1448
G1 X173.200 Y61.738 E8.1639
G1 X173.395 Y61.785 E8.1807
G1 X173.580 Y61.862 E8.1976
G1 X173.751 Y61.966 E8.2144
G1 X173.903 Y62.096 E8.2312
G1 X174.034 Y62.249 E8.2480
G1 X174.138 Y62.420 E8.2648
G1 X174.215 Y62.605 E8.2816
G1 X174.262 Y62.800 E8.2984
G1 X174.280 Y63.028 E8.3176
G1 X174.280 Y98.972 E11.3302
G1 X174.262 Y99.200 E11.3494
G1 X174.215 Y99.395 E11.3662
G1 X174.138 Y99.580 E11.3830
G1 X174.034 Y99.751 E11.3998
G1 X173.904 Y99.903 E11.4166
G1 X173.751 Y100.034 E11.4334
G1 X173.580 Y100.138 E11.4502
G1 X173.395 Y100.215 E11.4670
G1 X173.200 Y100.262 E11.4838
G1 X172.972 Y100.280 E11.5030
G1 X77.028 Y100.280 E19.5446
G1 X76.800 Y100.262 E19.5637
G1 X76.605 Y100.215 E19.5805
G1 X76.420 Y100.138 E19.5973
G1 X76.249 Y100.034 E19.6141
G1 X76.096 Y99.903 E19.6310
G1 X75.966 Y99.751 E19.6478
G1 X75.862 Y99.580 E19.6646
G1 X75.785 Y99.395 E19.6814
G1 X75.738 Y99.200 E19.6982
G1 X75.720 Y98.972 E19.7174
G1 X75.720 Y63.028 E22.7300
G1 X75.738 Y62.800 E22.7492
G1 X75.785 Y62.605 E22.7660
G1 X75.861 Y62.420 E22.7828
G1 X75.862 Y62.419 E22.7828
G1 X75.966 Y62.249 F1080
; outer perimeter
G1 X75.577 Y61.966 F4800
G92 E0
G1 X75.756 Y61.756 E0.0231 F960
G1 X75.966 Y61.577 E0.0463
G1 X76.201 Y61.432 E0.0694
G1 X76.456 Y61.327 E0.0926
G1 X76.725 Y61.262 E0.1157
G1 X77.009 Y61.240 E0.1396
G1 X172.991 Y61.240 E8.1843
G1 X173.275 Y61.262 E8.2083
G1 X173.544 Y61.327 E8.2314
G1 X173.799 Y61.432 E8.2545
G1 X174.034 Y61.577 E8.2777
