; G-Code generated by Simplify3D(R) Version 4.0.0
; Feb 2, 2018 at 1:17:18 PM
; Settings Summary
;   processName,Process1
;   applyToModels,parametric_funnel
;   profileName,Prusa Research Original Prusa i3 MK2 (modified)
;   profileVersion,2017-07-23 22:27:18
;   baseProfile,
;   printMaterial,PLA
;   printQuality,Fast
;   printExtruders,
;   extruderName,Primary Extruder
;   extruderToolheadNumber,0
;   extruderDiameter,0.4
;   extruderAutoWidth,1
;   extruderWidth,0.48
;   extrusionMultiplier,1
;   extruderUseRetract,1
;   extruderRetractionDistance,1.5
;   extruderExtraRestartDistance,0
;   extruderRetractionZLift,0
;   extruderRetractionSpeed,1800
;   extruderUseCoasting,1
;   extruderCoastingDistance,0.2
;   extruderUseWipe,1
;   extruderWipeDistance,2
;   primaryExtruder,0
;   layerHeight,0.35
;   topSolidLayers,3
;   bottomSolidLayers,3
;   perimeterOutlines,3
;   printPerimetersInsideOut,1
;   startPointOption,2
;   startPointOriginX,0
;   startPointOriginY,0
;   sequentialIslands,0
;   spiralVaseMode,0
;   firstLayerHeightPercentage,120
;   firstLayerWidthPercentage,100
;   firstLayerUnderspeed,0.5
;   useRaft,0
;   raftExtruder,0
;   raftTopLayers,3
;   raftBaseLayers,2
;   raftOffset,3
;   raftSeparationDistance,0.14
;   raftTopInfill,100
;   aboveRaftSpeedMultiplier,0.3
;   useSkirt,1
;   skirtExtruder,0
;   skirtLayers,1
;   skirtOutlines,1
;   skirtOffset,4
;   usePrimePillar,0
;   primePillarExtruder,999
;   primePillarWidth,12
;   primePillarLocation,7
;   primePillarSpeedMultiplier,1
;   useOozeShield,0
;   oozeShieldExtruder,999
;   oozeShieldOffset,2
;   oozeShieldOutlines,1
;   oozeShieldSidewallShape,1
;   oozeShieldSidewallAngle,30
;   oozeShieldSpeedMultiplier,1
;   infillExtruder,0
;   internalInfillPattern,Rectilinear
;   externalInfillPattern,Rectilinear
;   infillPercentage,13
;   outlineOverlapPercentage,20
;   infillExtrusionWidthPercentage,100
;   minInfillLength,5
;   infillLayerInterval,1
;   internalInfillAngles,45,-45
;   overlapInternalInfillAngles,0
;   externalInfillAngles,45,-45
;   generateSupport,1
;   supportExtruder,0
;   supportInfillPercentage,25
;   supportExtraInflation,0
;   supportBaseLayers,0
;   denseSupportExtruder,0
;   denseSupportLayers,0
;   denseSupportInfillPercentage,70
;   supportLayerInterval,1
;   supportHorizontalPartOffset,0.3
;   supportUpperSeparationLayers,1
;   supportLowerSeparationLayers,1
;   supportType,0
;   supportGridSpacing,4
;   maxOverhangAngle,45
;   supportAngles,0
;   temperatureName,Primary Extruder,Heated Bed
;   temperatureNumber,0,0
;   temperatureSetpointCount,1,1
;   temperatureSetpointLayers,1,1
;   temperatureSetpointTemperatures,210,60
;   temperatureStabilizeAtStartup,1,1
;   temperatureHeatedBed,0,1
;   temperatureRelayBetweenLayers,0,0
;   temperatureRelayBetweenLoops,0,0
;   fanLayers,1,2
;   fanSpeeds,0,100
;   blipFanToFullPower,0
;   adjustSpeedForCooling,1
;   minSpeedLayerTime,15
;   minCoolingSpeedSlowdown,20
;   increaseFanForCooling,0
;   minFanLayerTime,45
;   maxCoolingFanSpeed,100
;   increaseFanForBridging,0
;   bridgingFanSpeed,100
;   use5D,1
;   relativeEdistances,0
;   allowEaxisZeroing,1
;   independentExtruderAxes,0
;   includeM10123,0
;   stickySupport,1
;   applyToolheadOffsets,0
;   gcodeXoffset,0
;   gcodeYoffset,0
;   gcodeZoffset,0
;   overrideMachineDefinition,1
;   machineTypeOverride,0
;   strokeXoverride,250
;   strokeYoverride,210
;   strokeZoverride,200
;   originOffsetXoverride,0
;   originOffsetYoverride,0
;   originOffsetZoverride,0
;   homeXdirOverride,-1
;   homeYdirOverride,-1
;   homeZdirOverride,-1
;   flipXoverride,1
;   flipYoverride,-1
;   flipZoverride,1
;   toolheadOffsets,0,0|0,0|0,0|0,0|0,0|0,0
;   overrideFirmwareConfiguration,1
;   firmwareTypeOverride,RepRap (Marlin/Repetier/Sprinter)
;   GPXconfigOverride,r2
;   baudRateOverride,250000
;   overridePrinterModels,1
;   printerModelsOverride
;   startingGcode,M115 U3.0.7 ; use the latest firmware version,G28 W ; home all axes without mesh bed leveling,G80 ; run mesh bed leveling routine,G1 Y-3.0 F1000.0 ; prepare to prime,G92 E0 ; reset extrusion distance,G1 X60.0 E9.0  F1000.0 ; priming,G1 X100.0 E12.5  F1000.0 ; priming
;   layerChangeGcode,
;   retractionGcode,
;   toolChangeGcode,
;   endingGcode,M106 S0 ; turn off cooling fan,M104 S0 ; turn off extruder,M140 S0 ; turn off bed,G1 X0 Y200 ; part removal,M84 ; disable motors
;   exportFileFormat,gcode
;   celebration,0
;   celebrationSong,Random Song
;   postProcessing,
;   defaultSpeed,2400
;   outlineUnderspeed,0.8
;   solidInfillUnderspeed,0.8
;   supportUnderspeed,0.8
;   rapidXYspeed,4800
;   rapidZspeed,1002
;   minBridgingArea,50
;   bridgingExtraInflation,0
;   bridgingExtrusionMultiplier,1
;   bridgingSpeedMultiplier,1
;   useFixedBridgingAngle,0
;   fixedBridgingAngle,0
;   applyBridgingToPerimeters,0
;   filamentDiameters,1.75|1.75|1.75|1.75|1.75|1.75
;   filamentPricesPerKg,199|46|46|46|46|46
;   filamentDensities,1.25|1.25|1.25|1.25|1.25|1.25
;   useMinPrintHeight,0
;   minPrintHeight,0
;   useMaxPrintHeight,1
;   maxPrintHeight,235
;   useDiaphragm,0
;   diaphragmLayerInterval,20
;   robustSlicing,1
;   mergeAllIntoSolid,0
;   onlyRetractWhenCrossingOutline,1
;   retractBetweenLayers,1
;   useRetractionMinTravel,0
;   retractionMinTravel,3
;   retractWhileWiping,1
;   onlyWipeOutlines,1
;   avoidCrossingOutline,0
;   maxMovementDetourFactor,3
;   toolChangeRetractionDistance,12
;   toolChangeExtraRestartDistance,-0.5
;   toolChangeRetractionSpeed,600
;   externalThinWallType,0
;   internalThinWallType,2
;   thinWallAllowedOverlapPercentage,25
;   singleExtrusionMinLength,1
;   singleExtrusionMinPrintingWidthPercentage,50
;   singleExtrusionMaxPrintingWidthPercentage,200
;   singleExtrusionEndpointExtension,0.2
;   horizontalSizeCompensation,0
G90
M82
M106 S0
M140 S60
M190 S60
M104 S210 T0
M109 S210 T0
M115 U3.0.7 ; use the latest firmware version
G28 W ; home all axes without mesh bed leveling
G80 ; run mesh bed leveling routine
G1 Y-3.0 F1000.0 ; prepare to prime
G92 E0 ; reset extrusion distance
G1 X60.0 E9.0  F1000.0 ; priming
G1 X100.0 E12.5  F1000.0 ; priming
G92 E0
G1 E-1.5000 F1800
G1 Z0.420 F1002
; process Process1
; layer 1, Z = 0.420
T0
; tool H0.420 W0.480
; skirt
G1 X100.772 Y86.263 F4800
G1 E0.0000 F540
G92 E0
G1 X100.774 Y86.260 E0.0003 F1200
G1 X100.860 Y86.163 E0.0112
G1 X100.862 Y86.160 E0.0115
G1 X101.768 Y85.196 E0.1223
G1 X101.770 Y85.194 E0.1226
G1 X101.843 Y85.120 E0.1313
G1 X101.845 Y85.118 E0.1315
G1 X102.788 Y84.210 E0.2413
G1 X102.790 Y84.208 E0.2416
G1 X102.867 Y84.138 E0.2502
G1 X102.869 Y84.136 E0.2505
G1 X103.857 Y83.276 E0.3603
G1 X103.859 Y83.274 E0.3605
G1 X103.939 Y83.208 E0.3692
G1 X103.941 Y83.206 E0.3695
G1 X104.982 Y82.388 E0.4803
G1 X104.984 Y82.386 E0.4807
G1 X105.089 Y82.310 E0.4915
G1 X105.092 Y82.307 E0.4918
G1 X106.699 Y81.200 E0.6554
G1 X106.703 Y81.198 E0.6558
G1 X106.834 Y81.115 E0.6688
G1 X106.838 Y81.112 E0.6692
G1 X108.512 Y80.136 E0.8316
G1 X108.515 Y80.134 E0.8319
G1 X108.606 Y80.084 E0.8406
G1 X108.609 Y80.083 E0.8408
G1 X109.236 Y79.758 E0.9001
G1 X109.239 Y79.757 E0.9003
G1 X109.332 Y79.712 E0.9090
G1 X109.335 Y79.710 E0.9092
G1 X111.099 Y78.907 E1.0717
G1 X111.103 Y78.905 E1.0721
G1 X111.247 Y78.846 E1.0851
G1 X111.251 Y78.845 E1.0855
G1 X113.083 Y78.172 E1.2491
G1 X113.087 Y78.171 E1.2494
G1 X113.209 Y78.130 E1.2602
G1 X113.213 Y78.129 E1.2606
G1 X114.481 Y77.752 E1.3714
G1 X114.484 Y77.751 E1.3717
G1 X114.584 Y77.724 E1.3804
G1 X114.587 Y77.723 E1.3806
G1 X115.860 Y77.414 E1.4904
G1 X115.862 Y77.413 E1.4907
G1 X115.963 Y77.391 E1.4993
G1 X115.966 Y77.390 E1.4996
G1 X117.266 Y77.142 E1.6104
G1 X117.269 Y77.142 E1.6107
G1 X117.397 Y77.122 E1.6216
G1 X117.401 Y77.121 E1.6219
G1 X119.324 Y76.878 E1.7844
G1 X119.328 Y76.878 E1.7847
G1 X119.457 Y76.866 E1.7956
G1 X119.461 Y76.865 E1.7959
G1 X120.781 Y76.782 E1.9068
G1 X120.784 Y76.782 E1.9070
G1 X120.887 Y76.778 E1.9157
G1 X120.890 Y76.778 E1.9159
G1 X122.200 Y76.762 E2.0257
G1 X122.203 Y76.762 E2.0260
G1 X122.307 Y76.763 E2.0347
G1 X122.310 Y76.763 E2.0349
G1 X123.632 Y76.813 E2.1458
G1 X123.635 Y76.813 E2.1461
G1 X123.764 Y76.822 E2.1569
G1 X123.768 Y76.822 E2.1572
G1 X125.710 Y77.018 E2.3208
G1 X125.714 Y77.019 E2.3212
G1 X125.868 Y77.040 E2.3342
G1 X125.873 Y77.041 E2.3346
G1 X127.807 Y77.385 E2.4993
G1 X127.811 Y77.386 E2.4996
G1 X127.963 Y77.418 E2.5127
G1 X127.967 Y77.419 E2.5130
G1 X129.858 Y77.905 E2.6766
G1 X129.861 Y77.906 E2.6769
G1 X129.985 Y77.942 E2.6878
G1 X129.989 Y77.943 E2.6881
G1 X131.247 Y78.352 E2.7989
G1 X131.250 Y78.353 E2.7992
G1 X131.348 Y78.387 E2.8079
G1 X131.350 Y78.388 E2.8081
G1 X132.586 Y78.860 E2.9190
G1 X132.590 Y78.861 E2.9193
G1 X132.709 Y78.911 E2.9302
G1 X132.713 Y78.912 E2.9305
G1 X134.465 Y79.710 E3.0919
G1 X134.468 Y79.712 E3.0921
G1 X134.561 Y79.757 E3.1008
G1 X134.564 Y79.758 E3.1011
G1 X135.191 Y80.083 E3.1603
G1 X135.194 Y80.084 E3.1605
G1 X135.285 Y80.134 E3.1692
G1 X135.288 Y80.136 E3.1695
G1 X136.962 Y81.112 E3.3320
G1 X136.966 Y81.115 E3.3323
G1 X137.097 Y81.198 E3.3454
G1 X137.101 Y81.200 E3.3457
G1 X138.708 Y82.307 E3.5093
G1 X138.711 Y82.310 E3.5096
G1 X138.815 Y82.386 E3.5205
G1 X138.818 Y82.388 E3.5208
G1 X139.869 Y83.214 E3.6327
G1 X139.872 Y83.216 E3.6331
G1 X139.971 Y83.299 E3.6439
G1 X139.974 Y83.302 E3.6442
G1 X141.430 Y84.602 E3.8078
G1 X141.433 Y84.605 E3.8082
G1 X141.545 Y84.712 E3.8212
G1 X141.548 Y84.716 E3.8216
G1 X142.902 Y86.121 E3.9851
G1 X142.904 Y86.124 E3.9854
G1 X142.991 Y86.220 E3.9963
G1 X142.993 Y86.223 E3.9966
G1 X143.858 Y87.241 E4.1086
G1 X143.860 Y87.244 E4.1089
G1 X143.941 Y87.345 E4.1197
G1 X143.943 Y87.348 E4.1200
G1 X145.110 Y88.913 E4.2836
G1 X145.112 Y88.916 E4.2840
G1 X145.201 Y89.044 E4.2970
G1 X145.203 Y89.048 E4.2974
G1 X146.249 Y90.696 E4.4610
G1 X146.251 Y90.699 E4.4613
G1 X146.317 Y90.810 E4.4721
G1 X146.319 Y90.814 E4.4725
G1 X146.962 Y91.984 E4.5844
G1 X146.964 Y91.988 E4.5847
G1 X147.023 Y92.103 E4.5956
G1 X147.024 Y92.106 E4.5959
G1 X147.855 Y93.872 E4.7594
G1 X147.857 Y93.876 E4.7598
G1 X147.918 Y94.019 E4.7728
G1 X147.919 Y94.023 E4.7732
G1 X148.615 Y95.847 E4.9368
G1 X148.616 Y95.850 E4.9371
G1 X148.659 Y95.972 E4.9480
G1 X148.660 Y95.976 E4.9483
G1 X148.945 Y96.894 E5.0289
G1 X149.141 Y96.913 E5.0453
G1 X149.151 Y96.915 E5.0462
G1 X150.271 Y97.128 E5.1418
G1 X150.281 Y97.131 E5.1426
G1 X150.606 Y97.221 E5.1708
G1 X150.615 Y97.224 E5.1717
G1 X151.354 Y97.495 E5.2377
G1 X151.361 Y97.498 E5.2383
G1 X151.598 Y97.602 E5.2600
G1 X151.605 Y97.605 E5.2606
G1 X152.270 Y97.949 E5.3234
G1 X152.276 Y97.953 E5.3240
G1 X152.498 Y98.086 E5.3457
G1 X152.505 Y98.090 E5.3463
G1 X153.141 Y98.529 E5.4111
G1 X153.149 Y98.534 E5.4119
G1 X153.389 Y98.727 E5.4377
G1 X153.395 Y98.733 E5.4385
G1 X154.120 Y99.412 E5.5217
G1 X154.127 Y99.419 E5.5225
G1 X154.351 Y99.665 E5.5504
G1 X154.357 Y99.673 E5.5512
G1 X154.904 Y100.382 E5.6263
G1 X154.909 Y100.389 E5.6270
G1 X155.067 Y100.626 E5.6509
G1 X155.071 Y100.633 E5.6516
G1 X155.455 Y101.306 E5.7165
G1 X155.459 Y101.314 E5.7172
G1 X155.583 Y101.570 E5.7411
G1 X155.586 Y101.578 E5.7418
G1 X155.910 Y102.388 E5.8149
G1 X155.913 Y102.395 E5.8156
G1 X156.000 Y102.667 E5.8395
G1 X156.002 Y102.675 E5.8402
G1 X156.188 Y103.427 E5.9051
G1 X156.190 Y103.435 E5.9058
G1 X156.239 Y103.715 E5.9297
G1 X156.240 Y103.724 E5.9304
G1 X156.328 Y104.565 E6.0013
G1 X156.328 Y104.572 E6.0019
G1 X156.339 Y104.805 E6.0214
G1 X156.339 Y104.812 E6.0220
G1 X156.334 Y105.352 E6.0672
G1 X156.334 Y105.359 E6.0679
G1 X156.315 Y105.618 E6.0896
G1 X156.314 Y105.625 E6.0902
G1 X156.187 Y106.561 E6.1693
G1 X156.186 Y106.568 E6.1700
G1 X156.135 Y106.822 E6.1917
G1 X156.134 Y106.830 E6.1923
G1 X156.001 Y107.326 E6.2354
G1 X156.000 Y107.331 E6.2359
G1 X155.945 Y107.504 E6.2510
G1 X155.944 Y107.509 E6.2515
G1 X155.739 Y108.072 E6.3017
G1 X155.736 Y108.079 E6.3023
G1 X155.645 Y108.293 E6.3218
G1 X155.642 Y108.299 E6.3224
G1 X155.314 Y108.957 E6.3840
G1 X155.311 Y108.964 E6.3846
G1 X155.181 Y109.188 E6.4063
G1 X155.177 Y109.194 E6.4070
G1 X154.747 Y109.841 E6.4720
G1 X154.742 Y109.848 E6.4728
G1 X154.548 Y110.095 E6.4991
G1 X154.542 Y110.102 E6.4999
G1 X153.834 Y110.879 E6.5880
G1 X153.826 Y110.887 E6.5889
G1 X153.535 Y111.150 E6.6218
G1 X153.526 Y111.158 E6.6228
G1 X152.575 Y111.867 E6.7222
G1 X152.565 Y111.874 E6.7232
G1 X152.210 Y112.087 E6.7580
G1 X152.199 Y112.093 E6.7590
G1 X151.139 Y112.591 E6.8572
G1 X151.129 Y112.595 E6.8580
G1 X150.789 Y112.720 E6.8884
G1 X150.779 Y112.724 E6.8893
G1 X149.912 Y112.958 E6.9646
G1 X149.904 Y112.960 E6.9652
G1 X149.651 Y113.011 E6.9869
G1 X149.643 Y113.013 E6.9876
G1 X148.991 Y113.103 E7.0428
G1 X148.983 Y113.104 E7.0435
G1 X148.945 Y113.107 E7.0466
G1 X148.664 Y114.012 E7.1260
G1 X148.663 Y114.014 E7.1263
G1 X148.629 Y114.113 E7.1350
G1 X148.628 Y114.116 E7.1352
G1 X148.172 Y115.357 E7.2461
G1 X148.171 Y115.361 E7.2464
G1 X148.123 Y115.481 E7.2573
G1 X148.121 Y115.484 E7.2576
G1 X147.340 Y117.258 E7.4201
G1 X147.339 Y117.262 E7.4204
G1 X147.283 Y117.378 E7.4312
G1 X147.281 Y117.382 E7.4315
G1 X146.673 Y118.557 E7.5424
G1 X146.672 Y118.559 E7.5426
G1 X146.622 Y118.650 E7.5513
G1 X146.621 Y118.653 E7.5516
G1 X145.961 Y119.784 E7.6614
G1 X145.959 Y119.787 E7.6616
G1 X145.905 Y119.875 E7.6703
G1 X145.903 Y119.878 E7.6706
G1 X145.188 Y120.975 E7.7803
G1 X145.186 Y120.977 E7.7806
G1 X145.127 Y121.062 E7.7893
G1 X145.125 Y121.065 E7.7895
G1 X144.348 Y122.135 E7.9004
G1 X144.346 Y122.138 E7.9007
G1 X144.266 Y122.240 E7.9116
G1 X144.264 Y122.243 E7.9119
G1 X143.028 Y123.737 E8.0744
G1 X143.026 Y123.740 E8.0747
G1 X142.940 Y123.837 E8.0855
G1 X142.938 Y123.840 E8.0858
G1 X142.032 Y124.804 E8.1967
G1 X142.030 Y124.806 E8.1969
G1 X141.957 Y124.880 E8.2056
G1 X141.955 Y124.882 E8.2059
G1 X141.012 Y125.790 E8.3157
G1 X141.010 Y125.792 E8.3159
G1 X140.933 Y125.862 E8.3246
G1 X140.931 Y125.864 E8.3249
G1 X139.943 Y126.724 E8.4346
G1 X139.941 Y126.726 E8.4349
G1 X139.861 Y126.792 E8.4436
G1 X139.859 Y126.794 E8.4438
G1 X138.829 Y127.603 E8.5536
G1 X138.826 Y127.605 E8.5539
G1 X138.743 Y127.667 E8.5625
G1 X138.741 Y127.669 E8.5628
G1 X137.672 Y128.425 E8.6726
G1 X137.669 Y128.427 E8.6728
G1 X137.583 Y128.485 E8.6815
G1 X137.581 Y128.487 E8.6818
G1 X136.475 Y129.188 E8.7915
G1 X136.472 Y129.190 E8.7918
G1 X136.383 Y129.243 E8.8005
G1 X136.381 Y129.245 E8.8007
G1 X135.241 Y129.890 E8.9105
G1 X135.238 Y129.891 E8.9107
G1 X135.147 Y129.940 E8.9194
G1 X135.144 Y129.942 E8.9197
G1 X133.973 Y130.529 E9.0295
G1 X133.971 Y130.530 E9.0297
G1 X133.877 Y130.574 E9.0384
G1 X133.875 Y130.575 E9.0386
G1 X132.676 Y131.103 E9.1484
G1 X132.673 Y131.104 E9.1487
G1 X132.577 Y131.144 E9.1574
G1 X132.574 Y131.145 E9.1576
G1 X131.350 Y131.612 E9.2674
G1 X131.348 Y131.613 E9.2677
G1 X131.250 Y131.647 E9.2763
G1 X131.247 Y131.648 E9.2766
G1 X130.001 Y132.053 E9.3864
G1 X129.999 Y132.054 E9.3866
G1 X129.899 Y132.083 E9.3953
G1 X129.897 Y132.084 E9.3955
G1 X128.632 Y132.426 E9.5053
G1 X128.629 Y132.427 E9.5056
G1 X128.528 Y132.451 E9.5143
G1 X128.525 Y132.452 E9.5145
G1 X127.245 Y132.730 E9.6243
G1 X127.242 Y132.730 E9.6246
G1 X127.141 Y132.750 E9.6332
G1 X127.138 Y132.750 E9.6335
G1 X125.833 Y132.965 E9.7443
G1 X125.829 Y132.966 E9.7447
G1 X125.701 Y132.983 E9.7555
G1 X125.697 Y132.983 E9.7558
G1 X123.768 Y133.178 E9.9183
G1 X123.764 Y133.178 E9.9186
G1 X123.635 Y133.187 E9.9295
G1 X123.632 Y133.187 E9.9298
G1 X122.310 Y133.237 E10.0406
G1 X122.307 Y133.237 E10.0409
G1 X122.203 Y133.238 E10.0496
G1 X122.200 Y133.238 E10.0498
G1 X120.890 Y133.222 E10.1596
G1 X120.887 Y133.222 E10.1599
G1 X120.784 Y133.218 E10.1685
G1 X120.781 Y133.218 E10.1688
G1 X119.474 Y133.136 E10.2786
G1 X119.471 Y133.135 E10.2788
G1 X119.368 Y133.126 E10.2875
G1 X119.365 Y133.126 E10.2878
G1 X118.063 Y132.978 E10.3976
G1 X118.060 Y132.978 E10.3978
G1 X117.958 Y132.964 E10.4065
G1 X117.955 Y132.963 E10.4067
G1 X116.662 Y132.750 E10.5165
G1 X116.659 Y132.750 E10.5168
G1 X116.558 Y132.730 E10.5254
G1 X116.555 Y132.730 E10.5257
G1 X115.275 Y132.452 E10.6355
G1 X115.272 Y132.451 E10.6357
