; G-Code generated by Simplify3D(R) Version 4.0.0
; Jun 29, 2018 at 6:15:32 PM
; Settings Summary
;   processName,PETG course bottom
;   applyToModels,tube
;   profileName,Prusa Research Original Prusa i3 MK2 (modified)
;   profileVersion,2017-07-23 22:27:18
;   baseProfile,
;   printMaterial,PET
;   printQuality,Fast
;   printExtruders,
;   extruderName,Primary Extruder
;   extruderToolheadNumber,0
;   extruderDiameter,0.4
;   extruderAutoWidth,1
;   extruderWidth,0.48
;   extrusionMultiplier,1
;   extruderUseRetract,1
;   extruderRetractionDistance,1.5
;   extruderExtraRestartDistance,0
;   extruderRetractionZLift,0
;   extruderRetractionSpeed,1800
;   extruderUseCoasting,1
;   extruderCoastingDistance,0.2
;   extruderUseWipe,1
;   extruderWipeDistance,2
;   primaryExtruder,0
;   layerHeight,0.35
;   topSolidLayers,3
;   bottomSolidLayers,3
;   perimeterOutlines,2
;   printPerimetersInsideOut,1
;   startPointOption,2
;   startPointOriginX,0
;   startPointOriginY,0
;   sequentialIslands,0
;   spiralVaseMode,0
;   firstLayerHeightPercentage,120
;   firstLayerWidthPercentage,100
;   firstLayerUnderspeed,0.5
;   useRaft,0
;   raftExtruder,0
;   raftTopLayers,3
;   raftBaseLayers,2
;   raftOffset,3
;   raftSeparationDistance,0.14
;   raftTopInfill,100
;   aboveRaftSpeedMultiplier,0.3
;   useSkirt,1
;   skirtExtruder,0
;   skirtLayers,1
;   skirtOutlines,1
;   skirtOffset,4
;   usePrimePillar,0
;   primePillarExtruder,999
;   primePillarWidth,12
;   primePillarLocation,7
;   primePillarSpeedMultiplier,1
;   useOozeShield,0
;   oozeShieldExtruder,999
;   oozeShieldOffset,2
;   oozeShieldOutlines,1
;   oozeShieldSidewallShape,1
;   oozeShieldSidewallAngle,30
;   oozeShieldSpeedMultiplier,1
;   infillExtruder,0
;   internalInfillPattern,Rectilinear
;   externalInfillPattern,Rectilinear
;   infillPercentage,10
;   outlineOverlapPercentage,20
;   infillExtrusionWidthPercentage,100
;   minInfillLength,5
;   infillLayerInterval,1
;   internalInfillAngles,45,-45
;   overlapInternalInfillAngles,0
;   externalInfillAngles,45,-45
;   generateSupport,0
;   supportExtruder,0
;   supportInfillPercentage,25
;   supportExtraInflation,0
;   supportBaseLayers,0
;   denseSupportExtruder,0
;   denseSupportLayers,0
;   denseSupportInfillPercentage,70
;   supportLayerInterval,1
;   supportHorizontalPartOffset,0.3
;   supportUpperSeparationLayers,1
;   supportLowerSeparationLayers,1
;   supportType,0
;   supportGridSpacing,4
;   maxOverhangAngle,45
;   supportAngles,0
;   temperatureName,Primary Extruder,Heated Bed
;   temperatureNumber,0,0
;   temperatureSetpointCount,1,1
;   temperatureSetpointLayers,1,1
;   temperatureSetpointTemperatures,230,75
;   temperatureStabilizeAtStartup,1,1
;   temperatureHeatedBed,0,1
;   temperatureRelayBetweenLayers,0,0
;   temperatureRelayBetweenLoops,0,0
;   fanLayers,1,2
;   fanSpeeds,0,50
;   blipFanToFullPower,0
;   adjustSpeedForCooling,1
;   minSpeedLayerTime,15
;   minCoolingSpeedSlowdown,20
;   increaseFanForCooling,0
;   minFanLayerTime,45
;   maxCoolingFanSpeed,100
;   increaseFanForBridging,0
;   bridgingFanSpeed,100
;   use5D,1
;   relativeEdistances,0
;   allowEaxisZeroing,1
;   independentExtruderAxes,0
;   includeM10123,0
;   stickySupport,1
;   applyToolheadOffsets,0
;   gcodeXoffset,0
;   gcodeYoffset,0
;   gcodeZoffset,0
;   overrideMachineDefinition,1
;   machineTypeOverride,0
;   strokeXoverride,250
;   strokeYoverride,210
;   strokeZoverride,200
;   originOffsetXoverride,0
;   originOffsetYoverride,0
;   originOffsetZoverride,0
;   homeXdirOverride,-1
;   homeYdirOverride,-1
;   homeZdirOverride,-1
;   flipXoverride,1
;   flipYoverride,-1
;   flipZoverride,1
;   toolheadOffsets,0,0|0,0|0,0|0,0|0,0|0,0
;   overrideFirmwareConfiguration,1
;   firmwareTypeOverride,RepRap (Marlin/Repetier/Sprinter)
;   GPXconfigOverride,r2
;   baudRateOverride,250000
;   overridePrinterModels,1
;   printerModelsOverride
;   startingGcode,M115 U3.0.7 ; use the latest firmware version,G28 W ; home all axes without mesh bed leveling,G80 ; run mesh bed leveling routine,G1 Y-3.0 F1000.0 ; prepare to prime,G92 E0 ; reset extrusion distance,G1 X60.0 E9.0  F1000.0 ; priming,G1 X100.0 E12.5  F1000.0 ; priming
;   layerChangeGcode,
;   retractionGcode,
;   toolChangeGcode,
;   endingGcode,M106 S0 ; turn off cooling fan,M104 S0 ; turn off extruder,M140 S0 ; turn off bed,G1 X0 Y200 ; part removal,M84 ; disable motors
;   exportFileFormat,gcode
;   celebration,0
;   celebrationSong,Random Song
;   postProcessing,
;   defaultSpeed,2400
;   outlineUnderspeed,0.8
;   solidInfillUnderspeed,0.8
;   supportUnderspeed,0.8
;   rapidXYspeed,4800
;   rapidZspeed,1002
;   minBridgingArea,50
;   bridgingExtraInflation,0
;   bridgingExtrusionMultiplier,1
;   bridgingSpeedMultiplier,1
;   useFixedBridgingAngle,0
;   fixedBridgingAngle,0
;   applyBridgingToPerimeters,0
;   filamentDiameters,1.75|1.75|1.75|1.75|1.75|1.75
;   filamentPricesPerKg,199|46|46|46|46|46
;   filamentDensities,1.25|1.25|1.25|1.25|1.25|1.25
;   useMinPrintHeight,0
;   minPrintHeight,0
;   useMaxPrintHeight,1
;   maxPrintHeight,40.21
;   useDiaphragm,0
;   diaphragmLayerInterval,20
;   robustSlicing,1
;   mergeAllIntoSolid,0
;   onlyRetractWhenCrossingOutline,1
;   retractBetweenLayers,1
;   useRetractionMinTravel,0
;   retractionMinTravel,3
;   retractWhileWiping,1
;   onlyWipeOutlines,1
;   avoidCrossingOutline,0
;   maxMovementDetourFactor,3
;   toolChangeRetractionDistance,12
;   toolChangeExtraRestartDistance,-0.5
;   toolChangeRetractionSpeed,600
;   externalThinWallType,0
;   internalThinWallType,2
;   thinWallAllowedOverlapPercentage,25
;   singleExtrusionMinLength,1
;   singleExtrusionMinPrintingWidthPercentage,50
;   singleExtrusionMaxPrintingWidthPercentage,200
;   singleExtrusionEndpointExtension,0.2
;   horizontalSizeCompensation,0
G90
M82
M106 S0
M140 S75
M190 S75
M104 S230 T0
M109 S230 T0
M115 U3.0.7 ; use the latest firmware version
G28 W ; home all axes without mesh bed leveling
G80 ; run mesh bed leveling routine
G1 Y-3.0 F1000.0 ; prepare to prime
G92 E0 ; reset extrusion distance
G1 X60.0 E9.0  F1000.0 ; priming
G1 X100.0 E12.5  F1000.0 ; priming
G92 E0
G1 E-1.5000 F1800
G1 Z0.420 F1002
; process PETG course bottom
; layer 1, Z = 0.420
T0
; tool H0.420 W0.480
; skirt
G1 X114.246 Y96.271 F4800
G1 E0.0000 F540
G92 E0
G1 X114.631 Y95.817 E0.0499 F1200
G1 X114.634 Y95.814 E0.0503
G1 X114.732 Y95.707 E0.0624
G1 X114.735 Y95.704 E0.0628
G1 X115.482 Y94.938 E0.1524
G1 X115.486 Y94.934 E0.1529
G1 X115.628 Y94.802 E0.1691
G1 X115.632 Y94.799 E0.1696
G1 X116.466 Y94.091 E0.2613
G1 X116.471 Y94.088 E0.2618
G1 X116.624 Y93.970 E0.2779
G1 X116.628 Y93.966 E0.2784
G1 X117.505 Y93.354 E0.3681
G1 X117.509 Y93.352 E0.3684
G1 X117.631 Y93.273 E0.3806
G1 X117.634 Y93.271 E0.3809
G1 X118.145 Y92.965 E0.4308
G1 X118.149 Y92.963 E0.4312
G1 X118.276 Y92.893 E0.4434
G1 X118.280 Y92.891 E0.4437
G1 X119.234 Y92.407 E0.5334
G1 X119.239 Y92.405 E0.5339
G1 X119.415 Y92.326 E0.5500
G1 X119.421 Y92.323 E0.5505
G1 X120.439 Y91.923 E0.6422
G1 X120.444 Y91.921 E0.6427
G1 X120.627 Y91.858 E0.6589
G1 X120.632 Y91.857 E0.6594
G1 X121.683 Y91.553 E0.7511
G1 X121.689 Y91.551 E0.7515
G1 X121.877 Y91.507 E0.7677
G1 X121.882 Y91.505 E0.7682
G1 X122.968 Y91.299 E0.8608
G1 X122.974 Y91.298 E0.8613
G1 X123.186 Y91.269 E0.8793
G1 X123.193 Y91.269 E0.8798
G1 X124.465 Y91.162 E0.9868
G1 X124.470 Y91.162 E0.9872
G1 X124.640 Y91.155 E1.0016
G1 X124.645 Y91.155 E1.0020
G1 X133.048 Y91.151 E1.7063
G1 X133.051 Y91.151 E1.7065
G1 X133.151 Y91.153 E1.7149
G1 X133.154 Y91.153 E1.7152
G1 X133.539 Y91.172 E1.7474
G1 X133.548 Y91.173 E1.7482
G1 X133.877 Y91.215 E1.7760
G1 X133.887 Y91.217 E1.7769
G1 X134.590 Y91.366 E1.8371
G1 X134.602 Y91.370 E1.8381
G1 X135.013 Y91.503 E1.8744
G1 X135.025 Y91.508 E1.8754
G1 X135.727 Y91.820 E1.9398
G1 X135.738 Y91.826 E1.9409
G1 X136.112 Y92.042 E1.9771
G1 X136.122 Y92.049 E1.9781
G1 X136.744 Y92.500 E2.0425
G1 X136.754 Y92.508 E2.0436
G1 X137.075 Y92.797 E2.0798
G1 X137.084 Y92.806 E2.0809
G1 X137.598 Y93.377 E2.1453
G1 X137.606 Y93.387 E2.1463
G1 X137.860 Y93.736 E2.1825
G1 X137.866 Y93.747 E2.1835
G1 X138.251 Y94.412 E2.2479
G1 X138.256 Y94.423 E2.2490
G1 X138.432 Y94.818 E2.2852
G1 X138.436 Y94.830 E2.2862
G1 X138.675 Y95.562 E2.3508
G1 X138.678 Y95.575 E2.3519
G1 X138.768 Y96.002 E2.3885
G1 X138.770 Y96.014 E2.3895
G1 X138.838 Y96.671 E2.4449
G1 X138.838 Y96.677 E2.4454
G1 X138.849 Y96.888 E2.4631
G1 X138.849 Y96.894 E2.4636
G1 X138.849 Y113.160 E3.8270
G1 X138.849 Y113.170 E3.8277
G1 X138.824 Y113.490 E3.8546
G1 X138.823 Y113.499 E3.8554
G1 X138.678 Y114.423 E3.9338
G1 X138.674 Y114.438 E3.9351
G1 X138.520 Y114.959 E3.9806
G1 X138.515 Y114.974 E3.9820
G1 X138.180 Y115.727 E4.0510
G1 X138.174 Y115.738 E4.0521
G1 X137.958 Y116.112 E4.0883
G1 X137.951 Y116.123 E4.0894
G1 X137.499 Y116.744 E4.1538
G1 X137.492 Y116.754 E4.1548
G1 X137.203 Y117.075 E4.1910
G1 X137.194 Y117.084 E4.1920
G1 X136.623 Y117.598 E4.2564
G1 X136.613 Y117.605 E4.2575
G1 X136.264 Y117.859 E4.2937
G1 X136.254 Y117.866 E4.2947
G1 X135.588 Y118.250 E4.3591
G1 X135.577 Y118.256 E4.3602
G1 X135.182 Y118.432 E4.3964
G1 X135.170 Y118.436 E4.3974
G1 X134.467 Y118.665 E4.4594
G1 X134.457 Y118.668 E4.4603
G1 X134.092 Y118.751 E4.4917
G1 X134.082 Y118.753 E4.4926
G1 X133.525 Y118.827 E4.5397
G1 X133.517 Y118.828 E4.5403
G1 X133.244 Y118.846 E4.5632
G1 X133.236 Y118.846 E4.5639
G1 X124.954 Y118.849 E5.2581
G1 X124.951 Y118.849 E5.2583
G1 X124.855 Y118.847 E5.2664
G1 X124.852 Y118.847 E5.2666
G1 X123.832 Y118.800 E5.3522
G1 X123.827 Y118.799 E5.3526
G1 X123.682 Y118.787 E5.3649
G1 X123.677 Y118.787 E5.3652
G1 X123.085 Y118.717 E5.4152
G1 X123.081 Y118.717 E5.4155
G1 X122.937 Y118.695 E5.4277
G1 X122.933 Y118.694 E5.4281
G1 X121.906 Y118.499 E5.5157
G1 X121.902 Y118.498 E5.5161
G1 X121.760 Y118.466 E5.5282
G1 X121.756 Y118.465 E5.5286
G1 X121.180 Y118.313 E5.5785
G1 X121.176 Y118.312 E5.5788
G1 X121.038 Y118.270 E5.5910
G1 X121.034 Y118.269 E5.5913
G1 X120.044 Y117.932 E5.6790
G1 X120.040 Y117.931 E5.6793
G1 X119.904 Y117.879 E5.6915
G1 X119.900 Y117.877 E5.6919
G1 X119.351 Y117.646 E5.7418
G1 X119.347 Y117.644 E5.7421
G1 X119.216 Y117.584 E5.7543
G1 X119.212 Y117.582 E5.7546
G1 X118.258 Y117.098 E5.8443
G1 X118.253 Y117.096 E5.8448
G1 X118.085 Y117.000 E5.8610
G1 X118.080 Y116.997 E5.8614
G1 X117.155 Y116.414 E5.9531
G1 X117.150 Y116.411 E5.9536
G1 X116.992 Y116.300 E5.9698
G1 X116.987 Y116.297 E5.9703
G1 X116.120 Y115.629 E6.0620
G1 X116.116 Y115.626 E6.0624
G1 X115.969 Y115.501 E6.0786
G1 X115.964 Y115.497 E6.0791
G1 X115.164 Y114.751 E6.1708
G1 X115.160 Y114.747 E6.1713
G1 X115.025 Y114.609 E6.1875
G1 X115.021 Y114.605 E6.1879
G1 X114.294 Y113.787 E6.2796
G1 X114.291 Y113.783 E6.2801
G1 X114.169 Y113.632 E6.2963
G1 X114.166 Y113.628 E6.2968
G1 X113.518 Y112.746 E6.3885
G1 X113.515 Y112.741 E6.3889
G1 X113.408 Y112.580 E6.4051
G1 X113.405 Y112.575 E6.4056
G1 X112.844 Y111.637 E6.4973
G1 X112.841 Y111.632 E6.4978
G1 X112.749 Y111.461 E6.5140
G1 X112.747 Y111.456 E6.5145
G1 X112.275 Y110.469 E6.6062
G1 X112.273 Y110.464 E6.6066
G1 X112.198 Y110.286 E6.6228
G1 X112.196 Y110.281 E6.6233
G1 X111.819 Y109.254 E6.7150
G1 X111.817 Y109.248 E6.7155
G1 X111.759 Y109.064 E6.7317
G1 X111.758 Y109.059 E6.7321
G1 X111.479 Y108.001 E6.8238
G1 X111.478 Y107.995 E6.8243
G1 X111.437 Y107.806 E6.8405
G1 X111.436 Y107.801 E6.8410
G1 X111.257 Y106.721 E6.9327
G1 X111.256 Y106.716 E6.9332
G1 X111.234 Y106.524 E6.9493
G1 X111.233 Y106.518 E6.9498
G1 X111.158 Y105.451 E7.0395
G1 X111.158 Y105.447 E7.0398
G1 X111.153 Y105.302 E7.0520
G1 X111.153 Y105.298 E7.0523
G1 X111.153 Y104.702 E7.1023
G1 X111.153 Y104.698 E7.1026
G1 X111.158 Y104.553 E7.1148
G1 X111.158 Y104.549 E7.1151
G1 X111.233 Y103.482 E7.2048
G1 X111.234 Y103.476 E7.2053
G1 X111.256 Y103.284 E7.2214
G1 X111.257 Y103.279 E7.2219
G1 X111.436 Y102.199 E7.3136
G1 X111.437 Y102.194 E7.3141
G1 X111.478 Y102.005 E7.3303
G1 X111.479 Y101.999 E7.3308
G1 X111.758 Y100.941 E7.4225
G1 X111.759 Y100.936 E7.4229
G1 X111.817 Y100.752 E7.4391
G1 X111.819 Y100.746 E7.4396
G1 X112.196 Y99.719 E7.5313
G1 X112.198 Y99.714 E7.5318
G1 X112.273 Y99.536 E7.5480
G1 X112.275 Y99.531 E7.5484
G1 X112.747 Y98.543 E7.6401
G1 X112.749 Y98.538 E7.6406
G1 X112.841 Y98.368 E7.6568
G1 X112.844 Y98.363 E7.6573
G1 X113.405 Y97.424 E7.7490
G1 X113.408 Y97.420 E7.7495
G1 X113.515 Y97.259 E7.7657
G1 X113.518 Y97.254 E7.7661
G1 X114.124 Y96.429 E7.8519
G1 X114.151 Y96.391 F1200
G1 X114.154 Y96.388 F1200
G1 X114.244 Y96.274 F1200
G1 X114.246 Y96.271 F1200
G92 E0
G1 E-1.5000 F1800
; inner perimeter
G1 X118.087 Y99.411 F4800
G1 E0.0000 F1800
G92 E0
G1 X118.357 Y99.093 E0.0349 F1080
G1 X118.641 Y98.788 E0.0699
G1 X118.939 Y98.497 E0.1048
G1 X119.251 Y98.220 E0.1397
G1 X119.575 Y97.958 E0.1747
G1 X119.911 Y97.711 E0.2096
G1 X120.258 Y97.481 E0.2445
G1 X120.615 Y97.267 E0.2795
G1 X120.983 Y97.070 E0.3144
G1 X121.359 Y96.890 E0.3493
G1 X121.743 Y96.728 E0.3843
G1 X122.134 Y96.585 E0.4192
G1 X122.532 Y96.460 E0.4541
G1 X122.935 Y96.354 E0.4891
G1 X123.342 Y96.266 E0.5240
G1 X123.753 Y96.198 E0.5589
G1 X124.164 Y96.150 E0.5935
G1 X124.754 Y96.115 E0.6431
G1 X132.983 Y96.111 E1.3328
G1 X133.075 Y96.115 E1.3406
G1 X133.274 Y96.157 E1.3576
G1 X133.443 Y96.233 E1.3731
G1 X133.593 Y96.342 E1.3886
G1 X133.717 Y96.479 E1.4041
G1 X133.809 Y96.640 E1.4197
G1 X133.866 Y96.815 E1.4351
G1 X133.889 Y97.037 E1.4538
G1 X133.889 Y112.983 E2.7903
G1 X133.885 Y113.075 E2.7981
G1 X133.842 Y113.274 E2.8151
G1 X133.767 Y113.443 E2.8306
G1 X133.658 Y113.593 E2.8461
G1 X133.521 Y113.717 E2.8617
G1 X133.360 Y113.809 E2.8772
G1 X133.174 Y113.870 E2.8936
G1 X133.050 Y113.886 E2.9041
G1 X125.008 Y113.889 E3.5781
G1 X124.583 Y113.880 E3.6138
G1 X124.167 Y113.851 E3.6487
G1 X123.754 Y113.802 E3.6836
G1 X123.343 Y113.734 E3.7185
G1 X122.935 Y113.646 E3.7535
G1 X122.532 Y113.540 E3.7884
G1 X122.134 Y113.415 E3.8233
G1 X121.743 Y113.271 E3.8583
G1 X121.359 Y113.110 E3.8932
G1 X120.983 Y112.930 E3.9281
G1 X120.615 Y112.733 E3.9631
G1 X120.258 Y112.519 E3.9980
G1 X119.911 Y112.289 E4.0329
G1 X119.575 Y112.042 E4.0679
G1 X119.250 Y111.780 E4.1028
G1 X118.939 Y111.503 E4.1378
G1 X118.641 Y111.212 E4.1727
G1 X118.357 Y110.907 E4.2076
G1 X118.087 Y110.589 E4.2426
G1 X117.833 Y110.259 E4.2775
G1 X117.594 Y109.917 E4.3124
G1 X117.372 Y109.565 E4.3473
G1 X117.166 Y109.202 E4.3823
G1 X116.978 Y108.830 E4.4172
G1 X116.807 Y108.450 E4.4521
G1 X116.654 Y108.062 E4.4871
G1 X116.520 Y107.668 E4.5220
G1 X116.404 Y107.267 E4.5570
G1 X116.308 Y106.862 E4.5919
G1 X116.230 Y106.452 E4.6268
G1 X116.171 Y106.040 E4.6617
G1 X116.132 Y105.625 E4.6967
G1 X116.113 Y105.208 E4.7316
G1 X116.113 Y104.792 E4.7666
G1 X116.132 Y104.375 E4.8015
G1 X116.171 Y103.960 E4.8364
G1 X116.230 Y103.548 E4.8713
G1 X116.308 Y103.138 E4.9063
G1 X116.404 Y102.733 E4.9412
G1 X116.520 Y102.332 E4.9762
G1 X116.654 Y101.938 E5.0111
G1 X116.807 Y101.550 E5.0460
G1 X116.978 Y101.170 E5.0809
G1 X117.166 Y100.798 E5.1159
G1 X117.372 Y100.435 E5.1508
G1 X117.594 Y100.083 E5.1858
G1 X117.833 Y99.741 E5.2207
G1 X117.965 Y99.569 E5.2389
G1 X118.087 Y99.411 F1080
; outer perimeter
G1 X117.714 Y99.109 F4800
G92 E0
G1 X117.998 Y98.774 E0.0368 F960
G1 X118.297 Y98.453 E0.0737
G1 X118.611 Y98.146 E0.1105
G1 X118.940 Y97.854 E0.1473
G1 X119.282 Y97.578 E0.1841
G1 X119.636 Y97.318 E0.2209
G1 X120.002 Y97.075 E0.2577
G1 X120.379 Y96.849 E0.2946
G1 X120.766 Y96.642 E0.3314
G1 X121.162 Y96.452 E0.3682
G1 X121.567 Y96.282 E0.4050
G1 X121.979 Y96.130 E0.4418
G1 X122.399 Y95.999 E0.4787
G1 X122.823 Y95.887 E0.5155
G1 X123.253 Y95.794 E0.5523
G1 X123.686 Y95.723 E0.5891
G1 X124.121 Y95.672 E0.6258
G1 X124.740 Y95.635 E0.6778
G1 X132.994 Y95.631 E1.3696
G1 X133.137 Y95.638 E1.3816
G1 X133.423 Y95.698 E1.4061
G1 X133.684 Y95.815 E1.4301
G1 X133.916 Y95.983 E1.4541
G1 X134.107 Y96.196 E1.4780
G1 X134.250 Y96.443 E1.5020
G1 X134.339 Y96.715 E1.5260
G1 X134.369 Y97.012 E1.5510
G1 X134.369 Y112.994 E2.8905
G1 X134.362 Y113.137 E2.9025
G1 X134.302 Y113.423 E2.9270
G1 X134.185 Y113.684 E2.9510
