; G-Code generated by Simplify3D(R) Version 4.0.0
; Jun 30, 2018 at 9:22:31 PM
; Settings Summary
;   processName,PETG
;   applyToModels,crate
;   profileName,Prusa Research Original Prusa i3 MK2 (modified)
;   profileVersion,2017-07-23 22:27:18
;   baseProfile,
;   printMaterial,PET
;   printQuality,Fast
;   printExtruders,
;   extruderName,Primary Extruder
;   extruderToolheadNumber,0
;   extruderDiameter,0.4
;   extruderAutoWidth,1
;   extruderWidth,0.48
;   extrusionMultiplier,1.1
;   extruderUseRetract,1
;   extruderRetractionDistance,1.5
;   extruderExtraRestartDistance,0
;   extruderRetractionZLift,0
;   extruderRetractionSpeed,1800
;   extruderUseCoasting,1
;   extruderCoastingDistance,0.2
;   extruderUseWipe,1
;   extruderWipeDistance,2
;   primaryExtruder,0
;   layerHeight,0.35
;   topSolidLayers,5
;   bottomSolidLayers,5
;   perimeterOutlines,5
;   printPerimetersInsideOut,1
;   startPointOption,2
;   startPointOriginX,0
;   startPointOriginY,0
;   sequentialIslands,0
;   spiralVaseMode,0
;   firstLayerHeightPercentage,120
;   firstLayerWidthPercentage,100
;   firstLayerUnderspeed,0.5
;   useRaft,0
;   raftExtruder,0
;   raftTopLayers,3
;   raftBaseLayers,2
;   raftOffset,3
;   raftSeparationDistance,0.14
;   raftTopInfill,100
;   aboveRaftSpeedMultiplier,0.3
;   useSkirt,1
;   skirtExtruder,0
;   skirtLayers,1
;   skirtOutlines,1
;   skirtOffset,4
;   usePrimePillar,0
;   primePillarExtruder,999
;   primePillarWidth,12
;   primePillarLocation,7
;   primePillarSpeedMultiplier,1
;   useOozeShield,0
;   oozeShieldExtruder,999
;   oozeShieldOffset,2
;   oozeShieldOutlines,1
;   oozeShieldSidewallShape,1
;   oozeShieldSidewallAngle,30
;   oozeShieldSpeedMultiplier,1
;   infillExtruder,0
;   internalInfillPattern,Full Honeycomb
;   externalInfillPattern,Rectilinear
;   infillPercentage,25
;   outlineOverlapPercentage,20
;   infillExtrusionWidthPercentage,100
;   minInfillLength,5
;   infillLayerInterval,1
;   internalInfillAngles,0,120,-120
;   overlapInternalInfillAngles,0
;   externalInfillAngles,45,-45
;   generateSupport,1
;   supportExtruder,0
;   supportInfillPercentage,25
;   supportExtraInflation,0
;   supportBaseLayers,0
;   denseSupportExtruder,0
;   denseSupportLayers,0
;   denseSupportInfillPercentage,70
;   supportLayerInterval,1
;   supportHorizontalPartOffset,0.3
;   supportUpperSeparationLayers,1
;   supportLowerSeparationLayers,1
;   supportType,0
;   supportGridSpacing,4
;   maxOverhangAngle,45
;   supportAngles,0
;   temperatureName,Primary Extruder,Heated Bed
;   temperatureNumber,0,0
;   temperatureSetpointCount,1,1
;   temperatureSetpointLayers,1,1
;   temperatureSetpointTemperatures,230,75
;   temperatureStabilizeAtStartup,1,1
;   temperatureHeatedBed,0,1
;   temperatureRelayBetweenLayers,0,0
;   temperatureRelayBetweenLoops,0,0
;   fanLayers,1,2
;   fanSpeeds,0,50
;   blipFanToFullPower,0
;   adjustSpeedForCooling,1
;   minSpeedLayerTime,15
;   minCoolingSpeedSlowdown,20
;   increaseFanForCooling,0
;   minFanLayerTime,45
;   maxCoolingFanSpeed,100
;   increaseFanForBridging,0
;   bridgingFanSpeed,100
;   use5D,1
;   relativeEdistances,0
;   allowEaxisZeroing,1
;   independentExtruderAxes,0
;   includeM10123,0
;   stickySupport,1
;   applyToolheadOffsets,0
;   gcodeXoffset,0
;   gcodeYoffset,0
;   gcodeZoffset,0
;   overrideMachineDefinition,1
;   machineTypeOverride,0
;   strokeXoverride,250
;   strokeYoverride,210
;   strokeZoverride,200
;   originOffsetXoverride,0
;   originOffsetYoverride,0
;   originOffsetZoverride,0
;   homeXdirOverride,-1
;   homeYdirOverride,-1
;   homeZdirOverride,-1
;   flipXoverride,1
;   flipYoverride,-1
;   flipZoverride,1
;   toolheadOffsets,0,0|0,0|0,0|0,0|0,0|0,0
;   overrideFirmwareConfiguration,1
;   firmwareTypeOverride,RepRap (Marlin/Repetier/Sprinter)
;   GPXconfigOverride,r2
;   baudRateOverride,250000
;   overridePrinterModels,1
;   printerModelsOverride
;   startingGcode,M115 U3.0.7 ; use the latest firmware version,G28 W ; home all axes without mesh bed leveling,G80 ; run mesh bed leveling routine,G1 Y-3.0 F1000.0 ; prepare to prime,G92 E0 ; reset extrusion distance,G1 X60.0 E9.0  F1000.0 ; priming,G1 X100.0 E12.5  F1000.0 ; priming
;   layerChangeGcode,
;   retractionGcode,
;   toolChangeGcode,
;   endingGcode,M106 S0 ; turn off cooling fan,M104 S0 ; turn off extruder,M140 S0 ; turn off bed,G1 X0 Y200 ; part removal,M84 ; disable motors
;   exportFileFormat,gcode
;   celebration,0
;   celebrationSong,Random Song
;   postProcessing,
;   defaultSpeed,2400
;   outlineUnderspeed,0.8
;   solidInfillUnderspeed,0.8
;   supportUnderspeed,0.8
;   rapidXYspeed,4800
;   rapidZspeed,1002
;   minBridgingArea,50
;   bridgingExtraInflation,0
;   bridgingExtrusionMultiplier,1
;   bridgingSpeedMultiplier,1
;   useFixedBridgingAngle,0
;   fixedBridgingAngle,0
;   applyBridgingToPerimeters,0
;   filamentDiameters,1.75|1.75|1.75|1.75|1.75|1.75
;   filamentPricesPerKg,199|46|46|46|46|46
;   filamentDensities,1.25|1.25|1.25|1.25|1.25|1.25
;   useMinPrintHeight,0
;   minPrintHeight,0
;   useMaxPrintHeight,1
;   maxPrintHeight,235
;   useDiaphragm,0
;   diaphragmLayerInterval,20
;   robustSlicing,1
;   mergeAllIntoSolid,0
;   onlyRetractWhenCrossingOutline,1
;   retractBetweenLayers,1
;   useRetractionMinTravel,0
;   retractionMinTravel,3
;   retractWhileWiping,1
;   onlyWipeOutlines,1
;   avoidCrossingOutline,0
;   maxMovementDetourFactor,3
;   toolChangeRetractionDistance,12
;   toolChangeExtraRestartDistance,-0.5
;   toolChangeRetractionSpeed,600
;   externalThinWallType,0
;   internalThinWallType,2
;   thinWallAllowedOverlapPercentage,25
;   singleExtrusionMinLength,1
;   singleExtrusionMinPrintingWidthPercentage,50
;   singleExtrusionMaxPrintingWidthPercentage,200
;   singleExtrusionEndpointExtension,0.2
;   horizontalSizeCompensation,0
G90
M82
M106 S0
M140 S75
M190 S75
M104 S230 T0
M109 S230 T0
M115 U3.0.7 ; use the latest firmware version
G28 W ; home all axes without mesh bed leveling
G80 ; run mesh bed leveling routine
G1 Y-3.0 F1000.0 ; prepare to prime
G92 E0 ; reset extrusion distance
G1 X60.0 E9.0  F1000.0 ; priming
G1 X100.0 E12.5  F1000.0 ; priming
G92 E0
G1 E-1.5000 F1800
G1 Z0.420 F1002
; process PETG
; layer 1, Z = 0.420
T0
; tool H0.420 W0.480
; skirt
G1 X68.943 Y56.480 F4800
G1 E0.0000 F540
G92 E0
G1 X71.354 Y54.069 E0.3143 F1200
G1 X71.442 Y54.032 E0.3231
G1 X72.693 Y54.032 E0.4385
G1 X72.915 Y53.811 E0.4674
G1 X73.003 Y53.774 E0.4762
G1 X75.230 Y53.774 E0.6815
G1 X75.937 Y53.067 E0.7737
G1 X76.025 Y53.031 E0.7825
G1 X83.914 Y53.031 E1.5099
G1 X84.002 Y53.067 E1.5187
G1 X84.200 Y53.265 E1.5444
G1 X90.991 Y53.265 E2.1705
G1 X91.080 Y53.301 E2.1794
G1 X91.311 Y53.532 E2.2095
G1 X94.191 Y53.532 E2.4750
G1 X94.279 Y53.569 E2.4838
G1 X94.304 Y53.594 E2.4871
G1 X97.732 Y53.594 E2.8031
G1 X97.820 Y53.630 E2.8119
G1 X97.848 Y53.658 E2.8156
G1 X104.053 Y53.686 E3.3876
G1 X104.504 Y53.235 E3.4464
G1 X104.592 Y53.199 E3.4552
G1 X112.481 Y53.199 E4.1826
G1 X112.570 Y53.235 E4.1914
G1 X112.673 Y53.339 E4.2049
G1 X115.355 Y53.339 E4.4521
G1 X115.443 Y53.376 E4.4610
G1 X115.653 Y53.586 E4.4883
G1 X116.058 Y53.587 E4.5257
G1 X116.294 Y53.350 E4.5565
G1 X116.382 Y53.314 E4.5653
G1 X119.551 Y53.314 E4.8574
G1 X119.681 Y53.184 E4.8743
G1 X119.769 Y53.147 E4.8831
G1 X127.658 Y53.147 E5.6105
G1 X127.746 Y53.184 E5.6193
G1 X127.939 Y53.376 E5.6443
G1 X131.081 Y53.376 E5.9341
G1 X131.170 Y53.412 E5.9429
G1 X131.336 Y53.578 E5.9646
G1 X134.642 Y53.578 E6.2694
G1 X134.710 Y53.550 E6.2762
G1 X142.599 Y53.550 E7.0035
G1 X142.687 Y53.587 E7.0123
G1 X143.122 Y54.022 E7.0690
G1 X143.717 Y54.022 E7.1239
G1 X144.100 Y53.639 E7.1738
G1 X144.188 Y53.603 E7.1826
G1 X146.882 Y53.603 E7.4310
G1 X147.227 Y53.258 E7.4760
G1 X147.315 Y53.221 E7.4848
G1 X155.205 Y53.221 E8.2121
G1 X155.293 Y53.258 E8.2209
G1 X155.580 Y53.546 E8.2584
G1 X162.677 Y53.546 E8.9127
G1 X162.755 Y53.578 E8.9205
G1 X165.116 Y53.578 E9.1382
G1 X165.204 Y53.614 E9.1470
G1 X165.231 Y53.641 E9.1505
G1 X169.257 Y53.641 E9.5217
G1 X169.347 Y53.552 E9.5333
G1 X169.435 Y53.516 E9.5421
G1 X177.324 Y53.516 E10.2695
G1 X177.412 Y53.552 E10.2783
G1 X178.272 Y54.412 E10.3904
G1 X179.263 Y54.412 E10.4818
G1 X179.351 Y54.449 E10.4906
G1 X181.762 Y56.859 E10.8049
G1 X181.798 Y56.947 E10.8137
G1 X181.798 Y64.837 E11.5410
G1 X181.762 Y64.925 E11.5499
G1 X181.721 Y64.965 E11.5551
G1 X181.726 Y66.642 E11.7097
G1 X181.780 Y66.695 E11.7167
G1 X181.817 Y66.784 E11.7255
G1 X181.817 Y69.046 E11.9341
G1 X182.160 Y69.389 E11.9788
G1 X182.196 Y69.477 E11.9876
G1 X182.196 Y77.367 E12.7150
G1 X182.160 Y77.455 E12.7238
G1 X182.113 Y77.502 E12.7299
G1 X182.113 Y80.365 E12.9939
G1 X182.076 Y80.453 E13.0027
G1 X181.868 Y80.661 E13.0298
G1 X181.868 Y81.390 E13.0970
G1 X182.343 Y81.865 E13.1588
G1 X182.379 Y81.953 E13.1676
G1 X182.379 Y89.842 E13.8950
G1 X182.343 Y89.930 E13.9038
G1 X182.269 Y90.003 E13.9134
G1 X182.269 Y91.591 E14.0598
G1 X182.233 Y91.680 E14.0686
G1 X182.036 Y91.876 E14.0942
G1 X182.036 Y94.923 E14.3751
G1 X182.000 Y95.011 E14.3839
G1 X181.947 Y95.064 E14.3908
G1 X182.054 Y95.170 E14.4047
G1 X182.090 Y95.259 E14.4135
G1 X182.090 Y103.148 E15.1408
G1 X182.054 Y103.236 E15.1496
G1 X181.574 Y103.716 E15.2122
G1 X181.574 Y104.671 E15.3003
G1 X181.537 Y104.760 E15.3091
G1 X179.127 Y107.170 E15.6234
G1 X179.039 Y107.207 E15.6322
G1 X178.000 Y107.207 E15.7279
G1 X177.144 Y108.063 E15.8396
G1 X177.056 Y108.100 E15.8484
G1 X174.180 Y108.100 E16.1135
G1 X174.114 Y108.166 E16.1221
G1 X174.026 Y108.202 E16.1309
G1 X170.956 Y108.202 E16.4140
G1 X170.912 Y108.247 E16.4198
G1 X170.823 Y108.283 E16.4286
G1 X168.213 Y108.283 E16.6693
G1 X168.149 Y108.347 E16.6775
G1 X168.061 Y108.383 E16.6864
G1 X160.172 Y108.383 E17.4137
G1 X160.084 Y108.347 E17.4225
G1 X159.871 Y108.134 E17.4503
G1 X158.798 Y108.134 E17.5492
G1 X158.668 Y108.264 E17.5661
G1 X158.580 Y108.300 E17.5749
G1 X150.691 Y108.300 E18.3023
G1 X150.603 Y108.264 E18.3111
G1 X150.502 Y108.163 E18.3242
G1 X146.112 Y108.145 E18.7289
G1 X146.101 Y108.156 E18.7304
G1 X146.013 Y108.193 E18.7392
G1 X138.124 Y108.193 E19.4665
G1 X138.036 Y108.156 E19.4753
G1 X137.945 Y108.066 E19.4871
G1 X137.654 Y108.065 E19.5140
G1 X137.497 Y108.222 E19.5344
G1 X137.409 Y108.258 E19.5433
G1 X129.520 Y108.258 E20.2706
G1 X129.431 Y108.222 E20.2794
G1 X129.344 Y108.134 E20.2908
G1 X129.140 Y108.133 E20.3096
G1 X128.761 Y108.510 E20.3589
G1 X128.673 Y108.547 E20.3677
G1 X117.477 Y108.498 E21.3999
G1 X117.389 Y108.461 E21.4087
G1 X117.127 Y108.197 E21.4430
G1 X114.925 Y108.197 E21.6461
G1 X114.895 Y108.227 E21.6499
G1 X114.806 Y108.264 E21.6588
G1 X106.917 Y108.264 E22.3861
G1 X106.829 Y108.227 E22.3949
G1 X106.726 Y108.124 E22.4083
G1 X103.726 Y108.124 E22.6849
G1 X103.638 Y108.088 E22.6937
G1 X103.549 Y107.999 E22.7053
G1 X101.631 Y107.999 E22.8821
G1 X101.588 Y108.017 E22.8864
G1 X93.699 Y108.017 E23.6138
G1 X93.611 Y107.981 E23.6226
G1 X93.479 Y107.848 E23.6398
G1 X87.313 Y107.848 E24.2083
G1 X87.224 Y107.812 E24.2171
G1 X87.007 Y107.594 E24.2455
G1 X83.403 Y107.578 E24.5777
G1 X82.936 Y108.044 E24.6386
G1 X82.848 Y108.081 E24.6474
G1 X74.959 Y108.081 E25.3748
G1 X74.870 Y108.044 E25.3836
G1 X74.567 Y107.740 E25.4232
G1 X72.217 Y107.740 E25.6399
G1 X72.128 Y107.704 E25.6487
G1 X69.718 Y105.293 E25.9630
G1 X69.681 Y105.205 E25.9718
G1 X69.681 Y104.854 E26.0042
G1 X67.716 Y102.888 E26.2604
G1 X67.679 Y102.800 E26.2692
G1 X67.679 Y99.766 E26.5490
G1 X67.577 Y99.663 E26.5624
G1 X67.541 Y99.575 E26.5712
G1 X67.541 Y96.507 E26.8540
G1 X67.488 Y96.455 E26.8609
G1 X67.451 Y96.366 E26.8697
G1 X67.451 Y92.827 E27.1960
G1 X67.311 Y92.687 E27.2143
G1 X67.274 Y92.599 E27.2231
G1 X67.274 Y84.710 E27.9504
G1 X67.311 Y84.621 E27.9592
G1 X67.519 Y84.413 E27.9863
G1 X67.519 Y83.901 E28.0335
G1 X67.516 Y83.896 E28.0341
G1 X67.516 Y76.006 E28.7615
G1 X67.553 Y75.918 E28.7703
G1 X67.789 Y75.682 E28.8011
G1 X67.789 Y72.249 E29.1176
G1 X67.826 Y72.161 E29.1264
G1 X67.920 Y72.067 E29.1386
G1 X67.920 Y70.039 E29.3256
G1 X67.825 Y69.944 E29.3379
G1 X67.788 Y69.856 E29.3467
G1 X67.788 Y61.967 E30.0741
G1 X67.825 Y61.879 E30.0829
G1 X67.913 Y61.791 E30.0943
G1 X67.913 Y59.080 E30.3443
G1 X67.949 Y58.992 E30.3531
G1 X68.906 Y58.035 E30.4779
G1 X68.906 Y56.672 E30.6035
G1 X68.906 Y56.568 F1200
G1 X68.943 Y56.480 F1200
G92 E0
G1 E-1.5000 F1800
; inner perimeter
G1 X77.160 Y63.160 F4800
G1 E0.0000 F1800
G92 E0
G1 X172.840 Y63.160 E8.8214 F1080
G1 X172.840 Y98.840 E12.1110
G1 X77.160 Y98.840 E20.9324
G1 X77.160 Y63.360 E24.2036
G1 X77.160 Y63.160 F1080
G1 X77.066 Y62.680 F4800
G92 E0
G1 X172.934 Y62.680 E8.8387 F1080
G1 X173.049 Y62.689 E8.8494
G1 X173.097 Y62.701 E8.8540
G1 X173.143 Y62.719 E8.8585
G1 X173.185 Y62.745 E8.8631
G1 X173.223 Y62.777 E8.8676
G1 X173.255 Y62.815 E8.8722
G1 X173.280 Y62.857 E8.8767
G1 X173.299 Y62.903 E8.8813
G1 X173.311 Y62.951 E8.8858
G1 X173.320 Y63.066 E8.8965
G1 X173.320 Y98.934 E12.2034
G1 X173.311 Y99.049 E12.2141
G1 X173.299 Y99.097 E12.2186
G1 X173.280 Y99.143 E12.2232
G1 X173.255 Y99.185 E12.2277
G1 X173.223 Y99.223 E12.2323
G1 X173.185 Y99.255 E12.2369
G1 X173.143 Y99.280 E12.2414
G1 X173.097 Y99.299 E12.2460
G1 X173.049 Y99.311 E12.2505
G1 X172.934 Y99.320 E12.2612
G1 X77.066 Y99.320 E21.0999
G1 X76.951 Y99.311 E21.1106
G1 X76.903 Y99.299 E21.1151
G1 X76.857 Y99.280 E21.1197
G1 X76.815 Y99.255 E21.1243
G1 X76.777 Y99.223 E21.1288
G1 X76.745 Y99.185 E21.1334
G1 X76.720 Y99.143 E21.1379
G1 X76.701 Y99.097 E21.1425
G1 X76.689 Y99.049 E21.1470
G1 X76.680 Y98.934 E21.1577
G1 X76.680 Y63.066 E24.4646
G1 X76.689 Y62.951 E24.4753
G1 X76.701 Y62.903 E24.4798
G1 X76.719 Y62.857 E24.4844
G1 X76.745 Y62.815 E24.4889
G1 X76.777 Y62.777 E24.4935
G1 X76.815 Y62.745 E24.4980
G1 X76.857 Y62.720 E24.5026
G1 X76.870 Y62.714 E24.5039
G1 X76.903 Y62.701 F1080
G1 X76.951 Y62.689 F1080
G1 X77.066 Y62.680 F1080
G1 X77.047 Y62.200 F4800
G92 E0
G1 X172.953 Y62.200 E8.8422 F1080
G1 X173.125 Y62.214 E8.8581
G1 X173.246 Y62.243 E8.8696
G1 X173.362 Y62.291 E8.8811
G1 X173.468 Y62.356 E8.8927
G1 X173.563 Y62.437 E8.9042
G1 X173.644 Y62.532 E8.9157
G1 X173.709 Y62.639 E8.9272
G1 X173.757 Y62.754 E8.9388
G1 X173.787 Y62.875 E8.9503
G1 X173.800 Y63.047 E8.9661
G1 X173.800 Y98.953 E12.2766
G1 X173.787 Y99.124 E12.2924
G1 X173.757 Y99.246 E12.3039
G1 X173.709 Y99.362 E12.3155
G1 X173.644 Y99.468 E12.3270
G1 X173.563 Y99.563 E12.3385
G1 X173.468 Y99.644 E12.3500
G1 X173.362 Y99.709 E12.3615
G1 X173.246 Y99.757 E12.3731
G1 X173.124 Y99.787 E12.3846
G1 X172.953 Y99.800 E12.4005
G1 X77.047 Y99.800 E21.2427
G1 X76.875 Y99.787 E21.2586
G1 X76.754 Y99.757 E21.2701
G1 X76.639 Y99.710 E21.2816
G1 X76.532 Y99.644 E21.2931
G1 X76.437 Y99.563 E21.3047
G1 X76.356 Y99.468 E21.3162
G1 X76.291 Y99.362 E21.3277
G1 X76.243 Y99.246 E21.3392
G1 X76.214 Y99.125 E21.3507
G1 X76.200 Y98.953 E21.3666
G1 X76.200 Y63.047 E24.6770
G1 X76.214 Y62.875 E24.6929
G1 X76.243 Y62.754 E24.7044
G1 X76.290 Y62.639 E24.7159
G1 X76.356 Y62.532 E24.7275
G1 X76.437 Y62.437 E24.7390
G1 X76.532 Y62.356 E24.7505
G1 X76.638 Y62.290 E24.7620
G1 X76.754 Y62.243 E24.7735
G1 X76.848 Y62.220 E24.7825
G1 X76.875 Y62.214 F1080
G1 X77.047 Y62.200 F1080
G1 X77.028 Y61.720 F4800
G92 E0
G1 X172.972 Y61.720 E8.8457 F1080
G1 X173.200 Y61.738 E8.8668
G1 X173.395 Y61.785 E8.8853
G1 X173.580 Y61.862 E8.9038
G1 X173.751 Y61.966 E8.9223
G1 X173.903 Y62.096 E8.9407
G1 X174.034 Y62.249 E8.9592
G1 X174.138 Y62.420 E8.9777
G1 X174.215 Y62.605 E8.9962
G1 X174.262 Y62.800 E9.0147
G1 X174.280 Y63.028 E9.0358
G1 X174.280 Y98.972 E12.3497
G1 X174.262 Y99.200 E12.3708
G1 X174.215 Y99.395 E12.3893
G1 X174.138 Y99.580 E12.4078
G1 X174.034 Y99.751 E12.4262
G1 X173.904 Y99.903 E12.4447
G1 X173.751 Y100.034 E12.4632
G1 X173.580 Y100.138 E12.4817
G1 X173.395 Y100.215 E12.5002
G1 X173.200 Y100.262 E12.5187
G1 X172.972 Y100.280 E12.5398
G1 X77.028 Y100.280 E21.3855
G1 X76.800 Y100.262 E21.4066
G1 X76.605 Y100.215 E21.4251
G1 X76.420 Y100.138 E21.4435
G1 X76.249 Y100.034 E21.4620
G1 X76.096 Y99.903 E21.4805
G1 X75.966 Y99.751 E21.4990
G1 X75.862 Y99.580 E21.5175
G1 X75.785 Y99.395 E21.5360
