; G-Code generated by Simplify3D(R) Version 4.0.0
; Jan 28, 2018 at 10:21:34 PM
; Settings Summary
;   processName,Process1
;   applyToModels,cap,tube
;   profileName,Prusa Research Original Prusa i3 MK2 (modified)
;   profileVersion,2017-07-23 22:27:18
;   baseProfile,
;   printMaterial,PLA
;   printQuality,Medium
;   printExtruders,
;   extruderName,Primary Extruder
;   extruderToolheadNumber,0
;   extruderDiameter,0.4
;   extruderAutoWidth,1
;   extruderWidth,0.48
;   extrusionMultiplier,1
;   extruderUseRetract,1
;   extruderRetractionDistance,1.5
;   extruderExtraRestartDistance,0
;   extruderRetractionZLift,0
;   extruderRetractionSpeed,1800
;   extruderUseCoasting,1
;   extruderCoastingDistance,0.2
;   extruderUseWipe,1
;   extruderWipeDistance,2
;   primaryExtruder,0
;   layerHeight,0.2
;   topSolidLayers,3
;   bottomSolidLayers,3
;   perimeterOutlines,2
;   printPerimetersInsideOut,1
;   startPointOption,2
;   startPointOriginX,0
;   startPointOriginY,0
;   sequentialIslands,0
;   spiralVaseMode,0
;   firstLayerHeightPercentage,120
;   firstLayerWidthPercentage,100
;   firstLayerUnderspeed,0.5
;   useRaft,0
;   raftExtruder,0
;   raftTopLayers,3
;   raftBaseLayers,2
;   raftOffset,3
;   raftSeparationDistance,0.14
;   raftTopInfill,100
;   aboveRaftSpeedMultiplier,0.3
;   useSkirt,1
;   skirtExtruder,0
;   skirtLayers,1
;   skirtOutlines,1
;   skirtOffset,4
;   usePrimePillar,0
;   primePillarExtruder,999
;   primePillarWidth,12
;   primePillarLocation,7
;   primePillarSpeedMultiplier,1
;   useOozeShield,0
;   oozeShieldExtruder,999
;   oozeShieldOffset,2
;   oozeShieldOutlines,1
;   oozeShieldSidewallShape,1
;   oozeShieldSidewallAngle,30
;   oozeShieldSpeedMultiplier,1
;   infillExtruder,0
;   internalInfillPattern,Rectilinear
;   externalInfillPattern,Rectilinear
;   infillPercentage,12
;   outlineOverlapPercentage,20
;   infillExtrusionWidthPercentage,100
;   minInfillLength,5
;   infillLayerInterval,1
;   internalInfillAngles,45,-45
;   overlapInternalInfillAngles,0
;   externalInfillAngles,45,-45
;   generateSupport,0
;   supportExtruder,0
;   supportInfillPercentage,30
;   supportExtraInflation,0
;   supportBaseLayers,0
;   denseSupportExtruder,0
;   denseSupportLayers,0
;   denseSupportInfillPercentage,70
;   supportLayerInterval,1
;   supportHorizontalPartOffset,0.3
;   supportUpperSeparationLayers,1
;   supportLowerSeparationLayers,1
;   supportType,0
;   supportGridSpacing,4
;   maxOverhangAngle,45
;   supportAngles,0
;   temperatureName,Primary Extruder,Heated Bed
;   temperatureNumber,0,0
;   temperatureSetpointCount,1,1
;   temperatureSetpointLayers,1,1
;   temperatureSetpointTemperatures,210,60
;   temperatureStabilizeAtStartup,1,1
;   temperatureHeatedBed,0,1
;   temperatureRelayBetweenLayers,0,0
;   temperatureRelayBetweenLoops,0,0
;   fanLayers,1,2
;   fanSpeeds,0,100
;   blipFanToFullPower,0
;   adjustSpeedForCooling,1
;   minSpeedLayerTime,15
;   minCoolingSpeedSlowdown,20
;   increaseFanForCooling,0
;   minFanLayerTime,45
;   maxCoolingFanSpeed,100
;   increaseFanForBridging,0
;   bridgingFanSpeed,100
;   use5D,1
;   relativeEdistances,0
;   allowEaxisZeroing,1
;   independentExtruderAxes,0
;   includeM10123,0
;   stickySupport,1
;   applyToolheadOffsets,0
;   gcodeXoffset,0
;   gcodeYoffset,0
;   gcodeZoffset,0
;   overrideMachineDefinition,1
;   machineTypeOverride,0
;   strokeXoverride,250
;   strokeYoverride,210
;   strokeZoverride,200
;   originOffsetXoverride,0
;   originOffsetYoverride,0
;   originOffsetZoverride,0
;   homeXdirOverride,-1
;   homeYdirOverride,-1
;   homeZdirOverride,-1
;   flipXoverride,1
;   flipYoverride,-1
;   flipZoverride,1
;   toolheadOffsets,0,0|0,0|0,0|0,0|0,0|0,0
;   overrideFirmwareConfiguration,1
;   firmwareTypeOverride,RepRap (Marlin/Repetier/Sprinter)
;   GPXconfigOverride,r2
;   baudRateOverride,250000
;   overridePrinterModels,1
;   printerModelsOverride
;   startingGcode,M115 U3.0.7 ; use the latest firmware version,G28 W ; home all axes without mesh bed leveling,G80 ; run mesh bed leveling routine,G1 Y-3.0 F1000.0 ; prepare to prime,G92 E0 ; reset extrusion distance,G1 X60.0 E9.0  F1000.0 ; priming,G1 X100.0 E12.5  F1000.0 ; priming
;   layerChangeGcode,
;   retractionGcode,
;   toolChangeGcode,
;   endingGcode,M106 S0 ; turn off cooling fan,M104 S0 ; turn off extruder,M140 S0 ; turn off bed,G1 X0 Y200 ; part removal,M84 ; disable motors
;   exportFileFormat,gcode
;   celebration,0
;   celebrationSong,Random Song
;   postProcessing,
;   defaultSpeed,2400
;   outlineUnderspeed,0.8
;   solidInfillUnderspeed,0.8
;   supportUnderspeed,0.8
;   rapidXYspeed,4800
;   rapidZspeed,1002
;   minBridgingArea,50
;   bridgingExtraInflation,0
;   bridgingExtrusionMultiplier,1
;   bridgingSpeedMultiplier,1
;   useFixedBridgingAngle,0
;   fixedBridgingAngle,0
;   applyBridgingToPerimeters,0
;   filamentDiameters,1.75|1.75|1.75|1.75|1.75|1.75
;   filamentPricesPerKg,199|46|46|46|46|46
;   filamentDensities,1.25|1.25|1.25|1.25|1.25|1.25
;   useMinPrintHeight,0
;   minPrintHeight,0
;   useMaxPrintHeight,1
;   maxPrintHeight,235
;   useDiaphragm,0
;   diaphragmLayerInterval,20
;   robustSlicing,1
;   mergeAllIntoSolid,0
;   onlyRetractWhenCrossingOutline,1
;   retractBetweenLayers,1
;   useRetractionMinTravel,0
;   retractionMinTravel,3
;   retractWhileWiping,1
;   onlyWipeOutlines,1
;   avoidCrossingOutline,0
;   maxMovementDetourFactor,3
;   toolChangeRetractionDistance,12
;   toolChangeExtraRestartDistance,-0.5
;   toolChangeRetractionSpeed,600
;   externalThinWallType,0
;   internalThinWallType,2
;   thinWallAllowedOverlapPercentage,25
;   singleExtrusionMinLength,1
;   singleExtrusionMinPrintingWidthPercentage,50
;   singleExtrusionMaxPrintingWidthPercentage,200
;   singleExtrusionEndpointExtension,0.2
;   horizontalSizeCompensation,0
G90
M82
M106 S0
M140 S60
M190 S60
M104 S210 T0
M109 S210 T0
M115 U3.0.7 ; use the latest firmware version
G28 W ; home all axes without mesh bed leveling
G80 ; run mesh bed leveling routine
G1 Y-3.0 F1000.0 ; prepare to prime
G92 E0 ; reset extrusion distance
G1 X60.0 E9.0  F1000.0 ; priming
G1 X100.0 E12.5  F1000.0 ; priming
G92 E0
G1 E-1.5000 F1800
G1 Z0.240 F1002
; process Process1
; layer 1, Z = 0.240
T0
; tool H0.240 W0.480
; skirt
G1 X113.985 Y84.325 F4800
G1 E0.0000 F540
G92 E0
G1 X114.099 Y84.173 E0.0091 F1200
G1 X114.103 Y84.168 E0.0094
G1 X114.783 Y83.349 E0.0604
G1 X114.787 Y83.345 E0.0607
G1 X114.915 Y83.204 E0.0698
G1 X114.919 Y83.200 E0.0701
G1 X115.672 Y82.447 E0.1211
G1 X115.676 Y82.443 E0.1213
G1 X115.817 Y82.315 E0.1305
G1 X115.821 Y82.311 E0.1307
G1 X116.640 Y81.631 E0.1817
G1 X116.644 Y81.628 E0.1819
G1 X116.796 Y81.513 E0.1911
G1 X116.800 Y81.510 E0.1913
G1 X117.680 Y80.907 E0.2424
G1 X117.685 Y80.904 E0.2427
G1 X117.847 Y80.804 E0.2518
G1 X117.852 Y80.801 E0.2521
G1 X118.783 Y80.283 E0.3031
G1 X118.787 Y80.280 E0.3034
G1 X118.958 Y80.195 E0.3125
G1 X118.963 Y80.193 E0.3127
G1 X119.937 Y79.762 E0.3638
G1 X119.943 Y79.760 E0.3640
G1 X120.120 Y79.692 E0.3732
G1 X120.125 Y79.690 E0.3734
G1 X121.135 Y79.351 E0.4244
G1 X121.141 Y79.349 E0.4247
G1 X121.324 Y79.297 E0.4338
G1 X121.329 Y79.296 E0.4341
G1 X122.366 Y79.052 E0.4851
G1 X122.372 Y79.051 E0.4854
G1 X122.559 Y79.016 E0.4945
G1 X122.564 Y79.015 E0.4948
G1 X123.622 Y78.867 E0.5459
G1 X123.628 Y78.867 E0.5462
G1 X123.823 Y78.849 E0.5556
G1 X123.829 Y78.849 E0.5559
G1 X124.935 Y78.801 E0.6089
G1 X124.939 Y78.801 E0.6091
G1 X125.092 Y78.800 E0.6164
G1 X125.096 Y78.800 E0.6166
G1 X133.343 Y79.052 E1.0118
G1 X133.350 Y79.053 E1.0121
G1 X133.606 Y79.076 E1.0244
G1 X133.613 Y79.077 E1.0248
G1 X134.255 Y79.178 E1.0559
G1 X134.267 Y79.180 E1.0565
G1 X134.676 Y79.288 E1.0767
G1 X134.688 Y79.292 E1.0773
G1 X135.368 Y79.548 E1.1121
G1 X135.379 Y79.553 E1.1127
G1 X135.759 Y79.743 E1.1331
G1 X135.770 Y79.749 E1.1337
G1 X136.384 Y80.140 E1.1685
G1 X136.394 Y80.147 E1.1691
G1 X136.727 Y80.410 E1.1894
G1 X136.736 Y80.419 E1.1900
G1 X137.295 Y80.963 E1.2274
G1 X137.306 Y80.975 E1.2282
G1 X137.635 Y81.391 E1.2536
G1 X137.644 Y81.404 E1.2544
G1 X138.183 Y82.301 E1.3045
G1 X138.191 Y82.318 E1.3054
G1 X138.435 Y82.925 E1.3367
G1 X138.441 Y82.943 E1.3376
G1 X138.671 Y83.956 E1.3874
G1 X138.674 Y83.970 E1.3880
G1 X138.725 Y84.436 E1.4105
G1 X138.726 Y84.450 E1.4111
G1 X138.667 Y100.501 E2.1799
G1 X138.667 Y100.508 E2.1803
G1 X138.650 Y100.766 E2.1927
G1 X138.649 Y100.774 E2.1930
G1 X138.565 Y101.419 E2.2242
G1 X138.563 Y101.431 E2.2248
G1 X138.465 Y101.844 E2.2451
G1 X138.462 Y101.856 E2.2457
G1 X138.223 Y102.542 E2.2805
G1 X138.218 Y102.554 E2.2811
G1 X138.038 Y102.938 E2.3014
G1 X138.032 Y102.949 E2.3020
G1 X137.658 Y103.573 E2.3369
G1 X137.651 Y103.583 E2.3374
G1 X137.396 Y103.923 E2.3578
G1 X137.388 Y103.932 E2.3584
G1 X136.894 Y104.466 E2.3932
G1 X136.885 Y104.475 E2.3938
G1 X136.566 Y104.755 E2.4142
G1 X136.556 Y104.763 E2.4148
G1 X135.920 Y105.215 E2.4522
G1 X135.907 Y105.224 E2.4529
G1 X135.438 Y105.473 E2.4783
G1 X135.424 Y105.480 E2.4791
G1 X134.546 Y105.811 E2.5240
G1 X134.533 Y105.815 E2.5246
G1 X134.108 Y105.925 E2.5457
G1 X134.095 Y105.928 E2.5463
G1 X133.579 Y106.004 E2.5713
G1 X133.572 Y106.005 E2.5717
G1 X133.319 Y106.027 E2.5838
G1 X133.311 Y106.027 E2.5842
G1 X132.514 Y106.046 E2.6224
G1 X132.555 Y106.072 E2.6247
G1 X132.558 Y106.074 E2.6249
G1 X132.678 Y106.155 E2.6318
G1 X132.682 Y106.157 E2.6320
G1 X133.335 Y106.630 E2.6706
G1 X133.339 Y106.633 E2.6709
G1 X133.479 Y106.744 E2.6795
G1 X133.483 Y106.747 E2.6797
G1 X134.402 Y107.541 E2.7379
G1 X134.406 Y107.545 E2.7382
G1 X134.564 Y107.697 E2.7486
G1 X134.569 Y107.701 E2.7489
G1 X135.382 Y108.572 E2.8060
G1 X135.387 Y108.577 E2.8063
G1 X135.523 Y108.738 E2.8164
G1 X135.526 Y108.743 E2.8167
G1 X136.254 Y109.701 E2.8744
G1 X136.258 Y109.706 E2.8747
G1 X136.380 Y109.886 E2.8851
G1 X136.384 Y109.892 E2.8854
G1 X137.003 Y110.917 E2.9428
G1 X137.007 Y110.923 E2.9431
G1 X137.106 Y111.108 E2.9531
G1 X137.109 Y111.113 E2.9534
G1 X137.610 Y112.174 E3.0096
G1 X137.612 Y112.179 E3.0099
G1 X137.683 Y112.348 E3.0186
G1 X137.685 Y112.353 E3.0189
G1 X137.972 Y113.131 E3.0586
G1 X137.973 Y113.135 E3.0588
G1 X138.018 Y113.270 E3.0657
G1 X138.019 Y113.274 E3.0658
G1 X138.245 Y114.048 E3.1045
G1 X138.246 Y114.052 E3.1047
G1 X138.280 Y114.187 E3.1114
G1 X138.281 Y114.191 E3.1115
G1 X138.447 Y114.947 E3.1486
G1 X138.448 Y114.951 E3.1488
G1 X138.474 Y115.095 E3.1558
G1 X138.475 Y115.099 E3.1560
G1 X138.597 Y115.928 E3.1961
G1 X138.597 Y115.933 E3.1964
G1 X138.615 Y116.110 E3.2049
G1 X138.616 Y116.116 E3.2052
G1 X138.685 Y117.286 E3.2613
G1 X138.685 Y117.291 E3.2616
G1 X138.688 Y117.473 E3.2703
G1 X138.688 Y117.478 E3.2705
G1 X138.663 Y118.309 E3.3103
G1 X138.663 Y118.314 E3.3106
G1 X138.650 Y118.489 E3.3190
G1 X138.650 Y118.494 E3.3192
G1 X138.515 Y119.668 E3.3758
G1 X138.514 Y119.675 E3.3761
G1 X138.478 Y119.888 E3.3865
G1 X138.476 Y119.895 E3.3868
G1 X138.215 Y121.067 E3.4443
G1 X138.213 Y121.073 E3.4446
G1 X138.156 Y121.278 E3.4549
G1 X138.154 Y121.284 E3.4552
G1 X137.768 Y122.435 E3.5133
G1 X137.766 Y122.441 E3.5136
G1 X137.686 Y122.643 E3.5240
G1 X137.684 Y122.649 E3.5243
G1 X137.190 Y123.729 E3.5812
G1 X137.188 Y123.734 E3.5815
G1 X137.091 Y123.921 E3.5915
G1 X137.088 Y123.926 E3.5918
G1 X136.490 Y124.944 E3.6484
G1 X136.488 Y124.949 E3.6486
G1 X136.388 Y125.102 E3.6574
G1 X136.385 Y125.107 E3.6576
G1 X135.898 Y125.790 E3.6978
G1 X135.895 Y125.794 E3.6981
G1 X135.787 Y125.933 E3.7065
G1 X135.784 Y125.937 E3.7067
G1 X135.016 Y126.839 E3.7634
G1 X135.012 Y126.843 E3.7637
G1 X134.863 Y127.001 E3.7741
G1 X134.859 Y127.005 E3.7744
G1 X133.990 Y127.833 E3.8319
G1 X133.985 Y127.837 E3.8322
G1 X133.824 Y127.975 E3.8424
G1 X133.819 Y127.979 E3.8427
G1 X132.873 Y128.710 E3.8999
G1 X132.868 Y128.713 E3.9002
G1 X132.719 Y128.818 E3.9089
G1 X132.715 Y128.821 E3.9092
G1 X132.035 Y129.256 E3.9478
G1 X132.032 Y129.258 E3.9480
G1 X131.911 Y129.329 E3.9547
G1 X131.908 Y129.331 E3.9549
G1 X131.208 Y129.714 E3.9931
G1 X131.205 Y129.716 E3.9933
G1 X131.080 Y129.779 E4.0000
G1 X131.076 Y129.781 E4.0002
G1 X130.352 Y130.116 E4.0384
G1 X130.348 Y130.117 E4.0386
G1 X130.212 Y130.175 E4.0457
G1 X130.208 Y130.176 E4.0459
G1 X129.453 Y130.461 E4.0845
G1 X129.450 Y130.463 E4.0847
G1 X129.316 Y130.508 E4.0915
G1 X129.312 Y130.509 E4.0917
G1 X128.548 Y130.740 E4.1299
G1 X128.545 Y130.741 E4.1301
G1 X128.410 Y130.776 E4.1367
G1 X128.406 Y130.777 E4.1369
G1 X127.640 Y130.953 E4.1746
G1 X127.636 Y130.954 E4.1748
G1 X127.491 Y130.982 E4.1819
G1 X127.486 Y130.982 E4.1821
G1 X126.661 Y131.110 E4.2221
G1 X126.656 Y131.111 E4.2223
G1 X126.479 Y131.131 E4.2308
G1 X126.474 Y131.131 E4.2311
G1 X125.301 Y131.210 E4.2874
G1 X125.295 Y131.210 E4.2877
G1 X125.113 Y131.215 E4.2964
G1 X125.108 Y131.215 E4.2966
G1 X124.299 Y131.198 E4.3354
G1 X124.295 Y131.197 E4.3356
G1 X124.155 Y131.190 E4.3423
G1 X124.151 Y131.189 E4.3425
G1 X123.357 Y131.119 E4.3807
G1 X123.353 Y131.118 E4.3808
G1 X123.214 Y131.101 E4.3875
G1 X123.210 Y131.100 E4.3877
G1 X122.408 Y130.974 E4.4266
G1 X122.403 Y130.973 E4.4269
G1 X122.224 Y130.936 E4.4357
G1 X122.218 Y130.935 E4.4359
G1 X121.064 Y130.645 E4.4929
G1 X121.058 Y130.644 E4.4932
G1 X120.856 Y130.582 E4.5033
G1 X120.851 Y130.580 E4.5036
G1 X119.750 Y130.181 E4.5597
G1 X119.746 Y130.179 E4.5599
G1 X119.577 Y130.110 E4.5686
G1 X119.572 Y130.107 E4.5689
G1 X118.802 Y129.748 E4.6096
G1 X118.797 Y129.746 E4.6099
G1 X118.640 Y129.664 E4.6184
G1 X118.635 Y129.661 E4.6186
G1 X117.603 Y129.067 E4.6756
G1 X117.598 Y129.064 E4.6759
G1 X117.415 Y128.945 E4.6864
G1 X117.410 Y128.942 E4.6867
G1 X116.445 Y128.241 E4.7438
G1 X116.440 Y128.237 E4.7441
G1 X116.277 Y128.106 E4.7541
G1 X116.273 Y128.102 E4.7544
G1 X115.384 Y127.307 E4.8115
G1 X115.380 Y127.302 E4.8118
G1 X115.225 Y127.149 E4.8222
G1 X115.221 Y127.144 E4.8225
G1 X114.421 Y126.260 E4.8796
G1 X114.418 Y126.256 E4.8799
G1 X114.305 Y126.120 E4.8883
G1 X114.302 Y126.116 E4.8886
G1 X113.792 Y125.444 E4.9290
G1 X113.789 Y125.439 E4.9293
G1 X113.685 Y125.290 E4.9380
G1 X113.682 Y125.285 E4.9382
G1 X113.056 Y124.289 E4.9946
G1 X113.053 Y124.284 E4.9949
G1 X112.950 Y124.098 E5.0051
G1 X112.947 Y124.093 E5.0054
G1 X112.411 Y123.004 E5.0635
G1 X112.408 Y122.999 E5.0638
G1 X112.322 Y122.799 E5.0742
G1 X112.320 Y122.793 E5.0745
G1 X111.910 Y121.678 E5.1314
G1 X111.908 Y121.672 E5.1317
G1 X111.846 Y121.471 E5.1417
G1 X111.844 Y121.466 E5.1420
G1 X111.547 Y120.305 E5.1994
G1 X111.546 Y120.299 E5.1997
G1 X111.503 Y120.085 E5.2101
G1 X111.502 Y120.079 E5.2104
G1 X111.329 Y118.890 E5.2680
G1 X111.328 Y118.884 E5.2683
G1 X111.308 Y118.674 E5.2784
G1 X111.308 Y118.668 E5.2787
G1 X111.258 Y117.502 E5.3346
G1 X111.258 Y117.497 E5.3348
G1 X111.258 Y117.314 E5.3435
G1 X111.258 Y117.309 E5.3438
G1 X111.297 Y116.457 E5.3847
G1 X111.298 Y116.452 E5.3849
G1 X111.314 Y116.274 E5.3934
G1 X111.314 Y116.269 E5.3937
G1 X111.472 Y115.086 E5.4509
G1 X111.473 Y115.080 E5.4512
G1 X111.513 Y114.866 E5.4616
G1 X111.514 Y114.860 E5.4619
G1 X111.794 Y113.703 E5.5189
G1 X111.796 Y113.697 E5.5192
G1 X111.856 Y113.496 E5.5292
G1 X111.858 Y113.490 E5.5295
G1 X112.251 Y112.378 E5.5860
G1 X112.252 Y112.373 E5.5863
G1 X112.321 Y112.204 E5.5950
G1 X112.323 Y112.199 E5.5953
G1 X112.672 Y111.434 E5.6355
G1 X112.674 Y111.429 E5.6358
G1 X112.755 Y111.271 E5.6443
G1 X112.757 Y111.267 E5.6445
G1 X113.346 Y110.226 E5.7018
G1 X113.349 Y110.220 E5.7021
G1 X113.464 Y110.040 E5.7123
G1 X113.467 Y110.035 E5.7126
G1 X114.141 Y109.087 E5.7683
G1 X114.145 Y109.082 E5.7686
G1 X114.275 Y108.918 E5.7787
G1 X114.279 Y108.913 E5.7790
G1 X115.055 Y108.028 E5.8353
G1 X115.058 Y108.024 E5.8356
G1 X115.185 Y107.892 E5.8444
G1 X115.189 Y107.888 E5.8446
G1 X115.815 Y107.291 E5.8861
G1 X115.819 Y107.287 E5.8863
G1 X115.954 Y107.169 E5.8949
G1 X115.958 Y107.165 E5.8952
G1 X116.890 Y106.420 E5.9523
G1 X116.895 Y106.416 E5.9526
G1 X117.071 Y106.290 E5.9630
G1 X117.076 Y106.287 E5.9633
G1 X118.080 Y105.644 E6.0204
G1 X118.085 Y105.640 E6.0207
G1 X118.270 Y105.535 E6.0309
G1 X118.276 Y105.532 E6.0312
G1 X119.328 Y105.002 E6.0876
G1 X118.896 Y104.800 E6.1104
