; G-Code generated by Simplify3D(R) Version 4.0.0
; Jan 31, 2018 at 7:53:47 PM
; Settings Summary
;   processName,coarse bottom
;   applyToModels,tubev2(2),tubev2(3)
;   profileName,Prusa Research Original Prusa i3 MK2 (modified)
;   profileVersion,2017-07-23 22:27:18
;   baseProfile,
;   printMaterial,PLA
;   printQuality,Fast
;   printExtruders,
;   extruderName,Primary Extruder
;   extruderToolheadNumber,0
;   extruderDiameter,0.4
;   extruderAutoWidth,1
;   extruderWidth,0.48
;   extrusionMultiplier,1
;   extruderUseRetract,1
;   extruderRetractionDistance,1.5
;   extruderExtraRestartDistance,0
;   extruderRetractionZLift,0
;   extruderRetractionSpeed,1800
;   extruderUseCoasting,1
;   extruderCoastingDistance,0.2
;   extruderUseWipe,1
;   extruderWipeDistance,2
;   primaryExtruder,0
;   layerHeight,0.35
;   topSolidLayers,3
;   bottomSolidLayers,3
;   perimeterOutlines,2
;   printPerimetersInsideOut,1
;   startPointOption,2
;   startPointOriginX,0
;   startPointOriginY,0
;   sequentialIslands,0
;   spiralVaseMode,0
;   firstLayerHeightPercentage,120
;   firstLayerWidthPercentage,100
;   firstLayerUnderspeed,0.5
;   useRaft,0
;   raftExtruder,0
;   raftTopLayers,3
;   raftBaseLayers,2
;   raftOffset,3
;   raftSeparationDistance,0.14
;   raftTopInfill,100
;   aboveRaftSpeedMultiplier,0.3
;   useSkirt,1
;   skirtExtruder,0
;   skirtLayers,1
;   skirtOutlines,1
;   skirtOffset,4
;   usePrimePillar,0
;   primePillarExtruder,999
;   primePillarWidth,12
;   primePillarLocation,7
;   primePillarSpeedMultiplier,1
;   useOozeShield,0
;   oozeShieldExtruder,999
;   oozeShieldOffset,2
;   oozeShieldOutlines,1
;   oozeShieldSidewallShape,1
;   oozeShieldSidewallAngle,30
;   oozeShieldSpeedMultiplier,1
;   infillExtruder,0
;   internalInfillPattern,Rectilinear
;   externalInfillPattern,Rectilinear
;   infillPercentage,10
;   outlineOverlapPercentage,20
;   infillExtrusionWidthPercentage,100
;   minInfillLength,5
;   infillLayerInterval,1
;   internalInfillAngles,45,-45
;   overlapInternalInfillAngles,0
;   externalInfillAngles,45,-45
;   generateSupport,0
;   supportExtruder,0
;   supportInfillPercentage,25
;   supportExtraInflation,0
;   supportBaseLayers,0
;   denseSupportExtruder,0
;   denseSupportLayers,0
;   denseSupportInfillPercentage,70
;   supportLayerInterval,1
;   supportHorizontalPartOffset,0.3
;   supportUpperSeparationLayers,1
;   supportLowerSeparationLayers,1
;   supportType,0
;   supportGridSpacing,4
;   maxOverhangAngle,45
;   supportAngles,0
;   temperatureName,Primary Extruder,Heated Bed
;   temperatureNumber,0,0
;   temperatureSetpointCount,1,1
;   temperatureSetpointLayers,1,1
;   temperatureSetpointTemperatures,210,60
;   temperatureStabilizeAtStartup,1,1
;   temperatureHeatedBed,0,1
;   temperatureRelayBetweenLayers,0,0
;   temperatureRelayBetweenLoops,0,0
;   fanLayers,1,2
;   fanSpeeds,0,100
;   blipFanToFullPower,0
;   adjustSpeedForCooling,1
;   minSpeedLayerTime,15
;   minCoolingSpeedSlowdown,20
;   increaseFanForCooling,0
;   minFanLayerTime,45
;   maxCoolingFanSpeed,100
;   increaseFanForBridging,0
;   bridgingFanSpeed,100
;   use5D,1
;   relativeEdistances,0
;   allowEaxisZeroing,1
;   independentExtruderAxes,0
;   includeM10123,0
;   stickySupport,1
;   applyToolheadOffsets,0
;   gcodeXoffset,0
;   gcodeYoffset,0
;   gcodeZoffset,0
;   overrideMachineDefinition,1
;   machineTypeOverride,0
;   strokeXoverride,250
;   strokeYoverride,210
;   strokeZoverride,200
;   originOffsetXoverride,0
;   originOffsetYoverride,0
;   originOffsetZoverride,0
;   homeXdirOverride,-1
;   homeYdirOverride,-1
;   homeZdirOverride,-1
;   flipXoverride,1
;   flipYoverride,-1
;   flipZoverride,1
;   toolheadOffsets,0,0|0,0|0,0|0,0|0,0|0,0
;   overrideFirmwareConfiguration,1
;   firmwareTypeOverride,RepRap (Marlin/Repetier/Sprinter)
;   GPXconfigOverride,r2
;   baudRateOverride,250000
;   overridePrinterModels,1
;   printerModelsOverride
;   startingGcode,M115 U3.0.7 ; use the latest firmware version,G28 W ; home all axes without mesh bed leveling,G80 ; run mesh bed leveling routine,G1 Y-3.0 F1000.0 ; prepare to prime,G92 E0 ; reset extrusion distance,G1 X60.0 E9.0  F1000.0 ; priming,G1 X100.0 E12.5  F1000.0 ; priming
;   layerChangeGcode,
;   retractionGcode,
;   toolChangeGcode,
;   endingGcode,M106 S0 ; turn off cooling fan,M104 S0 ; turn off extruder,M140 S0 ; turn off bed,G1 X0 Y200 ; part removal,M84 ; disable motors
;   exportFileFormat,gcode
;   celebration,0
;   celebrationSong,Random Song
;   postProcessing,
;   defaultSpeed,2400
;   outlineUnderspeed,0.8
;   solidInfillUnderspeed,0.8
;   supportUnderspeed,0.8
;   rapidXYspeed,4800
;   rapidZspeed,1002
;   minBridgingArea,50
;   bridgingExtraInflation,0
;   bridgingExtrusionMultiplier,1
;   bridgingSpeedMultiplier,1
;   useFixedBridgingAngle,0
;   fixedBridgingAngle,0
;   applyBridgingToPerimeters,0
;   filamentDiameters,1.75|1.75|1.75|1.75|1.75|1.75
;   filamentPricesPerKg,199|46|46|46|46|46
;   filamentDensities,1.25|1.25|1.25|1.25|1.25|1.25
;   useMinPrintHeight,0
;   minPrintHeight,0
;   useMaxPrintHeight,1
;   maxPrintHeight,40.21
;   useDiaphragm,0
;   diaphragmLayerInterval,20
;   robustSlicing,1
;   mergeAllIntoSolid,0
;   onlyRetractWhenCrossingOutline,1
;   retractBetweenLayers,1
;   useRetractionMinTravel,0
;   retractionMinTravel,3
;   retractWhileWiping,1
;   onlyWipeOutlines,1
;   avoidCrossingOutline,0
;   maxMovementDetourFactor,3
;   toolChangeRetractionDistance,12
;   toolChangeExtraRestartDistance,-0.5
;   toolChangeRetractionSpeed,600
;   externalThinWallType,0
;   internalThinWallType,2
;   thinWallAllowedOverlapPercentage,25
;   singleExtrusionMinLength,1
;   singleExtrusionMinPrintingWidthPercentage,50
;   singleExtrusionMaxPrintingWidthPercentage,200
;   singleExtrusionEndpointExtension,0.2
;   horizontalSizeCompensation,0
G90
M82
M106 S0
M140 S60
M190 S60
M104 S210 T0
M109 S210 T0
M115 U3.0.7 ; use the latest firmware version
G28 W ; home all axes without mesh bed leveling
G80 ; run mesh bed leveling routine
G1 Y-3.0 F1000.0 ; prepare to prime
G92 E0 ; reset extrusion distance
G1 X60.0 E9.0  F1000.0 ; priming
G1 X100.0 E12.5  F1000.0 ; priming
G92 E0
G1 E-1.5000 F1800
G1 Z0.420 F1002
; process coarse bottom
; layer 1, Z = 0.420
T0
; tool H0.420 W0.480
; skirt
G1 X114.850 Y108.078 F4800
G1 E0.0000 F540
G92 E0
G1 X115.595 Y107.333 E0.0884 F1200
G1 X115.599 Y107.329 E0.0888
G1 X115.740 Y107.201 E0.1048
G1 X115.744 Y107.197 E0.1052
G1 X116.573 Y106.508 E0.1956
G1 X116.578 Y106.505 E0.1961
G1 X116.730 Y106.390 E0.2120
G1 X116.734 Y106.387 E0.2125
G1 X117.623 Y105.778 E0.3028
G1 X117.628 Y105.775 E0.3033
G1 X117.790 Y105.675 E0.3193
G1 X117.795 Y105.672 E0.3197
G1 X118.716 Y105.159 E0.4081
G1 X118.719 Y105.157 E0.4084
G1 X118.846 Y105.092 E0.4204
G1 X118.850 Y105.090 E0.4207
G1 X119.381 Y104.841 E0.4699
G1 X119.385 Y104.839 E0.4703
G1 X119.516 Y104.783 E0.4822
G1 X119.520 Y104.781 E0.4826
G1 X120.503 Y104.400 E0.5709
G1 X120.508 Y104.398 E0.5714
G1 X120.689 Y104.338 E0.5874
G1 X120.694 Y104.336 E0.5878
G1 X121.731 Y104.041 E0.6782
G1 X121.736 Y104.040 E0.6787
G1 X121.922 Y103.996 E0.6946
G1 X121.927 Y103.995 E0.6951
G1 X122.997 Y103.795 E0.7863
G1 X123.003 Y103.794 E0.7868
G1 X123.213 Y103.766 E0.8046
G1 X123.219 Y103.765 E0.8051
G1 X124.472 Y103.662 E0.9105
G1 X124.477 Y103.662 E0.9109
G1 X124.645 Y103.655 E0.9250
G1 X124.650 Y103.655 E0.9254
G1 X133.147 Y103.650 E1.6376
G1 X133.153 Y103.650 E1.6381
G1 X133.355 Y103.660 E1.6550
G1 X133.361 Y103.660 E1.6555
G1 X133.825 Y103.706 E1.6946
G1 X133.834 Y103.707 E1.6954
G1 X134.159 Y103.765 E1.7230
G1 X134.168 Y103.767 E1.7238
G1 X134.853 Y103.948 E1.7832
G1 X134.865 Y103.951 E1.7842
G1 X135.262 Y104.101 E1.8198
G1 X135.274 Y104.106 E1.8209
G1 X135.950 Y104.444 E1.8842
G1 X135.960 Y104.450 E1.8852
G1 X136.319 Y104.678 E1.9208
G1 X136.329 Y104.685 E1.9219
G1 X136.922 Y105.154 E1.9852
G1 X136.931 Y105.162 E1.9863
G1 X137.235 Y105.459 E2.0219
G1 X137.243 Y105.468 E2.0229
G1 X137.728 Y106.048 E2.0862
G1 X137.735 Y106.058 E2.0873
G1 X137.972 Y106.410 E2.1229
G1 X137.978 Y106.421 E2.1239
G1 X138.334 Y107.088 E2.1872
G1 X138.339 Y107.099 E2.1883
G1 X138.499 Y107.493 E2.2239
G1 X138.503 Y107.505 E2.2249
G1 X138.703 Y108.193 E2.2851
G1 X138.706 Y108.203 E2.2859
G1 X138.775 Y108.544 E2.3151
G1 X138.776 Y108.554 E2.3159
G1 X138.834 Y109.060 E2.3586
G1 X138.835 Y109.067 E2.3591
G1 X138.848 Y109.302 E2.3789
G1 X138.849 Y109.309 E2.3795
G1 X138.851 Y125.707 E3.7539
G1 X138.851 Y125.717 E3.7548
G1 X138.818 Y126.082 E3.7855
G1 X138.817 Y126.093 E3.7864
G1 X138.646 Y127.042 E3.8672
G1 X138.643 Y127.057 E3.8685
G1 X138.480 Y127.569 E3.9135
G1 X138.474 Y127.583 E3.9148
G1 X138.130 Y128.319 E3.9828
G1 X138.124 Y128.329 E3.9839
G1 X137.906 Y128.694 E4.0195
G1 X137.899 Y128.704 E4.0205
G1 X137.445 Y129.308 E4.0838
G1 X137.437 Y129.318 E4.0849
G1 X137.149 Y129.629 E4.1205
G1 X137.140 Y129.638 E4.1215
G1 X136.572 Y130.137 E4.1849
G1 X136.563 Y130.145 E4.1859
G1 X136.216 Y130.391 E4.2215
G1 X136.206 Y130.397 E4.2225
G1 X135.548 Y130.770 E4.2859
G1 X135.537 Y130.775 E4.2869
G1 X135.148 Y130.945 E4.3225
G1 X135.136 Y130.950 E4.3236
G1 X134.444 Y131.171 E4.3845
G1 X134.433 Y131.174 E4.3854
G1 X134.075 Y131.254 E4.4162
G1 X134.065 Y131.256 E4.4171
G1 X133.517 Y131.328 E4.4634
G1 X133.509 Y131.328 E4.4640
G1 X133.241 Y131.346 E4.4866
G1 X133.233 Y131.346 E4.4872
G1 X124.954 Y131.349 E5.1811
G1 X124.952 Y131.349 E5.1813
G1 X124.857 Y131.347 E5.1892
G1 X124.855 Y131.347 E5.1895
G1 X123.825 Y131.300 E5.2758
G1 X123.820 Y131.300 E5.2763
G1 X123.628 Y131.282 E5.2924
G1 X123.623 Y131.281 E5.2929
G1 X122.578 Y131.136 E5.3813
G1 X122.574 Y131.135 E5.3817
G1 X122.433 Y131.110 E5.3936
G1 X122.429 Y131.110 E5.3940
G1 X121.855 Y130.989 E5.4431
G1 X121.851 Y130.988 E5.4435
G1 X121.712 Y130.953 E5.4555
G1 X121.708 Y130.952 E5.4558
G1 X120.694 Y130.664 E5.5442
G1 X120.689 Y130.662 E5.5446
G1 X120.508 Y130.602 E5.5606
G1 X120.503 Y130.600 E5.5611
G1 X119.520 Y130.219 E5.6494
G1 X119.516 Y130.217 E5.6498
G1 X119.385 Y130.161 E5.6617
G1 X119.381 Y130.159 E5.6621
G1 X118.850 Y129.910 E5.7113
G1 X118.846 Y129.908 E5.7116
G1 X118.719 Y129.843 E5.7236
G1 X118.716 Y129.841 E5.7239
G1 X117.816 Y129.340 E5.8103
G1 X117.812 Y129.338 E5.8106
G1 X117.690 Y129.264 E5.8226
G1 X117.686 Y129.262 E5.8229
G1 X117.195 Y128.942 E5.8721
G1 X117.191 Y128.939 E5.8725
G1 X117.074 Y128.857 E5.8844
G1 X117.071 Y128.855 E5.8848
G1 X116.249 Y128.234 E5.9711
G1 X116.245 Y128.231 E5.9715
G1 X116.135 Y128.141 E5.9835
G1 X116.131 Y128.139 E5.9838
G1 X115.689 Y127.753 E6.0330
G1 X115.686 Y127.751 E6.0333
G1 X115.581 Y127.653 E6.0453
G1 X115.578 Y127.650 E6.0456
G1 X114.833 Y126.905 E6.1340
G1 X114.829 Y126.901 E6.1345
G1 X114.701 Y126.760 E6.1504
G1 X114.697 Y126.756 E6.1509
G1 X114.008 Y125.927 E6.2412
G1 X114.005 Y125.922 E6.2417
G1 X113.890 Y125.770 E6.2577
G1 X113.887 Y125.766 E6.2581
G1 X113.278 Y124.877 E6.3485
G1 X113.275 Y124.872 E6.3489
G1 X113.174 Y124.710 E6.3649
G1 X113.172 Y124.705 E6.3654
G1 X112.647 Y123.763 E6.4557
G1 X112.645 Y123.759 E6.4562
G1 X112.560 Y123.588 E6.4721
G1 X112.557 Y123.583 E6.4726
G1 X112.122 Y122.597 E6.5630
G1 X112.120 Y122.592 E6.5634
G1 X112.051 Y122.414 E6.5794
G1 X112.049 Y122.409 E6.5799
G1 X111.707 Y121.387 E6.6702
G1 X111.705 Y121.382 E6.6707
G1 X111.653 Y121.199 E6.6866
G1 X111.651 Y121.193 E6.6871
G1 X111.405 Y120.144 E6.7774
G1 X111.403 Y120.138 E6.7779
G1 X111.368 Y119.951 E6.7939
G1 X111.368 Y119.946 E6.7943
G1 X111.219 Y118.878 E6.8847
G1 X111.218 Y118.873 E6.8851
G1 X111.200 Y118.683 E6.9011
G1 X111.200 Y118.678 E6.9016
G1 X111.150 Y117.601 E6.9919
G1 X111.150 Y117.595 E6.9924
G1 X111.150 Y117.405 E7.0083
G1 X111.150 Y117.399 E7.0088
G1 X111.200 Y116.322 E7.0992
G1 X111.200 Y116.317 E7.0996
G1 X111.218 Y116.127 E7.1156
G1 X111.219 Y116.122 E7.1161
G1 X111.368 Y115.054 E7.2064
G1 X111.368 Y115.049 E7.2069
G1 X111.403 Y114.862 E7.2228
G1 X111.405 Y114.856 E7.2233
G1 X111.651 Y113.807 E7.3136
G1 X111.653 Y113.801 E7.3141
G1 X111.705 Y113.618 E7.3301
G1 X111.707 Y113.613 E7.3305
G1 X112.049 Y112.591 E7.4209
G1 X112.051 Y112.586 E7.4213
G1 X112.120 Y112.408 E7.4373
G1 X112.122 Y112.403 E7.4378
G1 X112.557 Y111.417 E7.5281
G1 X112.560 Y111.412 E7.5286
G1 X112.645 Y111.241 E7.5445
G1 X112.647 Y111.237 E7.5450
G1 X113.172 Y110.295 E7.6354
G1 X113.174 Y110.290 E7.6358
G1 X113.275 Y110.128 E7.6518
G1 X113.278 Y110.123 E7.6523
G1 X113.874 Y109.254 E7.7406
G1 X113.876 Y109.250 E7.7410
G1 X113.961 Y109.135 E7.7529
G1 X113.963 Y109.132 E7.7533
G1 X114.313 Y108.691 E7.8005
G1 X114.314 Y108.689 E7.8007
G1 X114.375 Y108.616 E7.8087
G1 X114.377 Y108.613 E7.8089
G1 X114.714 Y108.226 E7.8520
G1 X114.746 Y108.189 F1200
G1 X114.749 Y108.186 F1200
G1 X114.847 Y108.081 F1200
G1 X114.850 Y108.078 F1200
G1 X109.168 Y128.767 F4800
G92 E0
G1 X109.853 Y128.948 E0.0594 F1200
G1 X109.865 Y128.951 E0.0604
G1 X110.262 Y129.101 E0.0960
G1 X110.274 Y129.106 E0.0970
G1 X110.950 Y129.444 E0.1604
G1 X110.960 Y129.450 E0.1614
G1 X111.319 Y129.678 E0.1970
G1 X111.329 Y129.685 E0.1980
G1 X111.921 Y130.154 E0.2614
G1 X111.931 Y130.162 E0.2624
G1 X112.235 Y130.459 E0.2980
G1 X112.243 Y130.468 E0.2991
G1 X112.728 Y131.048 E0.3624
G1 X112.735 Y131.058 E0.3634
G1 X112.972 Y131.411 E0.3990
G1 X112.978 Y131.421 E0.4001
G1 X113.334 Y132.088 E0.4634
G1 X113.339 Y132.099 E0.4645
G1 X113.499 Y132.493 E0.5001
G1 X113.503 Y132.505 E0.5011
G1 X113.703 Y133.193 E0.5612
G1 X113.706 Y133.203 E0.5621
G1 X113.775 Y133.544 E0.5912
G1 X113.776 Y133.554 E0.5921
G1 X113.834 Y134.060 E0.6347
G1 X113.835 Y134.067 E0.6353
G1 X113.848 Y134.302 E0.6551
G1 X113.849 Y134.309 E0.6556
G1 X113.851 Y150.707 E2.0301
G1 X113.851 Y150.717 E2.0309
G1 X113.818 Y151.083 E2.0617
G1 X113.817 Y151.093 E2.0626
G1 X113.646 Y152.042 E2.1434
G1 X113.643 Y152.057 E2.1447
G1 X113.480 Y152.569 E2.1897
G1 X113.474 Y152.583 E2.1910
G1 X113.130 Y153.318 E2.2590
G1 X113.125 Y153.329 E2.2600
G1 X112.906 Y153.694 E2.2956
G1 X112.899 Y153.704 E2.2967
G1 X112.445 Y154.308 E2.3600
G1 X112.437 Y154.318 E2.3611
G1 X112.149 Y154.629 E2.3967
G1 X112.140 Y154.638 E2.3977
G1 X111.572 Y155.137 E2.4610
G1 X111.563 Y155.145 E2.4621
G1 X111.216 Y155.391 E2.4977
G1 X111.206 Y155.397 E2.4987
G1 X110.548 Y155.770 E2.5621
G1 X110.537 Y155.775 E2.5631
G1 X110.148 Y155.945 E2.5987
G1 X110.136 Y155.950 E2.5997
G1 X109.444 Y156.171 E2.6607
G1 X109.433 Y156.174 E2.6616
G1 X109.075 Y156.254 E2.6923
G1 X109.065 Y156.256 E2.6932
G1 X108.517 Y156.328 E2.7395
G1 X108.509 Y156.328 E2.7402
G1 X108.241 Y156.346 E2.7628
G1 X108.233 Y156.346 E2.7634
G1 X99.954 Y156.349 E3.4573
G1 X99.952 Y156.349 E3.4575
G1 X99.857 Y156.347 E3.4654
G1 X99.855 Y156.347 E3.4656
G1 X98.825 Y156.300 E3.5520
G1 X98.819 Y156.300 E3.5525
G1 X98.628 Y156.282 E3.5686
G1 X98.623 Y156.281 E3.5691
G1 X97.578 Y156.136 E3.6575
G1 X97.574 Y156.135 E3.6578
G1 X97.433 Y156.110 E3.6698
G1 X97.429 Y156.110 E3.6701
G1 X96.855 Y155.989 E3.7193
G1 X96.851 Y155.988 E3.7197
G1 X96.712 Y155.953 E3.7316
G1 X96.708 Y155.952 E3.7320
G1 X95.694 Y155.664 E3.8203
G1 X95.689 Y155.662 E3.8208
G1 X95.508 Y155.602 E3.8368
G1 X95.503 Y155.600 E3.8372
G1 X94.520 Y155.219 E3.9256
G1 X94.516 Y155.217 E3.9259
G1 X94.385 Y155.161 E3.9379
G1 X94.381 Y155.160 E3.9383
G1 X93.850 Y154.910 E3.9874
G1 X93.846 Y154.908 E3.9878
G1 X93.719 Y154.843 E3.9997
G1 X93.716 Y154.841 E4.0001
G1 X92.816 Y154.340 E4.0865
G1 X92.812 Y154.338 E4.0868
G1 X92.690 Y154.264 E4.0988
G1 X92.686 Y154.262 E4.0991
G1 X92.195 Y153.942 E4.1483
G1 X92.191 Y153.939 E4.1486
G1 X92.074 Y153.857 E4.1606
G1 X92.071 Y153.855 E4.1610
G1 X91.249 Y153.234 E4.2473
G1 X91.245 Y153.231 E4.2477
G1 X91.135 Y153.141 E4.2596
G1 X91.131 Y153.139 E4.2600
G1 X90.689 Y152.754 E4.3092
G1 X90.686 Y152.751 E4.3095
G1 X90.581 Y152.653 E4.3215
G1 X90.578 Y152.650 E4.3218
G1 X89.833 Y151.905 E4.4102
G1 X89.829 Y151.901 E4.4106
G1 X89.701 Y151.760 E4.4266
G1 X89.697 Y151.756 E4.4271
G1 X89.008 Y150.927 E4.5174
G1 X89.005 Y150.922 E4.5179
G1 X88.890 Y150.770 E4.5338
G1 X88.887 Y150.766 E4.5343
G1 X88.278 Y149.877 E4.6247
