; G-Code generated by Simplify3D(R) Version 4.0.0
; Jan 31, 2018 at 7:52:47 PM
; Settings Summary
;   processName,coarse bottom
;   applyToModels,tubev2,tubev2(2),tubev2(3),tubev2(4)
;   profileName,Prusa Research Original Prusa i3 MK2 (modified)
;   profileVersion,2017-07-23 22:27:18
;   baseProfile,
;   printMaterial,PLA
;   printQuality,Fast
;   printExtruders,
;   extruderName,Primary Extruder
;   extruderToolheadNumber,0
;   extruderDiameter,0.4
;   extruderAutoWidth,1
;   extruderWidth,0.48
;   extrusionMultiplier,1
;   extruderUseRetract,1
;   extruderRetractionDistance,1.5
;   extruderExtraRestartDistance,0
;   extruderRetractionZLift,0
;   extruderRetractionSpeed,1800
;   extruderUseCoasting,1
;   extruderCoastingDistance,0.2
;   extruderUseWipe,1
;   extruderWipeDistance,2
;   primaryExtruder,0
;   layerHeight,0.35
;   topSolidLayers,3
;   bottomSolidLayers,3
;   perimeterOutlines,2
;   printPerimetersInsideOut,1
;   startPointOption,2
;   startPointOriginX,0
;   startPointOriginY,0
;   sequentialIslands,0
;   spiralVaseMode,0
;   firstLayerHeightPercentage,120
;   firstLayerWidthPercentage,100
;   firstLayerUnderspeed,0.5
;   useRaft,0
;   raftExtruder,0
;   raftTopLayers,3
;   raftBaseLayers,2
;   raftOffset,3
;   raftSeparationDistance,0.14
;   raftTopInfill,100
;   aboveRaftSpeedMultiplier,0.3
;   useSkirt,1
;   skirtExtruder,0
;   skirtLayers,1
;   skirtOutlines,1
;   skirtOffset,4
;   usePrimePillar,0
;   primePillarExtruder,999
;   primePillarWidth,12
;   primePillarLocation,7
;   primePillarSpeedMultiplier,1
;   useOozeShield,0
;   oozeShieldExtruder,999
;   oozeShieldOffset,2
;   oozeShieldOutlines,1
;   oozeShieldSidewallShape,1
;   oozeShieldSidewallAngle,30
;   oozeShieldSpeedMultiplier,1
;   infillExtruder,0
;   internalInfillPattern,Rectilinear
;   externalInfillPattern,Rectilinear
;   infillPercentage,10
;   outlineOverlapPercentage,20
;   infillExtrusionWidthPercentage,100
;   minInfillLength,5
;   infillLayerInterval,1
;   internalInfillAngles,45,-45
;   overlapInternalInfillAngles,0
;   externalInfillAngles,45,-45
;   generateSupport,0
;   supportExtruder,0
;   supportInfillPercentage,25
;   supportExtraInflation,0
;   supportBaseLayers,0
;   denseSupportExtruder,0
;   denseSupportLayers,0
;   denseSupportInfillPercentage,70
;   supportLayerInterval,1
;   supportHorizontalPartOffset,0.3
;   supportUpperSeparationLayers,1
;   supportLowerSeparationLayers,1
;   supportType,0
;   supportGridSpacing,4
;   maxOverhangAngle,45
;   supportAngles,0
;   temperatureName,Primary Extruder,Heated Bed
;   temperatureNumber,0,0
;   temperatureSetpointCount,1,1
;   temperatureSetpointLayers,1,1
;   temperatureSetpointTemperatures,210,60
;   temperatureStabilizeAtStartup,1,1
;   temperatureHeatedBed,0,1
;   temperatureRelayBetweenLayers,0,0
;   temperatureRelayBetweenLoops,0,0
;   fanLayers,1,2
;   fanSpeeds,0,100
;   blipFanToFullPower,0
;   adjustSpeedForCooling,1
;   minSpeedLayerTime,15
;   minCoolingSpeedSlowdown,20
;   increaseFanForCooling,0
;   minFanLayerTime,45
;   maxCoolingFanSpeed,100
;   increaseFanForBridging,0
;   bridgingFanSpeed,100
;   use5D,1
;   relativeEdistances,0
;   allowEaxisZeroing,1
;   independentExtruderAxes,0
;   includeM10123,0
;   stickySupport,1
;   applyToolheadOffsets,0
;   gcodeXoffset,0
;   gcodeYoffset,0
;   gcodeZoffset,0
;   overrideMachineDefinition,1
;   machineTypeOverride,0
;   strokeXoverride,250
;   strokeYoverride,210
;   strokeZoverride,200
;   originOffsetXoverride,0
;   originOffsetYoverride,0
;   originOffsetZoverride,0
;   homeXdirOverride,-1
;   homeYdirOverride,-1
;   homeZdirOverride,-1
;   flipXoverride,1
;   flipYoverride,-1
;   flipZoverride,1
;   toolheadOffsets,0,0|0,0|0,0|0,0|0,0|0,0
;   overrideFirmwareConfiguration,1
;   firmwareTypeOverride,RepRap (Marlin/Repetier/Sprinter)
;   GPXconfigOverride,r2
;   baudRateOverride,250000
;   overridePrinterModels,1
;   printerModelsOverride
;   startingGcode,M115 U3.0.7 ; use the latest firmware version,G28 W ; home all axes without mesh bed leveling,G80 ; run mesh bed leveling routine,G1 Y-3.0 F1000.0 ; prepare to prime,G92 E0 ; reset extrusion distance,G1 X60.0 E9.0  F1000.0 ; priming,G1 X100.0 E12.5  F1000.0 ; priming
;   layerChangeGcode,
;   retractionGcode,
;   toolChangeGcode,
;   endingGcode,M106 S0 ; turn off cooling fan,M104 S0 ; turn off extruder,M140 S0 ; turn off bed,G1 X0 Y200 ; part removal,M84 ; disable motors
;   exportFileFormat,gcode
;   celebration,0
;   celebrationSong,Random Song
;   postProcessing,
;   defaultSpeed,2400
;   outlineUnderspeed,0.8
;   solidInfillUnderspeed,0.8
;   supportUnderspeed,0.8
;   rapidXYspeed,4800
;   rapidZspeed,1002
;   minBridgingArea,50
;   bridgingExtraInflation,0
;   bridgingExtrusionMultiplier,1
;   bridgingSpeedMultiplier,1
;   useFixedBridgingAngle,0
;   fixedBridgingAngle,0
;   applyBridgingToPerimeters,0
;   filamentDiameters,1.75|1.75|1.75|1.75|1.75|1.75
;   filamentPricesPerKg,199|46|46|46|46|46
;   filamentDensities,1.25|1.25|1.25|1.25|1.25|1.25
;   useMinPrintHeight,0
;   minPrintHeight,0
;   useMaxPrintHeight,1
;   maxPrintHeight,40.21
;   useDiaphragm,0
;   diaphragmLayerInterval,20
;   robustSlicing,1
;   mergeAllIntoSolid,0
;   onlyRetractWhenCrossingOutline,1
;   retractBetweenLayers,1
;   useRetractionMinTravel,0
;   retractionMinTravel,3
;   retractWhileWiping,1
;   onlyWipeOutlines,1
;   avoidCrossingOutline,0
;   maxMovementDetourFactor,3
;   toolChangeRetractionDistance,12
;   toolChangeExtraRestartDistance,-0.5
;   toolChangeRetractionSpeed,600
;   externalThinWallType,0
;   internalThinWallType,2
;   thinWallAllowedOverlapPercentage,25
;   singleExtrusionMinLength,1
;   singleExtrusionMinPrintingWidthPercentage,50
;   singleExtrusionMaxPrintingWidthPercentage,200
;   singleExtrusionEndpointExtension,0.2
;   horizontalSizeCompensation,0
G90
M82
M106 S0
M140 S60
M190 S60
M104 S210 T0
M109 S210 T0
M115 U3.0.7 ; use the latest firmware version
G28 W ; home all axes without mesh bed leveling
G80 ; run mesh bed leveling routine
G1 Y-3.0 F1000.0 ; prepare to prime
G92 E0 ; reset extrusion distance
G1 X60.0 E9.0  F1000.0 ; priming
G1 X100.0 E12.5  F1000.0 ; priming
G92 E0
G1 E-1.5000 F1800
G1 Z0.420 F1002
; process coarse bottom
; layer 1, Z = 0.420
T0
; tool H0.420 W0.480
; skirt
G1 X101.813 Y83.691 F4800
G1 E0.0000 F540
G92 E0
G1 X101.814 Y83.689 E0.0002 F1200
G1 X101.875 Y83.615 E0.0082
G1 X101.877 Y83.613 E0.0084
G1 X102.246 Y83.189 E0.0556
G1 X102.249 Y83.186 E0.0560
G1 X102.347 Y83.081 E0.0679
G1 X102.350 Y83.078 E0.0683
G1 X103.095 Y82.333 E0.1566
G1 X103.099 Y82.329 E0.1571
G1 X103.240 Y82.201 E0.1731
G1 X103.244 Y82.197 E0.1735
G1 X104.073 Y81.508 E0.2639
G1 X104.078 Y81.505 E0.2643
G1 X104.230 Y81.390 E0.2803
G1 X104.234 Y81.387 E0.2808
G1 X105.123 Y80.778 E0.3711
G1 X105.128 Y80.775 E0.3716
G1 X105.290 Y80.675 E0.3875
G1 X105.295 Y80.672 E0.3880
G1 X106.216 Y80.159 E0.4764
G1 X106.219 Y80.157 E0.4767
G1 X106.346 Y80.092 E0.4887
G1 X106.350 Y80.090 E0.4890
G1 X106.881 Y79.841 E0.5382
G1 X106.885 Y79.839 E0.5385
G1 X107.016 Y79.783 E0.5505
G1 X107.020 Y79.781 E0.5509
G1 X108.003 Y79.400 E0.6392
G1 X108.008 Y79.398 E0.6397
G1 X108.189 Y79.338 E0.6556
G1 X108.194 Y79.336 E0.6561
G1 X109.231 Y79.041 E0.7465
G1 X109.236 Y79.040 E0.7469
G1 X109.422 Y78.996 E0.7629
G1 X109.427 Y78.995 E0.7634
G1 X110.497 Y78.795 E0.8546
G1 X110.503 Y78.794 E0.8551
G1 X110.713 Y78.766 E0.8728
G1 X110.719 Y78.765 E0.8734
G1 X111.972 Y78.662 E0.9788
G1 X111.977 Y78.662 E0.9792
G1 X112.145 Y78.655 E0.9933
G1 X112.150 Y78.655 E0.9937
G1 X120.647 Y78.650 E1.7058
G1 X120.653 Y78.650 E1.7063
G1 X120.855 Y78.660 E1.7233
G1 X120.860 Y78.660 E1.7238
G1 X121.324 Y78.705 E1.7628
G1 X121.334 Y78.707 E1.7636
G1 X121.659 Y78.765 E1.7913
G1 X121.668 Y78.767 E1.7921
G1 X122.353 Y78.948 E1.8515
G1 X122.365 Y78.951 E1.8525
G1 X122.762 Y79.101 E1.8881
G1 X122.774 Y79.106 E1.8891
G1 X123.450 Y79.444 E1.9525
G1 X123.460 Y79.450 E1.9535
G1 X123.819 Y79.678 E1.9891
G1 X123.829 Y79.685 E1.9902
G1 X124.421 Y80.154 E2.0535
G1 X124.431 Y80.162 E2.0545
G1 X124.735 Y80.459 E2.0901
G1 X124.743 Y80.468 E2.0912
G1 X125.228 Y81.048 E2.1545
G1 X125.235 Y81.058 E2.1556
G1 X125.472 Y81.411 E2.1911
G1 X125.478 Y81.421 E2.1922
G1 X125.834 Y82.088 E2.2555
G1 X125.839 Y82.099 E2.2566
G1 X125.999 Y82.493 E2.2922
G1 X126.003 Y82.505 E2.2932
G1 X126.203 Y83.193 E2.3533
G1 X126.206 Y83.203 E2.3542
G1 X126.275 Y83.544 E2.3833
G1 X126.276 Y83.554 E2.3842
G1 X126.334 Y84.060 E2.4269
G1 X126.335 Y84.067 E2.4274
G1 X126.348 Y84.291 E2.4463
G1 X126.374 Y84.254 E2.4501
G1 X126.376 Y84.250 E2.4504
G1 X126.461 Y84.135 E2.4624
G1 X126.463 Y84.132 E2.4628
G1 X126.813 Y83.691 E2.5099
G1 X126.814 Y83.689 E2.5102
G1 X126.875 Y83.615 E2.5181
G1 X126.877 Y83.613 E2.5184
G1 X127.246 Y83.189 E2.5656
G1 X127.249 Y83.186 E2.5659
G1 X127.347 Y83.081 E2.5779
G1 X127.350 Y83.078 E2.5782
G1 X128.095 Y82.333 E2.6666
G1 X128.099 Y82.329 E2.6671
G1 X128.240 Y82.201 E2.6830
G1 X128.244 Y82.197 E2.6835
G1 X129.073 Y81.508 E2.7738
G1 X129.078 Y81.505 E2.7743
G1 X129.230 Y81.390 E2.7902
G1 X129.234 Y81.387 E2.7907
G1 X130.123 Y80.778 E2.8811
G1 X130.128 Y80.775 E2.8815
G1 X130.290 Y80.675 E2.8975
G1 X130.295 Y80.672 E2.8979
G1 X131.216 Y80.159 E2.9863
G1 X131.219 Y80.157 E2.9867
G1 X131.346 Y80.092 E2.9986
G1 X131.350 Y80.090 E2.9990
G1 X131.881 Y79.841 E3.0481
G1 X131.885 Y79.839 E3.0485
G1 X132.016 Y79.783 E3.0605
G1 X132.020 Y79.781 E3.0608
G1 X133.003 Y79.400 E3.1492
G1 X133.008 Y79.398 E3.1496
G1 X133.189 Y79.338 E3.1656
G1 X133.194 Y79.336 E3.1661
G1 X134.231 Y79.041 E3.2564
G1 X134.236 Y79.040 E3.2569
G1 X134.422 Y78.996 E3.2728
G1 X134.427 Y78.995 E3.2733
G1 X135.497 Y78.795 E3.3645
G1 X135.503 Y78.794 E3.3651
G1 X135.713 Y78.766 E3.3828
G1 X135.719 Y78.765 E3.3833
G1 X136.972 Y78.662 E3.4887
G1 X136.977 Y78.662 E3.4891
G1 X137.145 Y78.655 E3.5032
G1 X137.150 Y78.655 E3.5036
G1 X145.647 Y78.650 E4.2158
G1 X145.653 Y78.650 E4.2163
G1 X145.855 Y78.660 E4.2332
G1 X145.860 Y78.660 E4.2337
G1 X146.324 Y78.705 E4.2728
G1 X146.334 Y78.707 E4.2736
G1 X146.659 Y78.765 E4.3012
G1 X146.668 Y78.767 E4.3020
G1 X147.353 Y78.948 E4.3614
G1 X147.365 Y78.951 E4.3624
G1 X147.762 Y79.101 E4.3980
G1 X147.774 Y79.106 E4.3991
G1 X148.450 Y79.444 E4.4624
G1 X148.460 Y79.450 E4.4635
G1 X148.819 Y79.678 E4.4991
G1 X148.829 Y79.685 E4.5001
G1 X149.422 Y80.154 E4.5634
G1 X149.431 Y80.162 E4.5645
G1 X149.735 Y80.459 E4.6001
G1 X149.743 Y80.468 E4.6011
G1 X150.228 Y81.048 E4.6645
G1 X150.235 Y81.058 E4.6655
G1 X150.472 Y81.410 E4.7011
G1 X150.478 Y81.421 E4.7021
G1 X150.834 Y82.088 E4.7655
G1 X150.839 Y82.099 E4.7665
G1 X150.999 Y82.493 E4.8021
G1 X151.003 Y82.505 E4.8032
G1 X151.203 Y83.193 E4.8633
G1 X151.206 Y83.203 E4.8641
G1 X151.275 Y83.544 E4.8933
G1 X151.276 Y83.554 E4.8941
G1 X151.334 Y84.060 E4.9368
G1 X151.335 Y84.067 E4.9374
G1 X151.348 Y84.302 E4.9571
G1 X151.349 Y84.309 E4.9577
G1 X151.351 Y100.707 E6.3321
G1 X151.351 Y100.717 E6.3330
G1 X151.318 Y101.082 E6.3637
G1 X151.317 Y101.093 E6.3646
G1 X151.146 Y102.042 E6.4454
G1 X151.143 Y102.057 E6.4467
G1 X150.980 Y102.569 E6.4917
G1 X150.974 Y102.583 E6.4930
G1 X150.630 Y103.319 E6.5611
G1 X150.624 Y103.329 E6.5621
G1 X150.406 Y103.694 E6.5977
G1 X150.399 Y103.704 E6.5987
G1 X149.945 Y104.308 E6.6621
G1 X149.937 Y104.318 E6.6631
G1 X149.649 Y104.629 E6.6987
G1 X149.640 Y104.638 E6.6997
G1 X149.227 Y105.001 E6.7458
G1 X149.422 Y105.154 E6.7665
G1 X149.431 Y105.162 E6.7676
G1 X149.735 Y105.459 E6.8032
G1 X149.743 Y105.468 E6.8042
G1 X150.228 Y106.048 E6.8675
G1 X150.235 Y106.058 E6.8686
G1 X150.472 Y106.410 E6.9042
G1 X150.478 Y106.421 E6.9052
G1 X150.834 Y107.088 E6.9685
G1 X150.839 Y107.099 E6.9696
G1 X150.999 Y107.493 E7.0052
G1 X151.003 Y107.505 E7.0062
G1 X151.203 Y108.193 E7.0664
G1 X151.206 Y108.203 E7.0672
G1 X151.275 Y108.544 E7.0963
G1 X151.276 Y108.554 E7.0972
G1 X151.334 Y109.060 E7.1399
G1 X151.335 Y109.067 E7.1404
G1 X151.348 Y109.302 E7.1602
G1 X151.349 Y109.309 E7.1608
G1 X151.351 Y125.707 E8.5352
G1 X151.351 Y125.717 E8.5361
G1 X151.318 Y126.082 E8.5668
G1 X151.317 Y126.093 E8.5677
G1 X151.146 Y127.042 E8.6485
G1 X151.143 Y127.057 E8.6498
G1 X150.980 Y127.569 E8.6948
G1 X150.974 Y127.583 E8.6961
G1 X150.630 Y128.319 E8.7641
G1 X150.624 Y128.329 E8.7652
G1 X150.406 Y128.694 E8.8008
G1 X150.399 Y128.704 E8.8018
G1 X149.945 Y129.308 E8.8651
G1 X149.937 Y129.318 E8.8662
G1 X149.649 Y129.629 E8.9018
G1 X149.640 Y129.638 E8.9028
G1 X149.072 Y130.137 E8.9662
G1 X149.063 Y130.145 E8.9672
G1 X148.716 Y130.391 E9.0028
G1 X148.706 Y130.397 E9.0038
G1 X148.048 Y130.770 E9.0672
G1 X148.037 Y130.775 E9.0682
G1 X147.648 Y130.945 E9.1038
G1 X147.636 Y130.950 E9.1049
G1 X146.944 Y131.171 E9.1658
G1 X146.933 Y131.174 E9.1667
G1 X146.575 Y131.254 E9.1975
G1 X146.565 Y131.256 E9.1984
G1 X146.017 Y131.328 E9.2447
G1 X146.009 Y131.328 E9.2453
G1 X145.741 Y131.346 E9.2679
G1 X145.733 Y131.346 E9.2685
G1 X137.454 Y131.349 E9.9624
G1 X137.452 Y131.349 E9.9626
G1 X137.357 Y131.347 E9.9705
G1 X137.355 Y131.347 E9.9708
G1 X136.325 Y131.300 E10.0571
G1 X136.319 Y131.300 E10.0576
G1 X136.128 Y131.282 E10.0737
G1 X136.123 Y131.281 E10.0742
G1 X135.078 Y131.136 E10.1626
G1 X135.074 Y131.135 E10.1630
G1 X134.933 Y131.110 E10.1749
G1 X134.929 Y131.110 E10.1753
G1 X134.355 Y130.989 E10.2244
G1 X134.351 Y130.988 E10.2248
G1 X134.212 Y130.953 E10.2368
G1 X134.208 Y130.952 E10.2371
G1 X133.194 Y130.664 E10.3255
G1 X133.189 Y130.662 E10.3259
G1 X133.008 Y130.602 E10.3419
G1 X133.003 Y130.600 E10.3424
G1 X132.020 Y130.219 E10.4307
G1 X132.016 Y130.217 E10.4311
G1 X131.885 Y130.161 E10.4430
G1 X131.881 Y130.159 E10.4434
G1 X131.350 Y129.910 E10.4926
G1 X131.346 Y129.908 E10.4929
G1 X131.219 Y129.843 E10.5049
G1 X131.216 Y129.841 E10.5052
G1 X130.316 Y129.340 E10.5916
G1 X130.312 Y129.338 E10.5919
G1 X130.190 Y129.264 E10.6039
G1 X130.186 Y129.262 E10.6042
G1 X129.695 Y128.942 E10.6534
G1 X129.691 Y128.939 E10.6538
G1 X129.574 Y128.857 E10.6657
G1 X129.571 Y128.855 E10.6661
G1 X128.749 Y128.234 E10.7524
G1 X128.745 Y128.231 E10.7528
G1 X128.635 Y128.141 E10.7648
G1 X128.631 Y128.139 E10.7651
G1 X128.189 Y127.753 E10.8143
G1 X128.186 Y127.751 E10.8146
G1 X128.081 Y127.653 E10.8266
G1 X128.078 Y127.650 E10.8269
G1 X127.333 Y126.905 E10.9153
G1 X127.329 Y126.901 E10.9158
G1 X127.201 Y126.760 E10.9317
G1 X127.197 Y126.756 E10.9322
G1 X126.508 Y125.927 E11.0225
G1 X126.505 Y125.922 E11.0230
G1 X126.390 Y125.770 E11.0390
G1 X126.387 Y125.766 E11.0394
G1 X126.351 Y125.713 E11.0448
G1 X126.351 Y125.717 E11.0452
G1 X126.318 Y126.083 E11.0759
G1 X126.317 Y126.093 E11.0768
G1 X126.146 Y127.042 E11.1576
G1 X126.143 Y127.057 E11.1589
G1 X125.980 Y127.569 E11.2039
G1 X125.974 Y127.583 E11.2052
G1 X125.630 Y128.318 E11.2732
G1 X125.625 Y128.329 E11.2742
G1 X125.406 Y128.694 E11.3098
G1 X125.399 Y128.704 E11.3109
G1 X124.945 Y129.308 E11.3742
G1 X124.937 Y129.318 E11.3753
G1 X124.649 Y129.629 E11.4109
G1 X124.640 Y129.638 E11.4119
G1 X124.072 Y130.137 E11.4752
G1 X124.063 Y130.145 E11.4763
G1 X123.716 Y130.391 E11.5119
G1 X123.706 Y130.397 E11.5129
G1 X123.048 Y130.770 E11.5763
G1 X123.037 Y130.775 E11.5773
G1 X122.648 Y130.945 E11.6129
G1 X122.636 Y130.950 E11.6139
G1 X121.944 Y131.171 E11.6749
G1 X121.934 Y131.174 E11.6758
G1 X121.575 Y131.254 E11.7066
G1 X121.565 Y131.256 E11.7074
G1 X121.017 Y131.328 E11.7538
G1 X121.009 Y131.328 E11.7544
G1 X120.741 Y131.346 E11.7770
G1 X120.733 Y131.346 E11.7776
G1 X112.454 Y131.349 E12.4715
G1 X112.452 Y131.349 E12.4717
G1 X112.357 Y131.347 E12.4796
G1 X112.355 Y131.347 E12.4798
G1 X111.325 Y131.300 E12.5662
G1 X111.319 Y131.300 E12.5667
G1 X111.128 Y131.282 E12.5828
G1 X111.123 Y131.281 E12.5833
G1 X110.078 Y131.136 E12.6717
G1 X110.074 Y131.135 E12.6720
G1 X109.933 Y131.110 E12.6840
G1 X109.929 Y131.110 E12.6844
G1 X109.355 Y130.989 E12.7335
G1 X109.351 Y130.988 E12.7339
G1 X109.212 Y130.953 E12.7458
G1 X109.208 Y130.952 E12.7462
G1 X108.194 Y130.664 E12.8345
G1 X108.189 Y130.662 E12.8350
G1 X108.008 Y130.602 E12.8510
G1 X108.003 Y130.600 E12.8514
