; G-Code generated by Simplify3D(R) Version 4.0.0
; Aug 16, 2017 at 10:36:08 PM
; Settings Summary
;   processName,Process1
;   applyToModels,gyro-on-servo-mount
;   profileName,Prusa Research Original Prusa i3 MK2 (modified)
;   profileVersion,2017-07-23 22:27:18
;   baseProfile,
;   printMaterial,PLA
;   printQuality,Medium
;   printExtruders,
;   extruderName,Primary Extruder
;   extruderToolheadNumber,0
;   extruderDiameter,0.4
;   extruderAutoWidth,1
;   extruderWidth,0.48
;   extrusionMultiplier,1
;   extruderUseRetract,1
;   extruderRetractionDistance,1.5
;   extruderExtraRestartDistance,0
;   extruderRetractionZLift,0
;   extruderRetractionSpeed,1800
;   extruderUseCoasting,1
;   extruderCoastingDistance,0.2
;   extruderUseWipe,1
;   extruderWipeDistance,2
;   primaryExtruder,0
;   layerHeight,0.095
;   topSolidLayers,3
;   bottomSolidLayers,3
;   perimeterOutlines,3
;   printPerimetersInsideOut,1
;   startPointOption,2
;   startPointOriginX,0
;   startPointOriginY,0
;   sequentialIslands,0
;   spiralVaseMode,0
;   firstLayerHeightPercentage,120
;   firstLayerWidthPercentage,100
;   firstLayerUnderspeed,0.5
;   useRaft,0
;   raftExtruder,0
;   raftTopLayers,3
;   raftBaseLayers,2
;   raftOffset,3
;   raftSeparationDistance,0.14
;   raftTopInfill,100
;   aboveRaftSpeedMultiplier,0.3
;   useSkirt,1
;   skirtExtruder,0
;   skirtLayers,1
;   skirtOutlines,1
;   skirtOffset,4
;   usePrimePillar,0
;   primePillarExtruder,999
;   primePillarWidth,12
;   primePillarLocation,7
;   primePillarSpeedMultiplier,1
;   useOozeShield,0
;   oozeShieldExtruder,999
;   oozeShieldOffset,2
;   oozeShieldOutlines,1
;   oozeShieldSidewallShape,1
;   oozeShieldSidewallAngle,30
;   oozeShieldSpeedMultiplier,1
;   infillExtruder,0
;   internalInfillPattern,Rectilinear
;   externalInfillPattern,Rectilinear
;   infillPercentage,10
;   outlineOverlapPercentage,20
;   infillExtrusionWidthPercentage,100
;   minInfillLength,5
;   infillLayerInterval,1
;   internalInfillAngles,45,-45
;   overlapInternalInfillAngles,0
;   externalInfillAngles,45,-45
;   generateSupport,1
;   supportExtruder,0
;   supportInfillPercentage,30
;   supportExtraInflation,0
;   supportBaseLayers,0
;   denseSupportExtruder,0
;   denseSupportLayers,0
;   denseSupportInfillPercentage,70
;   supportLayerInterval,1
;   supportHorizontalPartOffset,0.3
;   supportUpperSeparationLayers,1
;   supportLowerSeparationLayers,1
;   supportType,0
;   supportGridSpacing,4
;   maxOverhangAngle,45
;   supportAngles,0
;   temperatureName,Primary Extruder,Heated Bed
;   temperatureNumber,0,0
;   temperatureSetpointCount,1,1
;   temperatureSetpointLayers,1,1
;   temperatureSetpointTemperatures,200,60
;   temperatureStabilizeAtStartup,1,1
;   temperatureHeatedBed,0,1
;   temperatureRelayBetweenLayers,0,0
;   temperatureRelayBetweenLoops,0,0
;   fanLayers,1,2
;   fanSpeeds,0,100
;   blipFanToFullPower,0
;   adjustSpeedForCooling,1
;   minSpeedLayerTime,15
;   minCoolingSpeedSlowdown,20
;   increaseFanForCooling,0
;   minFanLayerTime,45
;   maxCoolingFanSpeed,100
;   increaseFanForBridging,0
;   bridgingFanSpeed,100
;   use5D,1
;   relativeEdistances,0
;   allowEaxisZeroing,1
;   independentExtruderAxes,0
;   includeM10123,0
;   stickySupport,1
;   applyToolheadOffsets,0
;   gcodeXoffset,0
;   gcodeYoffset,0
;   gcodeZoffset,0
;   overrideMachineDefinition,1
;   machineTypeOverride,0
;   strokeXoverride,250
;   strokeYoverride,210
;   strokeZoverride,200
;   originOffsetXoverride,0
;   originOffsetYoverride,0
;   originOffsetZoverride,0
;   homeXdirOverride,-1
;   homeYdirOverride,-1
;   homeZdirOverride,-1
;   flipXoverride,1
;   flipYoverride,-1
;   flipZoverride,1
;   toolheadOffsets,0,0|0,0|0,0|0,0|0,0|0,0
;   overrideFirmwareConfiguration,1
;   firmwareTypeOverride,RepRap (Marlin/Repetier/Sprinter)
;   GPXconfigOverride,r2
;   baudRateOverride,250000
;   overridePrinterModels,1
;   printerModelsOverride
;   startingGcode,M115 U3.0.7 ; use the latest firmware version,G28 W ; home all axes without mesh bed leveling,G80 ; run mesh bed leveling routine,G1 Y-3.0 F1000.0 ; prepare to prime,G92 E0 ; reset extrusion distance,G1 X60.0 E9.0  F1000.0 ; priming,G1 X100.0 E12.5  F1000.0 ; priming
;   layerChangeGcode,
;   retractionGcode,
;   toolChangeGcode,
;   endingGcode,M106 S0 ; turn off cooling fan,M104 S0 ; turn off extruder,M140 S0 ; turn off bed,G1 X0 Y200 ; part removal,M84 ; disable motors
;   exportFileFormat,gcode
;   celebration,0
;   celebrationSong,Random Song
;   postProcessing,
;   defaultSpeed,2400
;   outlineUnderspeed,0.8
;   solidInfillUnderspeed,0.8
;   supportUnderspeed,0.8
;   rapidXYspeed,4800
;   rapidZspeed,1002
;   minBridgingArea,50
;   bridgingExtraInflation,0
;   bridgingExtrusionMultiplier,1
;   bridgingSpeedMultiplier,1
;   useFixedBridgingAngle,0
;   fixedBridgingAngle,0
;   applyBridgingToPerimeters,0
;   filamentDiameters,1.75|1.75|1.75|1.75|1.75|1.75
;   filamentPricesPerKg,46|46|46|46|46|46
;   filamentDensities,1.25|1.25|1.25|1.25|1.25|1.25
;   useMinPrintHeight,1
;   minPrintHeight,0
;   useMaxPrintHeight,1
;   maxPrintHeight,235
;   useDiaphragm,0
;   diaphragmLayerInterval,20
;   robustSlicing,1
;   mergeAllIntoSolid,0
;   onlyRetractWhenCrossingOutline,1
;   retractBetweenLayers,1
;   useRetractionMinTravel,0
;   retractionMinTravel,3
;   retractWhileWiping,1
;   onlyWipeOutlines,1
;   avoidCrossingOutline,0
;   maxMovementDetourFactor,3
;   toolChangeRetractionDistance,12
;   toolChangeExtraRestartDistance,-0.5
;   toolChangeRetractionSpeed,600
;   externalThinWallType,0
;   internalThinWallType,0
;   thinWallAllowedOverlapPercentage,25
;   singleExtrusionMinLength,1
;   singleExtrusionMinPrintingWidthPercentage,50
;   singleExtrusionMaxPrintingWidthPercentage,200
;   singleExtrusionEndpointExtension,0.2
;   horizontalSizeCompensation,0
G90
M82
M106 S0
M140 S60
M190 S60
M104 S200 T0
M109 S200 T0
M115 U3.0.7 ; use the latest firmware version
G28 W ; home all axes without mesh bed leveling
G80 ; run mesh bed leveling routine
G1 Y-3.0 F1000.0 ; prepare to prime
G92 E0 ; reset extrusion distance
G1 X60.0 E9.0  F1000.0 ; priming
G1 X100.0 E12.5  F1000.0 ; priming
G92 E0
G1 E-1.5000 F1800
G1 Z0.114 F1002
; process Process1
; layer 1, Z = 0.114
T0
; tool H0.114 W0.480
; skirt
G1 X106.577 Y80.987 F4800
G1 E0.0000 F540
G92 E0
G1 X108.987 Y78.577 E0.0776 F1200
G1 X109.075 Y78.540 E0.0797
G1 X116.925 Y78.540 E0.2583
G1 X117.013 Y78.577 E0.2605
G1 X118.321 Y79.885 E0.3026
G1 X131.679 Y79.885 E0.6065
G1 X132.987 Y78.577 E0.6485
G1 X133.075 Y78.540 E0.6507
G1 X140.925 Y78.540 E0.8293
G1 X141.013 Y78.577 E0.8315
G1 X143.423 Y80.987 E0.9090
G1 X143.460 Y81.075 E0.9112
G1 X143.460 Y112.925 E1.6358
G1 X143.423 Y113.013 E1.6379
G1 X141.013 Y115.423 E1.7155
G1 X140.925 Y115.460 E1.7177
G1 X140.240 Y115.460 E1.7332
G1 X140.240 Y128.830 E2.0374
G1 X140.203 Y128.918 E2.0396
G1 X137.793 Y131.328 E2.1171
G1 X137.705 Y131.365 E2.1193
G1 X130.301 Y131.365 E2.2877
G1 X130.243 Y131.423 E2.2896
G1 X130.155 Y131.460 E2.2918
G1 X119.845 Y131.460 E2.5263
G1 X119.757 Y131.423 E2.5285
G1 X119.699 Y131.365 E2.5304
G1 X112.295 Y131.365 E2.6988
G1 X112.207 Y131.328 E2.7010
G1 X109.797 Y128.918 E2.7785
G1 X109.760 Y128.830 E2.7807
G1 X109.760 Y115.460 E3.0848
G1 X109.075 Y115.460 E3.1004
G1 X108.987 Y115.423 E3.1026
G1 X106.577 Y113.013 E3.1802
G1 X106.540 Y112.925 E3.1823
G1 X106.540 Y81.180 E3.9045
G1 X106.540 Y81.075 F1200
G1 X106.577 Y80.987 F1200
G92 E0
G1 E-1.5000 F1800
; outer perimeter
G1 X114.240 Y84.365 F4800
G1 E0.0000 F1800
G92 E0
G1 X135.760 Y84.365 E0.4896 F960
G1 X135.760 Y126.885 E1.4569
G1 X128.990 Y126.885 E1.6109
G1 X128.990 Y126.365 E1.6228
G1 X135.240 Y126.365 E1.7649
G1 X135.240 Y84.885 E2.7086
G1 X114.760 Y84.885 E3.1745
G1 X114.760 Y126.365 E4.1182
G1 X121.010 Y126.365 E4.2604
G1 X121.010 Y126.885 E4.2722
G1 X114.240 Y126.885 E4.4262
G1 X114.240 Y84.565 E5.3890
G1 X114.240 Y84.365 F960
G92 E0
G1 X116.240 Y84.365 E-1.5000 F2400
; support
G1 X115.540 Y87.400 F4800
G1 E0.0000 F1800
G92 E0
G1 X134.460 Y87.400 E0.4304 F960
G1 X134.460 Y89.000 E0.4668
G1 X115.540 Y89.000 E0.8973
G1 X115.540 Y90.600 E0.9337
G1 X134.460 Y90.600 E1.3641
G1 X134.460 Y92.200 E1.4005
G1 X115.540 Y92.200 E1.8309
G1 X115.540 Y93.800 E1.8673
G1 X134.460 Y93.800 E2.2977
G1 X134.460 Y95.400 E2.3341
G1 X115.540 Y95.400 E2.7646
G1 X115.540 Y97.000 E2.8010
G1 X134.460 Y97.000 E3.2314
G1 X134.460 Y98.600 E3.2678
G1 X115.540 Y98.600 E3.6982
G1 X115.540 Y100.200 E3.7346
G1 X134.460 Y100.200 E4.1651
G1 X134.460 Y101.800 E4.2015
G1 X115.540 Y101.800 E4.6319
G1 X115.540 Y103.400 E4.6683
G1 X134.460 Y103.400 E5.0987
G1 X134.460 Y105.000 E5.1351
G1 X115.540 Y105.000 E5.5655
G1 X115.540 Y106.600 E5.6019
G1 X134.460 Y106.600 E6.0324
G1 X134.460 Y108.200 E6.0688
G1 X115.540 Y108.200 E6.4992
G1 X115.540 Y109.800 E6.5356
G1 X134.460 Y109.800 E6.9660
G1 X134.460 Y111.400 E7.0024
G1 X115.540 Y111.400 E7.4329
G1 X115.540 Y113.000 E7.4693
G1 X134.460 Y113.000 E7.8997
G1 X134.460 Y114.600 E7.9361
G1 X115.540 Y114.600 E8.3665
G1 X115.540 Y116.200 E8.4029
G1 X134.460 Y116.200 E8.8333
G1 X134.460 Y117.800 E8.8697
G1 X115.540 Y117.800 E9.3002
G1 X115.540 Y119.400 E9.3366
G1 X134.460 Y119.400 E9.7670
G1 X134.460 Y121.000 E9.8034
G1 X115.540 Y121.000 E10.2338
G1 X115.540 Y122.600 E10.2702
G1 X134.460 Y122.600 E10.7007
G1 X134.460 Y124.200 E10.7371
G1 X115.540 Y124.200 E11.1675
G1 X115.540 Y125.585 E11.1990
G1 X121.790 Y125.585 E11.3412
G1 X121.790 Y125.800 E11.3461
G1 X128.010 Y125.800 E11.4876
G1 X128.210 Y125.800 F960
G92 E0
G1 E-1.5000 F1800
G1 X138.980 Y109.800 F4800
G1 E0.0000 F1800
G92 E0
G1 X136.540 Y109.800 E0.0555 F960
G1 X136.540 Y108.200 E0.0919
G1 X138.980 Y108.200 E0.1474
G1 X138.980 Y106.600 E0.1838
G1 X136.540 Y106.600 E0.2393
G1 X136.540 Y105.000 E0.2757
G1 X138.980 Y105.000 E0.3312
G1 X138.980 Y103.400 E0.3676
G1 X136.540 Y103.400 E0.4232
G1 X136.540 Y101.800 E0.4596
G1 X138.980 Y101.800 E0.5151
G1 X138.980 Y100.200 E0.5515
G1 X136.540 Y100.200 E0.6070
G1 X136.540 Y98.600 E0.6434
G1 X138.980 Y98.600 E0.6989
G1 X138.980 Y97.000 E0.7353
G1 X136.540 Y97.000 E0.7908
G1 X136.540 Y95.400 E0.8272
G1 X138.980 Y95.400 E0.8827
G1 X138.980 Y93.800 E0.9191
G1 X136.540 Y93.800 E0.9746
G1 X136.540 Y92.200 E1.0110
G1 X138.980 Y92.200 E1.0665
G1 X138.980 Y90.600 E1.1029
G1 X136.540 Y90.600 E1.1584
G1 X136.540 Y89.000 E1.1948
G1 X138.980 Y89.000 E1.2503
G1 X138.980 Y87.400 E1.2867
G1 X136.540 Y87.400 E1.3423
G1 X136.540 Y85.800 E1.3787
G1 X138.980 Y85.800 E1.4342
G1 X138.980 Y84.200 E1.4706
G1 X136.740 Y84.200 E1.5215
G1 X136.540 Y84.200 F960
G92 E0
G1 E-1.5000 F1800
G1 X111.020 Y84.200 F4800
G1 E0.0000 F1800
G92 E0
G1 X113.460 Y84.200 E0.0555 F960
G1 X113.460 Y85.800 E0.0919
G1 X111.020 Y85.800 E0.1474
G1 X111.020 Y87.400 E0.1838
G1 X113.460 Y87.400 E0.2393
G1 X113.460 Y89.000 E0.2757
G1 X111.020 Y89.000 E0.3312
G1 X111.020 Y90.600 E0.3676
G1 X113.460 Y90.600 E0.4231
G1 X113.460 Y92.200 E0.4595
G1 X111.020 Y92.200 E0.5151
G1 X111.020 Y93.800 E0.5515
G1 X113.460 Y93.800 E0.6070
G1 X113.460 Y95.400 E0.6434
G1 X111.020 Y95.400 E0.6989
G1 X111.020 Y97.000 E0.7353
G1 X113.460 Y97.000 E0.7908
G1 X113.460 Y98.600 E0.8272
G1 X111.020 Y98.600 E0.8827
G1 X111.020 Y100.200 E0.9191
G1 X113.460 Y100.200 E0.9746
G1 X113.460 Y101.800 E1.0110
G1 X111.020 Y101.800 E1.0665
G1 X111.020 Y103.400 E1.1029
G1 X113.460 Y103.400 E1.1584
G1 X113.460 Y105.000 E1.1948
G1 X111.020 Y105.000 E1.2503
G1 X111.020 Y106.600 E1.2867
G1 X113.460 Y106.600 E1.3422
G1 X113.460 Y108.200 E1.3786
G1 X111.020 Y108.200 E1.4341
G1 X111.020 Y109.800 E1.4705
G1 X113.260 Y109.800 E1.5215
G1 X113.460 Y109.800 F960
G92 E0
G1 E-1.5000 F1800
; layer 2, Z = 0.209
M106 S255
; tool H0.095 W0.480
; outer perimeter
G1 X114.760 Y126.365 F4800
G1 Z0.209 F1002
G1 E0.0000 F1800
G92 E0
G1 X121.010 Y126.365 E0.1185 F1920
G1 X121.010 Y126.885 E0.1283
G1 X114.240 Y126.885 E0.2567
G1 X114.240 Y84.365 E1.0628
G1 X135.760 Y84.365 E1.4708
G1 X135.760 Y126.885 E2.2769
G1 X128.990 Y126.885 E2.4052
G1 X128.990 Y126.365 E2.4151
G1 X135.240 Y126.365 E2.5336
G1 X135.240 Y84.885 E3.3200
G1 X114.760 Y84.885 E3.7082
G1 X114.760 Y126.165 E4.4908
G1 X114.760 Y126.365 F1920
G92 E0
G1 X116.760 Y126.365 E-1.5000 F2400
; support
G1 X128.210 Y125.800 F4800
G1 E0.0000 F1800
G92 E0
G1 X121.790 Y125.800 E0.1217 F1920
G1 X121.790 Y125.585 E0.1258
G1 X115.540 Y125.585 E0.2443
G1 X115.540 Y124.200 E0.2705
G1 X134.460 Y124.200 E0.6292
G1 X134.460 Y122.600 E0.6596
G1 X115.540 Y122.600 E1.0182
G1 X115.540 Y121.000 E1.0486
G1 X134.460 Y121.000 E1.4073
G1 X134.460 Y119.400 E1.4376
G1 X115.540 Y119.400 E1.7963
G1 X115.540 Y117.800 E1.8266
G1 X134.460 Y117.800 E2.1853
G1 X134.460 Y116.200 E2.2157
G1 X115.540 Y116.200 E2.5743
G1 X115.540 Y114.600 E2.6047
G1 X134.460 Y114.600 E2.9634
G1 X134.460 Y113.000 E2.9937
G1 X115.540 Y113.000 E3.3524
G1 X115.540 Y111.400 E3.3827
G1 X134.460 Y111.400 E3.7414
G1 X134.460 Y109.800 E3.7717
G1 X115.540 Y109.800 E4.1304
G1 X115.540 Y108.200 E4.1608
G1 X134.460 Y108.200 E4.5195
G1 X134.460 Y106.600 E4.5498
G1 X115.540 Y106.600 E4.9085
G1 X115.540 Y105.000 E4.9388
G1 X134.460 Y105.000 E5.2975
G1 X134.460 Y103.400 E5.3278
G1 X115.540 Y103.400 E5.6865
G1 X115.540 Y101.800 E5.7169
G1 X134.460 Y101.800 E6.0756
G1 X134.460 Y100.200 E6.1059
G1 X115.540 Y100.200 E6.4646
G1 X115.540 Y98.600 E6.4949
G1 X134.460 Y98.600 E6.8536
G1 X134.460 Y97.000 E6.8839
G1 X115.540 Y97.000 E7.2426
G1 X115.540 Y95.400 E7.2730
G1 X134.460 Y95.400 E7.6317
G1 X134.460 Y93.800 E7.6620
G1 X115.540 Y93.800 E8.0207
G1 X115.540 Y92.200 E8.0510
G1 X134.460 Y92.200 E8.4097
G1 X134.460 Y90.600 E8.4400
G1 X115.540 Y90.600 E8.7987
G1 X115.540 Y89.000 E8.8291
G1 X134.460 Y89.000 E9.1877
G1 X134.460 Y87.400 E9.2181
G1 X115.740 Y87.400 E9.5730
G1 X115.540 Y87.400 F1920
G92 E0
G1 E-1.5000 F1800
G1 X111.020 Y84.200 F4800
G1 E0.0000 F1800
G92 E0
G1 X113.460 Y84.200 E0.0463 F1920
G1 X113.460 Y85.800 E0.0766
G1 X111.020 Y85.800 E0.1228
G1 X111.020 Y87.400 E0.1532
G1 X113.460 Y87.400 E0.1994
G1 X113.460 Y89.000 E0.2298
G1 X111.020 Y89.000 E0.2760
G1 X111.020 Y90.600 E0.3064
G1 X113.460 Y90.600 E0.3526
G1 X113.460 Y92.200 E0.3830
G1 X111.020 Y92.200 E0.4292
G1 X111.020 Y93.800 E0.4595
G1 X113.460 Y93.800 E0.5058
G1 X113.460 Y95.400 E0.5361
G1 X111.020 Y95.400 E0.5824
G1 X111.020 Y97.000 E0.6127
G1 X113.460 Y97.000 E0.6590
G1 X113.460 Y98.600 E0.6893
G1 X111.020 Y98.600 E0.7356
G1 X111.020 Y100.200 E0.7659
G1 X113.460 Y100.200 E0.8122
G1 X113.460 Y101.800 E0.8425
G1 X111.020 Y101.800 E0.8888
G1 X111.020 Y103.400 E0.9191
G1 X113.460 Y103.400 E0.9654
G1 X113.460 Y105.000 E0.9957
G1 X111.020 Y105.000 E1.0419
G1 X111.020 Y106.600 E1.0723
G1 X113.460 Y106.600 E1.1185
G1 X113.460 Y108.200 E1.1489
G1 X111.020 Y108.200 E1.1951
G1 X111.020 Y109.800 E1.2255
G1 X113.260 Y109.800 E1.2679
G1 X113.460 Y109.800 F1920
G92 E0
G1 E-1.5000 F1800
G1 X138.980 Y109.800 F4800
G1 E0.0000 F1800
G92 E0
G1 X136.540 Y109.800 E0.0463 F1920
G1 X136.540 Y108.200 E0.0766
G1 X138.980 Y108.200 E0.1229
G1 X138.980 Y106.600 E0.1532
G1 X136.540 Y106.600 E0.1994
G1 X136.540 Y105.000 E0.2298
G1 X138.980 Y105.000 E0.2760
G1 X138.980 Y103.400 E0.3064
G1 X136.540 Y103.400 E0.3526
G1 X136.540 Y101.800 E0.3830
G1 X138.980 Y101.800 E0.4292
G1 X138.980 Y100.200 E0.4596
G1 X136.540 Y100.200 E0.5058
G1 X136.540 Y98.600 E0.5361
G1 X138.980 Y98.600 E0.5824
G1 X138.980 Y97.000 E0.6127
G1 X136.540 Y97.000 E0.6590
G1 X136.540 Y95.400 E0.6893
G1 X138.980 Y95.400 E0.7356
G1 X138.980 Y93.800 E0.7659
G1 X136.540 Y93.800 E0.8122
G1 X136.540 Y92.200 E0.8425
G1 X138.980 Y92.200 E0.8888
G1 X138.980 Y90.600 E0.9191
G1 X136.540 Y90.600 E0.9654
G1 X136.540 Y89.000 E0.9957
G1 X138.980 Y89.000 E1.0420
G1 X138.980 Y87.400 E1.0723
G1 X136.540 Y87.400 E1.1185
G1 X136.540 Y85.800 E1.1489
G1 X138.980 Y85.800 E1.1951
G1 X138.980 Y84.200 E1.2255
G1 X136.740 Y84.200 E1.2679
G1 X136.540 Y84.200 F1920
G92 E0
G1 E-1.5000 F1800
; layer 3, Z = 0.304
; outer perimeter
G1 X135.760 Y84.365 F4800
G1 Z0.304 F1002
G1 E0.0000 F1800
G92 E0
G1 X135.760 Y126.885 E0.8061 F1920
